; G-Code generated by Simplify3D(R) Version 4.0.0
; Dec 31, 2020 at 2:34:09 PM
; Settings Summary
;   processName,Process1
;   applyToModels,3D_test_V3_0.4mm
;   profileName,new profile (modified)
;   profileVersion,2020-09-07 14:01:24
;   baseProfile,Default (modified)
;   printMaterial,PLA
;   printQuality,Medium
;   printExtruders,
;   extruderName,Primary Extruder
;   extruderToolheadNumber,0
;   extruderDiameter,0.4
;   extruderAutoWidth,0
;   extruderWidth,0.4
;   extrusionMultiplier,0.9
;   extruderUseRetract,1
;   extruderRetractionDistance,1
;   extruderExtraRestartDistance,0
;   extruderRetractionZLift,0
;   extruderRetractionSpeed,1800
;   extruderUseCoasting,0
;   extruderCoastingDistance,0.2
;   extruderUseWipe,0
;   extruderWipeDistance,5
;   primaryExtruder,0
;   layerHeight,0.3
;   topSolidLayers,3
;   bottomSolidLayers,3
;   perimeterOutlines,2
;   printPerimetersInsideOut,1
;   startPointOption,2
;   startPointOriginX,0
;   startPointOriginY,0
;   sequentialIslands,0
;   spiralVaseMode,0
;   firstLayerHeightPercentage,90
;   firstLayerWidthPercentage,103
;   firstLayerUnderspeed,0.5
;   useRaft,0
;   raftExtruder,0
;   raftTopLayers,3
;   raftBaseLayers,2
;   raftOffset,3
;   raftSeparationDistance,0.14
;   raftTopInfill,100
;   aboveRaftSpeedMultiplier,0.3
;   useSkirt,0
;   skirtExtruder,0
;   skirtLayers,1
;   skirtOutlines,2
;   skirtOffset,4
;   usePrimePillar,0
;   primePillarExtruder,999
;   primePillarWidth,12
;   primePillarLocation,7
;   primePillarSpeedMultiplier,1
;   useOozeShield,0
;   oozeShieldExtruder,999
;   oozeShieldOffset,2
;   oozeShieldOutlines,1
;   oozeShieldSidewallShape,1
;   oozeShieldSidewallAngle,30
;   oozeShieldSpeedMultiplier,1
;   infillExtruder,0
;   internalInfillPattern,Rectilinear
;   externalInfillPattern,Rectilinear
;   infillPercentage,20
;   outlineOverlapPercentage,15
;   infillExtrusionWidthPercentage,100
;   minInfillLength,5
;   infillLayerInterval,1
;   internalInfillAngles,45,-45
;   overlapInternalInfillAngles,0
;   externalInfillAngles,45,-45
;   generateSupport,0
;   supportExtruder,0
;   supportInfillPercentage,30
;   supportExtraInflation,0
;   supportBaseLayers,0
;   denseSupportExtruder,0
;   denseSupportLayers,0
;   denseSupportInfillPercentage,70
;   supportLayerInterval,1
;   supportHorizontalPartOffset,0.3
;   supportUpperSeparationLayers,1
;   supportLowerSeparationLayers,1
;   supportType,0
;   supportGridSpacing,4
;   maxOverhangAngle,45
;   supportAngles,0
;   temperatureName,Primary Extruder,Hot Bed
;   temperatureNumber,0,1
;   temperatureSetpointCount,1,1
;   temperatureSetpointLayers,1,1
;   temperatureSetpointTemperatures,210,60
;   temperatureStabilizeAtStartup,1,0
;   temperatureHeatedBed,0,1
;   temperatureRelayBetweenLayers,0,0
;   temperatureRelayBetweenLoops,0,0
;   fanLayers,1,2
;   fanSpeeds,0,100
;   blipFanToFullPower,0
;   adjustSpeedForCooling,1
;   minSpeedLayerTime,15
;   minCoolingSpeedSlowdown,20
;   increaseFanForCooling,0
;   minFanLayerTime,45
;   maxCoolingFanSpeed,100
;   increaseFanForBridging,0
;   bridgingFanSpeed,100
;   use5D,1
;   relativeEdistances,0
;   allowEaxisZeroing,1
;   independentExtruderAxes,0
;   includeM10123,0
;   stickySupport,1
;   applyToolheadOffsets,0
;   gcodeXoffset,-0.03
;   gcodeYoffset,-0.03
;   gcodeZoffset,0
;   overrideMachineDefinition,0
;   machineTypeOverride,0
;   strokeXoverride,200
;   strokeYoverride,200
;   strokeZoverride,200
;   originOffsetXoverride,0
;   originOffsetYoverride,0
;   originOffsetZoverride,0
;   homeXdirOverride,-1
;   homeYdirOverride,-1
;   homeZdirOverride,-1
;   flipXoverride,1
;   flipYoverride,-1
;   flipZoverride,1
;   toolheadOffsets,0,0|0,0|0,0|0,0|0,0|0,0
;   overrideFirmwareConfiguration,0
;   firmwareTypeOverride,RepRap (Marlin/Repetier/Sprinter)
;   GPXconfigOverride,r2
;   baudRateOverride,115200
;   overridePrinterModels,0
;   printerModelsOverride
;   startingGcode,G28 ; home all axes,G1 X3 Y5 Z0.2 F3000 ; get ready to prime,G92 E0 ; reset extrusion distance,G1 Y150 E20 F600 ; prime nozzle
;   layerChangeGcode,
;   retractionGcode,
;   toolChangeGcode,
;   endingGcode,M104 S0 ; turn off extruder,M140 S0 ; turn off bedG1 X0 Y0; home,M84 ; disable motors,M107 ; fan off,G28 X Y; Home,M18; Disable steppers
;   exportFileFormat,gcode
;   celebration,0
;   celebrationSong,Random Song
;   postProcessing,
;   defaultSpeed,4600
;   outlineUnderspeed,0.5
;   solidInfillUnderspeed,0.8
;   supportUnderspeed,0.8
;   rapidXYspeed,4800
;   rapidZspeed,1000
;   minBridgingArea,50
;   bridgingExtraInflation,0
;   bridgingExtrusionMultiplier,1
;   bridgingSpeedMultiplier,1
;   useFixedBridgingAngle,0
;   fixedBridgingAngle,0
;   applyBridgingToPerimeters,0
;   filamentDiameters,1.75|1.75|1.75|1.75|1.75|1.75
;   filamentPricesPerKg,46|46|46|46|46|46
;   filamentDensities,1.25|1.25|1.25|1.25|1.25|1.25
;   useMinPrintHeight,0
;   minPrintHeight,0
;   useMaxPrintHeight,0
;   maxPrintHeight,0
;   useDiaphragm,0
;   diaphragmLayerInterval,20
;   robustSlicing,1
;   mergeAllIntoSolid,0
;   onlyRetractWhenCrossingOutline,1
;   retractBetweenLayers,1
;   useRetractionMinTravel,0
;   retractionMinTravel,3
;   retractWhileWiping,0
;   onlyWipeOutlines,1
;   avoidCrossingOutline,0
;   maxMovementDetourFactor,3
;   toolChangeRetractionDistance,12
;   toolChangeExtraRestartDistance,-0.5
;   toolChangeRetractionSpeed,600
;   externalThinWallType,1
;   internalThinWallType,1
;   thinWallAllowedOverlapPercentage,10
;   singleExtrusionMinLength,1
;   singleExtrusionMinPrintingWidthPercentage,50
;   singleExtrusionMaxPrintingWidthPercentage,200
;   singleExtrusionEndpointExtension,0.2
;   horizontalSizeCompensation,0
G90
M82
M106 S0
M140 S60
M104 S210 T0
M109 S210 T0
G28 ; home all axes
G1 X3 Y5 Z0.2 F3000 ; get ready to prime
G92 E0 ; reset extrusion distance
G1 Y150 E20 F600 ; prime nozzle
G92 E0
G1 E-1.0000 F1800
G1 Z0.270 F1000
; process Process1
; layer 1, Z = 0.270
T0
; tool H0.300 W0.412
; inner perimeter
G1 X80.243 Y83.609 F4800
G1 E0.0000 F540
G92 E0
G1 X80.764 Y84.080 E0.0325 F1725
G1 X81.628 Y84.713 E0.0820
G1 X82.170 Y85.016 E0.1107
G1 X82.771 Y85.189 E0.1397
G1 X83.391 Y84.971 E0.1700
G1 X83.728 Y84.459 E0.1984
G1 X83.906 Y83.716 E0.2337
G1 X84.024 Y82.734 E0.2795
G1 X84.164 Y82.012 E0.3135
G1 X84.796 Y82.542 E0.3516
G1 X86.841 Y84.652 E0.4875
G1 X87.837 Y85.381 E0.5446
G1 X88.622 Y85.428 E0.5810
G1 X89.108 Y84.814 E0.6172
G1 X89.235 Y83.581 E0.6745
G1 X89.034 Y80.649 E0.8104
G1 X89.059 Y79.957 E0.8424
G1 X89.264 Y79.872 E0.8527
G1 X89.476 Y79.976 E0.8636
G1 X90.657 Y80.759 E0.9291
G1 X91.531 Y81.131 E0.9731
G1 X92.142 Y81.069 E1.0015
G1 X92.608 Y80.672 E1.0298
G1 X92.887 Y79.844 E1.0702
G1 X93.018 Y78.761 E1.1206
G1 X93.107 Y78.281 E1.1432
G1 X94.478 Y77.713 E1.2119
G1 X94.599 Y77.716 E1.2175
G1 X97.195 Y78.114 E1.3389
G1 X98.405 Y78.146 E1.3949
G1 X99.003 Y77.993 E1.4235
G1 X99.513 Y77.633 E1.4523
G1 X99.966 Y76.747 E1.4983
G1 X100.130 Y75.779 E1.5437
G1 X100.180 Y75.351 E1.5637
G1 X100.898 Y75.053 E1.5996
G1 X101.870 Y75.655 E1.6525
G1 X102.353 Y75.869 E1.6769
G1 X103.085 Y76.005 E1.7113
G1 X103.828 Y75.940 E1.7459
G1 X105.058 Y75.593 E1.8049
G1 X106.095 Y75.159 E1.8569
G1 X107.084 Y74.634 E1.9087
G1 X108.030 Y74.010 E1.9611
G1 X108.949 Y73.251 E2.0162
G1 X110.608 Y71.556 E2.1259
G1 X111.210 Y70.782 E2.1713
G1 X113.970 Y69.639 E2.3094
G1 X123.447 Y73.564 E2.7838
G1 X121.838 Y77.354 E2.9742
G1 X122.665 Y77.705 E3.0158
G1 X119.376 Y81.540 E3.2494
G1 X113.970 Y79.301 E3.5201
G1 X85.920 Y90.920 E4.9242
G1 X74.301 Y118.970 E6.3284
G1 X83.388 Y140.908 E7.4266
G1 X83.497 Y141.789 E7.4676
G1 X83.686 Y142.883 E7.5190
G1 X83.930 Y143.966 E7.5703
G1 X84.226 Y145.036 E7.6216
G1 X84.574 Y146.090 E7.6730
G1 X84.974 Y147.126 E7.7243
G1 X85.423 Y148.140 E7.7757
G1 X85.923 Y149.132 E7.8270
G1 X86.470 Y150.098 E7.8784
G1 X87.064 Y151.036 E7.9297
G1 X87.703 Y151.944 E7.9810
G1 X88.386 Y152.819 E8.0324
G1 X89.111 Y153.659 E8.0837
G1 X89.877 Y154.464 E8.1351
G1 X90.681 Y155.229 E8.1864
G1 X91.521 Y155.954 E8.2377
G1 X92.396 Y156.637 E8.2891
G1 X93.304 Y157.276 E8.3404
G1 X94.242 Y157.870 E8.3918
G1 X95.208 Y158.417 E8.4431
G1 X96.199 Y158.917 E8.4945
G1 X97.214 Y159.366 E8.5458
G1 X98.250 Y159.766 E8.5972
G1 X99.304 Y160.114 E8.6485
G1 X100.374 Y160.410 E8.6998
G1 X101.457 Y160.654 E8.7512
G1 X102.551 Y160.843 E8.8025
G1 X103.653 Y160.979 E8.8539
G1 X104.760 Y161.061 E8.9052
G1 X105.870 Y161.088 E8.9566
G1 X106.980 Y161.061 E9.0079
G1 X108.087 Y160.979 E9.0592
G1 X109.189 Y160.843 E9.1106
G1 X110.283 Y160.654 E9.1619
G1 X111.366 Y160.410 E9.2133
G1 X112.436 Y160.114 E9.2646
G1 X113.490 Y159.766 E9.3160
G1 X114.526 Y159.366 E9.3673
G1 X115.541 Y158.917 E9.4186
G1 X116.532 Y158.417 E9.4700
G1 X117.498 Y157.870 E9.5213
G1 X118.436 Y157.276 E9.5727
G1 X119.344 Y156.637 E9.6240
G1 X119.955 Y156.160 E9.6599
G1 X142.020 Y147.020 E10.7644
G1 X153.639 Y118.970 E12.1686
G1 X142.020 Y90.920 E13.5727
G1 X125.036 Y83.885 E14.4230
G1 X125.068 Y83.606 E14.4359
G1 X125.297 Y83.569 E14.4466
G1 X125.587 Y83.467 E14.4608
G1 X125.917 Y83.241 E14.4793
G1 X126.118 Y83.012 E14.4934
G1 X126.295 Y82.679 E14.5109
G1 X126.375 Y82.355 E14.5263
G1 X126.385 Y82.102 E14.5380
G1 X126.357 Y81.930 E14.5461
G1 X126.630 Y81.748 E14.5613
G1 X126.825 Y81.560 E14.5738
G1 X126.988 Y81.330 E14.5868
G1 X127.114 Y81.058 E14.6007
G1 X127.195 Y80.735 E14.6161
G1 X127.204 Y80.330 E14.6348
G1 X127.074 Y79.799 E14.6601
G1 X127.190 Y79.700 E14.6672
G1 X127.220 Y79.639 E14.6703
G1 X128.225 Y80.065 E14.7208
G1 X129.136 Y80.452 E14.7666
G1 X129.972 Y80.807 E14.8086
G1 X131.610 Y76.946 E15.0026
G1 X148.852 Y84.088 E15.8657
G1 X156.305 Y102.079 E16.7663
G1 X156.117 Y102.255 E16.7782
G1 X154.829 Y101.619 E16.8446
G1 X154.515 Y99.458 E16.9456
G1 X153.784 Y99.220 E16.9812
G1 X152.260 Y100.784 E17.0822
G1 X150.099 Y100.414 E17.1836
G1 X150.031 Y100.198 E17.1940
G1 X153.474 Y96.771 E17.4187
G1 X152.834 Y95.333 E17.4915
G1 X150.401 Y95.538 E17.6044
G1 X150.323 Y95.234 E17.6189
G1 X152.382 Y94.317 E17.7232
G1 X151.614 Y92.594 E17.8104
G1 X149.019 Y93.749 E17.9418
G1 X148.887 Y93.450 E17.9569
G1 X148.942 Y93.316 E17.9636
G1 X149.020 Y93.233 E17.9689
G1 X149.190 Y93.119 E17.9783
G1 X151.407 Y92.127 E18.0907
G1 X150.603 Y90.323 E18.1820
G1 X150.577 Y90.176 E18.1889
G1 X150.471 Y89.869 E18.2039
G1 X150.308 Y89.538 E18.2210
G1 X150.127 Y89.295 E18.2350
G1 X149.943 Y89.119 E18.2468
G1 X149.585 Y88.903 E18.2661
G1 X149.511 Y87.985 E18.3087
G1 X149.429 Y87.620 E18.3260
G1 X149.325 Y87.305 E18.3414
G1 X149.193 Y87.003 E18.3566
G1 X149.014 Y86.691 E18.3732
G1 X148.783 Y86.392 E18.3907
G1 X148.562 Y86.174 E18.4051
G1 X148.212 Y85.927 E18.4249
G1 X147.896 Y85.780 E18.4410
G1 X147.484 Y85.675 E18.4607
G1 X147.201 Y85.651 E18.4738
G1 X146.807 Y85.676 E18.4921
G1 X146.468 Y85.753 E18.5082
G1 X146.141 Y85.875 E18.5243
G1 X145.825 Y86.043 E18.5408
G1 X145.552 Y86.241 E18.5564
G1 X145.439 Y86.341 E18.5634
G1 X145.159 Y86.658 E18.5830
G1 X144.938 Y87.004 E18.6019
G1 X144.643 Y86.865 E18.6170
G1 X144.790 Y86.412 E18.6390
G1 X144.856 Y86.113 E18.6532
G1 X144.891 Y85.809 E18.6674
G1 X144.897 Y85.503 E18.6815
G1 X144.873 Y85.197 E18.6957
G1 X144.819 Y84.896 E18.7098
G1 X144.736 Y84.602 E18.7240
G1 X144.624 Y84.317 E18.7381
G1 X144.485 Y84.044 E18.7523
G1 X144.320 Y83.786 E18.7664
G1 X144.130 Y83.546 E18.7806
G1 X143.914 Y83.322 E18.7950
G1 X143.681 Y83.124 E18.8091
G1 X143.430 Y82.949 E18.8233
G1 X143.162 Y82.801 E18.8375
G1 X142.882 Y82.679 E18.8516
G1 X142.590 Y82.585 E18.8658
G1 X142.299 Y82.521 E18.8796
G1 X142.137 Y82.498 E18.8871
G1 X141.835 Y82.478 E18.9011
G1 X141.529 Y82.488 E18.9153
G1 X141.225 Y82.527 E18.9295
G1 X140.927 Y82.596 E18.9436
G1 X140.637 Y82.694 E18.9578
G1 X140.358 Y82.820 E18.9719
G1 X140.093 Y82.973 E18.9861
G1 X139.609 Y83.319 E19.0136
G1 X139.516 Y82.710 E19.0421
G1 X139.342 Y82.227 E19.0658
G1 X139.076 Y81.787 E19.0896
G1 X138.726 Y81.405 E19.1135
G1 X138.318 Y81.105 E19.1370
G1 X137.959 Y80.927 E19.1555
G1 X137.474 Y80.783 E19.1789
G1 X136.962 Y80.735 E19.2027
G1 X136.451 Y80.788 E19.2264
G1 X135.960 Y80.940 E19.2502
G1 X135.509 Y81.185 E19.2739
G1 X135.370 Y81.300 E19.2823
G1 X135.165 Y81.218 E19.2925
G1 X135.148 Y81.074 E19.2992
G1 X135.050 Y80.754 E19.3147
G1 X134.837 Y80.350 E19.3358
G1 X134.539 Y80.001 E19.3570
G1 X134.288 Y79.797 E19.3720
G1 X134.009 Y79.633 E19.3869
G1 X133.580 Y79.477 E19.4080
G1 X133.116 Y79.418 E19.4296
G1 X132.651 Y79.461 E19.4513
G1 X132.217 Y79.602 E19.4724
G1 X131.923 Y79.762 E19.4879
G1 X131.571 Y80.047 E19.5088
G1 X131.281 Y80.414 E19.5304
G1 X131.078 Y80.835 E19.5521
G1 X130.975 Y81.280 E19.5732
G1 X130.960 Y81.614 E19.5887
G1 X131.020 Y82.036 E19.6083
G1 X131.045 Y82.131 E19.6129
G1 X131.150 Y82.419 E19.6271
G1 X131.376 Y82.803 E19.6477
G1 X131.599 Y83.057 E19.6633
G1 X131.957 Y83.340 E19.6844
G1 X132.368 Y83.537 E19.7055
G1 X132.692 Y83.624 E19.7210
G1 X133.147 Y83.660 E19.7421
G1 X133.598 Y83.595 E19.7632
G1 X133.915 Y83.488 E19.7787
G1 X134.323 Y83.259 E19.8003
G1 X134.437 Y84.003 E19.8351
G1 X134.612 Y84.486 E19.8588
G1 X134.877 Y84.926 E19.8826
G1 X135.227 Y85.308 E19.9066
G1 X135.641 Y85.612 E19.9303
G1 X136.107 Y85.829 E19.9541
G1 X136.606 Y85.951 E19.9779
G1 X137.119 Y85.973 E20.0016
G1 X137.627 Y85.895 E20.0254
G1 X138.110 Y85.719 E20.0491
G1 X138.657 Y85.388 E20.0787
G1 X138.671 Y85.843 E20.0998
G1 X138.710 Y86.146 E20.1140
G1 X138.779 Y86.444 E20.1281
G1 X138.876 Y86.735 E20.1423
G1 X139.002 Y87.014 E20.1564
G1 X139.154 Y87.279 E20.1706
G1 X139.336 Y87.535 E20.1851
G1 X139.640 Y87.865 E20.2058
G1 X139.879 Y88.068 E20.2203
G1 X140.130 Y88.243 E20.2345
G1 X140.398 Y88.392 E20.2486
G1 X140.678 Y88.514 E20.2628
G1 X140.970 Y88.608 E20.2770
G1 X141.269 Y88.673 E20.2911
G1 X141.573 Y88.708 E20.3053
G1 X141.879 Y88.713 E20.3194
G1 X142.184 Y88.689 E20.3336
G1 X142.485 Y88.634 E20.3477
G1 X142.779 Y88.550 E20.3619
G1 X143.064 Y88.438 E20.3760
G1 X143.336 Y88.299 E20.3902
G1 X143.594 Y88.133 E20.4044
G1 X143.833 Y87.943 E20.4185
G1 X144.051 Y87.734 E20.4324
G1 X144.249 Y87.501 E20.4466
G1 X144.424 Y87.250 E20.4607
G1 X144.614 Y86.910 E20.4788
G1 X144.920 Y87.039 E20.4941
G1 X144.783 Y87.501 E20.5164
G1 X144.742 Y87.753 E20.5282
G1 X144.735 Y88.210 E20.5493
G1 X144.815 Y88.678 E20.5713
G1 X144.894 Y88.935 E20.5837
G1 X145.025 Y89.250 E20.5995
G1 X145.199 Y89.565 E20.6162
G1 X145.302 Y89.716 E20.6246
G1 X145.533 Y90.234 E20.6508
G1 X144.921 Y90.506 E20.6818
G1 X145.253 Y92.407 E20.7710
G1 X146.294 Y91.944 E20.8237
G1 X146.722 Y92.904 E20.8723
G1 X146.748 Y92.964 E20.8753
G1 X147.155 Y93.878 E20.9216
G1 X147.158 Y93.907 E20.9230
G1 X147.244 Y94.233 E20.9386
G1 X147.357 Y94.489 E20.9515
G1 X145.983 Y95.101 E21.0211
G1 X146.751 Y96.824 E21.1083
G1 X146.984 Y96.720 E21.1202
G1 X147.417 Y97.693 E21.1694
G1 X149.807 Y97.464 E21.2804
G1 X149.917 Y97.703 E21.2926
G1 X148.173 Y99.389 E21.4048
G1 X148.993 Y101.231 E21.4981
G1 X149.495 Y100.732 E21.5308
G1 X150.672 Y102.970 E21.6478
G1 X149.655 Y104.903 E21.7488
G1 X150.107 Y105.525 E21.7843
G1 X152.260 Y105.156 E21.8854
G1 X153.712 Y106.646 E21.9816
G1 X150.932 Y110.472 E22.2003
G1 X152.870 Y114.824 E22.4206
G1 X157.608 Y115.322 E22.6410
G1 X160.141 Y111.835 E22.8403
G1 X160.356 Y111.861 E22.8503
G1 X163.301 Y118.970 E23.2062
G1 X148.852 Y153.852 E24.9523
G1 X113.970 Y168.301 E26.6985
G1 X80.353 Y154.377 E28.3813
G1 X80.353 Y154.129 E28.3928
G1 X83.985 Y152.625 E28.5745
G1 X82.364 Y148.711 E28.7704
G1 X77.750 Y150.622 E29.0014
G1 X64.639 Y118.970 E30.5859
G1 X79.088 Y84.088 E32.3320
G1 X80.243 Y83.609 E32.3899
G92 E0
G1 E-1.0000 F1800
G1 X121.065 Y82.240 F4800
G1 E0.0000 F1800
G92 E0
G1 X121.975 Y81.156 E0.0655 F1725
G1 X122.224 Y81.255 E0.0779
G1 X122.134 Y82.683 E0.1440
G1 X121.065 Y82.240 E0.1975
G92 E0
G1 E-1.0000 F1800
G1 X146.495 Y88.060 F4800
G1 E0.0000 F1800
G92 E0
G1 X146.522 Y87.964 E0.0046 F1725
G1 X146.580 Y87.853 E0.0104
G1 X146.721 Y87.715 E0.0196
G1 X146.749 Y87.694 E0.0212
G1 X146.889 Y87.619 E0.0285
G1 X147.056 Y87.561 E0.0367
G1 X147.095 Y87.553 E0.0385
G1 X147.221 Y87.546 E0.0443
G1 X147.355 Y87.570 E0.0506
