; G-Code generated by Simplify3D(R) Version 4.0.0
; Oct 19, 2020 at 8:37:29 PM
; Settings Summary
;   processName,Process1
;   applyToModels,3_mal_ssd_adapterV2,3_mal_ssd_adapterV2(2),3_mal_ssd_adapterV2(3),3_mal_ssd_adapterV2(4)
;   profileName,new profile
;   profileVersion,2020-09-07 14:01:24
;   baseProfile,Default (modified)
;   printMaterial,PLA
;   printQuality,Medium
;   printExtruders,
;   extruderName,Primary Extruder
;   extruderToolheadNumber,0
;   extruderDiameter,0.4
;   extruderAutoWidth,0
;   extruderWidth,0.4
;   extrusionMultiplier,0.9
;   extruderUseRetract,1
;   extruderRetractionDistance,1
;   extruderExtraRestartDistance,0
;   extruderRetractionZLift,0
;   extruderRetractionSpeed,1800
;   extruderUseCoasting,0
;   extruderCoastingDistance,0.2
;   extruderUseWipe,0
;   extruderWipeDistance,5
;   primaryExtruder,0
;   layerHeight,0.3
;   topSolidLayers,3
;   bottomSolidLayers,3
;   perimeterOutlines,2
;   printPerimetersInsideOut,1
;   startPointOption,2
;   startPointOriginX,0
;   startPointOriginY,0
;   sequentialIslands,0
;   spiralVaseMode,0
;   firstLayerHeightPercentage,100
;   firstLayerWidthPercentage,100
;   firstLayerUnderspeed,0.5
;   useRaft,0
;   raftExtruder,0
;   raftTopLayers,3
;   raftBaseLayers,2
;   raftOffset,3
;   raftSeparationDistance,0.14
;   raftTopInfill,100
;   aboveRaftSpeedMultiplier,0.3
;   useSkirt,0
;   skirtExtruder,0
;   skirtLayers,1
;   skirtOutlines,2
;   skirtOffset,4
;   usePrimePillar,0
;   primePillarExtruder,999
;   primePillarWidth,12
;   primePillarLocation,7
;   primePillarSpeedMultiplier,1
;   useOozeShield,0
;   oozeShieldExtruder,999
;   oozeShieldOffset,2
;   oozeShieldOutlines,1
;   oozeShieldSidewallShape,1
;   oozeShieldSidewallAngle,30
;   oozeShieldSpeedMultiplier,1
;   infillExtruder,0
;   internalInfillPattern,Rectilinear
;   externalInfillPattern,Rectilinear
;   infillPercentage,15
;   outlineOverlapPercentage,15
;   infillExtrusionWidthPercentage,100
;   minInfillLength,5
;   infillLayerInterval,1
;   internalInfillAngles,45,-45
;   overlapInternalInfillAngles,0
;   externalInfillAngles,45,-45
;   generateSupport,0
;   supportExtruder,0
;   supportInfillPercentage,30
;   supportExtraInflation,0
;   supportBaseLayers,0
;   denseSupportExtruder,0
;   denseSupportLayers,0
;   denseSupportInfillPercentage,70
;   supportLayerInterval,1
;   supportHorizontalPartOffset,0.3
;   supportUpperSeparationLayers,1
;   supportLowerSeparationLayers,1
;   supportType,1
;   supportGridSpacing,4
;   maxOverhangAngle,45
;   supportAngles,0
;   temperatureName,Primary Extruder,Hot Bed
;   temperatureNumber,0,1
;   temperatureSetpointCount,1,1
;   temperatureSetpointLayers,1,1
;   temperatureSetpointTemperatures,210,60
;   temperatureStabilizeAtStartup,1,0
;   temperatureHeatedBed,0,1
;   temperatureRelayBetweenLayers,0,0
;   temperatureRelayBetweenLoops,0,0
;   fanLayers,1,2
;   fanSpeeds,0,100
;   blipFanToFullPower,0
;   adjustSpeedForCooling,1
;   minSpeedLayerTime,15
;   minCoolingSpeedSlowdown,20
;   increaseFanForCooling,0
;   minFanLayerTime,45
;   maxCoolingFanSpeed,100
;   increaseFanForBridging,0
;   bridgingFanSpeed,100
;   use5D,1
;   relativeEdistances,0
;   allowEaxisZeroing,1
;   independentExtruderAxes,0
;   includeM10123,0
;   stickySupport,1
;   applyToolheadOffsets,0
;   gcodeXoffset,0
;   gcodeYoffset,0
;   gcodeZoffset,0
;   overrideMachineDefinition,0
;   machineTypeOverride,0
;   strokeXoverride,200
;   strokeYoverride,200
;   strokeZoverride,200
;   originOffsetXoverride,0
;   originOffsetYoverride,0
;   originOffsetZoverride,0
;   homeXdirOverride,-1
;   homeYdirOverride,-1
;   homeZdirOverride,-1
;   flipXoverride,1
;   flipYoverride,-1
;   flipZoverride,1
;   toolheadOffsets,0,0|0,0|0,0|0,0|0,0|0,0
;   overrideFirmwareConfiguration,0
;   firmwareTypeOverride,RepRap (Marlin/Repetier/Sprinter)
;   GPXconfigOverride,r2
;   baudRateOverride,115200
;   overridePrinterModels,0
;   printerModelsOverride
;   startingGcode,G28 ; home all axes,G1 X0 Y5 Z0.2 F3000 ; get ready to prime,G92 E0 ; reset extrusion distance,G1 Y150 E20 F600 ; prime nozzle
;   layerChangeGcode,
;   retractionGcode,
;   toolChangeGcode,
;   endingGcode,M104 S0 ; turn off extruder,M140 S0 ; turn off bed,M84 ; disable motors,G1 X0 Y0; home,M107 ; fan off
;   exportFileFormat,gcode
;   celebration,0
;   celebrationSong,Random Song
;   postProcessing,
;   defaultSpeed,4600
;   outlineUnderspeed,0.5
;   solidInfillUnderspeed,0.8
;   supportUnderspeed,0.8
;   rapidXYspeed,4800
;   rapidZspeed,1000
;   minBridgingArea,50
;   bridgingExtraInflation,0
;   bridgingExtrusionMultiplier,1
;   bridgingSpeedMultiplier,1
;   useFixedBridgingAngle,0
;   fixedBridgingAngle,0
;   applyBridgingToPerimeters,0
;   filamentDiameters,1.75|1.75|1.75|1.75|1.75|1.75
;   filamentPricesPerKg,46|46|46|46|46|46
;   filamentDensities,1.25|1.25|1.25|1.25|1.25|1.25
;   useMinPrintHeight,0
;   minPrintHeight,0
;   useMaxPrintHeight,0
;   maxPrintHeight,0
;   useDiaphragm,0
;   diaphragmLayerInterval,20
;   robustSlicing,1
;   mergeAllIntoSolid,0
;   onlyRetractWhenCrossingOutline,1
;   retractBetweenLayers,1
;   useRetractionMinTravel,0
;   retractionMinTravel,3
;   retractWhileWiping,0
;   onlyWipeOutlines,1
;   avoidCrossingOutline,0
;   maxMovementDetourFactor,3
;   toolChangeRetractionDistance,12
;   toolChangeExtraRestartDistance,-0.5
;   toolChangeRetractionSpeed,600
;   externalThinWallType,1
;   internalThinWallType,1
;   thinWallAllowedOverlapPercentage,10
;   singleExtrusionMinLength,1
;   singleExtrusionMinPrintingWidthPercentage,50
;   singleExtrusionMaxPrintingWidthPercentage,200
;   singleExtrusionEndpointExtension,0.2
;   horizontalSizeCompensation,0
G90
M82
M106 S0
M140 S60
M104 S210 T0
M109 S210 T0
G28 ; home all axes
G1 X0 Y5 Z0.2 F3000 ; get ready to prime
G92 E0 ; reset extrusion distance
G1 Y150 E20 F600 ; prime nozzle
G92 E0
G1 E-1.0000 F1800
G1 Z0.300 F1000
; process Process1
; layer 1, Z = 0.300
T0
; tool H0.300 W0.400
; inner perimeter
G1 X77.628 Y68.534 F4800
G1 E0.0000 F540
G92 E0
G1 X77.923 Y68.240 E0.0187 F1725
G1 X78.230 Y67.999 E0.0362
G1 X78.602 Y67.789 E0.0554
G1 X78.962 Y67.609 E0.0735
G1 X79.353 Y67.501 E0.0917
G1 X79.767 Y67.432 E0.1106
G1 X80.179 Y67.409 E0.1291
G1 X80.591 Y67.432 E0.1476
G1 X81.001 Y67.500 E0.1663
G1 X81.373 Y67.609 E0.1837
G1 X81.755 Y67.789 E0.2026
G1 X82.093 Y67.992 E0.2203
G1 X82.434 Y68.265 E0.2399
G1 X82.705 Y68.536 E0.2572
G1 X82.978 Y68.877 E0.2768
G1 X83.173 Y69.202 E0.2938
G1 X83.336 Y69.598 E0.3130
G1 X83.473 Y69.985 E0.3315
G1 X83.538 Y70.378 E0.3493
G1 X83.562 Y70.833 E0.3698
G1 X83.562 Y74.258 E0.5236
G1 X83.506 Y84.402 E0.9791
G1 X83.560 Y84.402 E0.9815
G1 X83.534 Y92.687 E1.3535
G1 X83.558 Y92.687 E1.3546
G1 X83.532 Y97.068 E1.5514
G1 X83.639 Y97.068 E1.5562
G1 X83.589 Y107.168 E2.0097
G1 X83.589 Y113.425 E2.2906
G1 X83.642 Y113.425 E2.2930
G1 X83.642 Y118.944 E2.5408
G1 X83.590 Y118.944 E2.5431
G1 X83.562 Y129.192 E3.0032
G1 X83.538 Y129.621 E3.0225
G1 X83.473 Y130.015 E3.0405
G1 X83.343 Y130.381 E3.0579
G1 X83.154 Y130.760 E3.0769
G1 X82.940 Y131.140 E3.0965
G1 X82.704 Y131.463 E3.1145
G1 X82.418 Y131.726 E3.1319
G1 X82.091 Y131.983 E3.1506
G1 X81.736 Y132.205 E3.1694
G1 X81.360 Y132.360 E3.1876
G1 X80.959 Y132.478 E3.2065
G1 X80.548 Y132.569 E3.2253
G1 X80.153 Y132.591 E3.2431
G1 X79.753 Y132.569 E3.2611
G1 X79.322 Y132.478 E3.2809
G1 X78.949 Y132.362 E3.2984
G1 X78.569 Y132.205 E3.3169
G1 X78.214 Y131.983 E3.3356
G1 X77.896 Y131.733 E3.3538
G1 X77.609 Y131.446 E3.3721
G1 X77.360 Y131.107 E3.3909
G1 X77.151 Y130.758 E3.4092
G1 X76.971 Y130.376 E3.4282
G1 X76.862 Y130.004 E3.4456
G1 X76.793 Y129.594 E3.4642
G1 X76.769 Y129.166 E3.4835
G1 X76.769 Y126.921 E3.5843
G1 X76.756 Y126.921 E3.5849
G1 X76.772 Y117.699 E3.9989
G1 X76.757 Y117.699 E3.9996
G1 X76.771 Y112.255 E4.2441
G1 X76.757 Y112.255 E4.2447
G1 X76.771 Y106.729 E4.4928
G1 X76.796 Y106.729 E4.4939
G1 X76.796 Y105.189 E4.5631
G1 X76.707 Y105.189 E4.5671
G1 X76.684 Y98.396 E4.8721
G1 X76.713 Y98.396 E4.8734
G1 X76.747 Y92.841 E5.1228
G1 X76.719 Y92.841 E5.1241
G1 X76.745 Y86.548 E5.4066
G1 X76.692 Y86.548 E5.4090
G1 X76.714 Y81.003 E5.6580
G1 X76.741 Y81.003 E5.6592
G1 X76.769 Y70.807 E6.1170
G1 X76.793 Y70.355 E6.1374
G1 X76.859 Y69.983 E6.1543
G1 X76.996 Y69.573 E6.1738
G1 X77.153 Y69.213 E6.1914
G1 X77.378 Y68.853 E6.2105
G1 X77.628 Y68.534 E6.2286
; outer perimeter
G1 X77.328 Y68.268 F4800
G92 E0
G1 X77.657 Y67.940 E0.0208 F1150
G1 X78.007 Y67.665 E0.0408
G1 X78.414 Y67.436 E0.0618
G1 X78.817 Y67.234 E0.0821
G1 X79.266 Y67.110 E0.1030
G1 X79.723 Y67.034 E0.1238
G1 X80.179 Y67.008 E0.1443
G1 X80.635 Y67.034 E0.1648
G1 X81.090 Y67.109 E0.1855
G1 X81.515 Y67.234 E0.2054
G1 X81.944 Y67.436 E0.2267
G1 X82.322 Y67.663 E0.2465
G1 X82.701 Y67.966 E0.2683
G1 X83.004 Y68.269 E0.2875
G1 X83.307 Y68.648 E0.3093
G1 X83.532 Y69.022 E0.3289
G1 X83.710 Y69.455 E0.3499
G1 X83.862 Y69.885 E0.3704
G1 X83.936 Y70.335 E0.3908
G1 X83.962 Y70.823 E0.4128
G1 X83.962 Y74.260 E0.5671
G1 X83.908 Y84.002 E1.0046
G1 X83.962 Y84.002 E1.0070
G1 X83.935 Y92.287 E1.3790
G1 X83.961 Y92.287 E1.3801
G1 X83.934 Y96.668 E1.5769
G1 X84.041 Y96.668 E1.5817
G1 X83.989 Y107.169 E2.0532
G1 X83.989 Y113.025 E2.3161
G1 X84.042 Y113.025 E2.3185
G1 X84.042 Y119.344 E2.6022
G1 X83.989 Y119.344 E2.6045
G1 X83.962 Y129.203 E3.0473
G1 X83.937 Y129.665 E3.0680
G1 X83.862 Y130.115 E3.0885
G1 X83.712 Y130.538 E3.1087
G1 X83.507 Y130.947 E3.1292
G1 X83.277 Y131.358 E3.1503
G1 X83.003 Y131.731 E3.1711
G1 X82.678 Y132.031 E3.1910
G1 X82.321 Y132.311 E3.2114
G1 X81.920 Y132.562 E3.2326
G1 X81.493 Y132.738 E3.2533
G1 X81.058 Y132.866 E3.2737
G1 X80.603 Y132.967 E3.2946
G1 X80.153 Y132.992 E3.3149
G1 X79.701 Y132.967 E3.3352
G1 X79.221 Y132.866 E3.3572
G1 X78.813 Y132.738 E3.3764
G1 X78.386 Y132.562 E3.3972
G1 X77.984 Y132.311 E3.4184
G1 X77.630 Y132.033 E3.4386
G1 X77.304 Y131.707 E3.4593
G1 X77.027 Y131.329 E3.4804
G1 X76.798 Y130.947 E3.5004
G1 X76.596 Y130.519 E3.5216
G1 X76.471 Y130.094 E3.5415
G1 X76.395 Y129.638 E3.5623
G1 X76.369 Y129.177 E3.5830
G1 X76.369 Y127.321 E3.6663
G1 X76.356 Y127.321 E3.6669
G1 X76.371 Y118.099 E4.0810
G1 X76.356 Y118.099 E4.0817
G1 X76.370 Y112.655 E4.3262
G1 X76.356 Y112.655 E4.3268
G1 X76.372 Y106.329 E4.6108
G1 X76.396 Y106.329 E4.6119
G1 X76.396 Y105.589 E4.6451
G1 X76.308 Y105.589 E4.6491
G1 X76.283 Y97.996 E4.9900
G1 X76.315 Y97.996 E4.9915
G1 X76.344 Y93.241 E5.2050
G1 X76.317 Y93.241 E5.2062
G1 X76.344 Y86.948 E5.4888
G1 X76.291 Y86.948 E5.4911
G1 X76.316 Y80.603 E5.7760
G1 X76.342 Y80.603 E5.7772
G1 X76.369 Y70.796 E6.2176
G1 X76.395 Y70.309 E6.2395
G1 X76.470 Y69.884 E6.2589
G1 X76.622 Y69.429 E6.2804
G1 X76.798 Y69.026 E6.3002
G1 X77.050 Y68.622 E6.3215
G1 X77.328 Y68.268 E6.3417
; inner perimeter
G1 X78.692 Y69.304 F4800
G92 E0
G1 X78.444 Y69.587 E0.0169 F1725
G1 X78.215 Y69.969 E0.0369
G1 X78.099 Y70.392 E0.0566
G1 X78.063 Y70.791 E0.0746
G1 X78.100 Y71.198 E0.0929
G1 X78.212 Y71.571 E0.1104
G1 X78.394 Y71.936 E0.1287
G1 X78.663 Y72.281 E0.1484
G1 X79.008 Y72.549 E0.1680
G1 X79.373 Y72.732 E0.1863
G1 X79.720 Y72.836 E0.2026
G1 X80.153 Y72.914 E0.2223
G1 X80.577 Y72.837 E0.2417
G1 X80.952 Y72.735 E0.2591
G1 X81.339 Y72.541 E0.2786
G1 X81.640 Y72.278 E0.2965
G1 X81.887 Y71.995 E0.3134
G1 X82.117 Y71.613 E0.3334
G1 X82.232 Y71.190 E0.3531
G1 X82.269 Y70.791 E0.3711
G1 X82.232 Y70.384 E0.3894
G1 X82.113 Y69.989 E0.4080
G1 X81.896 Y69.628 E0.4269
G1 X81.653 Y69.315 E0.4447
G1 X81.339 Y69.041 E0.4634
G1 X80.959 Y68.850 E0.4825
G1 X80.586 Y68.738 E0.5000
G1 X80.179 Y68.701 E0.5183
G1 X79.780 Y68.738 E0.5363
G1 X79.380 Y68.847 E0.5549
G1 X78.992 Y69.041 E0.5744
G1 X78.692 Y69.304 E0.5923
; outer perimeter
G1 X78.975 Y69.587 F4800
G92 E0
G1 X78.769 Y69.823 E0.0141 F1150
G1 X78.586 Y70.128 E0.0300
G1 X78.495 Y70.463 E0.0456
G1 X78.465 Y70.791 E0.0604
G1 X78.495 Y71.121 E0.0753
G1 X78.585 Y71.423 E0.0894
G1 X78.734 Y71.721 E0.1044
G1 X78.948 Y71.996 E0.1200
G1 X79.222 Y72.209 E0.1356
G1 X79.521 Y72.358 E0.1506
G1 X79.814 Y72.446 E0.1644
G1 X80.153 Y72.508 E0.1798
G1 X80.489 Y72.447 E0.1952
G1 X80.808 Y72.359 E0.2101
G1 X81.115 Y72.206 E0.2254
G1 X81.356 Y71.995 E0.2399
G1 X81.563 Y71.759 E0.2539
G1 X81.746 Y71.454 E0.2699
G1 X81.837 Y71.119 E0.2855
G1 X81.867 Y70.791 E0.3003
G1 X81.837 Y70.461 E0.3152
G1 X81.744 Y70.152 E0.3296
G1 X81.566 Y69.854 E0.3452
G1 X81.361 Y69.591 E0.3602
G1 X81.115 Y69.375 E0.3749
G1 X80.811 Y69.224 E0.3902
G1 X80.509 Y69.133 E0.4043
G1 X80.179 Y69.103 E0.4192
G1 X79.851 Y69.133 E0.4339
G1 X79.523 Y69.222 E0.4492
G1 X79.217 Y69.375 E0.4646
G1 X78.975 Y69.587 E0.4790
G92 E0
G1 E-1.0000 F1800
; inner perimeter
G1 X79.808 Y99.719 F4800
G1 E0.0000 F1800
G92 E0
G1 X79.372 Y99.877 E0.0208 F1725
G1 X79.026 Y100.069 E0.0386
G1 X78.469 Y100.592 E0.0729
G1 X78.265 Y100.999 E0.0934
G1 X78.153 Y101.373 E0.1108
G1 X78.116 Y101.779 E0.1292
G1 X78.152 Y102.178 E0.1472
G1 X78.262 Y102.578 E0.1658
G1 X78.448 Y102.950 E0.1845
G1 X78.716 Y103.295 E0.2041
G1 X79.051 Y103.556 E0.2231
G1 X79.394 Y103.746 E0.2407
G1 X79.807 Y103.859 E0.2600
G1 X80.206 Y103.895 E0.2780
G1 X80.612 Y103.858 E0.2963
G1 X80.975 Y103.749 E0.3133
G1 X81.384 Y103.563 E0.3335
G1 X81.693 Y103.293 E0.3519
G1 X81.963 Y102.984 E0.3703
G1 X82.149 Y102.575 E0.3905
G1 X82.250 Y102.238 E0.4063
G1 X82.329 Y101.806 E0.4260
G1 X82.181 Y100.992 E0.4632
G1 X81.949 Y100.644 E0.4819
G1 X81.707 Y100.330 E0.4998
G1 X81.393 Y100.055 E0.5185
G1 X81.027 Y99.873 E0.5368
G1 X80.603 Y99.719 E0.5571
G1 X79.808 Y99.719 E0.5928
; outer perimeter
G1 X79.878 Y100.119 F4800
G92 E0
G1 X79.538 Y100.242 E0.0162 F1150
G1 X79.264 Y100.395 E0.0303
G1 X78.795 Y100.835 E0.0592
G1 X78.638 Y101.147 E0.0749
G1 X78.548 Y101.449 E0.0891
G1 X78.518 Y101.779 E0.1039
G1 X78.548 Y102.107 E0.1187
G1 X78.637 Y102.435 E0.1340
G1 X78.788 Y102.736 E0.1491
G1 X79.001 Y103.010 E0.1647
G1 X79.272 Y103.221 E0.1801
G1 X79.545 Y103.373 E0.1942
G1 X79.878 Y103.464 E0.2096
G1 X80.206 Y103.493 E0.2244
G1 X80.536 Y103.463 E0.2393
G1 X80.834 Y103.374 E0.2533
G1 X81.165 Y103.224 E0.2696
G1 X81.409 Y103.010 E0.2842
G1 X81.624 Y102.765 E0.2988
G1 X81.774 Y102.434 E0.3151
G1 X81.861 Y102.145 E0.3287
G1 X81.922 Y101.806 E0.3442
G1 X81.802 Y101.145 E0.3743
G1 X81.624 Y100.878 E0.3887
G1 X81.414 Y100.606 E0.4042
G1 X81.168 Y100.390 E0.4189
G1 X80.869 Y100.241 E0.4339
G1 X80.533 Y100.119 E0.4499
G1 X79.878 Y100.119 E0.4793
G92 E0
G1 E-1.0000 F1800
; inner perimeter
G1 X80.179 Y127.059 F4800
G1 E0.0000 F1800
G92 E0
G1 X79.754 Y127.136 E0.0194 F1725
G1 X79.357 Y127.245 E0.0379
G1 X78.994 Y127.462 E0.0569
G1 X78.709 Y127.677 E0.0729
G1 X78.412 Y128.010 E0.0929
G1 X78.212 Y128.370 E0.1114
G1 X78.099 Y128.784 E0.1307
G1 X78.063 Y129.183 E0.1487
G1 X78.099 Y129.582 E0.1667
G1 X78.212 Y129.995 E0.1859
G1 X78.403 Y130.337 E0.2035
G1 X78.652 Y130.658 E0.2217
G1 X78.974 Y130.940 E0.2410
G1 X79.368 Y131.119 E0.2604
G1 X79.755 Y131.260 E0.2789
G1 X80.179 Y131.298 E0.2980
G1 X80.613 Y131.259 E0.3175
G1 X80.983 Y131.111 E0.3354
G1 X81.319 Y130.943 E0.3523
G1 X81.639 Y130.703 E0.3703
G1 X81.911 Y130.354 E0.3902
G1 X82.085 Y130.004 E0.4077
G1 X82.230 Y129.606 E0.4267
G1 X82.269 Y129.183 E0.4458
G1 X82.232 Y128.776 E0.4641
G1 X82.120 Y128.403 E0.4816
G1 X81.928 Y128.020 E0.5009
G1 X81.617 Y127.670 E0.5219
G1 X81.023 Y127.251 E0.5545
G1 X80.604 Y127.136 E0.5740
G1 X80.179 Y127.059 E0.5934
; outer perimeter
G1 X80.179 Y127.466 F4800
G92 E0
G1 X79.843 Y127.527 E0.0154 F1150
G1 X79.516 Y127.616 E0.0306
G1 X79.218 Y127.795 E0.0462
G1 X78.981 Y127.972 E0.0595
G1 X78.740 Y128.243 E0.0757
G1 X78.585 Y128.522 E0.0901
G1 X78.494 Y128.855 E0.1055
G1 X78.465 Y129.183 E0.1203
G1 X78.495 Y129.510 E0.1351
G1 X78.585 Y129.843 E0.1506
G1 X78.737 Y130.116 E0.1646
G1 X78.944 Y130.383 E0.1798
G1 X79.193 Y130.600 E0.1946
G1 X79.519 Y130.749 E0.2107
G1 X79.843 Y130.866 E0.2262
G1 X80.179 Y130.897 E0.2413
G1 X80.518 Y130.866 E0.2566
G1 X80.819 Y130.746 E0.2711
G1 X81.108 Y130.601 E0.2857
G1 X81.356 Y130.415 E0.2996
G1 X81.571 Y130.139 E0.3153
G1 X81.717 Y129.846 E0.3300
G1 X81.836 Y129.519 E0.3457
