; G-Code generated by Simplify3D(R) Version 4.0.0
; Oct 19, 2020 at 5:05:03 PM
; Settings Summary
;   processName,Process1
;   applyToModels,3_mal_ssd_adapterV1,3_mal_ssd_adapterV1(2),3_mal_ssd_adapterV1(3),3_mal_ssd_adapterV1(4)
;   profileName,new profile
;   profileVersion,2020-09-07 14:01:24
;   baseProfile,Default (modified)
;   printMaterial,PLA
;   printQuality,Medium
;   printExtruders,
;   extruderName,Primary Extruder
;   extruderToolheadNumber,0
;   extruderDiameter,0.4
;   extruderAutoWidth,0
;   extruderWidth,0.4
;   extrusionMultiplier,0.9
;   extruderUseRetract,1
;   extruderRetractionDistance,1
;   extruderExtraRestartDistance,0
;   extruderRetractionZLift,0
;   extruderRetractionSpeed,1800
;   extruderUseCoasting,0
;   extruderCoastingDistance,0.2
;   extruderUseWipe,0
;   extruderWipeDistance,5
;   primaryExtruder,0
;   layerHeight,0.3
;   topSolidLayers,3
;   bottomSolidLayers,3
;   perimeterOutlines,2
;   printPerimetersInsideOut,1
;   startPointOption,2
;   startPointOriginX,0
;   startPointOriginY,0
;   sequentialIslands,0
;   spiralVaseMode,0
;   firstLayerHeightPercentage,100
;   firstLayerWidthPercentage,100
;   firstLayerUnderspeed,0.5
;   useRaft,0
;   raftExtruder,0
;   raftTopLayers,3
;   raftBaseLayers,2
;   raftOffset,3
;   raftSeparationDistance,0.14
;   raftTopInfill,100
;   aboveRaftSpeedMultiplier,0.3
;   useSkirt,0
;   skirtExtruder,0
;   skirtLayers,1
;   skirtOutlines,2
;   skirtOffset,4
;   usePrimePillar,0
;   primePillarExtruder,999
;   primePillarWidth,12
;   primePillarLocation,7
;   primePillarSpeedMultiplier,1
;   useOozeShield,0
;   oozeShieldExtruder,999
;   oozeShieldOffset,2
;   oozeShieldOutlines,1
;   oozeShieldSidewallShape,1
;   oozeShieldSidewallAngle,30
;   oozeShieldSpeedMultiplier,1
;   infillExtruder,0
;   internalInfillPattern,Rectilinear
;   externalInfillPattern,Rectilinear
;   infillPercentage,15
;   outlineOverlapPercentage,15
;   infillExtrusionWidthPercentage,100
;   minInfillLength,5
;   infillLayerInterval,1
;   internalInfillAngles,45,-45
;   overlapInternalInfillAngles,0
;   externalInfillAngles,45,-45
;   generateSupport,0
;   supportExtruder,0
;   supportInfillPercentage,30
;   supportExtraInflation,0
;   supportBaseLayers,0
;   denseSupportExtruder,0
;   denseSupportLayers,0
;   denseSupportInfillPercentage,70
;   supportLayerInterval,1
;   supportHorizontalPartOffset,0.3
;   supportUpperSeparationLayers,1
;   supportLowerSeparationLayers,1
;   supportType,1
;   supportGridSpacing,4
;   maxOverhangAngle,45
;   supportAngles,0
;   temperatureName,Primary Extruder,Hot Bed
;   temperatureNumber,0,1
;   temperatureSetpointCount,1,1
;   temperatureSetpointLayers,1,1
;   temperatureSetpointTemperatures,210,60
;   temperatureStabilizeAtStartup,1,0
;   temperatureHeatedBed,0,1
;   temperatureRelayBetweenLayers,0,0
;   temperatureRelayBetweenLoops,0,0
;   fanLayers,1,2
;   fanSpeeds,0,100
;   blipFanToFullPower,0
;   adjustSpeedForCooling,1
;   minSpeedLayerTime,15
;   minCoolingSpeedSlowdown,20
;   increaseFanForCooling,0
;   minFanLayerTime,45
;   maxCoolingFanSpeed,100
;   increaseFanForBridging,0
;   bridgingFanSpeed,100
;   use5D,1
;   relativeEdistances,0
;   allowEaxisZeroing,1
;   independentExtruderAxes,0
;   includeM10123,0
;   stickySupport,1
;   applyToolheadOffsets,0
;   gcodeXoffset,0
;   gcodeYoffset,0
;   gcodeZoffset,0
;   overrideMachineDefinition,0
;   machineTypeOverride,0
;   strokeXoverride,200
;   strokeYoverride,200
;   strokeZoverride,200
;   originOffsetXoverride,0
;   originOffsetYoverride,0
;   originOffsetZoverride,0
;   homeXdirOverride,-1
;   homeYdirOverride,-1
;   homeZdirOverride,-1
;   flipXoverride,1
;   flipYoverride,-1
;   flipZoverride,1
;   toolheadOffsets,0,0|0,0|0,0|0,0|0,0|0,0
;   overrideFirmwareConfiguration,0
;   firmwareTypeOverride,RepRap (Marlin/Repetier/Sprinter)
;   GPXconfigOverride,r2
;   baudRateOverride,115200
;   overridePrinterModels,0
;   printerModelsOverride
;   startingGcode,G28 ; home all axes,G1 X0 Y5 Z0.2 F3000 ; get ready to prime,G92 E0 ; reset extrusion distance,G1 Y150 E20 F600 ; prime nozzle
;   layerChangeGcode,
;   retractionGcode,
;   toolChangeGcode,
;   endingGcode,M104 S0 ; turn off extruder,M140 S0 ; turn off bed,M84 ; disable motors,G1 X0 Y0; home,M107 ; fan off
;   exportFileFormat,gcode
;   celebration,0
;   celebrationSong,Random Song
;   postProcessing,
;   defaultSpeed,4600
;   outlineUnderspeed,0.5
;   solidInfillUnderspeed,0.8
;   supportUnderspeed,0.8
;   rapidXYspeed,4800
;   rapidZspeed,1000
;   minBridgingArea,50
;   bridgingExtraInflation,0
;   bridgingExtrusionMultiplier,1
;   bridgingSpeedMultiplier,1
;   useFixedBridgingAngle,0
;   fixedBridgingAngle,0
;   applyBridgingToPerimeters,0
;   filamentDiameters,1.75|1.75|1.75|1.75|1.75|1.75
;   filamentPricesPerKg,46|46|46|46|46|46
;   filamentDensities,1.25|1.25|1.25|1.25|1.25|1.25
;   useMinPrintHeight,0
;   minPrintHeight,0
;   useMaxPrintHeight,0
;   maxPrintHeight,0
;   useDiaphragm,0
;   diaphragmLayerInterval,20
;   robustSlicing,1
;   mergeAllIntoSolid,0
;   onlyRetractWhenCrossingOutline,1
;   retractBetweenLayers,1
;   useRetractionMinTravel,0
;   retractionMinTravel,3
;   retractWhileWiping,0
;   onlyWipeOutlines,1
;   avoidCrossingOutline,0
;   maxMovementDetourFactor,3
;   toolChangeRetractionDistance,12
;   toolChangeExtraRestartDistance,-0.5
;   toolChangeRetractionSpeed,600
;   externalThinWallType,1
;   internalThinWallType,1
;   thinWallAllowedOverlapPercentage,10
;   singleExtrusionMinLength,1
;   singleExtrusionMinPrintingWidthPercentage,50
;   singleExtrusionMaxPrintingWidthPercentage,200
;   singleExtrusionEndpointExtension,0.2
;   horizontalSizeCompensation,0
G90
M82
M106 S0
M140 S60
M104 S210 T0
M109 S210 T0
G28 ; home all axes
G1 X0 Y5 Z0.2 F3000 ; get ready to prime
G92 E0 ; reset extrusion distance
G1 Y150 E20 F600 ; prime nozzle
G92 E0
G1 E-1.0000 F1800
G1 Z0.300 F1000
; process Process1
; layer 1, Z = 0.300
T0
; tool H0.300 W0.400
; inner perimeter
G1 X97.468 Y83.101 F4800
G1 E0.0000 F540
G92 E0
G1 X97.761 Y82.814 E0.0184 F1725
G1 X98.087 Y82.563 E0.0369
G1 X98.440 Y82.354 E0.0553
G1 X98.816 Y82.189 E0.0737
G1 X99.208 Y82.070 E0.0921
G1 X99.613 Y82.000 E0.1106
G1 X100.023 Y81.979 E0.1290
G1 X100.432 Y82.007 E0.1474
G1 X100.835 Y82.085 E0.1659
G1 X101.226 Y82.211 E0.1843
G1 X101.599 Y82.382 E0.2027
G1 X101.948 Y82.598 E0.2212
G1 X102.269 Y82.854 E0.2396
G1 X102.556 Y83.147 E0.2580
G1 X102.807 Y83.472 E0.2764
G1 X103.016 Y83.825 E0.2949
G1 X103.181 Y84.201 E0.3133
G1 X103.299 Y84.594 E0.3317
G1 X103.370 Y84.998 E0.3502
G1 X103.392 Y85.426 E0.3694
G1 X103.123 Y115.389 E1.7148
G1 X103.093 Y115.816 E1.7341
G1 X103.015 Y116.220 E1.7525
G1 X102.890 Y116.610 E1.7709
G1 X102.718 Y116.983 E1.7893
G1 X102.502 Y117.332 E1.8078
G1 X102.246 Y117.653 E1.8262
G1 X101.953 Y117.941 E1.8446
G1 X101.628 Y118.191 E1.8631
G1 X101.275 Y118.400 E1.8815
G1 X100.899 Y118.565 E1.8999
G1 X100.506 Y118.684 E1.9183
G1 X100.102 Y118.754 E1.9368
G1 X99.692 Y118.775 E1.9552
G1 X99.283 Y118.747 E1.9736
G1 X98.880 Y118.669 E1.9921
G1 X98.489 Y118.544 E2.0105
G1 X98.116 Y118.372 E2.0289
G1 X97.767 Y118.156 E2.0474
G1 X97.446 Y117.900 E2.0658
G1 X97.158 Y117.607 E2.0842
G1 X96.908 Y117.282 E2.1026
G1 X96.699 Y116.929 E2.1211
G1 X96.534 Y116.553 E2.1395
G1 X96.415 Y116.160 E2.1579
G1 X96.345 Y115.756 E2.1764
G1 X96.323 Y115.328 E2.1956
G1 X96.427 Y103.746 E2.7156
G1 X96.329 Y103.746 E2.7200
G1 X96.341 Y96.945 E3.0254
G1 X96.488 Y96.947 E3.0319
G1 X96.592 Y85.365 E3.5520
G1 X96.622 Y84.938 E3.5712
G1 X96.699 Y84.535 E3.5897
G1 X96.825 Y84.144 E3.6081
G1 X96.997 Y83.771 E3.6265
G1 X97.212 Y83.422 E3.6450
G1 X97.468 Y83.101 E3.6634
; outer perimeter
G1 X97.171 Y82.833 F4800
G92 E0
G1 X97.498 Y82.511 E0.0206 F1150
G1 X97.862 Y82.231 E0.0412
G1 X98.257 Y81.998 E0.0618
G1 X98.677 Y81.813 E0.0824
G1 X99.116 Y81.681 E0.1030
G1 X99.568 Y81.602 E0.1236
G1 X100.026 Y81.578 E0.1442
G1 X100.484 Y81.610 E0.1648
G1 X100.935 Y81.697 E0.1854
G1 X101.371 Y81.837 E0.2060
G1 X101.788 Y82.029 E0.2266
G1 X102.179 Y82.270 E0.2472
G1 X102.537 Y82.556 E0.2678
G1 X102.859 Y82.884 E0.2884
G1 X103.138 Y83.248 E0.3090
G1 X103.372 Y83.642 E0.3296
G1 X103.557 Y84.062 E0.3502
G1 X103.689 Y84.502 E0.3708
G1 X103.768 Y84.954 E0.3914
G1 X103.792 Y85.418 E0.4123
G1 X103.522 Y115.404 E1.7588
G1 X103.490 Y115.868 E1.7797
G1 X103.403 Y116.319 E1.8003
G1 X103.263 Y116.756 E1.8209
G1 X103.071 Y117.173 E1.8415
G1 X102.830 Y117.563 E1.8621
G1 X102.544 Y117.922 E1.8827
G1 X102.217 Y118.243 E1.9033
G1 X101.853 Y118.523 E1.9239
G1 X101.458 Y118.757 E1.9445
G1 X101.038 Y118.941 E1.9651
G1 X100.599 Y119.074 E1.9857
G1 X100.147 Y119.152 E2.0063
G1 X99.688 Y119.176 E2.0269
G1 X99.231 Y119.144 E2.0475
G1 X98.780 Y119.057 E2.0681
G1 X98.343 Y118.917 E2.0887
G1 X97.927 Y118.725 E2.1093
G1 X97.536 Y118.484 E2.1299
G1 X97.177 Y118.198 E2.1505
G1 X96.856 Y117.870 E2.1711
G1 X96.576 Y117.507 E2.1917
G1 X96.342 Y117.112 E2.2123
G1 X96.158 Y116.692 E2.2329
G1 X96.025 Y116.253 E2.2535
G1 X95.947 Y115.801 E2.2741
G1 X95.923 Y115.336 E2.2950
G1 X96.023 Y104.143 E2.7976
G1 X95.929 Y104.142 E2.8019
G1 X95.942 Y96.542 E3.1431
G1 X96.092 Y96.543 E3.1499
G1 X96.192 Y85.350 E3.6525
G1 X96.224 Y84.886 E3.6734
G1 X96.311 Y84.435 E3.6940
G1 X96.452 Y83.998 E3.7146
G1 X96.644 Y83.582 E3.7352
G1 X96.885 Y83.191 E3.7558
G1 X97.171 Y82.833 E3.7764
; inner perimeter
G1 X98.519 Y83.877 F4800
G92 E0
G1 X98.254 Y84.194 E0.0185 F1725
G1 X98.057 Y84.556 E0.0370
G1 X97.933 Y84.949 E0.0555
G1 X97.889 Y85.359 E0.0740
G1 X97.926 Y85.769 E0.0926
G1 X98.042 Y86.165 E0.1111
G1 X98.233 Y86.530 E0.1296
G1 X98.492 Y86.851 E0.1481
G1 X98.808 Y87.116 E0.1666
G1 X99.170 Y87.313 E0.1851
G1 X99.563 Y87.436 E0.2036
G1 X99.973 Y87.481 E0.2221
G1 X100.384 Y87.444 E0.2406
G1 X100.779 Y87.328 E0.2591
G1 X101.145 Y87.137 E0.2777
G1 X101.466 Y86.878 E0.2962
G1 X101.730 Y86.562 E0.3147
G1 X101.928 Y86.200 E0.3332
G1 X102.051 Y85.807 E0.3517
G1 X102.095 Y85.397 E0.3702
G1 X102.058 Y84.986 E0.3887
G1 X101.942 Y84.591 E0.4072
G1 X101.751 Y84.225 E0.4257
G1 X101.492 Y83.904 E0.4442
G1 X101.176 Y83.640 E0.4628
G1 X100.814 Y83.442 E0.4813
G1 X100.421 Y83.319 E0.4998
G1 X100.011 Y83.275 E0.5183
G1 X99.600 Y83.312 E0.5368
G1 X99.205 Y83.428 E0.5553
G1 X98.840 Y83.619 E0.5738
G1 X98.519 Y83.877 E0.5923
; outer perimeter
G1 X98.800 Y84.164 F4800
G92 E0
G1 X98.586 Y84.420 E0.0150 F1150
G1 X98.427 Y84.713 E0.0299
G1 X98.327 Y85.031 E0.0449
G1 X98.291 Y85.363 E0.0599
G1 X98.321 Y85.695 E0.0749
G1 X98.415 Y86.015 E0.0898
G1 X98.569 Y86.310 E0.1048
G1 X98.779 Y86.570 E0.1198
G1 X99.034 Y86.784 E0.1347
G1 X99.327 Y86.943 E0.1497
G1 X99.645 Y87.043 E0.1647
G1 X99.977 Y87.079 E0.1797
G1 X100.309 Y87.049 E0.1946
G1 X100.629 Y86.955 E0.2096
G1 X100.924 Y86.801 E0.2246
G1 X101.184 Y86.591 E0.2396
G1 X101.398 Y86.335 E0.2545
G1 X101.558 Y86.043 E0.2695
G1 X101.657 Y85.725 E0.2845
G1 X101.693 Y85.393 E0.2994
G1 X101.663 Y85.061 E0.3144
G1 X101.569 Y84.741 E0.3294
G1 X101.415 Y84.446 E0.3444
G1 X101.206 Y84.186 E0.3593
G1 X100.950 Y83.972 E0.3743
G1 X100.657 Y83.812 E0.3893
G1 X100.339 Y83.713 E0.4042
G1 X100.007 Y83.677 E0.4192
G1 X99.675 Y83.707 E0.4342
G1 X99.355 Y83.801 E0.4492
G1 X99.060 Y83.955 E0.4641
G1 X98.800 Y84.164 E0.4791
G92 E0
G1 E-1.0000 F1800
; inner perimeter
G1 X99.876 Y98.274 F4800
G1 E0.0000 F1800
G92 E0
G1 X99.466 Y98.311 E0.0185 F1725
G1 X99.070 Y98.427 E0.0370
G1 X98.705 Y98.618 E0.0555
G1 X98.384 Y98.877 E0.0740
G1 X98.119 Y99.193 E0.0925
G1 X97.922 Y99.555 E0.1111
G1 X97.799 Y99.948 E0.1296
G1 X97.755 Y100.358 E0.1481
G1 X97.791 Y100.769 E0.1666
G1 X97.907 Y101.164 E0.1851
G1 X98.098 Y101.530 E0.2036
G1 X98.357 Y101.851 E0.2221
G1 X98.673 Y102.115 E0.2406
G1 X99.035 Y102.313 E0.2591
G1 X99.429 Y102.436 E0.2777
G1 X99.838 Y102.480 E0.2962
G1 X100.249 Y102.443 E0.3147
G1 X100.645 Y102.327 E0.3332
G1 X101.010 Y102.136 E0.3517
G1 X101.331 Y101.877 E0.3702
G1 X101.595 Y101.561 E0.3887
G1 X101.793 Y101.199 E0.4072
G1 X101.916 Y100.806 E0.4257
G1 X101.960 Y100.396 E0.4442
G1 X101.923 Y99.985 E0.4628
G1 X101.807 Y99.590 E0.4813
G1 X101.616 Y99.225 E0.4998
G1 X101.358 Y98.904 E0.5183
G1 X101.041 Y98.639 E0.5368
G1 X100.680 Y98.442 E0.5553
G1 X100.286 Y98.318 E0.5738
G1 X99.876 Y98.274 E0.5923
; outer perimeter
G1 X99.873 Y98.676 F4800
G92 E0
G1 X99.540 Y98.706 E0.0150 F1150
G1 X99.221 Y98.800 E0.0299
G1 X98.925 Y98.954 E0.0449
G1 X98.665 Y99.164 E0.0599
G1 X98.452 Y99.419 E0.0749
G1 X98.292 Y99.712 E0.0898
G1 X98.192 Y100.030 E0.1048
G1 X98.156 Y100.362 E0.1198
G1 X98.186 Y100.694 E0.1348
G1 X98.280 Y101.014 E0.1497
G1 X98.435 Y101.309 E0.1647
G1 X98.644 Y101.569 E0.1797
G1 X98.900 Y101.783 E0.1946
G1 X99.192 Y101.943 E0.2096
G1 X99.511 Y102.042 E0.2246
G1 X99.842 Y102.078 E0.2396
G1 X100.174 Y102.048 E0.2545
G1 X100.494 Y101.954 E0.2695
G1 X100.790 Y101.800 E0.2845
G1 X101.049 Y101.591 E0.2994
G1 X101.263 Y101.335 E0.3144
G1 X101.423 Y101.042 E0.3294
G1 X101.523 Y100.724 E0.3444
G1 X101.558 Y100.392 E0.3593
G1 X101.529 Y100.060 E0.3743
G1 X101.435 Y99.740 E0.3893
G1 X101.280 Y99.445 E0.4043
G1 X101.071 Y99.185 E0.4192
G1 X100.815 Y98.971 E0.4342
G1 X100.522 Y98.812 E0.4492
G1 X100.204 Y98.712 E0.4641
G1 X99.873 Y98.676 E0.4791
G92 E0
G1 E-1.0000 F1800
; inner perimeter
G1 X99.741 Y113.274 F4800
G1 E0.0000 F1800
G92 E0
G1 X99.331 Y113.310 E0.0185 F1725
G1 X98.935 Y113.427 E0.0370
G1 X98.570 Y113.618 E0.0555
G1 X98.249 Y113.876 E0.0740
G1 X97.985 Y114.193 E0.0925
G1 X97.787 Y114.554 E0.1111
G1 X97.664 Y114.948 E0.1296
G1 X97.620 Y115.358 E0.1481
G1 X97.656 Y115.768 E0.1666
G1 X97.773 Y116.164 E0.1851
G1 X97.964 Y116.529 E0.2036
G1 X98.222 Y116.850 E0.2221
G1 X98.539 Y117.114 E0.2406
G1 X98.900 Y117.312 E0.2591
G1 X99.294 Y117.435 E0.2777
G1 X99.704 Y117.479 E0.2962
G1 X100.114 Y117.443 E0.3147
G1 X100.510 Y117.327 E0.3332
G1 X100.875 Y117.135 E0.3517
G1 X101.196 Y116.877 E0.3702
G1 X101.460 Y116.561 E0.3887
G1 X101.658 Y116.199 E0.4072
G1 X101.781 Y115.805 E0.4257
G1 X101.825 Y115.395 E0.4442
G1 X101.789 Y114.985 E0.4628
G1 X101.673 Y114.589 E0.4813
G1 X101.481 Y114.224 E0.4998
G1 X101.223 Y113.903 E0.5183
G1 X100.907 Y113.639 E0.5368
G1 X100.545 Y113.441 E0.5553
G1 X100.151 Y113.318 E0.5738
G1 X99.741 Y113.274 E0.5923
; outer perimeter
G1 X99.738 Y113.676 F4800
G92 E0
G1 X99.406 Y113.705 E0.0150 F1150
G1 X99.086 Y113.799 E0.0299
G1 X98.790 Y113.954 E0.0449
G1 X98.531 Y114.163 E0.0599
G1 X98.317 Y114.419 E0.0749
G1 X98.157 Y114.712 E0.0898
G1 X98.057 Y115.030 E0.1048
G1 X98.022 Y115.361 E0.1198
G1 X98.051 Y115.693 E0.1347
G1 X98.145 Y116.013 E0.1497
G1 X98.300 Y116.309 E0.1647
G1 X98.509 Y116.568 E0.1797
G1 X98.765 Y116.782 E0.1946
G1 X99.058 Y116.942 E0.2096
G1 X99.376 Y117.042 E0.2246
G1 X99.707 Y117.077 E0.2396
G1 X100.039 Y117.048 E0.2545
G1 X100.359 Y116.954 E0.2695
G1 X100.655 Y116.799 E0.2845
G1 X100.914 Y116.590 E0.2994
G1 X101.128 Y116.334 E0.3144
G1 X101.288 Y116.042 E0.3294
G1 X101.388 Y115.723 E0.3444
G1 X101.423 Y115.392 E0.3593
G1 X101.394 Y115.060 E0.3743
G1 X101.300 Y114.740 E0.3893
G1 X101.145 Y114.444 E0.4043
G1 X100.936 Y114.185 E0.4192
G1 X100.680 Y113.971 E0.4342
G1 X100.388 Y113.811 E0.4492
G1 X100.069 Y113.711 E0.4641
G1 X99.738 Y113.676 E0.4791
G92 E0
G1 E-1.0000 F1800
; solid layer
G1 X102.158 Y115.302 F4800
G1 E0.0000 F1800
G92 E0
G1 X102.735 Y115.878 E0.0366 F1840
G1 X102.685 Y116.135 E0.0483
G1 X102.622 Y116.331 E0.0576
G1 X102.121 Y115.830 E0.0894
G1 X102.116 Y115.875 E0.0915
G1 X101.993 Y116.268 E0.1100
G1 X102.458 Y116.734 E0.1395
G1 X102.418 Y116.822 E0.1439
G1 X102.251 Y117.092 E0.1581
G1 X101.803 Y116.643 E0.1866
G1 X101.743 Y116.753 E0.1922
G1 X101.562 Y116.969 E0.2049
G1 X102.005 Y117.411 E0.2329
G1 X101.993 Y117.425 E0.2338
G1 X101.730 Y117.684 E0.2503
G1 X101.720 Y117.692 E0.2509
G1 X101.277 Y117.249 E0.2791
G1 X101.062 Y117.421 E0.2914
G1 X100.945 Y117.483 E0.2974
G1 X101.396 Y117.934 E0.3260
G1 X101.119 Y118.097 E0.3404
G1 X101.032 Y118.136 E0.3447
G1 X100.562 Y117.666 E0.3745
G1 X100.178 Y117.778 E0.3925
G1 X100.115 Y117.784 E0.3954
G1 X100.624 Y118.293 E0.4277
