; G-Code generated by Simplify3D(R) Version 4.0.0
; Jan 29, 2021 at 9:48:41 AM
; Settings Summary
;   processName,Process1
;   applyToModels,xyzCalibration_cube
;   profileName,def (modified)
;   profileVersion,2020-09-07 14:01:24
;   baseProfile,Default (modified)
;   printMaterial,PLA
;   printQuality,Medium
;   printExtruders,
;   extruderName,Primary Extruder
;   extruderToolheadNumber,0
;   extruderDiameter,0.4
;   extruderAutoWidth,0
;   extruderWidth,0.4
;   extrusionMultiplier,0.9
;   extruderUseRetract,1
;   extruderRetractionDistance,1
;   extruderExtraRestartDistance,0
;   extruderRetractionZLift,0
;   extruderRetractionSpeed,1800
;   extruderUseCoasting,0
;   extruderCoastingDistance,0.2
;   extruderUseWipe,0
;   extruderWipeDistance,5
;   primaryExtruder,0
;   layerHeight,0.3
;   topSolidLayers,3
;   bottomSolidLayers,3
;   perimeterOutlines,2
;   printPerimetersInsideOut,1
;   startPointOption,2
;   startPointOriginX,0
;   startPointOriginY,0
;   sequentialIslands,0
;   spiralVaseMode,0
;   firstLayerHeightPercentage,90
;   firstLayerWidthPercentage,103
;   firstLayerUnderspeed,0.3
;   useRaft,0
;   raftExtruder,0
;   raftTopLayers,2
;   raftBaseLayers,2
;   raftOffset,1.4
;   raftSeparationDistance,0.14
;   raftTopInfill,100
;   aboveRaftSpeedMultiplier,0.3
;   useSkirt,0
;   skirtExtruder,0
;   skirtLayers,1
;   skirtOutlines,2
;   skirtOffset,4
;   usePrimePillar,0
;   primePillarExtruder,999
;   primePillarWidth,12
;   primePillarLocation,7
;   primePillarSpeedMultiplier,1
;   useOozeShield,0
;   oozeShieldExtruder,999
;   oozeShieldOffset,2
;   oozeShieldOutlines,1
;   oozeShieldSidewallShape,1
;   oozeShieldSidewallAngle,30
;   oozeShieldSpeedMultiplier,1
;   infillExtruder,0
;   internalInfillPattern,Rectilinear
;   externalInfillPattern,Rectilinear
;   infillPercentage,10
;   outlineOverlapPercentage,15
;   infillExtrusionWidthPercentage,100
;   minInfillLength,5
;   infillLayerInterval,1
;   internalInfillAngles,45,-45
;   overlapInternalInfillAngles,0
;   externalInfillAngles,45,-45
;   generateSupport,0
;   supportExtruder,0
;   supportInfillPercentage,30
;   supportExtraInflation,0
;   supportBaseLayers,0
;   denseSupportExtruder,0
;   denseSupportLayers,0
;   denseSupportInfillPercentage,70
;   supportLayerInterval,1
;   supportHorizontalPartOffset,0.2
;   supportUpperSeparationLayers,1
;   supportLowerSeparationLayers,1
;   supportType,0
;   supportGridSpacing,4
;   maxOverhangAngle,45
;   supportAngles,0
;   temperatureName,Primary Extruder,Hot Bed
;   temperatureNumber,0,1
;   temperatureSetpointCount,1,1
;   temperatureSetpointLayers,1,1
;   temperatureSetpointTemperatures,210,60
;   temperatureStabilizeAtStartup,1,0
;   temperatureHeatedBed,0,1
;   temperatureRelayBetweenLayers,0,0
;   temperatureRelayBetweenLoops,0,0
;   fanLayers,1,2
;   fanSpeeds,0,100
;   blipFanToFullPower,0
;   adjustSpeedForCooling,1
;   minSpeedLayerTime,15
;   minCoolingSpeedSlowdown,20
;   increaseFanForCooling,0
;   minFanLayerTime,45
;   maxCoolingFanSpeed,100
;   increaseFanForBridging,0
;   bridgingFanSpeed,100
;   use5D,1
;   relativeEdistances,0
;   allowEaxisZeroing,1
;   independentExtruderAxes,0
;   includeM10123,0
;   stickySupport,1
;   applyToolheadOffsets,0
;   gcodeXoffset,-0.09
;   gcodeYoffset,-0.03
;   gcodeZoffset,0
;   overrideMachineDefinition,0
;   machineTypeOverride,0
;   strokeXoverride,200
;   strokeYoverride,200
;   strokeZoverride,200
;   originOffsetXoverride,0
;   originOffsetYoverride,0
;   originOffsetZoverride,0
;   homeXdirOverride,-1
;   homeYdirOverride,-1
;   homeZdirOverride,-1
;   flipXoverride,1
;   flipYoverride,-1
;   flipZoverride,1
;   toolheadOffsets,0,0|0,0|0,0|0,0|0,0|0,0
;   overrideFirmwareConfiguration,0
;   firmwareTypeOverride,RepRap (Marlin/Repetier/Sprinter)
;   GPXconfigOverride,r2
;   baudRateOverride,115200
;   overridePrinterModels,0
;   printerModelsOverride
;   startingGcode,G28 ; home all axes,G1 X2 Y2 Z0.2 F3000 ; get ready to prime,G92 E0 ; reset extrusion distance,G1 Y150 E20 F600 ; prime nozzle
;   layerChangeGcode,
;   retractionGcode,
;   toolChangeGcode,
;   endingGcode,M104 S0 ; turn off extruder,M140 S0 ; turn off bedG1 X0 Y0; home,M84 ; disable motors,M107 ; fan off,G28 X Y; Home,M18; Disable steppers
;   exportFileFormat,gcode
;   celebration,0
;   celebrationSong,Random Song
;   postProcessing,
;   defaultSpeed,4600
;   outlineUnderspeed,0.5
;   solidInfillUnderspeed,0.8
;   supportUnderspeed,0.8
;   rapidXYspeed,4600
;   rapidZspeed,1000
;   minBridgingArea,50
;   bridgingExtraInflation,0
;   bridgingExtrusionMultiplier,1
;   bridgingSpeedMultiplier,1
;   useFixedBridgingAngle,0
;   fixedBridgingAngle,0
;   applyBridgingToPerimeters,0
;   filamentDiameters,1.75|1.75|1.75|1.75|1.75|1.75
;   filamentPricesPerKg,46|46|46|46|46|46
;   filamentDensities,1.25|1.25|1.25|1.25|1.25|1.25
;   useMinPrintHeight,0
;   minPrintHeight,0
;   useMaxPrintHeight,0
;   maxPrintHeight,0.6
;   useDiaphragm,0
;   diaphragmLayerInterval,20
;   robustSlicing,1
;   mergeAllIntoSolid,0
;   onlyRetractWhenCrossingOutline,1
;   retractBetweenLayers,1
;   useRetractionMinTravel,0
;   retractionMinTravel,3
;   retractWhileWiping,0
;   onlyWipeOutlines,1
;   avoidCrossingOutline,0
;   maxMovementDetourFactor,3
;   toolChangeRetractionDistance,12
;   toolChangeExtraRestartDistance,-0.5
;   toolChangeRetractionSpeed,600
;   externalThinWallType,1
;   internalThinWallType,1
;   thinWallAllowedOverlapPercentage,8
;   singleExtrusionMinLength,1
;   singleExtrusionMinPrintingWidthPercentage,50
;   singleExtrusionMaxPrintingWidthPercentage,200
;   singleExtrusionEndpointExtension,0.2
;   horizontalSizeCompensation,0
G90
M82
M106 S0
M140 S60
M104 S210 T0
M109 S210 T0
G28 ; home all axes
G1 X2 Y2 Z0.2 F3000 ; get ready to prime
G92 E0 ; reset extrusion distance
G1 Y150 E20 F600 ; prime nozzle
G92 E0
G1 E-1.0000 F1800
G1 Z0.270 F1000
; process Process1
; layer 1, Z = 0.270
T0
; tool H0.300 W0.412
; inner perimeter
G1 X109.528 Y103.588 F4600
G1 E0.0000 F540
G92 E0
G1 X128.292 Y103.588 E0.8678 F1035
G1 X128.292 Y122.352 E1.7356
G1 X109.528 Y122.352 E2.6034
G1 X109.528 Y103.588 E3.4712
; outer perimeter
G1 X109.116 Y103.176 F4600
G92 E0
G1 X128.704 Y103.176 E0.9059 F690
G1 X128.704 Y122.764 E1.8118
G1 X109.116 Y122.764 E2.7177
G1 X109.116 Y103.176 E3.6236
; solid layer
G1 X127.941 Y103.938 F4600
G92 E0
G1 X127.942 Y103.939 E0.0001 F1104
G1 X127.942 Y104.522 E0.0270
G1 X127.358 Y103.938 E0.0652
G1 X126.775 Y103.938 E0.0922
G1 X127.942 Y105.105 E0.1685
G1 X127.942 Y105.687 E0.1954
G1 X126.193 Y103.938 E0.3098
G1 X125.610 Y103.938 E0.3368
G1 X127.942 Y106.270 E0.4893
G1 X127.942 Y106.853 E0.5162
G1 X125.027 Y103.938 E0.7069
G1 X124.445 Y103.938 E0.7338
G1 X127.942 Y107.435 E0.9625
G1 X127.942 Y108.018 E0.9895
G1 X123.862 Y103.938 E1.2563
G1 X123.279 Y103.938 E1.2833
G1 X127.942 Y108.601 E1.5882
G1 X127.942 Y109.183 E1.6152
G1 X122.697 Y103.938 E1.9582
G1 X122.114 Y103.938 E1.9852
G1 X127.942 Y109.766 E2.3663
G1 X127.942 Y110.349 E2.3933
G1 X121.531 Y103.938 E2.8126
G1 X120.949 Y103.938 E2.8395
G1 X127.942 Y110.931 E3.2969
G1 X127.942 Y111.514 E3.3238
G1 X120.366 Y103.938 E3.8193
G1 X119.783 Y103.938 E3.8463
G1 X127.942 Y112.097 E4.3799
G1 X127.942 Y112.679 E4.4068
G1 X119.201 Y103.938 E4.9785
G1 X118.618 Y103.938 E5.0055
G1 X127.942 Y113.262 E5.6153
G1 X127.942 Y113.845 E5.6422
G1 X118.035 Y103.938 E6.2902
G1 X117.453 Y103.938 E6.3171
G1 X127.942 Y114.427 E7.0032
G1 X127.942 Y115.010 E7.0301
G1 X116.870 Y103.938 E7.7542
G1 X116.287 Y103.938 E7.7812
G1 X127.942 Y115.593 E8.5434
G1 X127.942 Y116.175 E8.5704
G1 X115.705 Y103.938 E9.3708
G1 X115.122 Y103.938 E9.3977
G1 X127.942 Y116.758 E10.2362
G1 X127.942 Y117.341 E10.2631
G1 X114.539 Y103.938 E11.1397
G1 X113.957 Y103.938 E11.1666
G1 X127.942 Y117.923 E12.0813
G1 X127.942 Y118.506 E12.1083
G1 X113.374 Y103.938 E13.0611
G1 X112.791 Y103.938 E13.0880
G1 X127.942 Y119.089 E14.0789
G1 X127.942 Y119.671 E14.1059
G1 X112.209 Y103.938 E15.1349
G1 X111.626 Y103.938 E15.1618
G1 X127.942 Y120.254 E16.2289
G1 X127.942 Y120.836 E16.2559
G1 X111.044 Y103.938 E17.3611
G1 X110.461 Y103.938 E17.3881
G1 X127.942 Y121.419 E18.5314
G1 X127.942 Y122.002 E18.5583
G1 X109.878 Y103.938 E19.7398
G1 X109.878 Y104.521 E19.7667
G1 X127.359 Y122.002 E20.9101
G1 X126.777 Y122.002 E20.9370
G1 X109.878 Y105.103 E22.0423
G1 X109.878 Y105.686 E22.0692
G1 X126.194 Y122.002 E23.1363
G1 X125.611 Y122.002 E23.1633
G1 X109.878 Y106.269 E24.1923
G1 X109.878 Y106.851 E24.2192
G1 X125.029 Y122.002 E25.2101
G1 X124.446 Y122.002 E25.2371
G1 X109.878 Y107.434 E26.1899
G1 X109.878 Y108.017 E26.2168
G1 X123.863 Y122.002 E27.1315
G1 X123.281 Y122.002 E27.1585
G1 X109.878 Y108.599 E28.0350
G1 X109.878 Y109.182 E28.0620
G1 X122.698 Y122.002 E28.9005
G1 X122.115 Y122.002 E28.9274
G1 X109.878 Y109.765 E29.7278
G1 X109.878 Y110.347 E29.7547
G1 X121.533 Y122.002 E30.5170
G1 X120.950 Y122.002 E30.5439
G1 X109.878 Y110.930 E31.2681
G1 X109.878 Y111.513 E31.2950
G1 X120.367 Y122.002 E31.9811
G1 X119.785 Y122.002 E32.0080
G1 X109.878 Y112.095 E32.6559
G1 X109.878 Y112.678 E32.6829
G1 X119.202 Y122.002 E33.2927
G1 X118.619 Y122.002 E33.3196
G1 X109.878 Y113.261 E33.8914
G1 X109.878 Y113.843 E33.9183
G1 X118.037 Y122.002 E34.4519
G1 X117.454 Y122.002 E34.4789
G1 X109.878 Y114.426 E34.9743
G1 X109.878 Y115.009 E35.0013
G1 X116.871 Y122.002 E35.4587
G1 X116.289 Y122.002 E35.4856
G1 X109.878 Y115.591 E35.9049
G1 X109.878 Y116.174 E35.9319
G1 X115.706 Y122.002 E36.3130
G1 X115.123 Y122.002 E36.3400
G1 X109.878 Y116.757 E36.6830
G1 X109.878 Y117.339 E36.7100
G1 X114.541 Y122.002 E37.0149
G1 X113.958 Y122.002 E37.0419
G1 X109.878 Y117.922 E37.3087
G1 X109.878 Y118.505 E37.3357
G1 X113.375 Y122.002 E37.5644
G1 X112.793 Y122.002 E37.5913
G1 X109.878 Y119.087 E37.7820
G1 X109.878 Y119.670 E37.8089
G1 X112.210 Y122.002 E37.9614
G1 X111.627 Y122.002 E37.9884
G1 X109.878 Y120.253 E38.1028
G1 X109.878 Y120.835 E38.1297
G1 X111.045 Y122.002 E38.2060
G1 X110.462 Y122.002 E38.2330
G1 X109.878 Y121.418 E38.2712
G1 X109.878 Y122.001 E38.2981
G1 X109.879 Y122.002 E38.2982
G92 E0
G1 E-1.0000 F1800
; layer 2, Z = 0.570
M106 S255
; tool H0.300 W0.400
; inner perimeter
G1 X109.510 Y122.370 F4600
G1 Z0.570 F1000
G1 E0.0000 F1800
G92 E0
G1 X109.510 Y103.570 E0.8441 F3450
G1 X128.310 Y103.570 E1.6883
G1 X128.310 Y122.370 E2.5324
G1 X109.510 Y122.370 E3.3766
; outer perimeter
G1 X109.110 Y122.770 F4600
G92 E0
G1 X109.110 Y103.170 E0.8801 F2300
G1 X128.710 Y103.170 E1.7601
G1 X128.710 Y122.770 E2.6402
G1 X109.110 Y122.770 E3.5203
; solid layer
G1 X109.850 Y103.928 F4600
G92 E0
G1 X109.868 Y103.910 E0.0011 F3680
G1 X110.434 Y103.910 E0.0265
G1 X109.850 Y104.494 E0.0636
G1 X109.850 Y105.059 E0.0890
G1 X110.999 Y103.910 E0.1620
G1 X111.565 Y103.910 E0.1874
G1 X109.850 Y105.625 E0.2963
G1 X109.850 Y106.191 E0.3217
G1 X112.131 Y103.910 E0.4666
G1 X112.697 Y103.910 E0.4920
G1 X109.850 Y106.757 E0.6727
G1 X109.850 Y107.322 E0.6981
G1 X113.262 Y103.910 E0.9148
G1 X113.828 Y103.910 E0.9402
G1 X109.850 Y107.888 E1.1928
G1 X109.850 Y108.454 E1.2182
G1 X114.394 Y103.910 E1.5067
G1 X114.959 Y103.910 E1.5321
G1 X109.850 Y109.019 E1.8565
G1 X109.850 Y109.585 E1.8819
G1 X115.525 Y103.910 E2.2423
G1 X116.091 Y103.910 E2.2677
G1 X109.850 Y110.151 E2.6640
G1 X109.850 Y110.716 E2.6894
G1 X116.656 Y103.910 E3.1216
G1 X117.222 Y103.910 E3.1470
G1 X109.850 Y111.282 E3.6151
G1 X109.850 Y111.848 E3.6405
G1 X117.788 Y103.910 E4.1445
G1 X118.353 Y103.910 E4.1699
G1 X109.850 Y112.413 E4.7099
G1 X109.850 Y112.979 E4.7353
G1 X118.919 Y103.910 E5.3112
G1 X119.485 Y103.910 E5.3366
G1 X109.850 Y113.545 E5.9484
G1 X109.850 Y114.110 E5.9738
G1 X120.050 Y103.910 E6.6215
G1 X120.616 Y103.910 E6.6469
G1 X109.850 Y114.676 E7.3306
G1 X109.850 Y115.242 E7.3560
G1 X121.182 Y103.910 E8.0755
G1 X121.747 Y103.910 E8.1009
G1 X109.850 Y115.807 E8.8564
G1 X109.850 Y116.373 E8.8818
G1 X122.313 Y103.910 E9.6732
G1 X122.879 Y103.910 E9.6986
G1 X109.850 Y116.939 E10.5260
G1 X109.850 Y117.505 E10.5514
G1 X123.445 Y103.910 E11.4146
G1 X124.010 Y103.910 E11.4400
G1 X109.850 Y118.070 E12.3392
G1 X109.850 Y118.636 E12.3646
G1 X124.576 Y103.910 E13.2997
G1 X125.142 Y103.910 E13.3251
G1 X109.850 Y119.202 E14.2961
G1 X109.850 Y119.767 E14.3215
G1 X125.707 Y103.910 E15.3284
G1 X126.273 Y103.910 E15.3538
G1 X109.850 Y120.333 E16.3967
G1 X109.850 Y120.899 E16.4221
G1 X126.839 Y103.910 E17.5009
G1 X127.404 Y103.910 E17.5263
G1 X109.850 Y121.464 E18.6410
G1 X109.850 Y122.030 E18.6664
G1 X127.970 Y103.910 E19.8170
G1 X127.970 Y104.476 E19.8424
G1 X110.416 Y122.030 E20.9571
G1 X110.981 Y122.030 E20.9825
G1 X127.970 Y105.041 E22.0612
G1 X127.970 Y105.607 E22.0866
G1 X111.547 Y122.030 E23.1295
G1 X112.113 Y122.030 E23.1549
G1 X127.970 Y106.173 E24.1618
G1 X127.970 Y106.738 E24.1872
G1 X112.678 Y122.030 E25.1582
G1 X113.244 Y122.030 E25.1836
G1 X127.970 Y107.304 E26.1187
G1 X127.970 Y107.870 E26.1441
G1 X113.810 Y122.030 E27.0433
G1 X114.376 Y122.030 E27.0687
G1 X127.970 Y108.436 E27.9319
G1 X127.970 Y109.001 E27.9573
G1 X114.941 Y122.030 E28.7847
G1 X115.507 Y122.030 E28.8101
G1 X127.970 Y109.567 E29.6015
G1 X127.970 Y110.133 E29.6269
G1 X116.073 Y122.030 E30.3824
G1 X116.638 Y122.030 E30.4078
G1 X127.970 Y110.698 E31.1273
G1 X127.970 Y111.264 E31.1527
G1 X117.204 Y122.030 E31.8364
G1 X117.770 Y122.030 E31.8618
G1 X127.970 Y111.830 E32.5095
G1 X127.970 Y112.395 E32.5349
G1 X118.335 Y122.030 E33.1467
G1 X118.901 Y122.030 E33.1721
G1 X127.970 Y112.961 E33.7480
G1 X127.970 Y113.527 E33.7734
G1 X119.467 Y122.030 E34.3133
G1 X120.032 Y122.030 E34.3387
G1 X127.970 Y114.092 E34.8428
G1 X127.970 Y114.658 E34.8682
G1 X120.598 Y122.030 E35.3363
G1 X121.164 Y122.030 E35.3617
G1 X127.970 Y115.224 E35.7939
G1 X127.970 Y115.789 E35.8193
G1 X121.729 Y122.030 E36.2156
G1 X122.295 Y122.030 E36.2410
G1 X127.970 Y116.355 E36.6013
G1 X127.970 Y116.921 E36.6267
G1 X122.861 Y122.030 E36.9512
G1 X123.426 Y122.030 E36.9766
G1 X127.970 Y117.486 E37.2651
G1 X127.970 Y118.052 E37.2905
G1 X123.992 Y122.030 E37.5431
G1 X124.558 Y122.030 E37.5685
G1 X127.970 Y118.618 E37.7851
G1 X127.970 Y119.184 E37.8105
G1 X125.124 Y122.030 E37.9913
G1 X125.689 Y122.030 E38.0167
G1 X127.970 Y119.749 E38.1615
G1 X127.970 Y120.315 E38.1869
G1 X126.255 Y122.030 E38.2958
G1 X126.821 Y122.030 E38.3212
G1 X127.970 Y120.881 E38.3942
G1 X127.970 Y121.446 E38.4196
G1 X127.386 Y122.030 E38.4567
G1 X127.952 Y122.030 E38.4821
G1 X127.970 Y122.012 E38.4832
G92 E0
G1 E-1.0000 F1800
; layer 3, Z = 0.870
; inner perimeter
G1 X128.310 Y122.370 F4600
G1 Z0.870 F1000
G1 E0.0000 F1800
G92 E0
G1 X109.510 Y122.370 E0.8441 F3450
G1 X109.510 Y103.570 E1.6883
G1 X128.310 Y103.570 E2.5324
G1 X128.310 Y122.370 E3.3766
; outer perimeter
G1 X128.710 Y122.770 F4600
G92 E0
G1 X109.110 Y122.770 E0.8801 F2300
G1 X109.110 Y103.170 E1.7601
G1 X128.710 Y103.170 E2.6402
G1 X128.710 Y122.770 E3.5203
; solid layer
G1 X109.868 Y122.030 F4600
G92 E0
G1 X109.850 Y122.012 E0.0011 F3680
G1 X109.850 Y121.446 E0.0265
G1 X110.434 Y122.030 E0.0636
G1 X110.999 Y122.030 E0.0890
G1 X109.850 Y120.881 E0.1620
G1 X109.850 Y120.315 E0.1874
G1 X111.565 Y122.030 E0.2963
G1 X112.131 Y122.030 E0.3217
G1 X109.850 Y119.749 E0.4665
G1 X109.850 Y119.183 E0.4919
G1 X112.697 Y122.030 E0.6727
G1 X113.262 Y122.030 E0.6981
G1 X109.850 Y118.618 E0.9148
G1 X109.850 Y118.052 E0.9402
G1 X113.828 Y122.030 E1.1928
G1 X114.394 Y122.030 E1.2182
G1 X109.850 Y117.486 E1.5067
G1 X109.850 Y116.921 E1.5321
G1 X114.959 Y122.030 E1.8565
G1 X115.525 Y122.030 E1.8819
G1 X109.850 Y116.355 E2.2423
G1 X109.850 Y115.789 E2.2677
G1 X116.091 Y122.030 E2.6640
G1 X116.656 Y122.030 E2.6894
G1 X109.850 Y115.224 E3.1216
G1 X109.850 Y114.658 E3.1470
G1 X117.222 Y122.030 E3.6151
G1 X117.788 Y122.030 E3.6405
G1 X109.850 Y114.092 E4.1445
G1 X109.850 Y113.527 E4.1699
G1 X118.353 Y122.030 E4.7099
G1 X118.919 Y122.030 E4.7353
G1 X109.850 Y112.961 E5.3112
G1 X109.850 Y112.395 E5.3366
G1 X119.485 Y122.030 E5.9484
G1 X120.050 Y122.030 E5.9738
G1 X109.850 Y111.830 E6.6215
G1 X109.850 Y111.264 E6.6469
