; G-Code generated by Simplify3D(R) Version 4.0.0
; Jan 28, 2021 at 10:52:06 PM
; Settings Summary
;   processName,Process1
;   applyToModels,xyzCalibration_cube
;   profileName,def (modified)
;   profileVersion,2020-09-07 14:01:24
;   baseProfile,Default (modified)
;   printMaterial,PLA
;   printQuality,Medium
;   printExtruders,
;   extruderName,Primary Extruder
;   extruderToolheadNumber,0
;   extruderDiameter,0.4
;   extruderAutoWidth,0
;   extruderWidth,0.4
;   extrusionMultiplier,0.9
;   extruderUseRetract,1
;   extruderRetractionDistance,1
;   extruderExtraRestartDistance,0
;   extruderRetractionZLift,0
;   extruderRetractionSpeed,1800
;   extruderUseCoasting,0
;   extruderCoastingDistance,0.2
;   extruderUseWipe,0
;   extruderWipeDistance,5
;   primaryExtruder,0
;   layerHeight,0.3
;   topSolidLayers,3
;   bottomSolidLayers,3
;   perimeterOutlines,2
;   printPerimetersInsideOut,1
;   startPointOption,2
;   startPointOriginX,0
;   startPointOriginY,0
;   sequentialIslands,0
;   spiralVaseMode,0
;   firstLayerHeightPercentage,90
;   firstLayerWidthPercentage,103
;   firstLayerUnderspeed,0.3
;   useRaft,0
;   raftExtruder,0
;   raftTopLayers,2
;   raftBaseLayers,2
;   raftOffset,1.4
;   raftSeparationDistance,0.14
;   raftTopInfill,100
;   aboveRaftSpeedMultiplier,0.3
;   useSkirt,0
;   skirtExtruder,0
;   skirtLayers,1
;   skirtOutlines,2
;   skirtOffset,4
;   usePrimePillar,0
;   primePillarExtruder,999
;   primePillarWidth,12
;   primePillarLocation,7
;   primePillarSpeedMultiplier,1
;   useOozeShield,0
;   oozeShieldExtruder,999
;   oozeShieldOffset,2
;   oozeShieldOutlines,1
;   oozeShieldSidewallShape,1
;   oozeShieldSidewallAngle,30
;   oozeShieldSpeedMultiplier,1
;   infillExtruder,0
;   internalInfillPattern,Rectilinear
;   externalInfillPattern,Rectilinear
;   infillPercentage,9
;   outlineOverlapPercentage,15
;   infillExtrusionWidthPercentage,100
;   minInfillLength,5
;   infillLayerInterval,1
;   internalInfillAngles,45,-45
;   overlapInternalInfillAngles,0
;   externalInfillAngles,45,-45
;   generateSupport,0
;   supportExtruder,0
;   supportInfillPercentage,30
;   supportExtraInflation,0
;   supportBaseLayers,0
;   denseSupportExtruder,0
;   denseSupportLayers,0
;   denseSupportInfillPercentage,70
;   supportLayerInterval,1
;   supportHorizontalPartOffset,0.2
;   supportUpperSeparationLayers,1
;   supportLowerSeparationLayers,1
;   supportType,0
;   supportGridSpacing,4
;   maxOverhangAngle,45
;   supportAngles,0
;   temperatureName,Primary Extruder,Hot Bed
;   temperatureNumber,0,1
;   temperatureSetpointCount,1,1
;   temperatureSetpointLayers,1,1
;   temperatureSetpointTemperatures,210,60
;   temperatureStabilizeAtStartup,1,0
;   temperatureHeatedBed,0,1
;   temperatureRelayBetweenLayers,0,0
;   temperatureRelayBetweenLoops,0,0
;   fanLayers,1,2
;   fanSpeeds,0,100
;   blipFanToFullPower,0
;   adjustSpeedForCooling,1
;   minSpeedLayerTime,15
;   minCoolingSpeedSlowdown,20
;   increaseFanForCooling,0
;   minFanLayerTime,45
;   maxCoolingFanSpeed,100
;   increaseFanForBridging,0
;   bridgingFanSpeed,100
;   use5D,1
;   relativeEdistances,0
;   allowEaxisZeroing,1
;   independentExtruderAxes,0
;   includeM10123,0
;   stickySupport,1
;   applyToolheadOffsets,0
;   gcodeXoffset,-0.09
;   gcodeYoffset,-0.03
;   gcodeZoffset,0
;   overrideMachineDefinition,0
;   machineTypeOverride,0
;   strokeXoverride,200
;   strokeYoverride,200
;   strokeZoverride,200
;   originOffsetXoverride,0
;   originOffsetYoverride,0
;   originOffsetZoverride,0
;   homeXdirOverride,-1
;   homeYdirOverride,-1
;   homeZdirOverride,-1
;   flipXoverride,1
;   flipYoverride,-1
;   flipZoverride,1
;   toolheadOffsets,0,0|0,0|0,0|0,0|0,0|0,0
;   overrideFirmwareConfiguration,0
;   firmwareTypeOverride,RepRap (Marlin/Repetier/Sprinter)
;   GPXconfigOverride,r2
;   baudRateOverride,115200
;   overridePrinterModels,0
;   printerModelsOverride
;   startingGcode,G28 ; home all axes,G1 X2 Y2 Z0.2 F3000 ; get ready to prime,G92 E0 ; reset extrusion distance,G1 Y150 E20 F600 ; prime nozzle
;   layerChangeGcode,
;   retractionGcode,
;   toolChangeGcode,
;   endingGcode,M104 S0 ; turn off extruder,M140 S0 ; turn off bedG1 X0 Y0; home,M84 ; disable motors,M107 ; fan off,G28 X Y; Home,M18; Disable steppers
;   exportFileFormat,gcode
;   celebration,0
;   celebrationSong,Random Song
;   postProcessing,
;   defaultSpeed,4600
;   outlineUnderspeed,0.5
;   solidInfillUnderspeed,0.8
;   supportUnderspeed,0.8
;   rapidXYspeed,4600
;   rapidZspeed,1000
;   minBridgingArea,50
;   bridgingExtraInflation,0
;   bridgingExtrusionMultiplier,1
;   bridgingSpeedMultiplier,1
;   useFixedBridgingAngle,0
;   fixedBridgingAngle,0
;   applyBridgingToPerimeters,0
;   filamentDiameters,1.75|1.75|1.75|1.75|1.75|1.75
;   filamentPricesPerKg,46|46|46|46|46|46
;   filamentDensities,1.25|1.25|1.25|1.25|1.25|1.25
;   useMinPrintHeight,0
;   minPrintHeight,0
;   useMaxPrintHeight,0
;   maxPrintHeight,0.6
;   useDiaphragm,0
;   diaphragmLayerInterval,20
;   robustSlicing,1
;   mergeAllIntoSolid,0
;   onlyRetractWhenCrossingOutline,1
;   retractBetweenLayers,1
;   useRetractionMinTravel,0
;   retractionMinTravel,3
;   retractWhileWiping,0
;   onlyWipeOutlines,1
;   avoidCrossingOutline,0
;   maxMovementDetourFactor,3
;   toolChangeRetractionDistance,12
;   toolChangeExtraRestartDistance,-0.5
;   toolChangeRetractionSpeed,600
;   externalThinWallType,1
;   internalThinWallType,1
;   thinWallAllowedOverlapPercentage,8
;   singleExtrusionMinLength,1
;   singleExtrusionMinPrintingWidthPercentage,50
;   singleExtrusionMaxPrintingWidthPercentage,200
;   singleExtrusionEndpointExtension,0.2
;   horizontalSizeCompensation,0
G90
M82
M106 S0
M140 S60
M104 S210 T0
M109 S210 T0
G28 ; home all axes
G1 X2 Y2 Z0.2 F3000 ; get ready to prime
G92 E0 ; reset extrusion distance
G1 Y150 E20 F600 ; prime nozzle
G92 E0
G1 E-1.0000 F1800
G1 Z0.270 F1000
; process Process1
; layer 1, Z = 0.270
T0
; tool H0.300 W0.412
; inner perimeter
G1 X99.528 Y93.588 F4600
G1 E0.0000 F540
G92 E0
G1 X138.292 Y93.588 E1.7928 F1035
G1 X138.292 Y132.352 E3.5855
G1 X99.528 Y132.352 E5.3783
G1 X99.528 Y93.588 E7.1711
; outer perimeter
G1 X99.116 Y93.176 F4600
G92 E0
G1 X138.704 Y93.176 E1.8309 F690
G1 X138.704 Y132.764 E3.6617
G1 X99.116 Y132.764 E5.4926
G1 X99.116 Y93.176 E7.3235
; solid layer
G1 X137.751 Y93.938 F4600
G92 E0
G1 X137.942 Y94.129 E0.0125 F1104
G1 X137.942 Y94.712 E0.0394
G1 X137.168 Y93.938 E0.0900
G1 X136.586 Y93.938 E0.1170
G1 X137.942 Y95.294 E0.2057
G1 X137.942 Y95.877 E0.2326
G1 X136.003 Y93.938 E0.3594
G1 X135.420 Y93.938 E0.3864
G1 X137.942 Y96.460 E0.5513
G1 X137.942 Y97.042 E0.5783
G1 X134.838 Y93.938 E0.7813
G1 X134.255 Y93.938 E0.8082
G1 X137.942 Y97.625 E1.0494
G1 X137.942 Y98.208 E1.0763
G1 X133.672 Y93.938 E1.3556
G1 X133.090 Y93.938 E1.3825
G1 X137.942 Y98.790 E1.6999
G1 X137.942 Y99.373 E1.7268
G1 X132.507 Y93.938 E2.0823
G1 X131.924 Y93.938 E2.1092
G1 X137.942 Y99.956 E2.5028
G1 X137.942 Y100.538 E2.5298
G1 X131.342 Y93.938 E2.9614
G1 X130.759 Y93.938 E2.9884
G1 X137.942 Y101.121 E3.4582
G1 X137.942 Y101.704 E3.4851
G1 X130.176 Y93.938 E3.9930
G1 X129.594 Y93.938 E4.0200
G1 X137.942 Y102.286 E4.5660
G1 X137.942 Y102.869 E4.5929
G1 X129.011 Y93.938 E5.1771
G1 X128.428 Y93.938 E5.2040
G1 X137.942 Y103.452 E5.8262
G1 X137.942 Y104.034 E5.8532
G1 X127.846 Y93.938 E6.5135
G1 X127.263 Y93.938 E6.5405
G1 X137.942 Y104.617 E7.2389
G1 X137.942 Y105.200 E7.2658
G1 X126.680 Y93.938 E8.0024
G1 X126.098 Y93.938 E8.0293
G1 X137.942 Y105.782 E8.8040
G1 X137.942 Y106.365 E8.8309
G1 X125.515 Y93.938 E9.6437
G1 X124.932 Y93.938 E9.6707
G1 X137.942 Y106.948 E10.5215
G1 X137.942 Y107.530 E10.5485
G1 X124.350 Y93.938 E11.4375
G1 X123.767 Y93.938 E11.4644
G1 X137.942 Y108.113 E12.3915
G1 X137.942 Y108.696 E12.4185
G1 X123.184 Y93.938 E13.3837
G1 X122.602 Y93.938 E13.4106
G1 X137.942 Y109.278 E14.4139
G1 X137.942 Y109.861 E14.4409
G1 X122.019 Y93.938 E15.4823
G1 X121.436 Y93.938 E15.5092
G1 X137.942 Y110.444 E16.5888
G1 X137.942 Y111.026 E16.6157
G1 X120.854 Y93.938 E17.7333
G1 X120.271 Y93.938 E17.7603
G1 X137.942 Y111.609 E18.9160
G1 X137.942 Y112.191 E18.9430
G1 X119.689 Y93.938 E20.1368
G1 X119.106 Y93.938 E20.1638
G1 X137.942 Y112.774 E21.3957
G1 X137.942 Y113.357 E21.4227
G1 X118.523 Y93.938 E22.6928
G1 X117.941 Y93.938 E22.7197
G1 X137.942 Y113.939 E24.0279
G1 X137.942 Y114.522 E24.0548
G1 X117.358 Y93.938 E25.4011
G1 X116.775 Y93.938 E25.4281
G1 X137.942 Y115.105 E26.8125
G1 X137.942 Y115.687 E26.8394
G1 X116.193 Y93.938 E28.2619
G1 X115.610 Y93.938 E28.2889
G1 X137.942 Y116.270 E29.7495
G1 X137.942 Y116.853 E29.7764
G1 X115.027 Y93.938 E31.2751
G1 X114.445 Y93.938 E31.3021
G1 X137.942 Y117.435 E32.8389
G1 X137.942 Y118.018 E32.8659
G1 X113.862 Y93.938 E34.4408
G1 X113.279 Y93.938 E34.4678
G1 X137.942 Y118.601 E36.0808
G1 X137.942 Y119.183 E36.1077
G1 X112.697 Y93.938 E37.7589
G1 X112.114 Y93.938 E37.7859
G1 X137.942 Y119.766 E39.4751
G1 X137.942 Y120.349 E39.5021
G1 X111.531 Y93.938 E41.2294
G1 X110.949 Y93.938 E41.2564
G1 X137.942 Y120.931 E43.0219
G1 X137.942 Y121.514 E43.0488
G1 X110.366 Y93.938 E44.8524
G1 X109.783 Y93.938 E44.8793
G1 X137.942 Y122.097 E46.7210
G1 X137.942 Y122.679 E46.7480
G1 X109.201 Y93.938 E48.6278
G1 X108.618 Y93.938 E48.6547
G1 X137.942 Y123.262 E50.5727
G1 X137.942 Y123.845 E50.5996
G1 X108.035 Y93.938 E52.5556
G1 X107.453 Y93.938 E52.5826
G1 X137.942 Y124.427 E54.5767
G1 X137.942 Y125.010 E54.6037
G1 X106.870 Y93.938 E56.6359
G1 X106.287 Y93.938 E56.6628
G1 X137.942 Y125.593 E58.7332
G1 X137.942 Y126.175 E58.7601
G1 X105.705 Y93.938 E60.8686
G1 X105.122 Y93.938 E60.8956
G1 X137.942 Y126.758 E63.0421
G1 X137.942 Y127.341 E63.0691
G1 X104.539 Y93.938 E65.2537
G1 X103.957 Y93.938 E65.2807
G1 X137.942 Y127.923 E67.5035
G1 X137.942 Y128.506 E67.5304
G1 X103.374 Y93.938 E69.7913
G1 X102.791 Y93.938 E69.8183
G1 X137.942 Y129.089 E72.1173
G1 X137.942 Y129.671 E72.1442
G1 X102.209 Y93.938 E74.4813
G1 X101.626 Y93.938 E74.5083
G1 X137.942 Y130.254 E76.8835
G1 X137.942 Y130.836 E76.9104
G1 X101.044 Y93.938 E79.3238
G1 X100.461 Y93.938 E79.3507
G1 X137.942 Y131.419 E81.8021
G1 X137.942 Y132.002 E81.8291
G1 X99.878 Y93.938 E84.3186
G1 X99.878 Y94.521 E84.3456
G1 X137.359 Y132.002 E86.7970
G1 X136.776 Y132.002 E86.8240
G1 X99.878 Y95.104 E89.2373
G1 X99.878 Y95.686 E89.2642
G1 X136.194 Y132.002 E91.6394
G1 X135.611 Y132.002 E91.6664
G1 X99.878 Y96.269 E94.0035
G1 X99.878 Y96.851 E94.0305
G1 X135.029 Y132.002 E96.3295
G1 X134.446 Y132.002 E96.3564
G1 X99.878 Y97.434 E98.6173
G1 X99.878 Y98.017 E98.6442
G1 X133.863 Y132.002 E100.8670
G1 X133.281 Y132.002 E100.8940
G1 X99.878 Y98.599 E103.0787
G1 X99.878 Y99.182 E103.1056
G1 X132.698 Y132.002 E105.2522
G1 X132.115 Y132.002 E105.2791
G1 X99.878 Y99.765 E107.3876
G1 X99.878 Y100.347 E107.4145
G1 X131.533 Y132.002 E109.4849
G1 X130.950 Y132.002 E109.5118
G1 X99.878 Y100.930 E111.5441
G1 X99.878 Y101.513 E111.5710
G1 X130.367 Y132.002 E113.5651
G1 X129.785 Y132.002 E113.5921
G1 X99.878 Y102.095 E115.5481
G1 X99.878 Y102.678 E115.5751
G1 X129.202 Y132.002 E117.4930
G1 X128.619 Y132.002 E117.5199
G1 X99.878 Y103.261 E119.3997
G1 X99.878 Y103.843 E119.4267
G1 X128.037 Y132.002 E121.2684
G1 X127.454 Y132.002 E121.2953
G1 X99.878 Y104.426 E123.0989
G1 X99.878 Y105.009 E123.1259
G1 X126.871 Y132.002 E124.8913
G1 X126.289 Y132.002 E124.9183
G1 X99.878 Y105.591 E126.6457
G1 X99.878 Y106.174 E126.6726
G1 X125.706 Y132.002 E128.3619
G1 X125.123 Y132.002 E128.3888
G1 X99.878 Y106.757 E130.0400
G1 X99.878 Y107.339 E130.0669
G1 X124.541 Y132.002 E131.6800
G1 X123.958 Y132.002 E131.7069
G1 X99.878 Y107.922 E133.2819
G1 X99.878 Y108.505 E133.3088
G1 X123.375 Y132.002 E134.8456
G1 X122.793 Y132.002 E134.8726
G1 X99.878 Y109.087 E136.3713
G1 X99.878 Y109.670 E136.3983
G1 X122.210 Y132.002 E137.8589
G1 X121.627 Y132.002 E137.8858
G1 X99.878 Y110.253 E139.3083
G1 X99.878 Y110.835 E139.3353
G1 X121.045 Y132.002 E140.7197
G1 X120.462 Y132.002 E140.7466
G1 X99.878 Y111.418 E142.0929
G1 X99.878 Y112.001 E142.1199
G1 X119.879 Y132.002 E143.4280
G1 X119.297 Y132.002 E143.4550
G1 X99.878 Y112.583 E144.7251
G1 X99.878 Y113.166 E144.7520
G1 X118.714 Y132.002 E145.9840
G1 X118.132 Y132.002 E146.0109
G1 X99.878 Y113.748 E147.2048
G1 X99.878 Y114.331 E147.2317
G1 X117.549 Y132.002 E148.3875
G1 X116.966 Y132.002 E148.4144
G1 X99.878 Y114.914 E149.5320
G1 X99.878 Y115.496 E149.5590
G1 X116.384 Y132.002 E150.6385
G1 X115.801 Y132.002 E150.6655
G1 X99.878 Y116.079 E151.7069
G1 X99.878 Y116.662 E151.7338
G1 X115.218 Y132.002 E152.7371
G1 X114.636 Y132.002 E152.7641
G1 X99.878 Y117.244 E153.7293
G1 X99.878 Y117.827 E153.7562
G1 X114.053 Y132.002 E154.6833
G1 X113.470 Y132.002 E154.7103
G1 X99.878 Y118.410 E155.5993
G1 X99.878 Y118.992 E155.6262
G1 X112.888 Y132.002 E156.4771
G1 X112.305 Y132.002 E156.5040
G1 X99.878 Y119.575 E157.3168
G1 X99.878 Y120.158 E157.3438
G1 X111.722 Y132.002 E158.1184
G1 X111.140 Y132.002 E158.1454
G1 X99.878 Y120.740 E158.8819
G1 X99.878 Y121.323 E158.9089
G1 X110.557 Y132.002 E159.6073
G1 X109.974 Y132.002 E159.6343
G1 X99.878 Y121.906 E160.2946
G1 X99.878 Y122.488 E160.3215
G1 X109.392 Y132.002 E160.9438
G1 X108.809 Y132.002 E160.9707
G1 X99.878 Y123.071 E161.5548
G1 X99.878 Y123.654 E161.5818
G1 X108.226 Y132.002 E162.1278
G1 X107.644 Y132.002 E162.1547
G1 X99.878 Y124.236 E162.6626
G1 X99.878 Y124.819 E162.6896
G1 X107.061 Y132.002 E163.1594
G1 X106.478 Y132.002 E163.1863
G1 X99.878 Y125.402 E163.6180
G1 X99.878 Y125.984 E163.6450
G1 X105.896 Y132.002 E164.0385
G1 X105.313 Y132.002 E164.0655
G1 X99.878 Y126.567 E164.4209
G1 X99.878 Y127.150 E164.4479
G1 X104.730 Y132.002 E164.7653
G1 X104.148 Y132.002 E164.7922
G1 X99.878 Y127.732 E165.0714
G1 X99.878 Y128.315 E165.0984
G1 X103.565 Y132.002 E165.3395
G1 X102.982 Y132.002 E165.3665
G1 X99.878 Y128.898 E165.5695
G1 X99.878 Y129.480 E165.5965
G1 X102.400 Y132.002 E165.7614
G1 X101.817 Y132.002 E165.7883
G1 X99.878 Y130.063 E165.9152
G1 X99.878 Y130.646 E165.9421
G1 X101.234 Y132.002 E166.0308
G1 X100.652 Y132.002 E166.0578
G1 X99.878 Y131.228 E166.1084
G1 X99.878 Y131.811 E166.1353
G1 X100.069 Y132.002 E166.1478
G92 E0
G1 E-1.0000 F1800
; layer 2, Z = 0.570
M106 S255
; tool H0.300 W0.400
; inner perimeter
G1 X99.510 Y132.370 F4600
G1 Z0.570 F1000
G1 E0.0000 F1800
G92 E0
G1 X99.510 Y93.570 E1.7422 F3450
G1 X138.310 Y93.570 E3.4843
G1 X138.310 Y132.370 E5.2265
G1 X99.510 Y132.370 E6.9687
; outer perimeter
G1 X99.110 Y132.770 F4600
G92 E0
G1 X99.110 Y93.170 E1.7781 F2300
G1 X138.710 Y93.170 E3.5562
G1 X138.710 Y132.770 E5.3343
G1 X99.110 Y132.770 E7.1123
; solid layer
G1 X99.850 Y94.129 F4600
G92 E0
G1 X100.069 Y93.910 E0.0139 F3680
G1 X100.635 Y93.910 E0.0393
G1 X99.850 Y94.695 E0.0891
G1 X99.850 Y95.260 E0.1145
G1 X101.200 Y93.910 E0.2003
G1 X101.766 Y93.910 E0.2257
G1 X99.850 Y95.826 E0.3474
G1 X99.850 Y96.392 E0.3728
G1 X102.332 Y93.910 E0.5304
G1 X102.898 Y93.910 E0.5558
G1 X99.850 Y96.958 E0.7493
G1 X99.850 Y97.523 E0.7747
G1 X103.463 Y93.910 E1.0041
G1 X104.029 Y93.910 E1.0295
G1 X99.850 Y98.089 E1.2949
G1 X99.850 Y98.655 E1.3203
G1 X104.595 Y93.910 E1.6216
G1 X105.160 Y93.910 E1.6470
G1 X99.850 Y99.220 E1.9842
G1 X99.850 Y99.786 E2.0096
G1 X105.726 Y93.910 E2.3827
G1 X106.292 Y93.910 E2.4081
G1 X99.850 Y100.352 E2.8171
G1 X99.850 Y100.917 E2.8425
G1 X106.857 Y93.910 E3.2875
G1 X107.423 Y93.910 E3.3129
G1 X99.850 Y101.483 E3.7938
G1 X99.850 Y102.049 E3.8192
G1 X107.989 Y93.910 E4.3360
G1 X108.554 Y93.910 E4.3614
G1 X99.850 Y102.614 E4.9141
G1 X99.850 Y103.180 E4.9395
G1 X109.120 Y93.910 E5.5282
G1 X109.686 Y93.910 E5.5536
G1 X99.850 Y103.746 E6.1781
G1 X99.850 Y104.311 E6.2035
G1 X110.251 Y93.910 E6.8640
G1 X110.817 Y93.910 E6.8894
G1 X99.850 Y104.877 E7.5858
G1 X99.850 Y105.443 E7.6112
G1 X111.383 Y93.910 E8.3436
G1 X111.949 Y93.910 E8.3690
G1 X99.850 Y106.009 E9.1372
G1 X99.850 Y106.574 E9.1626
G1 X112.514 Y93.910 E9.9668
G1 X113.080 Y93.910 E9.9922
G1 X99.850 Y107.140 E10.8323
G1 X99.850 Y107.706 E10.8577
G1 X113.646 Y93.910 E11.7337
G1 X114.211 Y93.910 E11.7591
