; G-Code generated by Simplify3D(R) Version 4.0.0
; Oct 21, 2019 at 7:23:36 PM
; Settings Summary
;   processName,Process2
;   applyToModels,A6PowerCover2018-R1
;   profileName,Default(2) (modified)
;   profileVersion,2019-07-27 15:21:07
;   baseProfile,
;   printMaterial,PLA
;   printQuality,Medium
;   printExtruders,
;   extruderName,Primary Extruder
;   extruderToolheadNumber,0
;   extruderDiameter,0.4
;   extruderAutoWidth,1
;   extruderWidth,0.48
;   extrusionMultiplier,0.9
;   extruderUseRetract,1
;   extruderRetractionDistance,1
;   extruderExtraRestartDistance,0
;   extruderRetractionZLift,0
;   extruderRetractionSpeed,1800
;   extruderUseCoasting,0
;   extruderCoastingDistance,0.2
;   extruderUseWipe,0
;   extruderWipeDistance,5
;   primaryExtruder,0
;   layerHeight,0.15
;   topSolidLayers,3
;   bottomSolidLayers,2
;   perimeterOutlines,2
;   printPerimetersInsideOut,1
;   startPointOption,2
;   startPointOriginX,0
;   startPointOriginY,0
;   sequentialIslands,0
;   spiralVaseMode,0
;   firstLayerHeightPercentage,90
;   firstLayerWidthPercentage,100
;   firstLayerUnderspeed,0.5
;   useRaft,0
;   raftExtruder,0
;   raftTopLayers,3
;   raftBaseLayers,2
;   raftOffset,3
;   raftSeparationDistance,0.14
;   raftTopInfill,100
;   aboveRaftSpeedMultiplier,0.3
;   useSkirt,0
;   skirtExtruder,0
;   skirtLayers,1
;   skirtOutlines,2
;   skirtOffset,4
;   usePrimePillar,0
;   primePillarExtruder,999
;   primePillarWidth,12
;   primePillarLocation,7
;   primePillarSpeedMultiplier,1
;   useOozeShield,0
;   oozeShieldExtruder,999
;   oozeShieldOffset,2
;   oozeShieldOutlines,1
;   oozeShieldSidewallShape,1
;   oozeShieldSidewallAngle,30
;   oozeShieldSpeedMultiplier,1
;   infillExtruder,0
;   internalInfillPattern,Rectilinear
;   externalInfillPattern,Rectilinear
;   infillPercentage,15
;   outlineOverlapPercentage,15
;   infillExtrusionWidthPercentage,100
;   minInfillLength,5
;   infillLayerInterval,1
;   internalInfillAngles,45,-45
;   overlapInternalInfillAngles,0
;   externalInfillAngles,45,-45
;   generateSupport,0
;   supportExtruder,0
;   supportInfillPercentage,30
;   supportExtraInflation,0
;   supportBaseLayers,0
;   denseSupportExtruder,0
;   denseSupportLayers,0
;   denseSupportInfillPercentage,70
;   supportLayerInterval,1
;   supportHorizontalPartOffset,0.3
;   supportUpperSeparationLayers,1
;   supportLowerSeparationLayers,1
;   supportType,0
;   supportGridSpacing,4
;   maxOverhangAngle,45
;   supportAngles,0
;   temperatureName,Primary Extruder,Hot Bed
;   temperatureNumber,0,1
;   temperatureSetpointCount,1,1
;   temperatureSetpointLayers,1,1
;   temperatureSetpointTemperatures,200,60
;   temperatureStabilizeAtStartup,1,0
;   temperatureHeatedBed,0,1
;   temperatureRelayBetweenLayers,0,0
;   temperatureRelayBetweenLoops,0,0
;   fanLayers,1,2
;   fanSpeeds,0,100
;   blipFanToFullPower,0
;   adjustSpeedForCooling,1
;   minSpeedLayerTime,15
;   minCoolingSpeedSlowdown,20
;   increaseFanForCooling,0
;   minFanLayerTime,45
;   maxCoolingFanSpeed,100
;   increaseFanForBridging,0
;   bridgingFanSpeed,100
;   use5D,1
;   relativeEdistances,0
;   allowEaxisZeroing,1
;   independentExtruderAxes,0
;   includeM10123,0
;   stickySupport,1
;   applyToolheadOffsets,0
;   gcodeXoffset,-9
;   gcodeYoffset,-4
;   gcodeZoffset,0
;   overrideMachineDefinition,0
;   machineTypeOverride,0
;   strokeXoverride,200
;   strokeYoverride,200
;   strokeZoverride,200
;   originOffsetXoverride,0
;   originOffsetYoverride,0
;   originOffsetZoverride,0
;   homeXdirOverride,-1
;   homeYdirOverride,-1
;   homeZdirOverride,-1
;   flipXoverride,1
;   flipYoverride,-1
;   flipZoverride,1
;   toolheadOffsets,0,0|0,0|0,0|0,0|0,0|0,0
;   overrideFirmwareConfiguration,0
;   firmwareTypeOverride,RepRap (Marlin/Repetier/Sprinter)
;   GPXconfigOverride,r2
;   baudRateOverride,115200
;   overridePrinterModels,0
;   printerModelsOverride
;   startingGcode,G28 ; home all axes,G1 X2 Y15 Z0.2 F3000 ; get ready to prime,G92 E0 ; reset extrusion distance,G1 Y150 E20 F600 ; prime nozzle
;   layerChangeGcode,
;   retractionGcode,
;   toolChangeGcode,
;   endingGcode,M104 S0 ; turn off extruder,M140 S0 ; turn off bed,G28 X Y ; home X & Y,M84 ; disable motors
;   exportFileFormat,gcode
;   celebration,0
;   celebrationSong,Random Song
;   postProcessing,
;   defaultSpeed,4400
;   outlineUnderspeed,0.5
;   solidInfillUnderspeed,0.8
;   supportUnderspeed,0.8
;   rapidXYspeed,4800
;   rapidZspeed,1000
;   minBridgingArea,50
;   bridgingExtraInflation,0
;   bridgingExtrusionMultiplier,1
;   bridgingSpeedMultiplier,1
;   useFixedBridgingAngle,0
;   fixedBridgingAngle,0
;   applyBridgingToPerimeters,0
;   filamentDiameters,1.75|1.75|1.75|1.75|1.75|1.75
;   filamentPricesPerKg,46|46|46|46|46|46
;   filamentDensities,1.25|1.25|1.25|1.25|1.25|1.25
;   useMinPrintHeight,0
;   minPrintHeight,0
;   useMaxPrintHeight,0
;   maxPrintHeight,0
;   useDiaphragm,0
;   diaphragmLayerInterval,20
;   robustSlicing,1
;   mergeAllIntoSolid,0
;   onlyRetractWhenCrossingOutline,1
;   retractBetweenLayers,1
;   useRetractionMinTravel,0
;   retractionMinTravel,3
;   retractWhileWiping,0
;   onlyWipeOutlines,1
;   avoidCrossingOutline,0
;   maxMovementDetourFactor,3
;   toolChangeRetractionDistance,12
;   toolChangeExtraRestartDistance,-0.5
;   toolChangeRetractionSpeed,600
;   externalThinWallType,1
;   internalThinWallType,1
;   thinWallAllowedOverlapPercentage,10
;   singleExtrusionMinLength,1
;   singleExtrusionMinPrintingWidthPercentage,50
;   singleExtrusionMaxPrintingWidthPercentage,200
;   singleExtrusionEndpointExtension,0.2
;   horizontalSizeCompensation,0
G90
M82
M106 S0
M140 S60
M104 S200 T0
M109 S200 T0
G28 ; home all axes
G1 X2 Y15 Z0.2 F3000 ; get ready to prime
G92 E0 ; reset extrusion distance
G1 Y150 E20 F600 ; prime nozzle
G92 E0
G1 E-1.0000 F1800
G1 Z0.135 F1000
; process Process2
; layer 1, Z = 0.135
T0
; tool H0.150 W0.480
; inner perimeter
G1 X55.720 Y76.921 F4800
G1 E0.0000 F540
G92 E0
G1 X169.280 Y76.921 E3.0594 F1650
G1 X169.280 Y148.079 E4.9764
G1 X55.720 Y148.079 E8.0358
G1 X55.720 Y76.921 E9.9529
; outer perimeter
G1 X55.240 Y76.441 F4800
G92 E0
G1 X169.760 Y76.441 E3.0853 F1100
G1 X169.760 Y148.559 E5.0282
G1 X55.240 Y148.559 E8.1134
G1 X55.240 Y76.441 E10.0563
; solid layer
G1 X56.709 Y147.671 F4800
G92 E0
G1 X56.128 Y147.090 E0.0221 F1760
G1 X56.128 Y146.411 E0.0404
G1 X57.388 Y147.671 E0.0884
G1 X58.066 Y147.671 E0.1067
G1 X56.128 Y145.733 E0.1806
G1 X56.128 Y145.054 E0.1988
G1 X58.745 Y147.671 E0.2986
G1 X59.424 Y147.671 E0.3168
G1 X56.128 Y144.375 E0.4424
G1 X56.128 Y143.696 E0.4607
G1 X60.103 Y147.671 E0.6122
G1 X60.782 Y147.671 E0.6304
G1 X56.128 Y143.017 E0.8078
G1 X56.128 Y142.338 E0.8260
G1 X61.461 Y147.671 E1.0292
G1 X62.139 Y147.671 E1.0475
G1 X56.128 Y141.660 E1.2765
G1 X56.128 Y140.981 E1.2948
G1 X62.818 Y147.671 E1.5497
G1 X63.497 Y147.671 E1.5680
G1 X56.128 Y140.302 E1.8488
G1 X56.128 Y139.623 E1.8671
G1 X64.176 Y147.671 E2.1737
G1 X64.855 Y147.671 E2.1920
G1 X56.128 Y138.944 E2.5245
G1 X56.128 Y138.266 E2.5427
G1 X65.533 Y147.671 E2.9011
G1 X66.212 Y147.671 E2.9194
G1 X56.128 Y137.587 E3.3036
G1 X56.128 Y136.908 E3.3219
G1 X66.891 Y147.671 E3.7320
G1 X67.570 Y147.671 E3.7502
G1 X56.128 Y136.229 E4.1862
G1 X56.128 Y135.550 E4.2045
G1 X68.249 Y147.671 E4.6663
G1 X68.928 Y147.671 E4.6846
G1 X56.128 Y134.871 E5.1722
G1 X56.128 Y134.193 E5.1905
G1 X69.606 Y147.671 E5.7040
G1 X70.285 Y147.671 E5.7223
G1 X56.128 Y133.514 E6.2617
G1 X56.128 Y132.835 E6.2800
G1 X70.964 Y147.671 E6.8453
G1 X71.643 Y147.671 E6.8635
G1 X56.128 Y132.156 E7.4547
G1 X56.128 Y131.477 E7.4729
G1 X72.322 Y147.671 E8.0899
G1 X73.001 Y147.671 E8.1082
G1 X56.128 Y130.798 E8.7511
G1 X56.128 Y130.120 E8.7693
G1 X73.679 Y147.671 E9.4381
G1 X74.358 Y147.671 E9.4563
G1 X56.128 Y129.441 E10.1509
G1 X56.128 Y128.762 E10.1692
G1 X75.037 Y147.671 E10.8896
G1 X75.716 Y147.671 E10.9079
G1 X56.128 Y128.083 E11.6542
G1 X56.128 Y127.404 E11.6725
G1 X76.395 Y147.671 E12.4447
G1 X77.073 Y147.671 E12.4629
G1 X56.128 Y126.726 E13.2610
G1 X56.128 Y126.047 E13.2793
G1 X77.752 Y147.671 E14.1031
G1 X78.431 Y147.671 E14.1214
G1 X56.128 Y125.368 E14.9712
G1 X56.128 Y124.689 E14.9895
G1 X79.110 Y147.671 E15.8651
G1 X79.789 Y147.671 E15.8834
G1 X56.128 Y124.010 E16.7848
G1 X56.128 Y123.331 E16.8031
G1 X80.468 Y147.671 E17.7305
G1 X81.146 Y147.671 E17.7487
G1 X56.128 Y122.653 E18.7019
G1 X56.128 Y121.974 E18.7202
G1 X81.825 Y147.671 E19.6993
G1 X82.504 Y147.671 E19.7176
G1 X56.128 Y121.295 E20.7225
G1 X56.128 Y120.616 E20.7408
G1 X83.183 Y147.671 E21.7716
G1 X83.862 Y147.671 E21.7899
G1 X56.128 Y119.937 E22.8465
G1 X56.128 Y119.258 E22.8648
G1 X84.541 Y147.671 E23.9473
G1 X85.219 Y147.671 E23.9656
G1 X56.128 Y118.580 E25.0740
G1 X56.128 Y117.901 E25.0923
G1 X85.898 Y147.671 E26.2265
G1 X86.577 Y147.671 E26.2448
G1 X56.128 Y117.222 E27.4049
G1 X56.128 Y116.543 E27.4232
G1 X87.256 Y147.671 E28.6092
G1 X87.935 Y147.671 E28.6275
G1 X56.128 Y115.864 E29.8393
G1 X56.128 Y115.186 E29.8576
G1 X88.613 Y147.671 E31.0953
G1 X89.292 Y147.671 E31.1136
G1 X56.128 Y114.507 E32.3771
G1 X56.128 Y113.828 E32.3954
G1 X89.971 Y147.671 E33.6848
G1 X90.650 Y147.671 E33.7031
G1 X56.128 Y113.149 E35.0184
G1 X56.128 Y112.470 E35.0367
G1 X91.329 Y147.671 E36.3778
G1 X92.008 Y147.671 E36.3961
G1 X56.128 Y111.791 E37.7631
G1 X56.128 Y111.113 E37.7814
G1 X92.686 Y147.671 E39.1743
G1 X93.365 Y147.671 E39.1926
G1 X56.128 Y110.434 E40.6113
G1 X56.128 Y109.755 E40.6296
G1 X94.044 Y147.671 E42.0742
G1 X94.723 Y147.671 E42.0925
G1 X56.128 Y109.076 E43.5630
G1 X56.128 Y108.397 E43.5812
G1 X95.402 Y147.671 E45.0776
G1 X96.081 Y147.671 E45.0959
G1 X56.128 Y107.718 E46.6180
G1 X56.128 Y107.040 E46.6363
G1 X96.759 Y147.671 E48.1844
G1 X97.438 Y147.671 E48.2027
G1 X56.128 Y106.361 E49.7766
G1 X56.128 Y105.682 E49.7949
G1 X98.117 Y147.671 E51.3946
G1 X98.796 Y147.671 E51.4129
G1 X56.128 Y105.003 E53.0386
G1 X56.128 Y104.324 E53.0569
G1 X99.475 Y147.671 E54.7084
G1 X100.153 Y147.671 E54.7267
G1 X56.128 Y103.646 E56.4040
G1 X56.128 Y102.967 E56.4223
G1 X100.832 Y147.671 E58.1255
G1 X101.511 Y147.671 E58.1438
G1 X56.128 Y102.288 E59.8729
G1 X56.128 Y101.609 E59.8912
G1 X102.190 Y147.671 E61.6462
G1 X102.869 Y147.671 E61.6644
G1 X56.128 Y100.930 E63.4453
G1 X56.128 Y100.251 E63.4636
G1 X103.548 Y147.671 E65.2702
G1 X104.226 Y147.671 E65.2885
G1 X56.128 Y99.573 E67.1211
G1 X56.128 Y98.894 E67.1394
G1 X104.905 Y147.671 E68.9978
G1 X105.584 Y147.671 E69.0161
G1 X56.128 Y98.215 E70.9003
G1 X56.128 Y97.536 E70.9186
G1 X106.263 Y147.671 E72.8287
G1 X106.942 Y147.671 E72.8470
G1 X56.128 Y96.857 E74.7830
G1 X56.128 Y96.179 E74.8013
G1 X107.620 Y147.671 E76.7632
G1 X108.299 Y147.671 E76.7815
G1 X56.128 Y95.500 E78.7692
G1 X56.128 Y94.821 E78.7875
G1 X108.978 Y147.671 E80.8011
G1 X109.657 Y147.671 E80.8194
G1 X56.128 Y94.142 E82.8588
G1 X56.128 Y93.463 E82.8771
G1 X110.336 Y147.671 E84.9424
G1 X111.015 Y147.671 E84.9607
G1 X56.128 Y92.784 E87.0519
G1 X56.128 Y92.106 E87.0702
G1 X111.693 Y147.671 E89.1872
G1 X112.372 Y147.671 E89.2055
G1 X56.128 Y91.427 E91.3484
G1 X56.128 Y90.748 E91.3667
G1 X113.051 Y147.671 E93.5354
G1 X113.730 Y147.671 E93.5537
G1 X56.128 Y90.069 E95.7483
G1 X56.128 Y89.390 E95.7666
G1 X114.409 Y147.671 E97.9871
G1 X115.088 Y147.671 E98.0054
G1 X56.128 Y88.711 E100.2518
G1 X56.128 Y88.033 E100.2701
G1 X115.766 Y147.671 E102.5423
G1 X116.445 Y147.671 E102.5606
G1 X56.128 Y87.354 E104.8586
G1 X56.128 Y86.675 E104.8769
G1 X117.124 Y147.671 E107.2009
G1 X117.803 Y147.671 E107.2192
G1 X56.128 Y85.996 E109.5690
G1 X56.128 Y85.317 E109.5873
G1 X118.482 Y147.671 E111.9629
G1 X119.160 Y147.671 E111.9812
G1 X56.128 Y84.639 E114.3827
G1 X56.128 Y83.960 E114.4010
G1 X119.839 Y147.671 E116.8284
G1 X120.518 Y147.671 E116.8467
G1 X56.128 Y83.281 E119.3000
G1 X56.128 Y82.602 E119.3183
G1 X121.197 Y147.671 E121.7974
G1 X121.876 Y147.671 E121.8157
G1 X56.128 Y81.923 E124.3207
G1 X56.128 Y81.244 E124.3389
G1 X122.555 Y147.671 E126.8698
G1 X123.233 Y147.671 E126.8881
G1 X56.128 Y80.566 E129.4448
G1 X56.128 Y79.887 E129.4631
G1 X123.912 Y147.671 E132.0457
G1 X124.591 Y147.671 E132.0639
G1 X56.128 Y79.208 E134.6724
G1 X56.128 Y78.529 E134.6907
G1 X125.270 Y147.671 E137.3250
G1 X125.949 Y147.671 E137.3433
G1 X56.128 Y77.850 E140.0034
G1 X56.128 Y77.329 E140.0175
G1 X56.286 Y77.329 E140.0217
G1 X126.628 Y147.671 E142.7017
G1 X127.306 Y147.671 E142.7200
G1 X56.964 Y77.329 E145.4000
G1 X57.643 Y77.329 E145.4183
G1 X127.985 Y147.671 E148.0984
G1 X128.664 Y147.671 E148.1166
G1 X58.322 Y77.329 E150.7967
G1 X59.001 Y77.329 E150.8150
G1 X129.343 Y147.671 E153.4950
G1 X130.022 Y147.671 E153.5133
G1 X59.680 Y77.329 E156.1933
G1 X60.358 Y77.329 E156.2116
G1 X130.700 Y147.671 E158.8916
G1 X131.379 Y147.671 E158.9099
G1 X61.037 Y77.329 E161.5899
G1 X61.716 Y77.329 E161.6082
G1 X132.058 Y147.671 E164.2882
G1 X132.737 Y147.671 E164.3065
G1 X62.395 Y77.329 E166.9865
G1 X63.074 Y77.329 E167.0048
G1 X133.416 Y147.671 E169.6849
G1 X134.095 Y147.671 E169.7031
G1 X63.753 Y77.329 E172.3832
G1 X64.431 Y77.329 E172.4015
G1 X134.773 Y147.671 E175.0815
G1 X135.452 Y147.671 E175.0998
G1 X65.110 Y77.329 E177.7798
G1 X65.789 Y77.329 E177.7981
G1 X136.131 Y147.671 E180.4781
G1 X136.810 Y147.671 E180.4964
G1 X66.468 Y77.329 E183.1764
G1 X67.147 Y77.329 E183.1947
G1 X137.489 Y147.671 E185.8747
G1 X138.168 Y147.671 E185.8930
G1 X67.825 Y77.329 E188.5731
G1 X68.504 Y77.329 E188.5913
G1 X138.846 Y147.671 E191.2714
G1 X139.525 Y147.671 E191.2897
G1 X69.183 Y77.329 E193.9697
G1 X69.862 Y77.329 E193.9880
G1 X140.204 Y147.671 E196.6680
G1 X140.883 Y147.671 E196.6863
G1 X70.541 Y77.329 E199.3663
G1 X71.220 Y77.329 E199.3846
G1 X141.562 Y147.671 E202.0646
G1 X142.240 Y147.671 E202.0829
G1 X71.898 Y77.329 E204.7629
G1 X72.577 Y77.329 E204.7812
G1 X142.919 Y147.671 E207.4612
G1 X143.598 Y147.671 E207.4795
G1 X73.256 Y77.329 E210.1596
G1 X73.935 Y77.329 E210.1778
G1 X144.277 Y147.671 E212.8579
G1 X144.956 Y147.671 E212.8762
G1 X74.614 Y77.329 E215.5562
G1 X75.293 Y77.329 E215.5745
G1 X145.635 Y147.671 E218.2545
G1 X146.313 Y147.671 E218.2728
G1 X75.971 Y77.329 E220.9528
G1 X76.650 Y77.329 E220.9711
G1 X146.992 Y147.671 E223.6511
G1 X147.671 Y147.671 E223.6694
G1 X77.329 Y77.329 E226.3494
G1 X78.008 Y77.329 E226.3677
G1 X148.350 Y147.671 E229.0477
G1 X149.029 Y147.671 E229.0660
G1 X78.687 Y77.329 E231.7461
G1 X79.365 Y77.329 E231.7643
G1 X149.707 Y147.671 E234.4444
G1 X150.386 Y147.671 E234.4627
G1 X80.044 Y77.329 E237.1427
G1 X80.723 Y77.329 E237.1610
G1 X151.065 Y147.671 E239.8410
G1 X151.744 Y147.671 E239.8593
G1 X81.402 Y77.329 E242.5393
G1 X82.081 Y77.329 E242.5576
G1 X152.423 Y147.671 E245.2376
G1 X153.102 Y147.671 E245.2559
G1 X82.760 Y77.329 E247.9359
G1 X83.438 Y77.329 E247.9542
G1 X153.780 Y147.671 E250.6343
G1 X154.459 Y147.671 E250.6525
G1 X84.117 Y77.329 E253.3326
G1 X84.796 Y77.329 E253.3509
G1 X155.138 Y147.671 E256.0309
G1 X155.817 Y147.671 E256.0492
G1 X85.475 Y77.329 E258.7292
G1 X86.154 Y77.329 E258.7475
G1 X156.496 Y147.671 E261.4275
G1 X157.175 Y147.671 E261.4458
G1 X86.833 Y77.329 E264.1258
G1 X87.511 Y77.329 E264.1441
G1 X157.853 Y147.671 E266.8241
G1 X158.532 Y147.671 E266.8424
G1 X88.190 Y77.329 E269.5224
G1 X88.869 Y77.329 E269.5407
G1 X159.211 Y147.671 E272.2208
G1 X159.890 Y147.671 E272.2390
G1 X89.548 Y77.329 E274.9191
G1 X90.227 Y77.329 E274.9374
G1 X160.569 Y147.671 E277.6174
G1 X161.247 Y147.671 E277.6357
G1 X90.905 Y77.329 E280.3157
G1 X91.584 Y77.329 E280.3340
G1 X161.926 Y147.671 E283.0140
G1 X162.605 Y147.671 E283.0323
G1 X92.263 Y77.329 E285.7123
G1 X92.942 Y77.329 E285.7306
G1 X163.284 Y147.671 E288.4106
G1 X163.963 Y147.671 E288.4289
G1 X93.621 Y77.329 E291.1089
G1 X94.300 Y77.329 E291.1272
G1 X164.642 Y147.671 E293.8073
G1 X165.320 Y147.671 E293.8256
G1 X94.978 Y77.329 E296.5056
G1 X95.657 Y77.329 E296.5239
G1 X165.999 Y147.671 E299.2039
G1 X166.678 Y147.671 E299.2222
G1 X96.336 Y77.329 E301.9022
G1 X97.015 Y77.329 E301.9205
G1 X167.357 Y147.671 E304.6005
G1 X168.036 Y147.671 E304.6188
G1 X97.694 Y77.329 E307.2988
