; G-Code generated by Simplify3D(R) Version 4.0.0
; Aug 17, 2018 at 2:27:39 PM
; Settings Summary
;   processName,Process1
;   applyToModels,Anti_Holguras-v2-antodelg-0.8
;   profileName,Flyingbear p902 (modified)
;   profileVersion,2017-02-06 00:22:54
;   baseProfile,Default
;   printMaterial,PLA
;   printQuality,Medium
;   printExtruders,
;   extruderName,Extruder 1
;   extruderToolheadNumber,0
;   extruderDiameter,0.4
;   extruderAutoWidth,1
;   extruderWidth,0.48
;   extrusionMultiplier,1
;   extruderUseRetract,1
;   extruderRetractionDistance,1
;   extruderExtraRestartDistance,0
;   extruderRetractionZLift,0
;   extruderRetractionSpeed,3400
;   extruderUseCoasting,0
;   extruderCoastingDistance,0.2
;   extruderUseWipe,0
;   extruderWipeDistance,5
;   primaryExtruder,0
;   layerHeight,0.3
;   topSolidLayers,5
;   bottomSolidLayers,5
;   perimeterOutlines,4
;   printPerimetersInsideOut,1
;   startPointOption,2
;   startPointOriginX,0
;   startPointOriginY,0
;   sequentialIslands,0
;   spiralVaseMode,0
;   firstLayerHeightPercentage,90
;   firstLayerWidthPercentage,100
;   firstLayerUnderspeed,0.5
;   useRaft,0
;   raftExtruder,0
;   raftTopLayers,3
;   raftBaseLayers,1
;   raftOffset,2
;   raftSeparationDistance,0.2
;   raftTopInfill,100
;   aboveRaftSpeedMultiplier,0.3
;   useSkirt,0
;   skirtExtruder,0
;   skirtLayers,1
;   skirtOutlines,2
;   skirtOffset,4
;   usePrimePillar,0
;   primePillarExtruder,999
;   primePillarWidth,12
;   primePillarLocation,7
;   primePillarSpeedMultiplier,1
;   useOozeShield,0
;   oozeShieldExtruder,999
;   oozeShieldOffset,2
;   oozeShieldOutlines,1
;   oozeShieldSidewallShape,1
;   oozeShieldSidewallAngle,30
;   oozeShieldSpeedMultiplier,1
;   infillExtruder,0
;   internalInfillPattern,Rectilinear
;   externalInfillPattern,Rectilinear
;   infillPercentage,50
;   outlineOverlapPercentage,15
;   infillExtrusionWidthPercentage,100
;   minInfillLength,5
;   infillLayerInterval,1
;   internalInfillAngles,45,-45
;   overlapInternalInfillAngles,0
;   externalInfillAngles,45,-45
;   generateSupport,0
;   supportExtruder,0
;   supportInfillPercentage,15
;   supportExtraInflation,0.5
;   supportBaseLayers,0
;   denseSupportExtruder,0
;   denseSupportLayers,0
;   denseSupportInfillPercentage,70
;   supportLayerInterval,1
;   supportHorizontalPartOffset,0.3
;   supportUpperSeparationLayers,1
;   supportLowerSeparationLayers,1
;   supportType,1
;   supportGridSpacing,1
;   maxOverhangAngle,60
;   supportAngles,0
;   temperatureName,Extruder 1,Heated Bed
;   temperatureNumber,0,0
;   temperatureSetpointCount,1,1
;   temperatureSetpointLayers,1,1
;   temperatureSetpointTemperatures,210,60
;   temperatureStabilizeAtStartup,1,1
;   temperatureHeatedBed,0,1
;   temperatureRelayBetweenLayers,0,0
;   temperatureRelayBetweenLoops,0,0
;   fanLayers,1,2
;   fanSpeeds,0,100
;   blipFanToFullPower,0
;   adjustSpeedForCooling,1
;   minSpeedLayerTime,15
;   minCoolingSpeedSlowdown,20
;   increaseFanForCooling,0
;   minFanLayerTime,45
;   maxCoolingFanSpeed,100
;   increaseFanForBridging,1
;   bridgingFanSpeed,100
;   use5D,1
;   relativeEdistances,0
;   allowEaxisZeroing,1
;   independentExtruderAxes,0
;   includeM10123,0
;   stickySupport,1
;   applyToolheadOffsets,0
;   gcodeXoffset,0
;   gcodeYoffset,0
;   gcodeZoffset,0
;   overrideMachineDefinition,1
;   machineTypeOverride,0
;   strokeXoverride,220
;   strokeYoverride,220
;   strokeZoverride,280
;   originOffsetXoverride,0
;   originOffsetYoverride,0
;   originOffsetZoverride,0
;   homeXdirOverride,-1
;   homeYdirOverride,-1
;   homeZdirOverride,-1
;   flipXoverride,1
;   flipYoverride,-1
;   flipZoverride,1
;   toolheadOffsets,0,0|0,0|0,0|0,0|0,0|0,0
;   overrideFirmwareConfiguration,1
;   firmwareTypeOverride,RepRap (Marlin/Repetier/Sprinter)
;   GPXconfigOverride,r2
;   baudRateOverride,250000
;   overridePrinterModels,0
;   printerModelsOverride
;   startingGcode,G28 ; home all axes,G1 X0 Y5 Z0.2 F3000 ; get ready to prime,G92 E0 ; reset extrusion distance,G1 X200 E20 F600 ; prime nozzle
;   layerChangeGcode,
;   retractionGcode,
;   toolChangeGcode,
;   endingGcode,M104 S0 ; turn off extruder,M140 S0 ; turn off bed,G91 ; use relative coordinates,G1 Z0.6 F5000 ; lift nozzle by 0.6mm,G90 ; use absolute coordinates,G28 X0 ; home X axis,G28 Y0 ; home X axis,M84 ; disable motors,M107 ; turn off fan
;   exportFileFormat,gcode
;   celebration,0
;   celebrationSong,Random Song
;   postProcessing,
;   defaultSpeed,4200
;   outlineUnderspeed,0.9
;   solidInfillUnderspeed,1
;   supportUnderspeed,0.8
;   rapidXYspeed,4200
;   rapidZspeed,1002
;   minBridgingArea,50
;   bridgingExtraInflation,0
;   bridgingExtrusionMultiplier,1
;   bridgingSpeedMultiplier,1
;   useFixedBridgingAngle,0
;   fixedBridgingAngle,0
;   applyBridgingToPerimeters,0
;   filamentDiameters,1.75|1.75|1.75|1.75|1.75|1.75
;   filamentPricesPerKg,46|46|46|46|46|46
;   filamentDensities,1.25|1.25|1.25|1.25|1.25|1.25
;   useMinPrintHeight,0
;   minPrintHeight,0
;   useMaxPrintHeight,0
;   maxPrintHeight,0
;   useDiaphragm,0
;   diaphragmLayerInterval,20
;   robustSlicing,1
;   mergeAllIntoSolid,0
;   onlyRetractWhenCrossingOutline,1
;   retractBetweenLayers,1
;   useRetractionMinTravel,0
;   retractionMinTravel,3
;   retractWhileWiping,0
;   onlyWipeOutlines,1
;   avoidCrossingOutline,0
;   maxMovementDetourFactor,3
;   toolChangeRetractionDistance,12
;   toolChangeExtraRestartDistance,-0.5
;   toolChangeRetractionSpeed,600
;   externalThinWallType,1
;   internalThinWallType,1
;   thinWallAllowedOverlapPercentage,10
;   singleExtrusionMinLength,1
;   singleExtrusionMinPrintingWidthPercentage,50
;   singleExtrusionMaxPrintingWidthPercentage,200
;   singleExtrusionEndpointExtension,0.2
;   horizontalSizeCompensation,0
G90
M82
M106 S0
M140 S60
M190 S60
M104 S210 T0
M109 S210 T0
G28 ; home all axes
G1 X0 Y5 Z0.2 F3000 ; get ready to prime
G92 E0 ; reset extrusion distance
G1 X200 E20 F600 ; prime nozzle
G92 E0
G1 E-1.0000 F3400
G1 Z0.270 F1002
; process Process1
; layer 1, Z = 0.270
T0
; tool H0.300 W0.480
; inner perimeter
G1 X91.566 Y89.385 F4200
G1 E0.0000 F1020
G92 E0
G1 X103.293 Y89.385 E0.7020 F1995
G1 X103.293 Y110.415 E1.9611
G1 X90.045 Y110.415 E2.7541
G1 X90.045 Y127.914 E3.8017
G1 X89.708 Y127.989 E3.8225
G1 X89.047 Y126.584 E3.9154
G1 X88.326 Y124.817 E4.0297
G1 X87.701 Y123.028 E4.1431
G1 X87.176 Y121.217 E4.2560
G1 X86.749 Y119.390 E4.3683
G1 X86.421 Y117.550 E4.4802
G1 X86.193 Y115.699 E4.5919
G1 X86.067 Y113.843 E4.7033
G1 X86.039 Y112.082 E4.8087
G1 X86.039 Y108.916 E4.9983
G1 X86.091 Y107.509 E5.0825
G1 X86.286 Y105.255 E5.2180
G1 X86.591 Y103.014 E5.3534
G1 X87.009 Y100.791 E5.4888
G1 X87.537 Y98.591 E5.6242
G1 X88.174 Y96.421 E5.7597
G1 X88.917 Y94.283 E5.8951
G1 X89.764 Y92.193 E6.0302
G1 X90.057 Y91.572 E6.0713
G1 X90.199 Y91.308 E6.0892
G1 X90.633 Y90.595 E6.1392
G1 X91.014 Y90.058 E6.1786
G1 X91.566 Y89.385 E6.2307
G1 X91.174 Y89.106 F4200
G92 E0
G1 X91.366 Y88.905 E0.0167 F1995
G1 X103.772 Y88.905 E0.7594
G1 X103.772 Y110.895 E2.0759
G1 X90.525 Y110.895 E2.8690
G1 X90.525 Y129.610 E3.9894
G1 X90.251 Y129.717 E4.0070
G1 X90.112 Y129.568 E4.0193
G1 X89.740 Y129.065 E4.0567
G1 X89.426 Y128.520 E4.0944
G1 X88.608 Y126.777 E4.2097
G1 X87.877 Y124.987 E4.3254
G1 X87.244 Y123.174 E4.4404
G1 X86.712 Y121.339 E4.5547
G1 X86.278 Y119.487 E4.6686
G1 X85.947 Y117.622 E4.7820
G1 X85.715 Y115.745 E4.8953
G1 X85.587 Y113.863 E5.0082
G1 X85.559 Y112.086 E5.1146
G1 X85.559 Y108.907 E5.3049
G1 X85.612 Y107.479 E5.3904
G1 X85.808 Y105.202 E5.5273
G1 X86.117 Y102.937 E5.6641
G1 X86.539 Y100.691 E5.8009
G1 X87.073 Y98.468 E5.9378
G1 X87.717 Y96.274 E6.0747
G1 X88.468 Y94.115 E6.2116
G1 X89.324 Y92.000 E6.3482
G1 X89.629 Y91.356 E6.3908
G1 X89.782 Y91.069 E6.4103
G1 X90.232 Y90.331 E6.4620
G1 X90.632 Y89.767 E6.5035
G1 X91.174 Y89.106 E6.5546
G1 X90.814 Y88.788 F4200
G92 E0
G1 X91.161 Y88.425 E0.0300 F1995
G1 X104.252 Y88.425 E0.8138
G1 X104.252 Y111.375 E2.1878
G1 X91.005 Y111.375 E2.9809
G1 X91.005 Y130.739 E4.1402
G1 X90.752 Y130.854 E4.1569
G1 X90.217 Y130.386 E4.1994
G1 X89.742 Y129.875 E4.2412
G1 X89.338 Y129.328 E4.2819
G1 X89.000 Y128.742 E4.3224
G1 X88.168 Y126.970 E4.4396
G1 X87.428 Y125.157 E4.5568
G1 X86.787 Y123.320 E4.6733
G1 X86.247 Y121.461 E4.7892
G1 X85.808 Y119.584 E4.9046
G1 X85.472 Y117.693 E5.0196
G1 X85.237 Y115.790 E5.1344
G1 X85.107 Y113.883 E5.2488
G1 X85.079 Y112.089 E5.3562
G1 X85.079 Y108.898 E5.5473
G1 X85.132 Y107.450 E5.6340
G1 X85.331 Y105.149 E5.7723
G1 X85.643 Y102.860 E5.9106
G1 X86.070 Y100.590 E6.0489
G1 X86.609 Y98.345 E6.1871
G1 X87.259 Y96.128 E6.3254
G1 X88.019 Y93.945 E6.4638
G1 X88.884 Y91.807 E6.6019
G1 X89.200 Y91.140 E6.6461
G1 X89.365 Y90.831 E6.6670
G1 X89.830 Y90.067 E6.7206
G1 X90.251 Y89.475 E6.7641
G1 X90.814 Y88.788 E6.8173
; outer perimeter
G1 X90.455 Y88.470 F4200
G92 E0
G1 X90.955 Y87.945 E0.0434 F1890
G1 X104.733 Y87.945 E0.8682
G1 X104.733 Y111.855 E2.2997
G1 X91.485 Y111.855 E3.0928
G1 X91.485 Y131.659 E4.2784
G1 X91.261 Y131.782 E4.2937
G1 X90.818 Y131.500 E4.3252
G1 X90.460 Y131.237 E4.3518
G1 X89.882 Y130.731 E4.3978
G1 X89.372 Y130.181 E4.4426
G1 X88.936 Y129.591 E4.4866
G1 X88.574 Y128.964 E4.5299
G1 X87.728 Y127.162 E4.6491
G1 X86.979 Y125.327 E4.7678
G1 X86.329 Y123.466 E4.8858
G1 X85.783 Y121.582 E5.0032
G1 X85.338 Y119.681 E5.1201
G1 X84.997 Y117.764 E5.2367
G1 X84.760 Y115.836 E5.3530
G1 X84.627 Y113.903 E5.4690
G1 X84.599 Y112.093 E5.5774
G1 X84.599 Y108.889 E5.7692
G1 X84.653 Y107.421 E5.8572
G1 X84.854 Y105.095 E5.9969
G1 X85.169 Y102.783 E6.1366
G1 X85.600 Y100.490 E6.2763
G1 X86.145 Y98.221 E6.4160
G1 X86.802 Y95.981 E6.5557
G1 X87.569 Y93.777 E6.6955
G1 X88.444 Y91.614 E6.8351
G1 X88.771 Y90.924 E6.8808
G1 X88.948 Y90.593 E6.9033
G1 X89.429 Y89.803 E6.9587
G1 X89.869 Y89.184 E7.0042
G1 X90.455 Y88.470 E7.0594
; solid layer
G1 X102.691 Y89.793 F4200
G92 E0
G1 X102.885 Y89.987 E0.0164 F2100
G1 X102.885 Y90.666 E0.0571
G1 X102.012 Y89.793 E0.1309
G1 X101.333 Y89.793 E0.1716
G1 X102.885 Y91.345 E0.3029
G1 X102.885 Y92.023 E0.3436
G1 X100.654 Y89.793 E0.5324
G1 X99.975 Y89.793 E0.5731
G1 X102.885 Y92.702 E0.8194
G1 X102.885 Y93.381 E0.8600
G1 X99.297 Y89.793 E1.1638
G1 X98.618 Y89.793 E1.2044
G1 X102.885 Y94.060 E1.5657
G1 X102.885 Y94.739 E1.6063
G1 X97.939 Y89.793 E2.0250
G1 X97.260 Y89.793 E2.0657
G1 X102.885 Y95.417 E2.5419
G1 X102.885 Y96.096 E2.5825
G1 X96.581 Y89.793 E3.1162
G1 X95.902 Y89.793 E3.1568
G1 X102.885 Y96.775 E3.7480
G1 X102.885 Y97.454 E3.7886
G1 X95.224 Y89.793 E4.4372
G1 X94.545 Y89.793 E4.4779
G1 X102.885 Y98.133 E5.1840
G1 X102.885 Y98.812 E5.2246
G1 X93.866 Y89.793 E5.9882
G1 X93.187 Y89.793 E6.0288
G1 X102.885 Y99.490 E6.8499
G1 X102.885 Y100.169 E6.8905
G1 X92.508 Y89.793 E7.7690
G1 X91.829 Y89.793 E7.8097
G1 X102.885 Y100.848 E8.7457
G1 X102.885 Y101.527 E8.7863
G1 X91.485 Y90.127 E9.7515
G1 X91.339 Y90.306 E9.7653
G1 X91.192 Y90.513 E9.7805
G1 X102.885 Y102.206 E10.7705
G1 X102.885 Y102.884 E10.8111
G1 X90.916 Y90.915 E11.8245
G1 X90.658 Y91.337 E11.8540
G1 X102.885 Y103.563 E12.8892
G1 X102.885 Y104.242 E12.9298
G1 X90.414 Y91.772 E13.9856
G1 X90.196 Y92.233 E14.0162
G1 X102.885 Y104.921 E15.0904
G1 X102.885 Y105.600 E15.1311
G1 X89.995 Y92.710 E16.2224
G1 X89.799 Y93.193 E16.2536
G1 X102.885 Y106.279 E17.3615
G1 X102.885 Y106.957 E17.4022
G1 X89.603 Y93.676 E18.5266
G1 X89.408 Y94.160 E18.5578
G1 X102.885 Y107.636 E19.6989
G1 X102.885 Y108.315 E19.7395
G1 X89.221 Y94.652 E20.8963
G1 X89.046 Y95.155 E20.9282
G1 X102.885 Y108.994 E22.0999
G1 X102.885 Y109.673 E22.1405
G1 X88.871 Y95.659 E23.3270
G1 X88.696 Y96.163 E23.3589
G1 X102.540 Y110.007 E24.5311
G1 X101.861 Y110.007 E24.5717
G1 X88.526 Y96.671 E25.7008
G1 X88.372 Y97.196 E25.7336
G1 X101.182 Y110.007 E26.8182
G1 X100.504 Y110.007 E26.8588
G1 X88.218 Y97.721 E27.8990
G1 X88.064 Y98.246 E27.9318
G1 X99.825 Y110.007 E28.9275
G1 X99.146 Y110.007 E28.9682
G1 X87.913 Y98.774 E29.9192
G1 X87.782 Y99.322 E29.9529
G1 X98.467 Y110.007 E30.8576
G1 X97.788 Y110.007 E30.8983
G1 X87.650 Y99.869 E31.7566
G1 X87.519 Y100.416 E31.7903
G1 X97.109 Y110.007 E32.6023
G1 X96.431 Y110.007 E32.6430
G1 X87.391 Y100.967 E33.4083
G1 X87.284 Y101.539 E33.4431
G1 X95.752 Y110.007 E34.1601
G1 X95.073 Y110.007 E34.2008
G1 X87.176 Y102.110 E34.8693
G1 X87.069 Y102.682 E34.9042
G1 X94.394 Y110.007 E35.5244
G1 X93.715 Y110.007 E35.5650
G1 X86.969 Y103.261 E36.1361
G1 X86.888 Y103.858 E36.1722
G1 X93.036 Y110.007 E36.6928
G1 X92.358 Y110.007 E36.7335
G1 X86.806 Y104.456 E37.2034
G1 X86.725 Y105.053 E37.2395
G1 X91.679 Y110.007 E37.6590
G1 X91.000 Y110.007 E37.6996
G1 X86.660 Y105.667 E38.0671
G1 X86.606 Y106.291 E38.1046
G1 X90.321 Y110.007 E38.4192
G1 X89.642 Y110.007 E38.4599
G1 X86.552 Y106.916 E38.7215
G1 X86.498 Y107.534 E38.7587
G1 X86.498 Y107.541 E38.7591
G1 X89.637 Y110.681 E39.0249
G1 X89.637 Y111.360 E39.0656
G1 X86.474 Y108.196 E39.3334
G1 X86.450 Y108.851 E39.3726
G1 X89.637 Y112.039 E39.6425
G1 X89.637 Y112.717 E39.6831
G1 X86.447 Y109.527 E39.9532
G1 X86.447 Y110.206 E39.9939
G1 X89.637 Y113.396 E40.2640
G1 X89.637 Y114.075 E40.3046
G1 X86.447 Y110.885 E40.5747
G1 X86.447 Y111.564 E40.6153
G1 X89.637 Y114.754 E40.8854
G1 X89.637 Y115.433 E40.9260
G1 X86.450 Y112.245 E41.1959
G1 X86.461 Y112.935 E41.2372
G1 X89.637 Y116.112 E41.5062
G1 X89.637 Y116.790 E41.5468
G1 X86.471 Y113.624 E41.8149
G1 X86.474 Y113.826 E41.8269
G1 X86.510 Y114.341 E41.8579
G1 X89.637 Y117.469 E42.1227
G1 X89.637 Y118.148 E42.1634
G1 X86.559 Y115.070 E42.4240
G1 X86.600 Y115.660 E42.4594
G1 X86.618 Y115.807 E42.4682
G1 X89.637 Y118.827 E42.7239
G1 X89.637 Y119.506 E42.7645
G1 X86.713 Y116.581 E43.0121
G1 X86.809 Y117.356 E43.0588
G1 X89.637 Y120.184 E43.2983
G1 X89.637 Y120.863 E43.3390
G1 X86.946 Y118.172 E43.5668
G1 X87.093 Y118.998 E43.6170
G1 X89.637 Y121.542 E43.8324
G1 X89.637 Y122.221 E43.8731
G1 X87.278 Y119.861 E44.0729
G1 X87.485 Y120.748 E44.1274
G1 X89.637 Y122.900 E44.3096
G1 X89.637 Y123.579 E44.3502
G1 X87.734 Y121.675 E44.5114
G1 X88.011 Y122.631 E44.5710
G1 X89.637 Y124.257 E44.7087
G1 X89.637 Y124.936 E44.7493
G1 X88.351 Y123.649 E44.8583
G1 X88.708 Y124.673 E44.9232
G1 X88.717 Y124.694 E44.9246
G1 X89.637 Y125.615 E45.0025
G1 X89.637 Y126.294 E45.0432
G1 X89.185 Y125.842 E45.0815
G92 E0
G1 E-1.0000 F3400
; inner perimeter
G1 X116.678 Y110.415 F4200
G1 E0.0000 F3400
G92 E0
G1 X116.678 Y89.385 E1.2590 F1995
G1 X127.801 Y89.385 E1.9249
G1 X128.347 Y89.803 E1.9661
G1 X128.522 Y89.959 E1.9801
G1 X128.969 Y90.426 E2.0188
G1 X129.432 Y91.018 E2.0638
G1 X129.789 Y91.598 E2.1046
G1 X130.097 Y92.239 E2.1472
G1 X130.913 Y94.323 E2.2812
G1 X131.643 Y96.467 E2.4167
G1 X132.276 Y98.641 E2.5523
G1 X132.808 Y100.840 E2.6878
G1 X133.241 Y103.062 E2.8233
G1 X133.573 Y105.301 E2.9588
G1 X133.804 Y107.554 E3.0944
G1 X133.933 Y109.813 E3.2299
G1 X133.960 Y111.973 E3.3592
G1 X133.960 Y114.601 E3.5165
G1 X133.910 Y115.748 E3.5852
G1 X133.719 Y117.597 E3.6965
G1 X133.418 Y119.436 E3.8081
G1 X133.006 Y121.261 E3.9201
G1 X132.486 Y123.069 E4.0327
G1 X131.858 Y124.854 E4.1460
G1 X131.123 Y126.613 E4.2601
G1 X130.341 Y128.226 E4.3674
G1 X130.006 Y128.149 E4.3880
G1 X130.006 Y110.415 E5.4497
G1 X116.678 Y110.415 E6.2476
G1 X116.199 Y110.895 F4200
G92 E0
G1 X116.198 Y88.905 E1.3165 F1995
G1 X127.964 Y88.905 E2.0209
G1 X128.654 Y89.433 E2.0729
G1 X128.856 Y89.613 E2.0891
G1 X129.332 Y90.112 E2.1304
G1 X129.826 Y90.744 E2.1784
G1 X130.211 Y91.367 E2.2223
G1 X130.537 Y92.047 E2.2674
G1 X131.364 Y94.158 E2.4032
G1 X132.101 Y96.322 E2.5400
G1 X132.740 Y98.517 E2.6768
G1 X133.277 Y100.738 E2.8137
G1 X133.714 Y102.981 E2.9505
G1 X134.050 Y105.241 E3.0873
G1 X134.283 Y107.515 E3.2241
G1 X134.413 Y109.797 E3.3609
G1 X134.440 Y111.970 E3.4910
G1 X134.440 Y114.612 E3.6492
G1 X134.389 Y115.783 E3.7194
G1 X134.195 Y117.660 E3.8324
G1 X133.889 Y119.528 E3.9457
G1 X133.472 Y121.380 E4.0593
G1 X132.943 Y123.215 E4.1737
G1 X132.306 Y125.026 E4.2886
G1 X131.561 Y126.811 E4.4044
G1 X130.713 Y128.558 E4.5207
G1 X130.416 Y129.081 E4.5567
G1 X130.270 Y129.308 E4.5728
