; G-Code generated by Simplify3D(R) Version 4.0.0
; Aug 20, 2018 at 2:15:16 PM
; Settings Summary
;   processName,Process1
;   applyToModels,Anti_Holguras-v2-antodelg-0.4
;   profileName,Flyingbear p902 (modified)
;   profileVersion,2017-02-06 00:22:54
;   baseProfile,Default
;   printMaterial,PLA
;   printQuality,Medium
;   printExtruders,
;   extruderName,Extruder 1
;   extruderToolheadNumber,0
;   extruderDiameter,0.4
;   extruderAutoWidth,1
;   extruderWidth,0.48
;   extrusionMultiplier,1
;   extruderUseRetract,1
;   extruderRetractionDistance,1
;   extruderExtraRestartDistance,0
;   extruderRetractionZLift,0
;   extruderRetractionSpeed,3400
;   extruderUseCoasting,0
;   extruderCoastingDistance,0.2
;   extruderUseWipe,0
;   extruderWipeDistance,5
;   primaryExtruder,0
;   layerHeight,0.2
;   topSolidLayers,3
;   bottomSolidLayers,3
;   perimeterOutlines,4
;   printPerimetersInsideOut,1
;   startPointOption,2
;   startPointOriginX,0
;   startPointOriginY,0
;   sequentialIslands,0
;   spiralVaseMode,0
;   firstLayerHeightPercentage,90
;   firstLayerWidthPercentage,100
;   firstLayerUnderspeed,0.5
;   useRaft,0
;   raftExtruder,0
;   raftTopLayers,3
;   raftBaseLayers,1
;   raftOffset,2
;   raftSeparationDistance,0.2
;   raftTopInfill,100
;   aboveRaftSpeedMultiplier,0.3
;   useSkirt,0
;   skirtExtruder,0
;   skirtLayers,1
;   skirtOutlines,2
;   skirtOffset,4
;   usePrimePillar,0
;   primePillarExtruder,999
;   primePillarWidth,12
;   primePillarLocation,7
;   primePillarSpeedMultiplier,1
;   useOozeShield,0
;   oozeShieldExtruder,999
;   oozeShieldOffset,2
;   oozeShieldOutlines,1
;   oozeShieldSidewallShape,1
;   oozeShieldSidewallAngle,30
;   oozeShieldSpeedMultiplier,1
;   infillExtruder,0
;   internalInfillPattern,Rectilinear
;   externalInfillPattern,Rectilinear
;   infillPercentage,50
;   outlineOverlapPercentage,15
;   infillExtrusionWidthPercentage,100
;   minInfillLength,5
;   infillLayerInterval,1
;   internalInfillAngles,45,-45
;   overlapInternalInfillAngles,0
;   externalInfillAngles,45,-45
;   generateSupport,0
;   supportExtruder,0
;   supportInfillPercentage,15
;   supportExtraInflation,0.5
;   supportBaseLayers,0
;   denseSupportExtruder,0
;   denseSupportLayers,0
;   denseSupportInfillPercentage,70
;   supportLayerInterval,1
;   supportHorizontalPartOffset,0.3
;   supportUpperSeparationLayers,1
;   supportLowerSeparationLayers,1
;   supportType,1
;   supportGridSpacing,1
;   maxOverhangAngle,60
;   supportAngles,0
;   temperatureName,Extruder 1,Heated Bed
;   temperatureNumber,0,0
;   temperatureSetpointCount,1,1
;   temperatureSetpointLayers,1,1
;   temperatureSetpointTemperatures,210,60
;   temperatureStabilizeAtStartup,1,1
;   temperatureHeatedBed,0,1
;   temperatureRelayBetweenLayers,0,0
;   temperatureRelayBetweenLoops,0,0
;   fanLayers,1,2
;   fanSpeeds,0,100
;   blipFanToFullPower,0
;   adjustSpeedForCooling,1
;   minSpeedLayerTime,15
;   minCoolingSpeedSlowdown,20
;   increaseFanForCooling,0
;   minFanLayerTime,45
;   maxCoolingFanSpeed,100
;   increaseFanForBridging,1
;   bridgingFanSpeed,100
;   use5D,1
;   relativeEdistances,0
;   allowEaxisZeroing,1
;   independentExtruderAxes,0
;   includeM10123,0
;   stickySupport,1
;   applyToolheadOffsets,0
;   gcodeXoffset,0
;   gcodeYoffset,0
;   gcodeZoffset,0
;   overrideMachineDefinition,1
;   machineTypeOverride,0
;   strokeXoverride,220
;   strokeYoverride,220
;   strokeZoverride,280
;   originOffsetXoverride,0
;   originOffsetYoverride,0
;   originOffsetZoverride,0
;   homeXdirOverride,-1
;   homeYdirOverride,-1
;   homeZdirOverride,-1
;   flipXoverride,1
;   flipYoverride,-1
;   flipZoverride,1
;   toolheadOffsets,0,0|0,0|0,0|0,0|0,0|0,0
;   overrideFirmwareConfiguration,1
;   firmwareTypeOverride,RepRap (Marlin/Repetier/Sprinter)
;   GPXconfigOverride,r2
;   baudRateOverride,250000
;   overridePrinterModels,0
;   printerModelsOverride
;   startingGcode,G28 ; home all axes,G1 X0 Y5 Z0.2 F3000 ; get ready to prime,G92 E0 ; reset extrusion distance,G1 X200 E20 F600 ; prime nozzle
;   layerChangeGcode,
;   retractionGcode,
;   toolChangeGcode,
;   endingGcode,M104 S0 ; turn off extruder,M140 S0 ; turn off bed,G91 ; use relative coordinates,G1 Z0.6 F5000 ; lift nozzle by 0.6mm,G90 ; use absolute coordinates,G28 X0 ; home X axis,G28 Y0 ; home X axis,M84 ; disable motors,M107 ; turn off fan
;   exportFileFormat,gcode
;   celebration,0
;   celebrationSong,Random Song
;   postProcessing,
;   defaultSpeed,4200
;   outlineUnderspeed,0.9
;   solidInfillUnderspeed,1
;   supportUnderspeed,0.8
;   rapidXYspeed,4200
;   rapidZspeed,1002
;   minBridgingArea,50
;   bridgingExtraInflation,0
;   bridgingExtrusionMultiplier,1
;   bridgingSpeedMultiplier,1
;   useFixedBridgingAngle,0
;   fixedBridgingAngle,0
;   applyBridgingToPerimeters,0
;   filamentDiameters,1.75|1.75|1.75|1.75|1.75|1.75
;   filamentPricesPerKg,46|46|46|46|46|46
;   filamentDensities,1.25|1.25|1.25|1.25|1.25|1.25
;   useMinPrintHeight,0
;   minPrintHeight,0
;   useMaxPrintHeight,0
;   maxPrintHeight,0
;   useDiaphragm,0
;   diaphragmLayerInterval,20
;   robustSlicing,1
;   mergeAllIntoSolid,0
;   onlyRetractWhenCrossingOutline,1
;   retractBetweenLayers,1
;   useRetractionMinTravel,0
;   retractionMinTravel,3
;   retractWhileWiping,0
;   onlyWipeOutlines,1
;   avoidCrossingOutline,0
;   maxMovementDetourFactor,3
;   toolChangeRetractionDistance,12
;   toolChangeExtraRestartDistance,-0.5
;   toolChangeRetractionSpeed,600
;   externalThinWallType,1
;   internalThinWallType,1
;   thinWallAllowedOverlapPercentage,10
;   singleExtrusionMinLength,1
;   singleExtrusionMinPrintingWidthPercentage,50
;   singleExtrusionMaxPrintingWidthPercentage,200
;   singleExtrusionEndpointExtension,0.2
;   horizontalSizeCompensation,0
G90
M82
M106 S0
M140 S60
M190 S60
M104 S210 T0
M109 S210 T0
G28 ; home all axes
G1 X0 Y5 Z0.2 F3000 ; get ready to prime
G92 E0 ; reset extrusion distance
G1 X200 E20 F600 ; prime nozzle
G92 E0
G1 E-1.0000 F3400
G1 Z0.180 F1002
; process Process1
; layer 1, Z = 0.180
T0
; tool H0.200 W0.480
; inner perimeter
G1 X91.580 Y89.385 F4200
G1 E0.0000 F1020
G92 E0
G1 X103.293 Y89.385 E0.4675 F1995
G1 X103.293 Y110.415 E1.3068
G1 X90.046 Y110.415 E1.8356
G1 X90.046 Y127.915 E2.5340
G1 X89.708 Y127.991 E2.5478
G1 X89.047 Y126.584 E2.6099
G1 X88.326 Y124.817 E2.6860
G1 X87.701 Y123.028 E2.7617
G1 X87.176 Y121.217 E2.8369
G1 X86.748 Y119.390 E2.9118
G1 X86.421 Y117.550 E2.9864
G1 X86.193 Y115.699 E3.0609
G1 X86.066 Y113.842 E3.1351
G1 X86.040 Y112.083 E3.2054
G1 X86.040 Y108.915 E3.3318
G1 X86.091 Y107.508 E3.3880
G1 X86.286 Y105.254 E3.4783
G1 X86.592 Y103.013 E3.5686
G1 X87.009 Y100.791 E3.6588
G1 X87.538 Y98.591 E3.7491
G1 X88.174 Y96.420 E3.8394
G1 X88.918 Y94.283 E3.9297
G1 X89.764 Y92.192 E4.0197
G1 X90.058 Y91.572 E4.0472
G1 X90.201 Y91.304 E4.0593
G1 X90.591 Y90.659 E4.0893
G1 X90.971 Y90.115 E4.1158
G1 X91.431 Y89.544 E4.1451
G1 X91.580 Y89.385 E4.1538
G1 X91.372 Y88.905 F4200
G92 E0
G1 X103.773 Y88.905 E0.4949 F1995
G1 X103.773 Y110.895 E1.3726
G1 X90.526 Y110.895 E1.9013
G1 X90.526 Y129.610 E2.6483
G1 X90.252 Y129.717 E2.6600
G1 X90.112 Y129.567 E2.6682
G1 X89.740 Y129.063 E2.6932
G1 X89.426 Y128.519 E2.7183
G1 X88.607 Y126.777 E2.7951
G1 X87.877 Y124.987 E2.8723
G1 X87.244 Y123.174 E2.9489
G1 X86.711 Y121.339 E3.0252
G1 X86.278 Y119.487 E3.1011
G1 X85.946 Y117.622 E3.1767
G1 X85.715 Y115.745 E3.2522
G1 X85.586 Y113.862 E3.3275
G1 X85.560 Y112.086 E3.3984
G1 X85.560 Y108.906 E3.5253
G1 X85.612 Y107.479 E3.5823
G1 X85.809 Y105.201 E3.6736
G1 X86.118 Y102.936 E3.7648
G1 X86.540 Y100.690 E3.8560
G1 X87.074 Y98.468 E3.9473
G1 X87.717 Y96.274 E4.0385
G1 X88.469 Y94.114 E4.1298
G1 X89.324 Y92.000 E4.2208
G1 X89.629 Y91.356 E4.2493
G1 X89.784 Y91.067 E4.2623
G1 X90.188 Y90.397 E4.2936
G1 X90.587 Y89.826 E4.3213
G1 X91.068 Y89.229 E4.3520
G1 X91.372 Y88.905 E4.3697
G1 X91.165 Y88.425 F4200
G92 E0
G1 X104.253 Y88.425 E0.5224 F1995
G1 X104.253 Y111.375 E1.4384
G1 X91.006 Y111.375 E1.9671
G1 X91.006 Y130.740 E2.7400
G1 X90.752 Y130.855 E2.7511
G1 X90.217 Y130.386 E2.7795
G1 X89.742 Y129.874 E2.8074
G1 X89.337 Y129.327 E2.8346
G1 X89.000 Y128.741 E2.8616
G1 X88.168 Y126.970 E2.9397
G1 X87.428 Y125.157 E3.0178
G1 X86.786 Y123.320 E3.0955
G1 X86.247 Y121.461 E3.1727
G1 X85.807 Y119.584 E3.2497
G1 X85.471 Y117.693 E3.3263
G1 X85.237 Y115.790 E3.4028
G1 X85.107 Y113.882 E3.4792
G1 X85.080 Y112.089 E3.5507
G1 X85.080 Y108.898 E3.6781
G1 X85.133 Y107.449 E3.7360
G1 X85.332 Y105.148 E3.8282
G1 X85.644 Y102.860 E3.9203
G1 X86.070 Y100.590 E4.0125
G1 X86.610 Y98.344 E4.1047
G1 X87.260 Y96.127 E4.1969
G1 X88.019 Y93.946 E4.2891
G1 X88.885 Y91.807 E4.3812
G1 X89.200 Y91.140 E4.4106
G1 X89.366 Y90.829 E4.4247
G1 X89.785 Y90.135 E4.4571
G1 X90.202 Y89.538 E4.4861
G1 X90.706 Y88.913 E4.5181
G1 X91.165 Y88.425 E4.5449
; outer perimeter
G1 X90.957 Y87.945 F4200
G92 E0
G1 X104.733 Y87.945 E0.5498 F1890
G1 X104.733 Y111.855 E1.5041
G1 X91.486 Y111.855 E2.0329
G1 X91.486 Y131.665 E2.8235
G1 X91.262 Y131.788 E2.8337
G1 X90.965 Y131.599 E2.8478
G1 X90.458 Y131.236 E2.8727
G1 X89.882 Y130.731 E2.9033
G1 X89.372 Y130.181 E2.9332
G1 X88.935 Y129.590 E2.9625
G1 X88.574 Y128.963 E2.9914
G1 X87.728 Y127.163 E3.0708
G1 X86.978 Y125.327 E3.1499
G1 X86.329 Y123.466 E3.2286
G1 X85.782 Y121.582 E3.3069
G1 X85.337 Y119.681 E3.3848
G1 X84.996 Y117.764 E3.4625
G1 X84.759 Y115.836 E3.5400
G1 X84.627 Y113.902 E3.6174
G1 X84.600 Y112.093 E3.6896
G1 X84.600 Y108.889 E3.8175
G1 X84.654 Y107.420 E3.8762
G1 X84.855 Y105.095 E3.9693
G1 X85.170 Y102.783 E4.0625
G1 X85.601 Y100.490 E4.1556
G1 X86.146 Y98.220 E4.2487
G1 X86.803 Y95.981 E4.3419
G1 X87.570 Y93.777 E4.4350
G1 X88.445 Y91.614 E4.5282
G1 X88.771 Y90.924 E4.5586
G1 X88.949 Y90.592 E4.5736
G1 X89.383 Y89.873 E4.6072
G1 X89.818 Y89.250 E4.6375
G1 X90.344 Y88.598 E4.6709
G1 X90.957 Y87.945 E4.7067
; solid layer
G1 X102.691 Y89.793 F4200
G92 E0
G1 X102.885 Y89.987 E0.0110 F2100
G1 X102.885 Y90.666 E0.0381
G1 X102.012 Y89.793 E0.0873
G1 X101.333 Y89.793 E0.1144
G1 X102.885 Y91.345 E0.2020
G1 X102.885 Y92.024 E0.2291
G1 X100.654 Y89.793 E0.3551
G1 X99.975 Y89.793 E0.3821
G1 X102.885 Y92.703 E0.5464
G1 X102.885 Y93.381 E0.5735
G1 X99.297 Y89.793 E0.7760
G1 X98.618 Y89.793 E0.8031
G1 X102.885 Y94.060 E1.0440
G1 X102.885 Y94.739 E1.0711
G1 X97.939 Y89.793 E1.3502
G1 X97.260 Y89.793 E1.3773
G1 X102.885 Y95.418 E1.6948
G1 X102.885 Y96.097 E1.7219
G1 X96.581 Y89.793 E2.0777
G1 X95.902 Y89.793 E2.1048
G1 X102.885 Y96.776 E2.4990
G1 X102.885 Y97.454 E2.5261
G1 X95.224 Y89.793 E2.9585
G1 X94.545 Y89.793 E2.9856
G1 X102.885 Y98.133 E3.4563
G1 X102.885 Y98.812 E3.4834
G1 X93.866 Y89.793 E3.9925
G1 X93.187 Y89.793 E4.0196
G1 X102.885 Y99.491 E4.5670
G1 X102.885 Y100.170 E4.5941
G1 X92.508 Y89.793 E5.1798
G1 X91.829 Y89.793 E5.2069
G1 X102.885 Y100.849 E5.8309
G1 X102.885 Y101.527 E5.8580
G1 X91.485 Y90.127 E6.5015
G1 X91.297 Y90.360 E6.5134
G1 X91.191 Y90.512 E6.5208
G1 X102.885 Y102.206 E7.1809
G1 X102.885 Y102.885 E7.2080
G1 X90.913 Y90.913 E7.8837
G1 X90.658 Y91.337 E7.9034
G1 X102.885 Y103.564 E8.5936
G1 X102.885 Y104.243 E8.6207
G1 X90.415 Y91.772 E9.3246
G1 X90.196 Y92.233 E9.3449
G1 X102.885 Y104.921 E10.0611
G1 X102.885 Y105.600 E10.0882
G1 X89.995 Y92.710 E10.8158
G1 X89.799 Y93.193 E10.8366
G1 X102.885 Y106.279 E11.5752
G1 X102.885 Y106.958 E11.6023
G1 X89.604 Y93.677 E12.3520
G1 X89.408 Y94.160 E12.3728
G1 X102.885 Y107.637 E13.1335
G1 X102.885 Y108.316 E13.1606
G1 X89.222 Y94.652 E13.9318
G1 X89.046 Y95.156 E13.9531
G1 X102.885 Y108.994 E14.7342
G1 X102.885 Y109.673 E14.7613
G1 X88.871 Y95.659 E15.5523
G1 X88.696 Y96.163 E15.5735
G1 X102.540 Y110.007 E16.3550
G1 X101.861 Y110.007 E16.3820
G1 X88.526 Y96.672 E17.1348
G1 X88.372 Y97.197 E17.1566
G1 X101.182 Y110.007 E17.8797
G1 X100.504 Y110.007 E17.9068
G1 X88.218 Y97.722 E18.6002
G1 X88.064 Y98.246 E18.6220
G1 X99.825 Y110.007 E19.2859
G1 X99.146 Y110.007 E19.3129
G1 X87.913 Y98.775 E19.9470
G1 X87.782 Y99.322 E19.9694
G1 X98.467 Y110.007 E20.5725
G1 X97.788 Y110.007 E20.5996
G1 X87.650 Y99.869 E21.1719
G1 X87.519 Y100.417 E21.1943
G1 X97.109 Y110.007 E21.7356
G1 X96.431 Y110.007 E21.7627
G1 X87.391 Y100.968 E22.2730
G1 X87.284 Y101.539 E22.2962
G1 X95.752 Y110.007 E22.7741
G1 X95.073 Y110.007 E22.8012
G1 X87.177 Y102.111 E23.2469
G1 X87.069 Y102.682 E23.2701
G1 X94.394 Y110.007 E23.6836
G1 X93.715 Y110.007 E23.7107
G1 X86.970 Y103.262 E24.0914
G1 X86.888 Y103.859 E24.1155
G1 X93.036 Y110.007 E24.4625
G1 X92.358 Y110.007 E24.4896
G1 X86.807 Y104.456 E24.8029
G1 X86.725 Y105.054 E24.8270
G1 X91.679 Y110.007 E25.1066
G1 X91.000 Y110.007 E25.1337
G1 X86.660 Y105.667 E25.3786
G1 X86.606 Y106.292 E25.4037
G1 X90.321 Y110.007 E25.6134
G1 X89.642 Y110.007 E25.6404
G1 X86.552 Y106.917 E25.8149
G1 X86.499 Y107.534 E25.8396
G1 X86.498 Y107.542 E25.8399
G1 X89.638 Y110.681 E26.0171
G1 X89.638 Y111.360 E26.0442
G1 X86.474 Y108.197 E26.2228
G1 X86.451 Y108.852 E26.2489
G1 X89.638 Y112.039 E26.4289
G1 X89.638 Y112.718 E26.4559
G1 X86.448 Y109.528 E26.6360
G1 X86.448 Y110.207 E26.6631
G1 X89.638 Y113.397 E26.8432
G1 X89.638 Y114.076 E26.8702
G1 X86.448 Y110.886 E27.0503
G1 X86.448 Y111.564 E27.0774
G1 X89.638 Y114.754 E27.2575
G1 X89.638 Y115.433 E27.2845
G1 X86.450 Y112.246 E27.4645
G1 X86.461 Y112.935 E27.4920
G1 X89.638 Y116.112 E27.6713
G1 X89.638 Y116.791 E27.6984
G1 X86.471 Y113.624 E27.8772
G1 X86.474 Y113.825 E27.8852
G1 X86.509 Y114.341 E27.9058
G1 X89.638 Y117.470 E28.0824
G1 X89.638 Y118.149 E28.1095
G1 X86.559 Y115.069 E28.2833
G1 X86.599 Y115.660 E28.3070
G1 X86.617 Y115.807 E28.3129
G1 X89.638 Y118.827 E28.4834
G1 X89.638 Y119.506 E28.5104
G1 X86.713 Y116.581 E28.6756
G1 X86.808 Y117.355 E28.7067
G1 X89.638 Y120.185 E28.8664
G1 X89.638 Y120.864 E28.8935
G1 X86.946 Y118.172 E29.0455
G1 X87.093 Y118.997 E29.0790
G1 X89.638 Y121.543 E29.2226
G1 X89.638 Y122.221 E29.2497
G1 X87.277 Y119.861 E29.3830
G1 X87.485 Y120.747 E29.4193
G1 X89.638 Y122.900 E29.5408
G1 X89.638 Y123.579 E29.5679
G1 X87.733 Y121.674 E29.6755
G1 X88.011 Y122.630 E29.7152
G1 X89.638 Y124.258 E29.8071
G1 X89.638 Y124.937 E29.8341
G1 X88.350 Y123.649 E29.9068
G1 X88.707 Y124.673 E29.9501
G1 X88.716 Y124.694 E29.9510
G1 X89.638 Y125.616 E30.0031
G1 X89.638 Y126.294 E30.0302
G1 X89.184 Y125.841 E30.0558
G92 E0
G1 E-1.0000 F3400
; inner perimeter
G1 X116.679 Y110.415 F4200
G1 E0.0000 F3400
G92 E0
G1 X116.679 Y89.385 E0.8394 F1995
G1 X127.811 Y89.385 E1.2837
G1 X127.908 Y89.451 E1.2883
G1 X128.110 Y89.606 E1.2985
G1 X128.539 Y89.975 E1.3211
G1 X128.887 Y90.333 E1.3410
G1 X128.996 Y90.453 E1.3475
G1 X129.430 Y91.014 E1.3758
G1 X129.790 Y91.598 E1.4032
G1 X130.097 Y92.239 E1.4315
G1 X130.914 Y94.323 E1.5209
G1 X131.643 Y96.467 E1.6113
G1 X132.276 Y98.640 E1.7016
G1 X132.808 Y100.840 E1.7919
G1 X133.242 Y103.062 E1.8823
G1 X133.574 Y105.301 E1.9726
G1 X133.805 Y107.554 E2.0630
G1 X133.934 Y109.813 E2.1533
G1 X133.960 Y111.971 E2.2395
G1 X133.960 Y114.601 E2.3445
G1 X133.910 Y115.748 E2.3902
G1 X133.718 Y117.597 E2.4645
G1 X133.417 Y119.436 E2.5388
G1 X133.006 Y121.261 E2.6135
G1 X132.485 Y123.068 E2.6886
G1 X131.857 Y124.854 E2.7641
G1 X131.123 Y126.613 E2.8402
G1 X130.340 Y128.225 E2.9117
G1 X130.005 Y128.148 E2.9254
G1 X130.005 Y110.415 E3.6332
G1 X116.679 Y110.415 E4.1651
G1 X116.199 Y110.895 F4200
G92 E0
G1 X116.199 Y88.905 E0.8777 F1995
G1 X127.960 Y88.905 E1.3471
G1 X128.189 Y89.062 E1.3582
G1 X128.413 Y89.233 E1.3694
G1 X128.868 Y89.625 E1.3934
G1 X129.238 Y90.005 E1.4145
G1 X129.365 Y90.145 E1.4221
G1 X129.825 Y90.741 E1.4521
G1 X130.212 Y91.367 E1.4815
G1 X130.538 Y92.047 E1.5116
G1 X131.365 Y94.158 E1.6021
G1 X132.101 Y96.322 E1.6933
G1 X132.740 Y98.517 E1.7846
G1 X133.277 Y100.738 E1.8758
G1 X133.715 Y102.981 E1.9670
G1 X134.050 Y105.241 E2.0582
G1 X134.283 Y107.515 E2.1494
G1 X134.413 Y109.797 E2.2406
G1 X134.440 Y111.968 E2.3273
G1 X134.440 Y114.612 E2.4328
G1 X134.389 Y115.783 E2.4796
G1 X134.194 Y117.661 E2.5549
G1 X133.889 Y119.528 E2.6304
G1 X133.471 Y121.380 E2.7062
G1 X132.942 Y123.215 E2.7824
G1 X132.305 Y125.026 E2.8591
