; G-Code generated by Simplify3D(R) Version 4.0.0
; May 24, 2018 at 2:22:16 PM
; Settings Summary
;   processName,nozzle 0.4
;   applyToModels,Articulated_Butterfly
;   profileName,Flying Bear 902 Update 7-2017 (modified)
;   profileVersion,2017-07-10 09:45:20
;   baseProfile,Default
;   printMaterial,PLA
;   printQuality,Medium
;   printExtruders,
;   extruderName,Extruder 1
;   extruderToolheadNumber,0
;   extruderDiameter,0.4
;   extruderAutoWidth,1
;   extruderWidth,0.48
;   extrusionMultiplier,0.9
;   extruderUseRetract,1
;   extruderRetractionDistance,3
;   extruderExtraRestartDistance,0
;   extruderRetractionZLift,0
;   extruderRetractionSpeed,3000
;   extruderUseCoasting,0
;   extruderCoastingDistance,0.2
;   extruderUseWipe,1
;   extruderWipeDistance,5
;   primaryExtruder,0
;   layerHeight,0.2
;   topSolidLayers,3
;   bottomSolidLayers,2
;   perimeterOutlines,3
;   printPerimetersInsideOut,0
;   startPointOption,2
;   startPointOriginX,0
;   startPointOriginY,0
;   sequentialIslands,0
;   spiralVaseMode,0
;   firstLayerHeightPercentage,20
;   firstLayerWidthPercentage,115
;   firstLayerUnderspeed,0.3
;   useRaft,0
;   raftExtruder,0
;   raftTopLayers,2
;   raftBaseLayers,2
;   raftOffset,2
;   raftSeparationDistance,0.3
;   raftTopInfill,100
;   aboveRaftSpeedMultiplier,0.3
;   useSkirt,0
;   skirtExtruder,0
;   skirtLayers,1
;   skirtOutlines,2
;   skirtOffset,4
;   usePrimePillar,0
;   primePillarExtruder,999
;   primePillarWidth,12
;   primePillarLocation,7
;   primePillarSpeedMultiplier,1
;   useOozeShield,0
;   oozeShieldExtruder,999
;   oozeShieldOffset,2
;   oozeShieldOutlines,1
;   oozeShieldSidewallShape,1
;   oozeShieldSidewallAngle,30
;   oozeShieldSpeedMultiplier,1
;   infillExtruder,0
;   internalInfillPattern,Rectilinear
;   externalInfillPattern,Rectilinear
;   infillPercentage,15
;   outlineOverlapPercentage,60
;   infillExtrusionWidthPercentage,100
;   minInfillLength,5
;   infillLayerInterval,1
;   internalInfillAngles,45,-45
;   overlapInternalInfillAngles,0
;   externalInfillAngles,45,-45
;   generateSupport,1
;   supportExtruder,0
;   supportInfillPercentage,30
;   supportExtraInflation,0
;   supportBaseLayers,0
;   denseSupportExtruder,0
;   denseSupportLayers,0
;   denseSupportInfillPercentage,50
;   supportLayerInterval,1
;   supportHorizontalPartOffset,0.3
;   supportUpperSeparationLayers,1
;   supportLowerSeparationLayers,1
;   supportType,0
;   supportGridSpacing,4
;   maxOverhangAngle,60
;   supportAngles,0
;   temperatureName,Extruder 1,Heated Bed
;   temperatureNumber,0,0
;   temperatureSetpointCount,1,1
;   temperatureSetpointLayers,1,1
;   temperatureSetpointTemperatures,210,60
;   temperatureStabilizeAtStartup,1,0
;   temperatureHeatedBed,0,1
;   temperatureRelayBetweenLayers,0,0
;   temperatureRelayBetweenLoops,0,0
;   fanLayers,1
;   fanSpeeds,255
;   blipFanToFullPower,0
;   adjustSpeedForCooling,1
;   minSpeedLayerTime,15
;   minCoolingSpeedSlowdown,20
;   increaseFanForCooling,0
;   minFanLayerTime,45
;   maxCoolingFanSpeed,100
;   increaseFanForBridging,0
;   bridgingFanSpeed,100
;   use5D,1
;   relativeEdistances,0
;   allowEaxisZeroing,1
;   independentExtruderAxes,0
;   includeM10123,0
;   stickySupport,1
;   applyToolheadOffsets,0
;   gcodeXoffset,0
;   gcodeYoffset,0
;   gcodeZoffset,0
;   overrideMachineDefinition,1
;   machineTypeOverride,0
;   strokeXoverride,220
;   strokeYoverride,220
;   strokeZoverride,280
;   originOffsetXoverride,0
;   originOffsetYoverride,0
;   originOffsetZoverride,0
;   homeXdirOverride,-1
;   homeYdirOverride,-1
;   homeZdirOverride,-1
;   flipXoverride,1
;   flipYoverride,-1
;   flipZoverride,1
;   toolheadOffsets,0,0|0,0|0,0|0,0|0,0|0,0
;   overrideFirmwareConfiguration,1
;   firmwareTypeOverride,RepRap (Marlin/Repetier/Sprinter)
;   GPXconfigOverride,r2
;   baudRateOverride,250000
;   overridePrinterModels,0
;   printerModelsOverride
;   startingGcode,G28 ; home all axes,G1 X0 Y20 Z0.2 F3000 ; get ready to prime,G92 E0 ; reset extrusion distance,G1 X200 E20 F600 ; prime nozzle
;   layerChangeGcode,
;   retractionGcode,
;   toolChangeGcode,
;   endingGcode,M104 S0 ; turn off extruder,M140 S0 ; turn off bed,G28 X Y ; home x and y axes,M84 ; disable motors
;   exportFileFormat,gcode
;   celebration,0
;   celebrationSong,Random Song
;   postProcessing,
;   defaultSpeed,4400
;   outlineUnderspeed,0.6
;   solidInfillUnderspeed,0.85
;   supportUnderspeed,0.8
;   rapidXYspeed,4600
;   rapidZspeed,1002
;   minBridgingArea,50
;   bridgingExtraInflation,0
;   bridgingExtrusionMultiplier,1
;   bridgingSpeedMultiplier,1
;   useFixedBridgingAngle,0
;   fixedBridgingAngle,0
;   applyBridgingToPerimeters,0
;   filamentDiameters,1.75|1.75|1.75|1.75|1.75|1.75
;   filamentPricesPerKg,46|46|46|46|46|46
;   filamentDensities,1.25|1.25|1.25|1.25|1.25|1.25
;   useMinPrintHeight,0
;   minPrintHeight,0
;   useMaxPrintHeight,0
;   maxPrintHeight,4.3
;   useDiaphragm,0
;   diaphragmLayerInterval,20
;   robustSlicing,1
;   mergeAllIntoSolid,0
;   onlyRetractWhenCrossingOutline,1
;   retractBetweenLayers,1
;   useRetractionMinTravel,0
;   retractionMinTravel,3
;   retractWhileWiping,0
;   onlyWipeOutlines,1
;   avoidCrossingOutline,0
;   maxMovementDetourFactor,3
;   toolChangeRetractionDistance,12
;   toolChangeExtraRestartDistance,-0.5
;   toolChangeRetractionSpeed,600
;   externalThinWallType,0
;   internalThinWallType,1
;   thinWallAllowedOverlapPercentage,20
;   singleExtrusionMinLength,1
;   singleExtrusionMinPrintingWidthPercentage,50
;   singleExtrusionMaxPrintingWidthPercentage,200
;   singleExtrusionEndpointExtension,0.2
;   horizontalSizeCompensation,0
G90
M82
M106 S650
M140 S60
M104 S210 T0
M109 S210 T0
G28 ; home all axes
G1 X0 Y20 Z0.2 F3000 ; get ready to prime
G92 E0 ; reset extrusion distance
G1 X200 E20 F600 ; prime nozzle
G92 E0
G1 E-3.0000 F3000
G1 Z0.040 F1002
; process nozzle 0.4
; layer 1, Z = 0.040
T0
; tool H0.200 W0.552
; outer perimeter
G1 X74.558 Y83.731 F4600
G1 E0.0000 F900
G92 E0
G1 X76.802 Y82.615 E0.1035 F792
G1 X80.090 Y113.867 E1.4017
G1 X75.710 Y114.327 E1.5836
G1 X76.185 Y118.858 E1.7718
G1 X80.565 Y118.398 E1.9537
G1 X82.020 Y132.234 E2.5284
G1 X81.788 Y132.366 E2.5394
G1 X79.229 Y133.713 E2.6589
G1 X76.630 Y134.997 E2.7787
G1 X75.903 Y135.330 E2.8117
G1 X73.542 Y120.429 E3.4349
G1 X70.578 Y120.899 E3.5589
G1 X70.274 Y118.976 E3.6393
G1 X73.239 Y118.506 E3.7633
G1 X69.265 Y93.444 E4.8115
G1 X69.518 Y92.736 E4.8426
G1 X69.981 Y91.241 E4.9073
G1 X70.238 Y90.533 E4.9384
G1 X70.554 Y89.862 E4.9690
G1 X70.954 Y89.249 E4.9993
G1 X71.483 Y88.683 E5.0313
G1 X72.032 Y88.153 E5.0628
G1 X72.491 Y87.522 E5.0950
G1 X73.165 Y86.186 E5.1568
G1 X73.780 Y84.852 E5.2175
G1 X74.140 Y84.249 E5.2465
G1 X74.558 Y83.731 E5.2740
G1 X76.802 Y82.615 F4400
G1 X77.063 Y85.095 F4400
; inner perimeter
G1 X76.336 Y83.463 F4600
G92 E0
G1 X79.483 Y113.376 E1.2425 F1056
G1 X75.103 Y113.836 E1.4244
G1 X75.694 Y119.465 E1.6582
G1 X80.074 Y119.005 E1.8401
G1 X81.433 Y131.930 E2.3770
G1 X78.979 Y133.221 E2.4915
G1 X76.334 Y134.527 E2.6134
G1 X74.001 Y119.798 E3.2294
G1 X71.037 Y120.268 E3.3534
G1 X70.905 Y119.435 E3.3882
G1 X73.870 Y118.965 E3.5122
G1 X69.833 Y93.497 E4.5774
G1 X70.042 Y92.911 E4.6032
G1 X70.505 Y91.417 E4.6677
G1 X70.748 Y90.745 E4.6973
G1 X71.037 Y90.132 E4.7253
G1 X71.390 Y89.591 E4.7520
G1 X71.877 Y89.071 E4.7814
G1 X72.450 Y88.516 E4.8143
G1 X72.964 Y87.811 E4.8504
G1 X73.662 Y86.426 E4.9145
G1 X74.270 Y85.110 E4.9743
G1 X74.594 Y84.565 E5.0005
G1 X74.912 Y84.172 E5.0214
G1 X76.336 Y83.463 E5.0871
G1 X75.870 Y84.311 F4600
G92 E0
G1 X78.876 Y112.885 E1.1868 F1056
G1 X74.496 Y113.345 E1.3688
G1 X75.203 Y120.072 E1.6482
G1 X79.583 Y119.612 E1.8301
G1 X80.844 Y131.615 E2.3287
G1 X78.728 Y132.730 E2.4275
G1 X76.762 Y133.700 E2.5181
G1 X74.501 Y119.425 E3.1151
G1 X70.400 Y93.550 E4.1973
G1 X70.566 Y93.085 E4.2177
G1 X71.028 Y91.593 E4.2823
G1 X71.259 Y90.957 E4.3102
G1 X71.520 Y90.402 E4.3356
G1 X71.826 Y89.933 E4.3587
G1 X72.270 Y89.458 E4.3856
G1 X72.868 Y88.880 E4.4199
G1 X73.436 Y88.099 E4.4598
G1 X74.160 Y86.666 E4.5261
G1 X74.758 Y85.368 E4.5852
G1 X75.048 Y84.882 E4.6086
G1 X75.266 Y84.612 E4.6228
G1 X75.870 Y84.311 E4.6507
; internal single extrusion
G1 X74.215 Y119.337 F4600
G92 E0
; tool H0.200 W0.280
G1 X71.236 Y119.809 E0.0631 F792
; tool H0.200 W0.552
; solid layer
G1 X75.740 Y120.237 F4600
G92 E0
G1 X79.859 Y124.356 E0.2406 F1122
G1 X79.768 Y123.484 E0.2769
G1 X76.447 Y120.163 E0.4709
G1 X77.153 Y120.089 E0.5002
G1 X79.676 Y122.612 E0.6476
G1 X79.584 Y121.739 E0.6839
G1 X77.860 Y120.015 E0.7846
G1 X78.566 Y119.940 E0.8140
G1 X79.493 Y120.867 E0.8681
G1 X79.401 Y119.995 E0.9043
G1 X79.273 Y119.866 E0.9118
G1 X77.087 Y133.294 F4600
G92 E0
G1 X76.890 Y133.097 E0.0115 F1122
G1 X76.743 Y132.169 E0.0503
G1 X77.610 Y133.036 E0.1009
G1 X78.132 Y132.777 E0.1250
G1 X76.596 Y131.242 E0.2147
G1 X76.449 Y130.314 E0.2535
G1 X78.654 Y132.519 E0.3823
G1 X79.166 Y132.250 E0.4062
G1 X76.302 Y129.386 E0.5735
G1 X76.156 Y128.459 E0.6123
G1 X79.677 Y131.980 E0.8180
G1 X80.189 Y131.711 E0.8419
G1 X76.009 Y127.531 E1.0860
G1 X75.862 Y126.604 E1.1248
G1 X80.593 Y131.335 E1.4012
G1 X80.501 Y130.463 E1.4375
G1 X75.715 Y125.676 E1.7171
G1 X75.568 Y124.749 E1.7559
G1 X80.410 Y129.590 E2.0388
G1 X80.318 Y128.718 E2.0750
G1 X75.421 Y123.821 E2.3611
G1 X75.274 Y122.893 E2.3999
G1 X80.226 Y127.846 E2.6892
G1 X80.135 Y126.973 E2.7254
G1 X75.127 Y121.966 E3.0179
G1 X74.980 Y121.038 E3.0567
G1 X80.043 Y126.101 E3.3525
G1 X79.951 Y125.229 E3.3887
G1 X75.034 Y120.311 E3.6760
G1 X75.006 Y120.314 E3.6771
G1 X75.002 Y120.280 E3.6786
G1 X74.833 Y120.111 E3.6885
G1 X74.754 Y119.608 E3.7095
G1 X74.688 Y119.184 E3.7272
G1 X74.911 Y119.408 E3.7402
G1 X74.819 Y118.535 E3.7765
G1 X74.541 Y118.257 E3.7927
G1 X74.393 Y117.329 E3.8315
G1 X74.728 Y117.663 E3.8511
G1 X74.636 Y116.791 E3.8873
G1 X74.246 Y116.401 E3.9101
G1 X74.099 Y115.474 E3.9489
G1 X74.545 Y115.919 E3.9749
G1 X74.453 Y115.047 E4.0111
G1 X73.952 Y114.546 E4.0404
G1 X73.805 Y113.618 E4.0792
G1 X74.362 Y114.175 E4.1117
G1 X74.270 Y113.302 E4.1479
G1 X73.658 Y112.690 E4.1837
G1 X73.511 Y111.763 E4.2225
G1 X74.835 Y113.087 E4.2998
G1 X75.542 Y113.013 E4.3292
G1 X73.364 Y110.835 E4.4564
G1 X73.217 Y109.907 E4.4952
G1 X76.248 Y112.939 E4.6723
G1 X76.955 Y112.864 E4.7017
G1 X73.070 Y108.979 E4.9286
G1 X72.923 Y108.052 E4.9674
G1 X77.661 Y112.790 E5.2443
G1 X78.368 Y112.716 E5.2736
G1 X72.776 Y107.124 E5.6003
G1 X72.628 Y106.196 E5.6391
G1 X78.576 Y112.144 E5.9866
G1 X78.484 Y111.272 E6.0228
G1 X72.481 Y105.269 E6.3735
G1 X72.334 Y104.341 E6.4123
G1 X78.393 Y110.399 E6.7662
G1 X78.301 Y109.527 E6.8025
G1 X72.187 Y103.413 E7.1596
G1 X72.040 Y102.485 E7.1984
G1 X78.209 Y108.654 E7.5588
G1 X78.117 Y107.782 E7.5951
G1 X71.893 Y101.558 E7.9587
G1 X71.746 Y100.630 E7.9975
G1 X78.026 Y106.909 E8.3643
G1 X77.934 Y106.037 E8.4006
G1 X71.599 Y99.702 E8.7707
G1 X71.452 Y98.774 E8.8095
G1 X77.842 Y105.165 E9.1828
G1 X77.750 Y104.292 E9.2190
G1 X71.305 Y97.847 E9.5956
G1 X71.158 Y96.919 E9.6344
G1 X77.658 Y103.420 E10.0141
G1 X77.567 Y102.547 E10.0504
G1 X71.011 Y95.991 E10.4334
G1 X70.863 Y95.063 E10.4722
G1 X77.475 Y101.675 E10.8584
G1 X77.383 Y100.803 E10.8947
G1 X70.716 Y94.136 E11.2841
G1 X70.627 Y93.571 E11.3078
G1 X70.707 Y93.346 E11.3176
G1 X77.291 Y99.930 E11.7023
G1 X77.200 Y99.058 E11.7385
G1 X70.899 Y92.757 E12.1066
G1 X71.083 Y92.161 E12.1324
G1 X77.108 Y98.185 E12.4843
G1 X77.016 Y97.313 E12.5206
G1 X71.272 Y91.569 E12.8562
G1 X71.463 Y91.042 E12.8793
G1 X71.483 Y90.999 E12.8813
G1 X76.924 Y96.440 E13.1991
G1 X76.833 Y95.568 E13.2354
G1 X71.737 Y90.473 E13.5330
G1 X72.001 Y90.069 E13.5529
G1 X72.056 Y90.010 E13.5563
G1 X76.741 Y94.696 E13.8300
G1 X76.649 Y93.823 E13.8662
G1 X72.433 Y89.607 E14.1125
G1 X72.830 Y89.224 E14.1353
G1 X76.557 Y92.951 E14.3530
G1 X76.465 Y92.078 E14.3893
G1 X73.194 Y88.807 E14.5804
G1 X73.523 Y88.355 E14.6035
G1 X76.374 Y91.206 E14.7700
G1 X76.282 Y90.334 E14.8062
G1 X73.806 Y87.857 E14.9509
G1 X74.067 Y87.338 E14.9749
G1 X76.190 Y89.461 E15.0989
G1 X76.098 Y88.589 E15.1351
G1 X74.329 Y86.820 E15.2385
G1 X74.358 Y86.762 E15.2412
G1 X74.577 Y86.287 E15.2628
G1 X76.007 Y87.716 E15.3463
G1 X75.915 Y86.844 E15.3825
G1 X74.824 Y85.753 E15.4462
G1 X74.954 Y85.471 E15.4591
G1 X75.092 Y85.240 E15.4702
G1 X75.823 Y85.971 E15.5129
G1 X75.731 Y85.099 E15.5491
G1 X75.416 Y84.784 E15.5675
G92 E0
G1 E-3.0000 F3000
; outer perimeter
G1 X78.286 Y81.879 F4600
G1 E0.0000 F3000
G92 E0
G1 X80.113 Y80.969 E0.0843 F792
G1 X80.732 Y80.471 E0.1171
G1 X81.364 Y80.101 E0.1474
G1 X82.044 Y79.823 E0.1777
G1 X82.758 Y79.627 E0.2083
G1 X83.498 Y79.506 E0.2393
G1 X84.248 Y79.459 E0.2704
G1 X85.002 Y79.477 E0.3015
G1 X85.810 Y79.557 E0.3351
G1 X86.546 Y79.323 E0.3670
G1 X88.197 Y110.782 E1.6683
G1 X83.801 Y111.014 E1.8502
G1 X84.040 Y115.565 E2.0384
G1 X88.434 Y115.335 E2.2202
G1 X89.107 Y128.123 E2.7492
G1 X86.842 Y129.502 E2.8587
G1 X83.493 Y131.399 E3.0177
G1 X81.973 Y116.940 E3.6183
G1 X79.312 Y117.220 E3.7288
G1 X79.109 Y115.282 E3.8093
G1 X81.770 Y115.001 E3.9199
G1 X78.286 Y81.879 E5.2957
G1 X80.113 Y80.969 F4400
G1 X80.732 Y80.471 F4400
G1 X81.364 Y80.101 F4400
G1 X82.044 Y79.823 F4400
G1 X82.716 Y79.638 F4400
; inner perimeter
G1 X82.876 Y80.167 F4600
G92 E0
G1 X83.560 Y80.055 E0.0286 F1056
G1 X84.259 Y80.012 E0.0576
G1 X84.968 Y80.028 E0.0869
G1 X86.036 Y80.134 E0.1312
G1 X87.617 Y110.260 E1.3774
G1 X83.221 Y110.492 E1.5592
G1 X83.518 Y116.145 E1.7931
G1 X87.912 Y115.915 E1.9748
G1 X88.538 Y127.823 E2.4674
G1 X86.562 Y129.026 E2.5630
G1 X83.954 Y130.504 E2.6868
G1 X82.464 Y116.333 E3.2754
G1 X79.804 Y116.613 E3.3859
G1 X79.715 Y115.773 E3.4208
G1 X82.377 Y115.492 E3.5314
G1 X78.875 Y82.202 E4.9141
G1 X80.412 Y81.436 E4.9851
G1 X81.046 Y80.927 E5.0187
G1 X81.609 Y80.597 E5.0456
G1 X82.222 Y80.346 E5.0730
G1 X82.876 Y80.167 E5.1010
G1 X82.994 Y80.707 F4600
G92 E0
G1 X83.622 Y80.604 E0.0263 F1056
G1 X84.270 Y80.564 E0.0531
G1 X84.934 Y80.580 E0.0806
G1 X85.510 Y80.637 E0.1044
G1 X87.037 Y109.738 E1.3082
G1 X82.353 Y109.985 E1.5020
G1 X79.464 Y82.525 E2.6426
G1 X80.712 Y81.904 E2.7002
G1 X81.360 Y81.382 E2.7345
G1 X81.854 Y81.093 E2.7582
G1 X82.400 Y80.870 E2.7826
G1 X82.994 Y80.707 E2.8080
G1 X83.060 Y116.722 F4600
G92 E0
G1 X87.389 Y116.495 E0.1791 F1056
G1 X87.970 Y127.523 E0.6353
G1 X86.283 Y128.550 E0.7169
G1 X84.415 Y129.608 E0.8055
G1 X83.060 Y116.722 E1.3408
; internal single extrusion
G1 X80.031 Y116.164 F4600
G92 E0
; tool H0.200 W0.282
G1 X82.606 Y115.893 E0.0547 F792
G1 X82.701 Y115.882 E0.0568
; tool H0.200 W0.295
G1 X82.760 Y115.877 E0.0581
; tool H0.200 W0.355
G1 X82.843 Y115.868 E0.0603
; tool H0.200 W0.473
G1 X82.947 Y115.819 E0.0643
; tool H0.200 W0.535
G1 X82.949 Y115.714 E0.0685
; tool H0.200 W0.530
G1 X82.941 Y115.620 E0.0723
; tool H0.200 W0.555
G1 X82.874 Y114.770 E0.1077
; tool H0.200 W0.600
G1 X82.807 Y113.920 E0.1460
; tool H0.200 W0.644
G1 X82.740 Y113.070 E0.1871
; tool H0.200 W0.689
G1 X82.673 Y112.220 E0.2310
; tool H0.200 W0.734
G1 X82.607 Y111.370 E0.2778
; tool H0.200 W0.773
G1 X82.539 Y110.510 E0.3278
; tool H0.200 W0.552
; solid layer
G1 X82.473 Y109.015 F4600
G92 E0
G1 X83.178 Y109.720 E0.0412 F1122
G1 X83.920 Y109.681 E0.0719
G1 X82.381 Y108.142 E0.1618
G1 X82.289 Y107.270 E0.1980
G1 X84.661 Y109.642 E0.3366
G1 X85.403 Y109.603 E0.3673
G1 X82.197 Y106.397 E0.5545
G1 X82.106 Y105.525 E0.5908
G1 X86.144 Y109.564 E0.8267
G1 X86.805 Y109.529 E0.8540
G1 X86.800 Y109.439 E0.8578
G1 X82.014 Y104.652 E1.1374
G1 X81.922 Y103.780 E1.1736
G1 X86.757 Y108.615 E1.4560
G1 X86.713 Y107.791 E1.4901
G1 X81.830 Y102.908 E1.7754
G1 X81.738 Y102.035 E1.8116
G1 X86.670 Y106.967 E2.0998
G1 X86.627 Y106.143 E2.1338
G1 X81.647 Y101.163 E2.4248
G1 X81.555 Y100.290 E2.4610
G1 X86.584 Y105.319 E2.7548
G1 X86.540 Y104.495 E2.7889
G1 X81.463 Y99.418 E3.0855
G1 X81.371 Y98.545 E3.1217
G1 X86.497 Y103.671 E3.4212
G1 X86.454 Y102.847 E3.4553
G1 X81.279 Y97.673 E3.7576
G1 X81.188 Y96.801 E3.7938
G1 X86.411 Y102.024 E4.0990
G1 X86.367 Y101.200 E4.1330
G1 X81.096 Y95.928 E4.4410
