; G-Code generated by Simplify3D(R) Version 4.0.0
; Sep 7, 2020 at 12:20:43 AM
; Settings Summary
;   processName,Process2
;   applyToModels,chewie1base
;   profileName,bar (modified)
;   profileVersion,2019-07-15 16:42:33
;   baseProfile,Default (modified)
;   printMaterial,PLA
;   printQuality,Medium
;   printExtruders,
;   extruderName,Primary Extruder
;   extruderToolheadNumber,0
;   extruderDiameter,0.4
;   extruderAutoWidth,0
;   extruderWidth,0.4
;   extrusionMultiplier,0.9
;   extruderUseRetract,1
;   extruderRetractionDistance,1
;   extruderExtraRestartDistance,0
;   extruderRetractionZLift,0
;   extruderRetractionSpeed,1800
;   extruderUseCoasting,0
;   extruderCoastingDistance,0.2
;   extruderUseWipe,0
;   extruderWipeDistance,5
;   primaryExtruder,0
;   layerHeight,0.3
;   topSolidLayers,3
;   bottomSolidLayers,3
;   perimeterOutlines,2
;   printPerimetersInsideOut,1
;   startPointOption,2
;   startPointOriginX,0
;   startPointOriginY,0
;   sequentialIslands,0
;   spiralVaseMode,0
;   firstLayerHeightPercentage,100
;   firstLayerWidthPercentage,100
;   firstLayerUnderspeed,0.5
;   useRaft,0
;   raftExtruder,0
;   raftTopLayers,3
;   raftBaseLayers,2
;   raftOffset,3
;   raftSeparationDistance,0.14
;   raftTopInfill,100
;   aboveRaftSpeedMultiplier,0.3
;   useSkirt,0
;   skirtExtruder,0
;   skirtLayers,1
;   skirtOutlines,2
;   skirtOffset,4
;   usePrimePillar,0
;   primePillarExtruder,999
;   primePillarWidth,12
;   primePillarLocation,7
;   primePillarSpeedMultiplier,1
;   useOozeShield,0
;   oozeShieldExtruder,999
;   oozeShieldOffset,2
;   oozeShieldOutlines,1
;   oozeShieldSidewallShape,1
;   oozeShieldSidewallAngle,30
;   oozeShieldSpeedMultiplier,1
;   infillExtruder,0
;   internalInfillPattern,Rectilinear
;   externalInfillPattern,Rectilinear
;   infillPercentage,44
;   outlineOverlapPercentage,15
;   infillExtrusionWidthPercentage,100
;   minInfillLength,5
;   infillLayerInterval,1
;   internalInfillAngles,45,-45
;   overlapInternalInfillAngles,0
;   externalInfillAngles,45,-45
;   generateSupport,0
;   supportExtruder,0
;   supportInfillPercentage,30
;   supportExtraInflation,0
;   supportBaseLayers,0
;   denseSupportExtruder,0
;   denseSupportLayers,0
;   denseSupportInfillPercentage,70
;   supportLayerInterval,1
;   supportHorizontalPartOffset,0.3
;   supportUpperSeparationLayers,1
;   supportLowerSeparationLayers,1
;   supportType,1
;   supportGridSpacing,4
;   maxOverhangAngle,45
;   supportAngles,0
;   temperatureName,Primary Extruder,Hot Bed
;   temperatureNumber,0,1
;   temperatureSetpointCount,1,1
;   temperatureSetpointLayers,1,1
;   temperatureSetpointTemperatures,210,60
;   temperatureStabilizeAtStartup,1,1
;   temperatureHeatedBed,0,1
;   temperatureRelayBetweenLayers,0,0
;   temperatureRelayBetweenLoops,0,0
;   fanLayers,1,2
;   fanSpeeds,0,100
;   blipFanToFullPower,0
;   adjustSpeedForCooling,1
;   minSpeedLayerTime,15
;   minCoolingSpeedSlowdown,20
;   increaseFanForCooling,0
;   minFanLayerTime,45
;   maxCoolingFanSpeed,100
;   increaseFanForBridging,0
;   bridgingFanSpeed,100
;   use5D,1
;   relativeEdistances,0
;   allowEaxisZeroing,1
;   independentExtruderAxes,0
;   includeM10123,0
;   stickySupport,1
;   applyToolheadOffsets,0
;   gcodeXoffset,0
;   gcodeYoffset,0
;   gcodeZoffset,0
;   overrideMachineDefinition,0
;   machineTypeOverride,0
;   strokeXoverride,200
;   strokeYoverride,200
;   strokeZoverride,200
;   originOffsetXoverride,0
;   originOffsetYoverride,0
;   originOffsetZoverride,0
;   homeXdirOverride,-1
;   homeYdirOverride,-1
;   homeZdirOverride,-1
;   flipXoverride,1
;   flipYoverride,-1
;   flipZoverride,1
;   toolheadOffsets,0,0|0,0|0,0|0,0|0,0|0,0
;   overrideFirmwareConfiguration,0
;   firmwareTypeOverride,RepRap (Marlin/Repetier/Sprinter)
;   GPXconfigOverride,r2
;   baudRateOverride,115200
;   overridePrinterModels,0
;   printerModelsOverride
;   startingGcode,G28 ; home all axes,G1 X0 Y20 Z0.2 F3000 ; get ready to prime,G92 E0 ; reset extrusion distance,G1 X150 E20 F600 ; prime nozzle
;   layerChangeGcode,
;   retractionGcode,
;   toolChangeGcode,
;   endingGcode,M104 S0 ; turn off extruder,M140 S0 ; turn off bed,M84 ; disable motors,G1 X0 Y0; home
;   exportFileFormat,gcode
;   celebration,0
;   celebrationSong,Random Song
;   postProcessing,
;   defaultSpeed,4600
;   outlineUnderspeed,0.5
;   solidInfillUnderspeed,0.8
;   supportUnderspeed,0.8
;   rapidXYspeed,4800
;   rapidZspeed,1000
;   minBridgingArea,50
;   bridgingExtraInflation,0
;   bridgingExtrusionMultiplier,1
;   bridgingSpeedMultiplier,1
;   useFixedBridgingAngle,0
;   fixedBridgingAngle,0
;   applyBridgingToPerimeters,0
;   filamentDiameters,1.75|1.75|1.75|1.75|1.75|1.75
;   filamentPricesPerKg,46|46|46|46|46|46
;   filamentDensities,1.25|1.25|1.25|1.25|1.25|1.25
;   useMinPrintHeight,0
;   minPrintHeight,0
;   useMaxPrintHeight,0
;   maxPrintHeight,0
;   useDiaphragm,0
;   diaphragmLayerInterval,20
;   robustSlicing,1
;   mergeAllIntoSolid,0
;   onlyRetractWhenCrossingOutline,1
;   retractBetweenLayers,1
;   useRetractionMinTravel,0
;   retractionMinTravel,3
;   retractWhileWiping,0
;   onlyWipeOutlines,1
;   avoidCrossingOutline,0
;   maxMovementDetourFactor,3
;   toolChangeRetractionDistance,12
;   toolChangeExtraRestartDistance,-0.5
;   toolChangeRetractionSpeed,600
;   externalThinWallType,1
;   internalThinWallType,1
;   thinWallAllowedOverlapPercentage,10
;   singleExtrusionMinLength,1
;   singleExtrusionMinPrintingWidthPercentage,50
;   singleExtrusionMaxPrintingWidthPercentage,200
;   singleExtrusionEndpointExtension,0.2
;   horizontalSizeCompensation,0
G90
M82
M106 S0
M140 S60
M190 S60
M104 S210 T0
M109 S210 T0
G28 ; home all axes
G1 X0 Y20 Z0.2 F3000 ; get ready to prime
G92 E0 ; reset extrusion distance
G1 X150 E20 F600 ; prime nozzle
G92 E0
G1 E-1.0000 F1800
G1 Z0.300 F1000
; process Process2
; layer 1, Z = 0.300
T0
; tool H0.300 W0.400
; inner perimeter
G1 X73.909 Y73.910 F4800
G1 E0.0000 F540
G92 E0
G1 X79.500 Y69.322 E0.3248 F1725
G1 X85.879 Y65.912 E0.6495
G1 X92.801 Y63.812 E0.9743
G1 X99.999 Y63.103 E1.2991
G1 X107.198 Y63.812 E1.6239
G1 X114.119 Y65.911 E1.9486
G1 X120.498 Y69.321 E2.2734
G1 X126.090 Y73.909 E2.5982
G1 X130.678 Y79.501 E2.9230
G1 X134.088 Y85.879 E3.2477
G1 X136.188 Y92.801 E3.5725
G1 X136.897 Y99.999 E3.8973
G1 X136.188 Y107.198 E4.2221
G1 X134.089 Y114.119 E4.5468
G1 X130.679 Y120.498 E4.8716
G1 X126.091 Y126.090 E5.1964
G1 X120.499 Y130.678 E5.5212
G1 X114.121 Y134.088 E5.8459
G1 X107.199 Y136.188 E6.1707
G1 X100.001 Y136.897 E6.4955
G1 X92.802 Y136.188 E6.8203
G1 X85.881 Y134.089 E7.1450
G1 X79.502 Y130.679 E7.4698
G1 X73.910 Y126.091 E7.7946
G1 X69.322 Y120.499 E8.1193
G1 X65.912 Y114.121 E8.4441
G1 X63.812 Y107.199 E8.7689
G1 X63.103 Y100.001 E9.0937
G1 X63.812 Y92.802 E9.4184
G1 X65.911 Y85.881 E9.7432
G1 X69.321 Y79.501 E10.0680
G1 X73.909 Y73.910 E10.3928
; outer perimeter
G1 X73.625 Y73.626 F4800
G92 E0
G1 X79.277 Y68.987 E0.3283 F1150
G1 X85.726 Y65.541 E0.6566
G1 X92.723 Y63.418 E0.9849
G1 X99.999 Y62.701 E1.3132
G1 X107.276 Y63.418 E1.6416
G1 X114.273 Y65.540 E1.9699
G1 X120.722 Y68.987 E2.2982
G1 X126.374 Y73.625 E2.6265
G1 X131.013 Y79.277 E2.9548
G1 X134.459 Y85.726 E3.2831
G1 X136.582 Y92.723 E3.6114
G1 X137.299 Y99.999 E3.9397
G1 X136.582 Y107.276 E4.2681
G1 X134.460 Y114.273 E4.5964
G1 X131.013 Y120.722 E4.9247
G1 X126.375 Y126.374 E5.2530
G1 X120.723 Y131.013 E5.5813
G1 X114.274 Y134.459 E5.9096
G1 X107.277 Y136.582 E6.2379
G1 X100.001 Y137.299 E6.5662
G1 X92.724 Y136.582 E6.8945
G1 X85.727 Y134.460 E7.2229
G1 X79.278 Y131.013 E7.5512
G1 X73.626 Y126.375 E7.8795
G1 X68.987 Y120.723 E8.2078
G1 X65.541 Y114.274 E8.5361
G1 X63.418 Y107.277 E8.8644
G1 X62.701 Y100.001 E9.1927
G1 X63.418 Y92.724 E9.5210
G1 X65.540 Y85.727 E9.8494
G1 X68.987 Y79.278 E10.1777
G1 X73.625 Y73.626 E10.5060
; solid layer
G1 X124.623 Y73.146 F4800
G92 E0
G1 X126.854 Y75.376 E0.1417 F1840
G1 X129.443 Y78.532 E0.3249
G1 X121.469 Y70.557 E0.8313
G1 X120.309 Y69.605 E0.8987
G1 X119.540 Y69.194 E0.9378
G1 X130.805 Y80.459 E1.6531
G1 X131.455 Y81.675 E1.7150
G1 X118.325 Y68.545 E2.5487
G1 X117.110 Y67.895 E2.6106
G1 X132.105 Y82.890 E3.5628
G1 X132.754 Y84.105 E3.6246
G1 X115.895 Y67.246 E4.6952
G1 X114.680 Y66.596 E4.7571
G1 X133.404 Y85.321 E5.9461
G1 X133.772 Y86.010 E5.9812
G1 X133.879 Y86.361 E5.9976
G1 X113.638 Y66.121 E7.2829
G1 X112.826 Y65.874 E7.3210
G1 X134.125 Y87.173 E8.6735
G1 X134.372 Y87.986 E8.7116
G1 X112.014 Y65.628 E10.1313
G1 X111.202 Y65.382 E10.1694
G1 X134.618 Y88.798 E11.6563
G1 X134.864 Y89.610 E11.6944
G1 X110.390 Y65.136 E13.2485
G1 X109.578 Y64.889 E13.2866
G1 X135.111 Y90.422 E14.9079
G1 X135.357 Y91.234 E14.9460
G1 X108.766 Y64.643 E16.6345
G1 X107.954 Y64.397 E16.6726
G1 X135.603 Y92.046 E18.4283
G1 X135.850 Y92.858 E18.4664
G1 X107.143 Y64.150 E20.2893
G1 X107.131 Y64.147 E20.2898
G1 X106.512 Y64.086 E20.3178
G1 X135.914 Y93.487 E22.1847
G1 X135.976 Y94.115 E22.2131
G1 X105.885 Y64.024 E24.1238
G1 X105.257 Y63.962 E24.1521
G1 X136.038 Y94.742 E26.1066
G1 X136.099 Y95.370 E26.1350
G1 X104.630 Y63.901 E28.1333
G1 X104.003 Y63.839 E28.1616
G1 X136.161 Y95.997 E30.2036
G1 X136.223 Y96.625 E30.2320
G1 X103.375 Y63.777 E32.3178
G1 X102.748 Y63.715 E32.3461
G1 X136.285 Y97.252 E34.4757
G1 X136.347 Y97.880 E34.5040
G1 X102.120 Y63.653 E36.6774
G1 X101.493 Y63.592 E36.7057
G1 X136.408 Y98.507 E38.9229
G1 X136.470 Y99.135 E38.9512
G1 X100.865 Y63.530 E41.2121
G1 X100.238 Y63.468 E41.2404
G1 X136.532 Y99.762 E43.5451
G1 X136.555 Y99.999 E43.5558
G1 X136.524 Y100.320 E43.5702
G1 X99.680 Y63.476 E45.9098
G1 X99.165 Y63.527 E45.9331
G1 X136.473 Y100.835 E48.3021
G1 X136.422 Y101.350 E48.3253
G1 X98.650 Y63.578 E50.7239
G1 X98.135 Y63.628 E50.7471
G1 X136.372 Y101.865 E53.1751
G1 X136.321 Y102.380 E53.1984
G1 X97.620 Y63.679 E55.6559
G1 X97.105 Y63.730 E55.6791
G1 X136.270 Y102.895 E58.1661
G1 X136.220 Y103.410 E58.1893
G1 X96.590 Y63.780 E60.7058
G1 X96.075 Y63.831 E60.7290
G1 X136.169 Y103.925 E63.2749
G1 X136.118 Y104.440 E63.2982
G1 X95.560 Y63.882 E65.8736
G1 X95.045 Y63.933 E65.8968
G1 X136.067 Y104.955 E68.5017
G1 X136.017 Y105.470 E68.5249
G1 X94.530 Y63.983 E71.1593
G1 X94.015 Y64.034 E71.1826
G1 X135.966 Y105.985 E73.8464
G1 X135.915 Y106.500 E73.8696
G1 X93.500 Y64.085 E76.5630
G1 X92.986 Y64.136 E76.5862
G1 X135.865 Y107.015 E79.3090
G1 X135.853 Y107.131 E79.3143
G1 X135.751 Y107.467 E79.3300
G1 X92.533 Y64.249 E82.0744
G1 X92.099 Y64.380 E82.0947
G1 X135.620 Y107.901 E84.8583
G1 X135.488 Y108.335 E84.8787
G1 X91.665 Y64.512 E87.6614
G1 X91.231 Y64.644 E87.6818
G1 X135.356 Y108.769 E90.4837
G1 X135.225 Y109.203 E90.5041
G1 X90.797 Y64.775 E93.3252
G1 X90.363 Y64.907 E93.3456
G1 X135.093 Y109.637 E96.1860
G1 X134.961 Y110.071 E96.2063
G1 X89.929 Y65.039 E99.0659
G1 X89.495 Y65.170 E99.0862
G1 X134.830 Y110.505 E101.9650
G1 X134.698 Y110.939 E101.9854
G1 X89.061 Y65.302 E104.8833
G1 X88.627 Y65.434 E104.9037
G1 X134.566 Y111.373 E107.8208
G1 X134.435 Y111.807 E107.8412
G1 X88.193 Y65.565 E110.7775
G1 X87.759 Y65.697 E110.7979
G1 X134.303 Y112.241 E113.7535
G1 X134.171 Y112.675 E113.7738
G1 X87.325 Y65.829 E116.7486
G1 X86.891 Y65.960 E116.7689
G1 X134.040 Y113.109 E119.7629
G1 X133.908 Y113.543 E119.7832
G1 X86.457 Y66.092 E122.7964
G1 X86.023 Y66.224 E122.8168
G1 X133.776 Y113.977 E125.8491
G1 X133.773 Y113.988 E125.8496
G1 X133.581 Y114.348 E125.8679
G1 X85.652 Y66.419 E128.9114
G1 X85.284 Y66.616 E128.9302
G1 X133.384 Y114.716 E131.9845
G1 X133.187 Y115.085 E132.0033
G1 X84.915 Y66.813 E135.0686
G1 X84.546 Y67.010 E135.0873
G1 X132.990 Y115.454 E138.1635
G1 X132.793 Y115.822 E138.1823
G1 X84.178 Y67.207 E141.2693
G1 X83.809 Y67.404 E141.2881
G1 X132.596 Y116.191 E144.3861
G1 X132.399 Y116.560 E144.4048
G1 X83.440 Y67.601 E147.5137
G1 X83.072 Y67.798 E147.5325
G1 X132.202 Y116.928 E150.6522
G1 X132.005 Y117.297 E150.6710
G1 X82.703 Y67.995 E153.8016
G1 X82.334 Y68.192 E153.8204
G1 X131.808 Y117.666 E156.9619
G1 X131.611 Y118.034 E156.9807
G1 X81.966 Y68.389 E160.1331
G1 X81.597 Y68.586 E160.1519
G1 X131.414 Y118.403 E163.3152
G1 X131.217 Y118.771 E163.3340
G1 X81.229 Y68.783 E166.5082
G1 X80.860 Y68.981 E166.5270
G1 X131.020 Y119.140 E169.7121
G1 X130.822 Y119.509 E169.7309
G1 X80.491 Y69.178 E172.9269
G1 X80.123 Y69.375 E172.9457
G1 X130.625 Y119.877 E176.1526
G1 X130.428 Y120.246 E176.1714
G1 X79.754 Y69.572 E179.3892
G1 X79.690 Y69.606 E179.3925
G1 X79.433 Y69.817 E179.4074
G1 X130.183 Y120.567 E182.6300
G1 X129.928 Y120.877 E182.6481
G1 X79.123 Y70.072 E185.8742
G1 X78.812 Y70.327 E185.8923
G1 X129.673 Y121.188 E189.1219
G1 X129.418 Y121.499 E189.1400
G1 X78.501 Y70.582 E192.3732
G1 X78.191 Y70.837 E192.3913
G1 X129.163 Y121.809 E195.6280
G1 X128.908 Y122.120 E195.6461
G1 X77.880 Y71.092 E198.8864
G1 X77.569 Y71.347 E198.9044
G1 X128.653 Y122.431 E202.1483
G1 X128.398 Y122.742 E202.1663
G1 X77.258 Y71.602 E205.4137
G1 X76.948 Y71.857 E205.4318
G1 X128.143 Y123.052 E208.6827
G1 X127.888 Y123.363 E208.7007
G1 X76.637 Y72.112 E211.9552
G1 X76.326 Y72.367 E211.9732
G1 X127.633 Y123.674 E215.2312
G1 X127.378 Y123.984 E215.2493
G1 X76.016 Y72.622 E218.5108
G1 X75.705 Y72.877 E218.5288
G1 X127.124 Y124.295 E221.7939
G1 X126.869 Y124.606 E221.8120
G1 X75.394 Y73.132 E225.0806
G1 X75.084 Y73.387 E225.0986
G1 X126.614 Y124.916 E228.3708
G1 X126.359 Y125.227 E228.3888
G1 X74.773 Y73.641 E231.6645
G1 X74.462 Y73.896 E231.6825
G1 X126.104 Y125.538 E234.9618
G1 X125.849 Y125.848 E234.9798
G1 X74.151 Y74.151 E238.2625
G1 X73.896 Y74.462 E238.2805
G1 X125.538 Y126.103 E241.5598
G1 X125.227 Y126.358 E241.5778
G1 X73.641 Y74.773 E244.8535
G1 X73.386 Y75.083 E244.8716
G1 X124.916 Y126.613 E248.1437
G1 X124.606 Y126.868 E248.1617
G1 X73.131 Y75.394 E251.4304
G1 X72.876 Y75.705 E251.4484
G1 X124.295 Y127.123 E254.7135
G1 X123.984 Y127.378 E254.7315
G1 X72.621 Y76.016 E257.9931
G1 X72.366 Y76.326 E258.0111
G1 X123.674 Y127.633 E261.2691
G1 X123.363 Y127.888 E261.2872
G1 X72.112 Y76.637 E264.5416
G1 X71.857 Y76.948 E264.5597
G1 X123.052 Y128.143 E267.8106
G1 X122.742 Y128.398 E267.8286
G1 X71.602 Y77.258 E271.0760
G1 X71.347 Y77.569 E271.0941
G1 X122.431 Y128.653 E274.3379
G1 X122.120 Y128.908 E274.3560
G1 X71.092 Y77.880 E277.5963
G1 X70.837 Y78.190 E277.6143
G1 X121.809 Y129.163 E280.8511
G1 X121.499 Y129.418 E280.8691
G1 X70.582 Y78.501 E284.1024
G1 X70.327 Y78.812 E284.1204
G1 X121.188 Y129.673 E287.3501
G1 X120.877 Y129.928 E287.3682
G1 X70.072 Y79.123 E290.5943
G1 X69.817 Y79.433 E290.6124
G1 X120.567 Y130.183 E293.8350
G1 X120.310 Y130.394 E293.8499
G1 X120.246 Y130.428 E293.8532
G1 X69.572 Y79.754 E297.0710
G1 X69.375 Y80.123 E297.0897
G1 X119.877 Y130.625 E300.2967
G1 X119.509 Y130.822 E300.3154
G1 X69.177 Y80.491 E303.5115
G1 X68.980 Y80.860 E303.5302
G1 X119.140 Y131.019 E306.7154
G1 X118.771 Y131.217 E306.7341
G1 X68.783 Y81.228 E309.9084
G1 X68.586 Y81.597 E309.9271
G1 X118.403 Y131.414 E313.0905
G1 X118.034 Y131.611 E313.1092
G1 X68.389 Y81.966 E316.2617
G1 X68.192 Y82.334 E316.2804
G1 X117.666 Y131.808 E319.4220
G1 X117.297 Y132.005 E319.4407
G1 X67.995 Y82.703 E322.5714
G1 X67.798 Y83.072 E322.5902
G1 X116.928 Y132.202 E325.7099
G1 X116.560 Y132.399 E325.7287
G1 X67.601 Y83.440 E328.8375
G1 X67.404 Y83.809 E328.8563
G1 X116.191 Y132.596 E331.9543
G1 X115.822 Y132.793 E331.9730
G1 X67.207 Y84.178 E335.0601
G1 X67.010 Y84.546 E335.0789
G1 X115.454 Y132.990 E338.1550
G1 X115.085 Y133.187 E338.1738
G1 X66.813 Y84.915 E341.2391
G1 X66.616 Y85.284 E341.2578
G1 X114.716 Y133.384 E344.3122
G1 X114.348 Y133.581 E344.3310
G1 X66.419 Y85.652 E347.3744
G1 X66.227 Y86.012 E347.3927
G1 X66.224 Y86.023 E347.3933
G1 X113.977 Y133.776 E350.4256
G1 X113.543 Y133.908 E350.4460
G1 X66.092 Y86.457 E353.4591
G1 X65.960 Y86.891 E353.4795
G1 X113.109 Y134.040 E356.4734
G1 X112.675 Y134.171 E356.4938
G1 X65.829 Y87.325 E359.4686
G1 X65.697 Y87.759 E359.4889
G1 X112.241 Y134.303 E362.4445
G1 X111.807 Y134.435 E362.4648
G1 X65.565 Y88.193 E365.4012
G1 X65.434 Y88.627 E365.4216
G1 X111.373 Y134.566 E368.3387
G1 X110.939 Y134.698 E368.3591
