; G-Code generated by Simplify3D(R) Version 4.0.0
; Sep 7, 2020 at 12:23:32 AM
; Settings Summary
;   processName,Process1 contc
;   applyToModels,chewie1base
;   profileName,bar (modified)
;   profileVersion,2019-07-15 16:42:33
;   baseProfile,Default (modified)
;   printMaterial,PLA
;   printQuality,Medium
;   printExtruders,
;   extruderName,Primary Extruder
;   extruderToolheadNumber,0
;   extruderDiameter,0.4
;   extruderAutoWidth,0
;   extruderWidth,0.4
;   extrusionMultiplier,0.9
;   extruderUseRetract,1
;   extruderRetractionDistance,1
;   extruderExtraRestartDistance,0
;   extruderRetractionZLift,0
;   extruderRetractionSpeed,1800
;   extruderUseCoasting,0
;   extruderCoastingDistance,0.2
;   extruderUseWipe,0
;   extruderWipeDistance,5
;   primaryExtruder,0
;   layerHeight,0.3
;   topSolidLayers,3
;   bottomSolidLayers,3
;   perimeterOutlines,2
;   printPerimetersInsideOut,1
;   startPointOption,2
;   startPointOriginX,0
;   startPointOriginY,0
;   sequentialIslands,0
;   spiralVaseMode,0
;   firstLayerHeightPercentage,100
;   firstLayerWidthPercentage,100
;   firstLayerUnderspeed,0.5
;   useRaft,0
;   raftExtruder,0
;   raftTopLayers,3
;   raftBaseLayers,2
;   raftOffset,3
;   raftSeparationDistance,0.14
;   raftTopInfill,100
;   aboveRaftSpeedMultiplier,0.3
;   useSkirt,0
;   skirtExtruder,0
;   skirtLayers,1
;   skirtOutlines,2
;   skirtOffset,4
;   usePrimePillar,0
;   primePillarExtruder,999
;   primePillarWidth,12
;   primePillarLocation,7
;   primePillarSpeedMultiplier,1
;   useOozeShield,0
;   oozeShieldExtruder,999
;   oozeShieldOffset,2
;   oozeShieldOutlines,1
;   oozeShieldSidewallShape,1
;   oozeShieldSidewallAngle,30
;   oozeShieldSpeedMultiplier,1
;   infillExtruder,0
;   internalInfillPattern,Rectilinear
;   externalInfillPattern,Concentric
;   infillPercentage,44
;   outlineOverlapPercentage,15
;   infillExtrusionWidthPercentage,100
;   minInfillLength,5
;   infillLayerInterval,1
;   internalInfillAngles,45,-45
;   overlapInternalInfillAngles,0
;   externalInfillAngles,45,-45
;   generateSupport,0
;   supportExtruder,0
;   supportInfillPercentage,30
;   supportExtraInflation,0
;   supportBaseLayers,0
;   denseSupportExtruder,0
;   denseSupportLayers,0
;   denseSupportInfillPercentage,70
;   supportLayerInterval,1
;   supportHorizontalPartOffset,0.3
;   supportUpperSeparationLayers,1
;   supportLowerSeparationLayers,1
;   supportType,1
;   supportGridSpacing,4
;   maxOverhangAngle,45
;   supportAngles,0
;   temperatureName,Primary Extruder,Hot Bed
;   temperatureNumber,0,1
;   temperatureSetpointCount,1,1
;   temperatureSetpointLayers,1,1
;   temperatureSetpointTemperatures,210,60
;   temperatureStabilizeAtStartup,1,1
;   temperatureHeatedBed,0,1
;   temperatureRelayBetweenLayers,0,0
;   temperatureRelayBetweenLoops,0,0
;   fanLayers,1,2
;   fanSpeeds,0,100
;   blipFanToFullPower,0
;   adjustSpeedForCooling,1
;   minSpeedLayerTime,15
;   minCoolingSpeedSlowdown,20
;   increaseFanForCooling,0
;   minFanLayerTime,45
;   maxCoolingFanSpeed,100
;   increaseFanForBridging,0
;   bridgingFanSpeed,100
;   use5D,1
;   relativeEdistances,0
;   allowEaxisZeroing,1
;   independentExtruderAxes,0
;   includeM10123,0
;   stickySupport,1
;   applyToolheadOffsets,0
;   gcodeXoffset,0
;   gcodeYoffset,0
;   gcodeZoffset,0
;   overrideMachineDefinition,0
;   machineTypeOverride,0
;   strokeXoverride,200
;   strokeYoverride,200
;   strokeZoverride,200
;   originOffsetXoverride,0
;   originOffsetYoverride,0
;   originOffsetZoverride,0
;   homeXdirOverride,-1
;   homeYdirOverride,-1
;   homeZdirOverride,-1
;   flipXoverride,1
;   flipYoverride,-1
;   flipZoverride,1
;   toolheadOffsets,0,0|0,0|0,0|0,0|0,0|0,0
;   overrideFirmwareConfiguration,0
;   firmwareTypeOverride,RepRap (Marlin/Repetier/Sprinter)
;   GPXconfigOverride,r2
;   baudRateOverride,115200
;   overridePrinterModels,0
;   printerModelsOverride
;   startingGcode,G28 ; home all axes,G1 X0 Y20 Z0.2 F3000 ; get ready to prime,G92 E0 ; reset extrusion distance,G1 X150 E20 F600 ; prime nozzle
;   layerChangeGcode,
;   retractionGcode,
;   toolChangeGcode,
;   endingGcode,M104 S0 ; turn off extruder,M140 S0 ; turn off bed,M84 ; disable motors,G1 X0 Y0; home
;   exportFileFormat,gcode
;   celebration,0
;   celebrationSong,Random Song
;   postProcessing,
;   defaultSpeed,4600
;   outlineUnderspeed,0.5
;   solidInfillUnderspeed,0.8
;   supportUnderspeed,0.8
;   rapidXYspeed,4800
;   rapidZspeed,1000
;   minBridgingArea,50
;   bridgingExtraInflation,0
;   bridgingExtrusionMultiplier,1
;   bridgingSpeedMultiplier,1
;   useFixedBridgingAngle,0
;   fixedBridgingAngle,0
;   applyBridgingToPerimeters,0
;   filamentDiameters,1.75|1.75|1.75|1.75|1.75|1.75
;   filamentPricesPerKg,46|46|46|46|46|46
;   filamentDensities,1.25|1.25|1.25|1.25|1.25|1.25
;   useMinPrintHeight,0
;   minPrintHeight,0
;   useMaxPrintHeight,0
;   maxPrintHeight,0
;   useDiaphragm,0
;   diaphragmLayerInterval,20
;   robustSlicing,1
;   mergeAllIntoSolid,0
;   onlyRetractWhenCrossingOutline,1
;   retractBetweenLayers,1
;   useRetractionMinTravel,0
;   retractionMinTravel,3
;   retractWhileWiping,0
;   onlyWipeOutlines,1
;   avoidCrossingOutline,0
;   maxMovementDetourFactor,3
;   toolChangeRetractionDistance,12
;   toolChangeExtraRestartDistance,-0.5
;   toolChangeRetractionSpeed,600
;   externalThinWallType,1
;   internalThinWallType,1
;   thinWallAllowedOverlapPercentage,10
;   singleExtrusionMinLength,1
;   singleExtrusionMinPrintingWidthPercentage,50
;   singleExtrusionMaxPrintingWidthPercentage,200
;   singleExtrusionEndpointExtension,0.2
;   horizontalSizeCompensation,0
G90
M82
M106 S0
M140 S60
M190 S60
M104 S210 T0
M109 S210 T0
G28 ; home all axes
G1 X0 Y20 Z0.2 F3000 ; get ready to prime
G92 E0 ; reset extrusion distance
G1 X150 E20 F600 ; prime nozzle
G92 E0
G1 E-1.0000 F1800
G1 Z0.300 F1000
; process Process1 contc
; layer 1, Z = 0.300
T0
; tool H0.300 W0.400
; inner perimeter
G1 X73.909 Y73.910 F4800
G1 E0.0000 F540
G92 E0
G1 X79.500 Y69.322 E0.3248 F1725
G1 X85.879 Y65.912 E0.6495
G1 X92.801 Y63.812 E0.9743
G1 X99.999 Y63.103 E1.2991
G1 X107.198 Y63.812 E1.6239
G1 X114.119 Y65.911 E1.9486
G1 X120.498 Y69.321 E2.2734
G1 X126.090 Y73.909 E2.5982
G1 X130.678 Y79.501 E2.9230
G1 X134.088 Y85.879 E3.2477
G1 X136.188 Y92.801 E3.5725
G1 X136.897 Y99.999 E3.8973
G1 X136.188 Y107.198 E4.2221
G1 X134.089 Y114.119 E4.5468
G1 X130.679 Y120.498 E4.8716
G1 X126.091 Y126.090 E5.1964
G1 X120.499 Y130.678 E5.5212
G1 X114.121 Y134.088 E5.8459
G1 X107.199 Y136.188 E6.1707
G1 X100.001 Y136.897 E6.4955
G1 X92.802 Y136.188 E6.8203
G1 X85.881 Y134.089 E7.1450
G1 X79.502 Y130.679 E7.4698
G1 X73.910 Y126.091 E7.7946
G1 X69.322 Y120.499 E8.1193
G1 X65.912 Y114.121 E8.4441
G1 X63.812 Y107.199 E8.7689
G1 X63.103 Y100.001 E9.0937
G1 X63.812 Y92.802 E9.4184
G1 X65.911 Y85.881 E9.7432
G1 X69.321 Y79.501 E10.0680
G1 X73.909 Y73.910 E10.3928
; outer perimeter
G1 X73.625 Y73.626 F4800
G92 E0
G1 X79.277 Y68.987 E0.3283 F1150
G1 X85.726 Y65.541 E0.6566
G1 X92.723 Y63.418 E0.9849
G1 X99.999 Y62.701 E1.3132
G1 X107.276 Y63.418 E1.6416
G1 X114.273 Y65.540 E1.9699
G1 X120.722 Y68.987 E2.2982
G1 X126.374 Y73.625 E2.6265
G1 X131.013 Y79.277 E2.9548
G1 X134.459 Y85.726 E3.2831
G1 X136.582 Y92.723 E3.6114
G1 X137.299 Y99.999 E3.9397
G1 X136.582 Y107.276 E4.2681
G1 X134.460 Y114.273 E4.5964
G1 X131.013 Y120.722 E4.9247
G1 X126.375 Y126.374 E5.2530
G1 X120.723 Y131.013 E5.5813
G1 X114.274 Y134.459 E5.9096
G1 X107.277 Y136.582 E6.2379
G1 X100.001 Y137.299 E6.5662
G1 X92.724 Y136.582 E6.8945
G1 X85.727 Y134.460 E7.2229
G1 X79.278 Y131.013 E7.5512
G1 X73.626 Y126.375 E7.8795
G1 X68.987 Y120.723 E8.2078
G1 X65.541 Y114.274 E8.5361
G1 X63.418 Y107.277 E8.8644
G1 X62.701 Y100.001 E9.1927
G1 X63.418 Y92.724 E9.5210
G1 X65.540 Y85.727 E9.8494
G1 X68.987 Y79.278 E10.1777
G1 X73.625 Y73.626 E10.5060
; solid layer
G1 X74.151 Y74.152 F4800
G92 E0
G1 X79.690 Y69.606 E0.3218 F1840
G1 X86.010 Y66.228 E0.6435
G1 X92.868 Y64.147 E0.9653
G1 X99.999 Y63.445 E1.2871
G1 X107.131 Y64.147 E1.6088
G1 X113.988 Y66.227 E1.9306
G1 X120.309 Y69.605 E2.2524
G1 X125.848 Y74.151 E2.5741
G1 X130.394 Y79.690 E2.8959
G1 X133.772 Y86.010 E3.2177
G1 X135.853 Y92.868 E3.5394
G1 X136.555 Y99.999 E3.8612
G1 X135.853 Y107.131 E4.1830
G1 X133.773 Y113.988 E4.5047
G1 X130.395 Y120.309 E4.8265
G1 X125.849 Y125.848 E5.1483
G1 X120.310 Y130.394 E5.4700
G1 X113.990 Y133.772 E5.7918
G1 X107.132 Y135.853 E6.1136
G1 X100.001 Y136.555 E6.4353
G1 X92.869 Y135.853 E6.7571
G1 X86.012 Y133.773 E7.0789
G1 X79.691 Y130.395 E7.4006
G1 X74.152 Y125.849 E7.7224
G1 X69.606 Y120.310 E8.0442
G1 X66.228 Y113.990 E8.3659
G1 X64.147 Y107.132 E8.6877
G1 X63.445 Y100.001 E9.0095
G1 X64.147 Y92.869 E9.3312
G1 X66.227 Y86.012 E9.6530
G1 X69.605 Y79.691 E9.9748
G1 X74.151 Y74.152 E10.2965
G1 X74.435 Y74.436 F4800
G92 E0
G1 X79.914 Y69.940 E0.3182 F1840
G1 X86.164 Y66.599 E0.6365
G1 X92.946 Y64.541 E0.9547
G1 X99.999 Y63.847 E1.2729
G1 X107.052 Y64.541 E1.5911
G1 X113.835 Y66.598 E1.9094
G1 X120.085 Y69.939 E2.2276
G1 X125.564 Y74.435 E2.5458
G1 X130.060 Y79.914 E2.8641
G1 X133.401 Y86.164 E3.1823
G1 X135.459 Y92.946 E3.5005
G1 X136.153 Y99.999 E3.8187
G1 X135.459 Y107.052 E4.1370
G1 X133.402 Y113.835 E4.4552
G1 X130.061 Y120.085 E4.7734
G1 X125.565 Y125.564 E5.0917
G1 X120.086 Y130.060 E5.4099
G1 X113.836 Y133.401 E5.7281
G1 X107.054 Y135.459 E6.0463
G1 X100.001 Y136.153 E6.3646
G1 X92.948 Y135.459 E6.6828
G1 X86.165 Y133.402 E7.0010
G1 X79.915 Y130.061 E7.3193
G1 X74.436 Y125.565 E7.6375
G1 X69.940 Y120.086 E7.9557
G1 X66.599 Y113.836 E8.2739
G1 X64.541 Y107.054 E8.5922
G1 X63.847 Y100.001 E8.9104
G1 X64.541 Y92.948 E9.2286
G1 X66.598 Y86.165 E9.5469
G1 X69.939 Y79.914 E9.8651
G1 X74.435 Y74.436 E10.1833
G1 X74.719 Y74.720 F4800
G92 E0
G1 X80.137 Y70.274 E0.3147 F1840
G1 X86.318 Y66.970 E0.6294
G1 X93.024 Y64.936 E0.9441
G1 X99.999 Y64.248 E1.2588
G1 X106.974 Y64.935 E1.5735
G1 X113.681 Y66.970 E1.8881
G1 X119.862 Y70.273 E2.2028
G1 X125.280 Y74.719 E2.5175
G1 X129.726 Y80.137 E2.8322
G1 X133.030 Y86.318 E3.1469
G1 X135.064 Y93.024 E3.4616
G1 X135.751 Y99.999 E3.7763
G1 X135.065 Y106.974 E4.0910
G1 X133.030 Y113.681 E4.4057
G1 X129.727 Y119.862 E4.7204
G1 X125.281 Y125.280 E5.0351
G1 X119.863 Y129.726 E5.3497
G1 X113.682 Y133.030 E5.6644
G1 X106.975 Y135.064 E5.9791
G1 X100.001 Y135.751 E6.2938
G1 X93.026 Y135.065 E6.6085
G1 X86.319 Y133.030 E6.9232
G1 X80.138 Y129.727 E7.2379
G1 X74.720 Y125.281 E7.5526
G1 X70.274 Y119.863 E7.8673
G1 X66.970 Y113.682 E8.1820
G1 X64.936 Y106.976 E8.4967
G1 X64.248 Y100.001 E8.8113
G1 X64.935 Y93.026 E9.1260
G1 X66.970 Y86.319 E9.4407
G1 X70.274 Y80.137 E9.7555
G1 X74.719 Y74.720 E10.0701
G1 X75.004 Y75.005 F4800
G92 E0
G1 X80.360 Y70.608 E0.3112 F1840
G1 X86.472 Y67.342 E0.6223
G1 X93.103 Y65.330 E0.9335
G1 X99.999 Y64.650 E1.2446
G1 X106.896 Y65.330 E1.5558
G1 X113.527 Y67.341 E1.8669
G1 X119.639 Y70.608 E2.1781
G1 X124.995 Y75.004 E2.4892
G1 X129.392 Y80.360 E2.8004
G1 X132.658 Y86.472 E3.1115
G1 X134.670 Y93.103 E3.4227
G1 X135.350 Y99.999 E3.7338
G1 X134.670 Y106.896 E4.0450
G1 X132.659 Y113.527 E4.3561
G1 X129.392 Y119.639 E4.6673
G1 X124.996 Y124.995 E4.9785
G1 X119.640 Y129.392 E5.2896
G1 X113.528 Y132.659 E5.6008
G1 X106.897 Y134.670 E5.9119
G1 X100.001 Y135.350 E6.2231
G1 X93.104 Y134.670 E6.5342
G1 X86.473 Y132.659 E6.8454
G1 X80.361 Y129.392 E7.1565
G1 X75.005 Y124.996 E7.4677
G1 X70.608 Y119.640 E7.7788
G1 X67.342 Y113.528 E8.0900
G1 X65.330 Y106.897 E8.4011
G1 X64.650 Y100.001 E8.7123
G1 X65.329 Y93.104 E9.0234
G1 X67.341 Y86.473 E9.3346
G1 X70.608 Y80.361 E9.6458
G1 X75.004 Y75.005 E9.9569
G1 X75.288 Y75.289 F4800
G92 E0
G1 X80.584 Y70.942 E0.3076 F1840
G1 X86.625 Y67.713 E0.6152
G1 X93.181 Y65.724 E0.9228
G1 X99.999 Y65.052 E1.2305
G1 X106.817 Y65.724 E1.5381
G1 X113.373 Y67.712 E1.8457
G1 X119.415 Y70.942 E2.1533
G1 X124.711 Y75.288 E2.4609
G1 X129.058 Y80.584 E2.7685
G1 X132.287 Y86.625 E3.0762
G1 X134.276 Y93.181 E3.3838
G1 X134.948 Y99.999 E3.6914
G1 X134.276 Y106.817 E3.9990
G1 X132.288 Y113.373 E4.3066
G1 X129.058 Y119.415 E4.6142
G1 X124.712 Y124.711 E4.9218
G1 X119.416 Y129.058 E5.2295
G1 X113.374 Y132.287 E5.5371
G1 X106.819 Y134.276 E5.8447
G1 X100.001 Y134.948 E6.1523
G1 X93.183 Y134.276 E6.4599
G1 X86.627 Y132.288 E6.7675
G1 X80.585 Y129.058 E7.0751
G1 X75.289 Y124.712 E7.3828
G1 X70.942 Y119.416 E7.6904
G1 X67.713 Y113.375 E7.9980
G1 X65.724 Y106.819 E8.3056
G1 X65.052 Y100.001 E8.6132
G1 X65.724 Y93.183 E8.9208
G1 X67.712 Y86.627 E9.2285
G1 X70.942 Y80.584 E9.5361
G1 X75.288 Y75.289 E9.8437
G1 X75.572 Y75.573 F4800
G92 E0
G1 X80.807 Y71.277 E0.3041 F1840
G1 X86.779 Y68.084 E0.6082
G1 X93.260 Y66.118 E0.9122
G1 X99.999 Y65.454 E1.2163
G1 X106.739 Y66.118 E1.5204
G1 X113.219 Y68.084 E1.8245
G1 X119.192 Y71.276 E2.1285
G1 X124.427 Y75.572 E2.4326
G1 X128.723 Y80.807 E2.7367
G1 X131.916 Y86.779 E3.0408
G1 X133.882 Y93.260 E3.3448
G1 X134.546 Y99.999 E3.6489
G1 X133.882 Y106.739 E3.9530
G1 X131.916 Y113.220 E4.2571
G1 X128.724 Y119.192 E4.5612
G1 X124.428 Y124.427 E4.8652
G1 X119.193 Y128.723 E5.1693
G1 X113.221 Y131.916 E5.4734
G1 X106.740 Y133.882 E5.7775
G1 X100.001 Y134.546 E6.0816
G1 X93.261 Y133.882 E6.3856
G1 X86.781 Y131.916 E6.6897
G1 X80.808 Y128.724 E6.9938
G1 X75.573 Y124.428 E7.2979
G1 X71.277 Y119.193 E7.6019
G1 X68.084 Y113.221 E7.9060
G1 X66.118 Y106.740 E8.2101
G1 X65.454 Y100.001 E8.5142
G1 X66.118 Y93.261 E8.8182
G1 X68.084 Y86.781 E9.1223
G1 X71.276 Y80.807 E9.4264
G1 X75.572 Y75.573 E9.7305
G1 X75.856 Y75.857 F4800
G92 E0
G1 X81.030 Y71.611 E0.3005 F1840
G1 X86.933 Y68.456 E0.6011
G1 X93.338 Y66.512 E0.9016
G1 X99.999 Y65.856 E1.2022
G1 X106.660 Y66.512 E1.5027
G1 X113.066 Y68.455 E1.8032
G1 X118.969 Y71.610 E2.1038
G1 X124.143 Y75.856 E2.4043
G1 X128.389 Y81.030 E2.7049
G1 X131.544 Y86.933 E3.0054
G1 X133.488 Y93.338 E3.3059
G1 X134.144 Y99.999 E3.6065
G1 X133.488 Y106.660 E3.9070
G1 X131.545 Y113.066 E4.2076
G1 X128.390 Y118.969 E4.5081
G1 X124.144 Y124.143 E4.8086
G1 X118.970 Y128.389 E5.1092
G1 X113.067 Y131.545 E5.4097
G1 X106.662 Y133.488 E5.7102
G1 X100.001 Y134.144 E6.0108
G1 X93.340 Y133.488 E6.3113
G1 X86.934 Y131.545 E6.6119
G1 X81.031 Y128.390 E6.9124
G1 X75.857 Y124.144 E7.2129
G1 X71.611 Y118.970 E7.5135
G1 X68.456 Y113.067 E7.8140
G1 X66.512 Y106.662 E8.1146
G1 X65.856 Y100.001 E8.4151
G1 X66.512 Y93.340 E8.7156
G1 X68.455 Y86.934 E9.0162
G1 X71.610 Y81.031 E9.3168
G1 X75.856 Y75.857 E9.6173
G1 X76.140 Y76.141 F4800
G92 E0
G1 X81.253 Y71.945 E0.2970 F1840
G1 X87.087 Y68.827 E0.5940
G1 X93.416 Y66.907 E0.8910
G1 X99.999 Y66.258 E1.1880
G1 X106.582 Y66.906 E1.4850
G1 X112.912 Y68.826 E1.7820
G1 X118.745 Y71.944 E2.0790
G1 X123.859 Y76.140 E2.3760
G1 X128.055 Y81.254 E2.6730
G1 X131.173 Y87.087 E2.9700
G1 X133.093 Y93.417 E3.2670
G1 X133.742 Y99.999 E3.5640
G1 X133.094 Y106.582 E3.8610
G1 X131.174 Y112.912 E4.1580
G1 X128.056 Y118.745 E4.4550
G1 X123.859 Y123.859 E4.7520
G1 X118.746 Y128.055 E5.0490
G1 X112.913 Y131.173 E5.3460
G1 X106.583 Y133.093 E5.6430
G1 X100.001 Y133.742 E5.9400
G1 X93.418 Y133.094 E6.2370
G1 X87.088 Y131.174 E6.5340
G1 X81.255 Y128.056 E6.8310
G1 X76.141 Y123.860 E7.1280
G1 X71.945 Y118.747 E7.4250
G1 X68.827 Y112.913 E7.7220
G1 X66.907 Y106.583 E8.0190
G1 X66.258 Y100.001 E8.3160
G1 X66.906 Y93.418 E8.6130
G1 X68.826 Y87.088 E8.9101
G1 X71.945 Y81.254 E9.2071
G1 X76.140 Y76.141 E9.5040
G1 X76.425 Y76.426 F4800
G92 E0
G1 X81.477 Y72.279 E0.2935 F1840
G1 X87.241 Y69.198 E0.5869
G1 X93.495 Y67.301 E0.8804
G1 X99.999 Y66.660 E1.1739
G1 X106.503 Y67.301 E1.4673
G1 X112.758 Y69.198 E1.7608
G1 X118.522 Y72.278 E2.0542
G1 X123.574 Y76.425 E2.3477
G1 X127.721 Y81.477 E2.6412
G1 X130.802 Y87.241 E2.9346
G1 X132.699 Y93.495 E3.2281
G1 X133.340 Y99.999 E3.5216
G1 X132.699 Y106.503 E3.8150
G1 X130.802 Y112.758 E4.1085
G1 X127.722 Y118.522 E4.4020
G1 X123.575 Y123.574 E4.6954
G1 X118.523 Y127.721 E4.9889
G1 X112.759 Y130.802 E5.2824
G1 X106.505 Y132.699 E5.5758
G1 X100.001 Y133.340 E5.8693
G1 X93.497 Y132.699 E6.1627
G1 X87.242 Y130.802 E6.4562
G1 X81.478 Y127.722 E6.7497
