; G-Code generated by Simplify3D(R) Version 4.0.0
; Jul 27, 2019 at 3:28:06 PM
; Settings Summary
;   processName,Process2
;   applyToModels,Battery_Holder_AAAandAA
;   profileName,Default(2) (modified)
;   profileVersion,2019-07-27 15:21:07
;   baseProfile,
;   printMaterial,PLA
;   printQuality,Medium
;   printExtruders,
;   extruderName,Primary Extruder
;   extruderToolheadNumber,0
;   extruderDiameter,0.4
;   extruderAutoWidth,0
;   extruderWidth,0.4
;   extrusionMultiplier,0.9
;   extruderUseRetract,1
;   extruderRetractionDistance,1
;   extruderExtraRestartDistance,0
;   extruderRetractionZLift,0
;   extruderRetractionSpeed,1800
;   extruderUseCoasting,0
;   extruderCoastingDistance,0.2
;   extruderUseWipe,0
;   extruderWipeDistance,5
;   primaryExtruder,0
;   layerHeight,0.2
;   topSolidLayers,3
;   bottomSolidLayers,3
;   perimeterOutlines,2
;   printPerimetersInsideOut,0
;   startPointOption,2
;   startPointOriginX,0
;   startPointOriginY,0
;   sequentialIslands,0
;   spiralVaseMode,0
;   firstLayerHeightPercentage,90
;   firstLayerWidthPercentage,100
;   firstLayerUnderspeed,0.5
;   useRaft,0
;   raftExtruder,0
;   raftTopLayers,3
;   raftBaseLayers,2
;   raftOffset,3
;   raftSeparationDistance,0.14
;   raftTopInfill,100
;   aboveRaftSpeedMultiplier,0.3
;   useSkirt,0
;   skirtExtruder,0
;   skirtLayers,1
;   skirtOutlines,2
;   skirtOffset,4
;   usePrimePillar,0
;   primePillarExtruder,999
;   primePillarWidth,12
;   primePillarLocation,7
;   primePillarSpeedMultiplier,1
;   useOozeShield,0
;   oozeShieldExtruder,999
;   oozeShieldOffset,2
;   oozeShieldOutlines,1
;   oozeShieldSidewallShape,1
;   oozeShieldSidewallAngle,30
;   oozeShieldSpeedMultiplier,1
;   infillExtruder,0
;   internalInfillPattern,Rectilinear
;   externalInfillPattern,Rectilinear
;   infillPercentage,15
;   outlineOverlapPercentage,15
;   infillExtrusionWidthPercentage,100
;   minInfillLength,5
;   infillLayerInterval,1
;   internalInfillAngles,45,-45
;   overlapInternalInfillAngles,0
;   externalInfillAngles,45,-45
;   generateSupport,0
;   supportExtruder,0
;   supportInfillPercentage,30
;   supportExtraInflation,0
;   supportBaseLayers,0
;   denseSupportExtruder,0
;   denseSupportLayers,0
;   denseSupportInfillPercentage,70
;   supportLayerInterval,1
;   supportHorizontalPartOffset,0.3
;   supportUpperSeparationLayers,1
;   supportLowerSeparationLayers,1
;   supportType,0
;   supportGridSpacing,4
;   maxOverhangAngle,45
;   supportAngles,0
;   temperatureName,Primary Extruder,Hot Bed
;   temperatureNumber,0,1
;   temperatureSetpointCount,1,1
;   temperatureSetpointLayers,1,1
;   temperatureSetpointTemperatures,210,60
;   temperatureStabilizeAtStartup,1,0
;   temperatureHeatedBed,0,1
;   temperatureRelayBetweenLayers,0,0
;   temperatureRelayBetweenLoops,0,0
;   fanLayers,1,2
;   fanSpeeds,0,100
;   blipFanToFullPower,0
;   adjustSpeedForCooling,1
;   minSpeedLayerTime,15
;   minCoolingSpeedSlowdown,20
;   increaseFanForCooling,0
;   minFanLayerTime,45
;   maxCoolingFanSpeed,100
;   increaseFanForBridging,0
;   bridgingFanSpeed,100
;   use5D,1
;   relativeEdistances,0
;   allowEaxisZeroing,1
;   independentExtruderAxes,0
;   includeM10123,0
;   stickySupport,1
;   applyToolheadOffsets,0
;   gcodeXoffset,0
;   gcodeYoffset,0
;   gcodeZoffset,0
;   overrideMachineDefinition,0
;   machineTypeOverride,0
;   strokeXoverride,200
;   strokeYoverride,200
;   strokeZoverride,200
;   originOffsetXoverride,0
;   originOffsetYoverride,0
;   originOffsetZoverride,0
;   homeXdirOverride,-1
;   homeYdirOverride,-1
;   homeZdirOverride,-1
;   flipXoverride,1
;   flipYoverride,-1
;   flipZoverride,1
;   toolheadOffsets,0,0|0,0|0,0|0,0|0,0|0,0
;   overrideFirmwareConfiguration,0
;   firmwareTypeOverride,RepRap (Marlin/Repetier/Sprinter)
;   GPXconfigOverride,r2
;   baudRateOverride,115200
;   overridePrinterModels,0
;   printerModelsOverride
;   startingGcode,G28 ; home all axes,G1 X0 Y20 Z0.2 F3000 ; get ready to prime,G92 E0 ; reset extrusion distance,G1 X150 E20 F600 ; prime nozzle
;   layerChangeGcode,
;   retractionGcode,
;   toolChangeGcode,
;   endingGcode,M104 S0 ; turn off extruder,M140 S0 ; turn off bed,M84 ; disable motors
;   exportFileFormat,gcode
;   celebration,0
;   celebrationSong,Random Song
;   postProcessing,
;   defaultSpeed,4200
;   outlineUnderspeed,0.5
;   solidInfillUnderspeed,0.8
;   supportUnderspeed,0.8
;   rapidXYspeed,4800
;   rapidZspeed,1000
;   minBridgingArea,50
;   bridgingExtraInflation,0
;   bridgingExtrusionMultiplier,1
;   bridgingSpeedMultiplier,1
;   useFixedBridgingAngle,0
;   fixedBridgingAngle,0
;   applyBridgingToPerimeters,0
;   filamentDiameters,1.75|1.75|1.75|1.75|1.75|1.75
;   filamentPricesPerKg,46|46|46|46|46|46
;   filamentDensities,1.25|1.25|1.25|1.25|1.25|1.25
;   useMinPrintHeight,0
;   minPrintHeight,0
;   useMaxPrintHeight,0
;   maxPrintHeight,0
;   useDiaphragm,0
;   diaphragmLayerInterval,20
;   robustSlicing,1
;   mergeAllIntoSolid,0
;   onlyRetractWhenCrossingOutline,1
;   retractBetweenLayers,1
;   useRetractionMinTravel,0
;   retractionMinTravel,3
;   retractWhileWiping,0
;   onlyWipeOutlines,1
;   avoidCrossingOutline,0
;   maxMovementDetourFactor,3
;   toolChangeRetractionDistance,12
;   toolChangeExtraRestartDistance,-0.5
;   toolChangeRetractionSpeed,600
;   externalThinWallType,0
;   internalThinWallType,2
;   thinWallAllowedOverlapPercentage,10
;   singleExtrusionMinLength,1
;   singleExtrusionMinPrintingWidthPercentage,50
;   singleExtrusionMaxPrintingWidthPercentage,200
;   singleExtrusionEndpointExtension,0.2
;   horizontalSizeCompensation,0
G90
M82
M106 S0
M140 S60
M104 S210 T0
M109 S210 T0
G28 ; home all axes
G1 X0 Y20 Z0.2 F3000 ; get ready to prime
G92 E0 ; reset extrusion distance
G1 X150 E20 F600 ; prime nozzle
G92 E0
G1 E-1.0000 F1800
G1 Z0.180 F1000
; process Process2
; layer 1, Z = 0.180
T0
; tool H0.200 W0.400
; outer perimeter
G1 X47.950 Y60.200 F4800
G1 E0.0000 F540
G92 E0
G1 X97.250 Y60.200 E1.4758 F1050
G1 X152.050 Y60.200 E3.1161
G1 X152.050 Y139.800 E5.4989
G1 X47.950 Y139.800 E8.6150
G1 X47.950 Y60.200 E10.9978
; inner perimeter
G1 X48.350 Y60.600 F4800
G92 E0
G1 X97.250 Y60.600 E1.4638 F1575
G1 X151.650 Y60.600 E3.0922
G1 X151.650 Y139.400 E5.4510
G1 X48.350 Y139.400 E8.5432
G1 X48.350 Y60.600 E10.9020
; outer perimeter
G1 X49.550 Y82.736 F4800
G92 E0
G1 X49.550 Y138.200 E1.6603 F1050
G1 X95.750 Y138.200 E3.0432
G1 X95.750 Y82.736 E4.7035
G1 X49.550 Y82.736 E6.0864
; inner perimeter
G1 X49.150 Y82.336 F4800
G92 E0
G1 X49.150 Y138.600 E1.6842 F1575
G1 X96.150 Y138.600 E3.0911
G1 X96.150 Y82.336 E4.7753
G1 X49.150 Y82.336 E6.1822
; outer perimeter
G1 X97.050 Y82.736 F4800
G92 E0
G1 X97.050 Y138.200 E1.6603 F1050
G1 X150.250 Y138.200 E3.2528
G1 X150.250 Y82.736 E4.9130
G1 X97.050 Y82.736 E6.5055
; inner perimeter
G1 X96.650 Y82.336 F4800
G92 E0
G1 X96.650 Y138.600 E1.6842 F1575
G1 X150.650 Y138.600 E3.3007
G1 X150.650 Y82.336 E4.9849
G1 X96.650 Y82.336 E6.6013
; solid layer
G1 X151.310 Y82.862 F4800
G92 E0
G1 X150.990 Y82.542 E0.0135 F1680
G1 X150.990 Y83.108 E0.0305
G1 X151.310 Y83.428 E0.0440
G1 X151.310 Y83.993 E0.0610
G1 X150.990 Y83.673 E0.0745
G1 X150.990 Y84.239 E0.0914
G1 X151.310 Y84.559 E0.1050
G1 X151.310 Y85.125 E0.1219
G1 X150.990 Y84.805 E0.1355
G1 X150.990 Y85.370 E0.1524
G1 X151.310 Y85.690 E0.1659
G1 X151.310 Y86.256 E0.1829
G1 X150.990 Y85.936 E0.1964
G1 X150.990 Y86.502 E0.2134
G1 X151.310 Y86.822 E0.2269
G1 X151.310 Y87.388 E0.2438
G1 X150.990 Y87.068 E0.2574
G1 X150.990 Y87.633 E0.2743
G1 X151.310 Y87.953 E0.2879
G1 X151.310 Y88.519 E0.3048
G1 X150.990 Y88.199 E0.3183
G1 X150.990 Y88.765 E0.3353
G1 X151.310 Y89.085 E0.3488
G1 X151.310 Y89.650 E0.3658
G1 X150.990 Y89.330 E0.3793
G1 X150.990 Y89.896 E0.3962
G1 X151.310 Y90.216 E0.4098
G1 X151.310 Y90.782 E0.4267
G1 X150.990 Y90.462 E0.4403
G1 X150.990 Y91.027 E0.4572
G1 X151.310 Y91.347 E0.4707
G1 X151.310 Y91.913 E0.4877
G1 X150.990 Y91.593 E0.5012
G1 X150.990 Y92.159 E0.5182
G1 X151.310 Y92.479 E0.5317
G1 X151.310 Y93.044 E0.5486
G1 X150.990 Y92.724 E0.5622
G1 X150.990 Y93.290 E0.5791
G1 X151.310 Y93.610 E0.5927
G1 X151.310 Y94.176 E0.6096
G1 X150.990 Y93.856 E0.6231
G1 X150.990 Y94.421 E0.6401
G1 X151.310 Y94.741 E0.6536
G1 X151.310 Y95.307 E0.6706
G1 X150.990 Y94.987 E0.6841
G1 X150.990 Y95.553 E0.7010
G1 X151.310 Y95.873 E0.7146
G1 X151.310 Y96.439 E0.7315
G1 X150.990 Y96.118 E0.7451
G1 X150.990 Y96.684 E0.7620
G1 X151.310 Y97.004 E0.7755
G1 X151.310 Y97.570 E0.7925
G1 X150.990 Y97.250 E0.8060
G1 X150.990 Y97.816 E0.8230
G1 X151.310 Y98.136 E0.8365
G1 X151.310 Y98.701 E0.8534
G1 X150.990 Y98.381 E0.8670
G1 X150.990 Y98.947 E0.8839
G1 X151.310 Y99.267 E0.8975
G1 X151.310 Y99.833 E0.9144
G1 X150.990 Y99.513 E0.9279
G1 X150.990 Y100.078 E0.9449
G1 X151.310 Y100.398 E0.9584
G1 X151.310 Y100.964 E0.9754
G1 X150.990 Y100.644 E0.9889
G1 X150.990 Y101.210 E1.0058
G1 X151.310 Y101.530 E1.0194
G1 X151.310 Y102.095 E1.0363
G1 X150.990 Y101.775 E1.0499
G1 X150.990 Y102.341 E1.0668
G1 X151.310 Y102.661 E1.0803
G1 X151.310 Y103.227 E1.0973
G1 X150.990 Y102.907 E1.1108
G1 X150.990 Y103.472 E1.1278
G1 X151.310 Y103.792 E1.1413
G1 X151.310 Y104.358 E1.1582
G1 X150.990 Y104.038 E1.1718
G1 X150.990 Y104.604 E1.1887
G1 X151.310 Y104.924 E1.2023
G1 X151.310 Y105.489 E1.2192
G1 X150.990 Y105.169 E1.2328
G1 X150.990 Y105.735 E1.2497
G1 X151.310 Y106.055 E1.2632
G1 X151.310 Y106.621 E1.2802
G1 X150.990 Y106.301 E1.2937
G1 X150.990 Y106.867 E1.3106
G1 X151.310 Y107.187 E1.3242
G1 X151.310 Y107.752 E1.3411
G1 X150.990 Y107.432 E1.3547
G1 X150.990 Y107.998 E1.3716
G1 X151.310 Y108.318 E1.3852
G1 X151.310 Y108.884 E1.4021
G1 X150.990 Y108.564 E1.4156
G1 X150.990 Y109.129 E1.4326
G1 X151.310 Y109.449 E1.4461
G1 X151.310 Y110.015 E1.4630
G1 X150.990 Y109.695 E1.4766
G1 X150.990 Y110.261 E1.4935
G1 X151.310 Y110.581 E1.5071
G1 X151.310 Y111.146 E1.5240
G1 X150.990 Y110.826 E1.5376
G1 X150.990 Y111.392 E1.5545
G1 X151.310 Y111.712 E1.5680
G1 X151.310 Y112.278 E1.5850
G1 X150.990 Y111.958 E1.5985
G1 X150.990 Y112.523 E1.6154
G1 X151.310 Y112.843 E1.6290
G1 X151.310 Y113.409 E1.6459
G1 X150.990 Y113.089 E1.6595
G1 X150.990 Y113.655 E1.6764
G1 X151.310 Y113.975 E1.6900
G1 X151.310 Y114.540 E1.7069
G1 X150.990 Y114.220 E1.7204
G1 X150.990 Y114.786 E1.7374
G1 X151.310 Y115.106 E1.7509
G1 X151.310 Y115.672 E1.7679
G1 X150.990 Y115.352 E1.7814
G1 X150.990 Y115.917 E1.7983
G1 X151.310 Y116.237 E1.8119
G1 X151.310 Y116.803 E1.8288
G1 X150.990 Y116.483 E1.8424
G1 X150.990 Y117.049 E1.8593
G1 X151.310 Y117.369 E1.8728
G1 X151.310 Y117.935 E1.8898
G1 X150.990 Y117.615 E1.9033
G1 X150.990 Y118.180 E1.9203
G1 X151.310 Y118.500 E1.9338
G1 X151.310 Y119.066 E1.9507
G1 X150.990 Y118.746 E1.9643
G1 X150.990 Y119.312 E1.9812
G1 X151.310 Y119.632 E1.9948
G1 X151.310 Y120.197 E2.0117
G1 X150.990 Y119.877 E2.0252
G1 X150.990 Y120.443 E2.0422
G1 X151.310 Y120.763 E2.0557
G1 X151.310 Y121.329 E2.0727
G1 X150.990 Y121.009 E2.0862
G1 X150.990 Y121.574 E2.1031
G1 X151.310 Y121.894 E2.1167
G1 X151.310 Y122.460 E2.1336
G1 X150.990 Y122.140 E2.1472
G1 X150.990 Y122.706 E2.1641
G1 X151.310 Y123.026 E2.1776
G1 X151.310 Y123.591 E2.1946
G1 X150.990 Y123.271 E2.2081
G1 X150.990 Y123.837 E2.2251
G1 X151.310 Y124.157 E2.2386
G1 X151.310 Y124.723 E2.2555
G1 X150.990 Y124.403 E2.2691
G1 X150.990 Y124.968 E2.2860
G1 X151.310 Y125.288 E2.2996
G1 X151.310 Y125.854 E2.3165
G1 X150.990 Y125.534 E2.3300
G1 X150.990 Y126.100 E2.3470
G1 X151.310 Y126.420 E2.3605
G1 X151.310 Y126.986 E2.3775
G1 X150.990 Y126.666 E2.3910
G1 X150.990 Y127.231 E2.4079
G1 X151.310 Y127.551 E2.4215
G1 X151.310 Y128.117 E2.4384
G1 X150.990 Y127.797 E2.4520
G1 X150.990 Y128.363 E2.4689
G1 X151.310 Y128.683 E2.4824
G1 X151.310 Y129.248 E2.4994
G1 X150.990 Y128.928 E2.5129
G1 X150.990 Y129.494 E2.5299
G1 X151.310 Y129.814 E2.5434
G1 X151.310 Y130.380 E2.5603
G1 X150.990 Y130.060 E2.5739
G1 X150.990 Y130.625 E2.5908
G1 X151.310 Y130.945 E2.6044
G1 X151.310 Y131.511 E2.6213
G1 X150.990 Y131.191 E2.6349
G1 X150.990 Y131.757 E2.6518
G1 X151.310 Y132.077 E2.6653
G1 X151.310 Y132.642 E2.6823
G1 X150.990 Y132.322 E2.6958
G1 X150.990 Y132.888 E2.7127
G1 X151.310 Y133.208 E2.7263
G1 X151.310 Y133.774 E2.7432
G1 X150.990 Y133.454 E2.7568
G1 X150.990 Y134.019 E2.7737
G1 X151.310 Y134.339 E2.7873
G1 X151.310 Y134.905 E2.8042
G1 X150.990 Y134.585 E2.8177
G1 X150.990 Y135.151 E2.8347
G1 X151.310 Y135.471 E2.8482
G1 X151.310 Y136.036 E2.8652
G1 X150.990 Y135.716 E2.8787
G1 X150.990 Y136.282 E2.8956
G1 X151.310 Y136.602 E2.9092
G1 X151.310 Y137.168 E2.9261
G1 X150.990 Y136.848 E2.9397
G1 X150.990 Y137.414 E2.9566
G1 X151.310 Y137.734 E2.9701
G1 X151.310 Y138.299 E2.9871
G1 X150.990 Y137.979 E3.0006
G1 X150.990 Y138.545 E3.0176
G1 X151.310 Y138.865 E3.0311
G1 X151.310 Y139.060 E3.0369
G1 X150.939 Y139.060 E3.0480
G1 X150.819 Y138.940 E3.0531
G1 X150.254 Y138.940 E3.0700
G1 X150.374 Y139.060 E3.0751
G1 X149.808 Y139.060 E3.0921
G1 X149.688 Y138.940 E3.0971
G1 X149.122 Y138.940 E3.1141
G1 X149.242 Y139.060 E3.1192
G1 X148.677 Y139.060 E3.1361
G1 X148.557 Y138.940 E3.1412
G1 X147.991 Y138.940 E3.1581
G1 X148.111 Y139.060 E3.1632
G1 X147.545 Y139.060 E3.1801
G1 X147.425 Y138.940 E3.1852
G1 X146.860 Y138.940 E3.2021
G1 X146.980 Y139.060 E3.2072
G1 X146.414 Y139.060 E3.2241
G1 X146.294 Y138.940 E3.2292
G1 X145.728 Y138.940 E3.2462
G1 X145.848 Y139.060 E3.2512
G1 X145.283 Y139.060 E3.2682
G1 X145.163 Y138.940 E3.2732
G1 X144.597 Y138.940 E3.2902
G1 X144.717 Y139.060 E3.2953
G1 X144.151 Y139.060 E3.3122
G1 X144.031 Y138.940 E3.3173
G1 X143.465 Y138.940 E3.3342
G1 X143.585 Y139.060 E3.3393
G1 X143.020 Y139.060 E3.3562
G1 X142.900 Y138.940 E3.3613
G1 X142.334 Y138.940 E3.3782
G1 X142.454 Y139.060 E3.3833
G1 X141.888 Y139.060 E3.4002
G1 X141.768 Y138.940 E3.4053
G1 X141.203 Y138.940 E3.4223
G1 X141.323 Y139.060 E3.4273
G1 X140.757 Y139.060 E3.4443
G1 X140.637 Y138.940 E3.4494
G1 X140.071 Y138.940 E3.4663
G1 X140.191 Y139.060 E3.4714
G1 X139.626 Y139.060 E3.4883
G1 X139.506 Y138.940 E3.4934
G1 X138.940 Y138.940 E3.5103
G1 X139.060 Y139.060 E3.5154
G1 X138.494 Y139.060 E3.5323
G1 X138.374 Y138.940 E3.5374
G1 X137.809 Y138.940 E3.5543
G1 X137.929 Y139.060 E3.5594
G1 X137.363 Y139.060 E3.5764
G1 X137.243 Y138.940 E3.5814
G1 X136.677 Y138.940 E3.5984
G1 X136.797 Y139.060 E3.6034
G1 X136.232 Y139.060 E3.6204
G1 X136.112 Y138.940 E3.6255
G1 X135.546 Y138.940 E3.6424
G1 X135.666 Y139.060 E3.6475
G1 X135.100 Y139.060 E3.6644
G1 X134.980 Y138.940 E3.6695
G1 X134.415 Y138.940 E3.6864
G1 X134.535 Y139.060 E3.6915
G1 X133.969 Y139.060 E3.7084
G1 X133.849 Y138.940 E3.7135
G1 X133.283 Y138.940 E3.7304
G1 X133.403 Y139.060 E3.7355
G1 X132.837 Y139.060 E3.7525
G1 X132.717 Y138.940 E3.7575
G1 X132.152 Y138.940 E3.7745
G1 X132.272 Y139.060 E3.7796
G1 X131.706 Y139.060 E3.7965
G1 X131.586 Y138.940 E3.8016
G1 X131.020 Y138.940 E3.8185
G1 X131.140 Y139.060 E3.8236
G1 X130.575 Y139.060 E3.8405
G1 X130.455 Y138.940 E3.8456
G1 X129.889 Y138.940 E3.8625
G1 X130.009 Y139.060 E3.8676
G1 X129.443 Y139.060 E3.8845
G1 X129.323 Y138.940 E3.8896
G1 X128.758 Y138.940 E3.9066
G1 X128.878 Y139.060 E3.9116
G1 X128.312 Y139.060 E3.9286
G1 X128.192 Y138.940 E3.9336
G1 X127.626 Y138.940 E3.9506
G1 X127.746 Y139.060 E3.9557
G1 X127.181 Y139.060 E3.9726
G1 X127.061 Y138.940 E3.9777
G1 X126.495 Y138.940 E3.9946
G1 X126.615 Y139.060 E3.9997
G1 X126.049 Y139.060 E4.0166
G1 X125.929 Y138.940 E4.0217
G1 X125.364 Y138.940 E4.0386
G1 X125.484 Y139.060 E4.0437
G1 X124.918 Y139.060 E4.0606
G1 X124.798 Y138.940 E4.0657
G1 X124.232 Y138.940 E4.0827
G1 X124.352 Y139.060 E4.0877
G1 X123.787 Y139.060 E4.1047
G1 X123.667 Y138.940 E4.1098
G1 X123.101 Y138.940 E4.1267
G1 X123.221 Y139.060 E4.1318
G1 X122.655 Y139.060 E4.1487
G1 X122.535 Y138.940 E4.1538
G1 X121.969 Y138.940 E4.1707
G1 X122.089 Y139.060 E4.1758
G1 X121.524 Y139.060 E4.1927
G1 X121.404 Y138.940 E4.1978
G1 X120.838 Y138.940 E4.2147
G1 X120.958 Y139.060 E4.2198
G1 X120.392 Y139.060 E4.2368
G1 X120.272 Y138.940 E4.2418
G1 X119.707 Y138.940 E4.2588
G1 X119.827 Y139.060 E4.2638
