; G-Code generated by Simplify3D(R) Version 4.0.0
; May 4, 2018 at 2:43:00 AM
; Settings Summary
;   processName,nozzle 0.4
;   applyToModels,dual_mosfet_box_v2b
;   profileName,Flying Bear 902 Update 7-2017 (modified)
;   profileVersion,2017-07-10 09:45:20
;   baseProfile,Default
;   printMaterial,PLA
;   printQuality,Medium
;   printExtruders,
;   extruderName,Extruder 1
;   extruderToolheadNumber,0
;   extruderDiameter,0.4
;   extruderAutoWidth,1
;   extruderWidth,0.48
;   extrusionMultiplier,0.9
;   extruderUseRetract,1
;   extruderRetractionDistance,2
;   extruderExtraRestartDistance,0
;   extruderRetractionZLift,0
;   extruderRetractionSpeed,3000
;   extruderUseCoasting,0
;   extruderCoastingDistance,0.2
;   extruderUseWipe,1
;   extruderWipeDistance,5
;   primaryExtruder,0
;   layerHeight,0.2
;   topSolidLayers,2
;   bottomSolidLayers,2
;   perimeterOutlines,4
;   printPerimetersInsideOut,0
;   startPointOption,2
;   startPointOriginX,0
;   startPointOriginY,0
;   sequentialIslands,0
;   spiralVaseMode,0
;   firstLayerHeightPercentage,20
;   firstLayerWidthPercentage,115
;   firstLayerUnderspeed,0.3
;   useRaft,0
;   raftExtruder,0
;   raftTopLayers,2
;   raftBaseLayers,2
;   raftOffset,2
;   raftSeparationDistance,0.3
;   raftTopInfill,100
;   aboveRaftSpeedMultiplier,0.3
;   useSkirt,0
;   skirtExtruder,0
;   skirtLayers,1
;   skirtOutlines,2
;   skirtOffset,4
;   usePrimePillar,0
;   primePillarExtruder,999
;   primePillarWidth,12
;   primePillarLocation,7
;   primePillarSpeedMultiplier,1
;   useOozeShield,0
;   oozeShieldExtruder,999
;   oozeShieldOffset,2
;   oozeShieldOutlines,1
;   oozeShieldSidewallShape,1
;   oozeShieldSidewallAngle,30
;   oozeShieldSpeedMultiplier,1
;   infillExtruder,0
;   internalInfillPattern,Rectilinear
;   externalInfillPattern,Concentric
;   infillPercentage,9
;   outlineOverlapPercentage,60
;   infillExtrusionWidthPercentage,100
;   minInfillLength,5
;   infillLayerInterval,1
;   internalInfillAngles,45,-45
;   overlapInternalInfillAngles,0
;   externalInfillAngles,45,-45
;   generateSupport,1
;   supportExtruder,0
;   supportInfillPercentage,30
;   supportExtraInflation,0
;   supportBaseLayers,0
;   denseSupportExtruder,0
;   denseSupportLayers,0
;   denseSupportInfillPercentage,50
;   supportLayerInterval,1
;   supportHorizontalPartOffset,0.3
;   supportUpperSeparationLayers,1
;   supportLowerSeparationLayers,1
;   supportType,0
;   supportGridSpacing,4
;   maxOverhangAngle,70
;   supportAngles,0
;   temperatureName,Extruder 1,Heated Bed
;   temperatureNumber,0,0
;   temperatureSetpointCount,1,1
;   temperatureSetpointLayers,1,1
;   temperatureSetpointTemperatures,210,60
;   temperatureStabilizeAtStartup,1,0
;   temperatureHeatedBed,0,1
;   temperatureRelayBetweenLayers,0,0
;   temperatureRelayBetweenLoops,0,0
;   fanLayers,1
;   fanSpeeds,255
;   blipFanToFullPower,0
;   adjustSpeedForCooling,1
;   minSpeedLayerTime,15
;   minCoolingSpeedSlowdown,20
;   increaseFanForCooling,0
;   minFanLayerTime,45
;   maxCoolingFanSpeed,100
;   increaseFanForBridging,0
;   bridgingFanSpeed,100
;   use5D,1
;   relativeEdistances,0
;   allowEaxisZeroing,1
;   independentExtruderAxes,0
;   includeM10123,0
;   stickySupport,1
;   applyToolheadOffsets,0
;   gcodeXoffset,0
;   gcodeYoffset,0
;   gcodeZoffset,0
;   overrideMachineDefinition,1
;   machineTypeOverride,0
;   strokeXoverride,220
;   strokeYoverride,220
;   strokeZoverride,280
;   originOffsetXoverride,0
;   originOffsetYoverride,0
;   originOffsetZoverride,0
;   homeXdirOverride,-1
;   homeYdirOverride,-1
;   homeZdirOverride,-1
;   flipXoverride,1
;   flipYoverride,-1
;   flipZoverride,1
;   toolheadOffsets,0,0|0,0|0,0|0,0|0,0|0,0
;   overrideFirmwareConfiguration,1
;   firmwareTypeOverride,RepRap (Marlin/Repetier/Sprinter)
;   GPXconfigOverride,r2
;   baudRateOverride,250000
;   overridePrinterModels,0
;   printerModelsOverride
;   startingGcode,G28 ; home all axes,G1 X0 Y20 Z0.2 F3000 ; get ready to prime,G92 E0 ; reset extrusion distance,G1 X200 E20 F600 ; prime nozzle
;   layerChangeGcode,
;   retractionGcode,
;   toolChangeGcode,
;   endingGcode,M104 S0 ; turn off extruder,M140 S0 ; turn off bed,G28 X Y ; home x and y axes,M84 ; disable motors
;   exportFileFormat,gcode
;   celebration,0
;   celebrationSong,Random Song
;   postProcessing,
;   defaultSpeed,4400
;   outlineUnderspeed,0.6
;   solidInfillUnderspeed,0.85
;   supportUnderspeed,0.8
;   rapidXYspeed,5200
;   rapidZspeed,1002
;   minBridgingArea,50
;   bridgingExtraInflation,0
;   bridgingExtrusionMultiplier,1
;   bridgingSpeedMultiplier,1
;   useFixedBridgingAngle,0
;   fixedBridgingAngle,0
;   applyBridgingToPerimeters,0
;   filamentDiameters,1.75|1.75|1.75|1.75|1.75|1.75
;   filamentPricesPerKg,46|46|46|46|46|46
;   filamentDensities,1.25|1.25|1.25|1.25|1.25|1.25
;   useMinPrintHeight,0
;   minPrintHeight,0
;   useMaxPrintHeight,1
;   maxPrintHeight,4.3
;   useDiaphragm,0
;   diaphragmLayerInterval,20
;   robustSlicing,1
;   mergeAllIntoSolid,0
;   onlyRetractWhenCrossingOutline,1
;   retractBetweenLayers,1
;   useRetractionMinTravel,0
;   retractionMinTravel,3
;   retractWhileWiping,0
;   onlyWipeOutlines,1
;   avoidCrossingOutline,0
;   maxMovementDetourFactor,3
;   toolChangeRetractionDistance,12
;   toolChangeExtraRestartDistance,-0.5
;   toolChangeRetractionSpeed,600
;   externalThinWallType,1
;   internalThinWallType,1
;   thinWallAllowedOverlapPercentage,20
;   singleExtrusionMinLength,1
;   singleExtrusionMinPrintingWidthPercentage,50
;   singleExtrusionMaxPrintingWidthPercentage,200
;   singleExtrusionEndpointExtension,0.2
;   horizontalSizeCompensation,0
G90
M82
M106 S650
M140 S60
M104 S210 T0
M109 S210 T0
G28 ; home all axes
G1 X0 Y20 Z0.2 F3000 ; get ready to prime
G92 E0 ; reset extrusion distance
G1 X200 E20 F600 ; prime nozzle
G92 E0
G1 E-2.0000 F3000
G1 Z0.040 F1002
; process nozzle 0.4
; layer 1, Z = 0.040
T0
; tool H0.200 W0.552
; outer perimeter
G1 X60.110 Y71.074 F5200
G1 E0.0000 F900
G92 E0
G1 X60.673 Y70.643 E0.0293 F792
G1 X61.332 Y70.372 E0.0588
G1 X62.053 Y70.277 E0.0888
G1 X157.839 Y70.276 E4.0456
G1 X158.565 Y70.371 E4.0759
G1 X159.222 Y70.640 E4.1052
G1 X159.786 Y71.073 E4.1345
G1 X160.218 Y71.637 E4.1639
G1 X160.490 Y72.292 E4.1932
G1 X160.585 Y73.016 E4.2234
G1 X160.585 Y100.667 E5.3656
G1 X170.840 Y100.666 E5.7892
G1 X172.232 Y100.932 E5.8478
G1 X173.495 Y101.761 E5.9101
G1 X174.324 Y103.023 E5.9725
G1 X174.590 Y104.416 E6.0311
G1 X174.590 Y116.364 E6.5247
G1 X174.324 Y117.757 E6.5832
G1 X173.495 Y119.019 E6.6456
G1 X172.232 Y119.848 E6.7080
G1 X170.840 Y120.114 E6.7666
G1 X160.585 Y120.114 E7.1902
G1 X160.585 Y146.982 E8.3001
G1 X160.491 Y147.700 E8.3300
G1 X160.218 Y148.359 E8.3595
G1 X159.786 Y148.924 E8.3888
G1 X159.223 Y149.357 E8.4182
G1 X158.566 Y149.625 E8.4475
G1 X157.843 Y149.722 E8.4776
G1 X133.720 Y149.722 E9.4741
G1 X133.721 Y149.584 E9.4798
G1 X110.673 Y149.579 E10.4319
G1 X110.673 Y149.723 E10.4378
G1 X62.053 Y149.723 E12.4463
G1 X61.333 Y149.628 E12.4763
G1 X60.675 Y149.358 E12.5057
G1 X60.111 Y148.924 E12.5351
G1 X59.679 Y148.360 E12.5644
G1 X59.408 Y147.705 E12.5937
G1 X59.313 Y146.983 E12.6238
G1 X59.313 Y120.114 E13.7337
G1 X49.160 Y120.114 E14.1531
G1 X47.768 Y119.848 E14.2117
G1 X46.505 Y119.019 E14.2741
G1 X45.676 Y117.757 E14.3365
G1 X45.410 Y116.364 E14.3951
G1 X45.410 Y104.416 E14.8886
G1 X45.676 Y103.023 E14.9472
G1 X46.505 Y101.761 E15.0096
G1 X47.768 Y100.932 E15.0720
G1 X49.160 Y100.666 E15.1305
G1 X59.313 Y100.666 E15.5499
G1 X59.313 Y73.017 E16.6921
G1 X59.408 Y72.298 E16.7220
G1 X59.678 Y71.638 E16.7515
G1 X60.110 Y71.074 E16.7809
G1 X60.673 Y70.643 F4400
G1 X61.332 Y70.372 F4400
G1 X62.053 Y70.277 F4400
G1 X64.904 Y70.277 F4400
; inner perimeter
G1 X62.089 Y70.829 F5200
G92 E0
G1 X157.803 Y70.828 E3.9539 F1056
G1 X158.423 Y70.909 E3.9797
G1 X158.944 Y71.123 E4.0030
G1 X159.392 Y71.466 E4.0263
G1 X159.736 Y71.916 E4.0496
G1 X159.952 Y72.437 E4.0729
G1 X160.033 Y73.052 E4.0986
G1 X160.033 Y101.219 E5.2621
G1 X170.787 Y101.218 E5.7064
G1 X172.021 Y101.453 E5.7583
G1 X173.096 Y102.159 E5.8114
G1 X173.802 Y103.235 E5.8645
G1 X174.038 Y104.468 E5.9164
G1 X174.038 Y116.312 E6.4056
G1 X173.802 Y117.545 E6.4575
G1 X173.096 Y118.621 E6.5107
G1 X172.021 Y119.327 E6.5638
G1 X170.787 Y119.562 E6.6157
G1 X160.033 Y119.562 E7.0599
G1 X160.033 Y146.946 E8.1911
G1 X159.953 Y147.556 E8.2166
G1 X159.736 Y148.081 E8.2400
G1 X159.392 Y148.530 E8.2634
G1 X158.945 Y148.874 E8.2867
G1 X158.422 Y149.088 E8.3100
G1 X157.806 Y149.170 E8.3357
G1 X134.273 Y149.170 E9.3078
G1 X134.273 Y149.033 E9.3135
G1 X110.121 Y149.027 E10.3112
G1 X110.121 Y149.171 E10.3172
G1 X62.090 Y149.171 E12.3013
G1 X61.477 Y149.090 E12.3269
G1 X60.952 Y148.875 E12.3503
G1 X60.505 Y148.531 E12.3736
G1 X60.161 Y148.082 E12.3969
G1 X59.946 Y147.562 E12.4202
G1 X59.865 Y146.947 E12.4458
G1 X59.865 Y119.562 E13.5771
G1 X49.213 Y119.562 E14.0171
G1 X47.979 Y119.327 E14.0690
G1 X46.904 Y118.621 E14.1221
G1 X46.198 Y117.545 E14.1753
G1 X45.962 Y116.312 E14.2271
G1 X45.962 Y104.468 E14.7164
G1 X46.198 Y103.235 E14.7683
G1 X46.904 Y102.159 E14.8214
G1 X47.979 Y101.453 E14.8745
G1 X49.213 Y101.218 E14.9264
G1 X59.865 Y101.218 E15.3665
G1 X59.865 Y73.053 E16.5299
G1 X59.946 Y72.441 E16.5554
G1 X60.161 Y71.915 E16.5789
G1 X60.503 Y71.468 E16.6022
G1 X60.951 Y71.125 E16.6254
G1 X61.476 Y70.910 E16.6489
G1 X62.089 Y70.829 E16.6744
G1 X62.125 Y71.381 F5200
G92 E0
G1 X157.767 Y71.380 E3.9509 F1056
G1 X158.280 Y71.447 E3.9723
G1 X158.667 Y71.606 E3.9895
G1 X158.998 Y71.860 E4.0067
G1 X159.254 Y72.194 E4.0241
G1 X159.414 Y72.581 E4.0414
G1 X159.481 Y73.088 E4.0626
G1 X159.481 Y101.771 E5.2474
G1 X170.735 Y101.770 E5.7123
G1 X171.810 Y101.975 E5.7575
G1 X172.698 Y102.558 E5.8014
G1 X173.281 Y103.446 E5.8453
G1 X173.486 Y104.520 E5.8905
G1 X173.486 Y116.260 E6.3754
G1 X173.281 Y117.334 E6.4206
G1 X172.698 Y118.222 E6.4645
G1 X171.810 Y118.805 E6.5083
G1 X170.735 Y119.010 E6.5535
G1 X159.481 Y119.010 E7.0184
G1 X159.481 Y146.910 E8.1709
G1 X159.415 Y147.412 E8.1919
G1 X159.253 Y147.803 E8.2094
G1 X158.998 Y148.137 E8.2267
G1 X158.668 Y148.391 E8.2439
G1 X158.279 Y148.550 E8.2613
G1 X157.770 Y148.618 E8.2825
G1 X134.825 Y148.618 E9.2303
G1 X134.825 Y148.481 E9.2360
G1 X109.569 Y148.474 E10.2793
G1 X109.569 Y148.619 E10.2853
G1 X62.126 Y148.619 E12.2451
G1 X61.620 Y148.552 E12.2662
G1 X61.230 Y148.392 E12.2836
G1 X60.899 Y148.138 E12.3009
G1 X60.644 Y147.805 E12.3182
G1 X60.484 Y147.418 E12.3355
G1 X60.417 Y146.911 E12.3566
G1 X60.417 Y119.010 E13.5092
G1 X49.265 Y119.010 E13.9699
G1 X48.190 Y118.805 E14.0151
G1 X47.302 Y118.222 E14.0589
G1 X46.719 Y117.334 E14.1028
G1 X46.514 Y116.260 E14.1480
G1 X46.514 Y104.520 E14.6329
G1 X46.719 Y103.446 E14.6781
G1 X47.302 Y102.558 E14.7220
G1 X48.190 Y101.975 E14.7659
G1 X49.265 Y101.770 E14.8111
G1 X60.417 Y101.770 E15.2718
G1 X60.417 Y73.090 E16.4565
G1 X60.483 Y72.585 E16.4776
G1 X60.644 Y72.192 E16.4951
G1 X60.897 Y71.862 E16.5123
G1 X61.228 Y71.608 E16.5295
G1 X61.619 Y71.448 E16.5469
G1 X62.125 Y71.381 E16.5680
G1 X62.162 Y71.933 F5200
G92 E0
G1 X157.731 Y71.932 E3.9479 F1056
G1 X158.138 Y71.986 E3.9648
G1 X158.389 Y72.088 E3.9761
G1 X158.603 Y72.253 E3.9872
G1 X158.771 Y72.472 E3.9986
G1 X158.877 Y72.725 E4.0099
G1 X158.929 Y73.125 E4.0266
G1 X158.929 Y102.323 E5.2327
G1 X170.683 Y102.322 E5.7183
G1 X171.599 Y102.497 E5.7568
G1 X172.299 Y102.957 E5.7914
G1 X172.759 Y103.657 E5.8260
G1 X172.934 Y104.573 E5.8645
G1 X172.934 Y108.427 E6.0238
G1 X172.619 Y108.522 E6.0373
G1 X171.884 Y107.404 E6.0926
G1 X170.466 Y106.472 E6.1627
G1 X168.898 Y106.173 E6.2286
G1 X167.331 Y106.472 E6.2945
G1 X165.912 Y107.404 E6.3646
G1 X164.981 Y108.822 E6.4347
G1 X164.681 Y110.390 E6.5007
G1 X164.981 Y111.958 E6.5666
G1 X165.912 Y113.376 E6.6367
G1 X167.331 Y114.308 E6.7068
G1 X168.898 Y114.607 E6.7727
G1 X170.466 Y114.308 E6.8387
G1 X171.884 Y113.376 E6.9088
G1 X172.619 Y112.258 E6.9640
G1 X172.934 Y112.353 E6.9776
G1 X172.934 Y116.207 E7.1368
G1 X172.759 Y117.123 E7.1753
G1 X172.299 Y117.823 E7.2100
G1 X171.599 Y118.283 E7.2446
G1 X170.683 Y118.458 E7.2831
G1 X158.929 Y118.458 E7.7686
G1 X158.929 Y146.874 E8.9424
G1 X158.877 Y147.268 E8.9589
G1 X158.771 Y147.525 E8.9704
G1 X158.604 Y147.744 E8.9817
G1 X158.390 Y147.908 E8.9929
G1 X158.136 Y148.012 E9.0042
G1 X157.733 Y148.066 E9.0210
G1 X135.377 Y148.066 E9.9445
G1 X135.377 Y147.929 E9.9502
G1 X109.017 Y147.922 E11.0391
G1 X109.017 Y148.067 E11.0451
G1 X62.162 Y148.067 E12.9806
G1 X61.763 Y148.014 E12.9972
G1 X61.508 Y147.910 E13.0086
G1 X61.293 Y147.744 E13.0198
G1 X61.126 Y147.527 E13.0312
G1 X61.022 Y147.274 E13.0424
G1 X60.969 Y146.874 E13.0591
G1 X60.969 Y118.458 E14.2330
G1 X49.317 Y118.458 E14.7143
G1 X48.401 Y118.283 E14.7528
G1 X47.701 Y117.823 E14.7874
G1 X47.241 Y117.123 E14.8220
G1 X47.066 Y116.207 E14.8605
G1 X47.066 Y112.353 E15.0198
G1 X47.381 Y112.258 E15.0334
G1 X48.116 Y113.376 E15.0886
G1 X49.534 Y114.308 E15.1587
G1 X51.102 Y114.607 E15.2246
G1 X52.669 Y114.308 E15.2906
G1 X54.088 Y113.376 E15.3607
G1 X55.019 Y111.958 E15.4308
G1 X55.318 Y110.390 E15.4967
G1 X55.019 Y108.822 E15.5626
G1 X54.088 Y107.404 E15.6327
G1 X52.669 Y106.472 E15.7028
G1 X51.102 Y106.173 E15.7688
G1 X49.534 Y106.472 E15.8347
G1 X48.116 Y107.404 E15.9048
G1 X47.381 Y108.522 E15.9600
G1 X47.066 Y108.427 E15.9736
G1 X47.066 Y104.573 E16.1329
G1 X47.241 Y103.657 E16.1714
G1 X47.701 Y102.957 E16.2060
G1 X48.401 Y102.497 E16.2406
G1 X49.317 Y102.322 E16.2791
G1 X60.969 Y102.322 E16.7604
G1 X60.969 Y73.126 E17.9665
G1 X61.021 Y72.728 E17.9831
G1 X61.127 Y72.469 E17.9946
G1 X61.291 Y72.255 E18.0058
G1 X61.506 Y72.091 E18.0169
G1 X61.762 Y71.986 E18.0284
G1 X62.162 Y71.933 E18.0450
G92 E0
G1 E-2.0000 F3000
; outer perimeter
G1 X52.036 Y108.037 F5200
G1 E0.0000 F3000
G92 E0
G1 X51.102 Y107.859 E0.0393 F792
G1 X50.168 Y108.037 E0.0785
G1 X49.311 Y108.600 E0.1209
G1 X48.749 Y109.456 E0.1632
G1 X48.571 Y110.390 E0.2025
G1 X48.749 Y111.324 E0.2417
G1 X49.311 Y112.180 E0.2841
G1 X50.168 Y112.743 E0.3264
G1 X51.102 Y112.921 E0.3657
G1 X52.036 Y112.743 E0.4049
G1 X52.892 Y112.180 E0.4473
G1 X53.455 Y111.324 E0.4896
G1 X53.633 Y110.390 E0.5289
G1 X53.455 Y109.456 E0.5681
G1 X52.892 Y108.600 E0.6105
G1 X52.036 Y108.037 E0.6528
G1 X51.102 Y107.859 F4400
G1 X50.168 Y108.037 F4400
G1 X49.311 Y108.600 F4400
G1 X48.749 Y109.456 F4400
G1 X48.571 Y110.390 F4400
G1 X48.589 Y110.487 F4400
; inner perimeter
G1 X48.009 Y110.390 F5200
G92 E0
G1 X48.227 Y111.535 E0.0482 F1056
G1 X48.913 Y112.579 E0.0997
G1 X49.957 Y113.264 E0.1513
G1 X51.102 Y113.483 E0.1995
G1 X52.247 Y113.264 E0.2476
G1 X53.291 Y112.579 E0.2992
G1 X53.976 Y111.535 E0.3508
G1 X54.195 Y110.390 E0.3990
G1 X53.976 Y109.245 E0.4471
G1 X53.291 Y108.201 E0.4987
G1 X52.247 Y107.515 E0.5503
G1 X51.102 Y107.297 E0.5985
G1 X49.957 Y107.515 E0.6466
G1 X48.913 Y108.201 E0.6982
G1 X48.227 Y109.245 E0.7498
G1 X48.009 Y110.390 E0.7980
G1 X47.447 Y110.390 F5200
G92 E0
G1 X47.706 Y111.746 E0.0570 F1056
G1 X48.514 Y112.978 E0.1179
G1 X49.745 Y113.786 E0.1787
G1 X51.102 Y114.045 E0.2358
G1 X52.458 Y113.786 E0.2928
G1 X53.689 Y112.978 E0.3537
G1 X54.498 Y111.746 E0.4145
G1 X54.757 Y110.390 E0.4716
G1 X54.498 Y109.034 E0.5286
G1 X53.689 Y107.802 E0.5894
G1 X52.458 Y106.994 E0.6503
G1 X51.102 Y106.735 E0.7073
G1 X49.745 Y106.994 E0.7644
G1 X48.514 Y107.802 E0.8252
G1 X47.706 Y109.034 E0.8861
G1 X47.447 Y110.390 E0.9431
G92 E0
G1 E-2.0000 F3000
; outer perimeter
G1 X166.367 Y110.390 F5200
G1 E0.0000 F3000
G92 E0
G1 X166.546 Y111.324 E0.0393 F792
G1 X167.108 Y112.180 E0.0816
G1 X167.964 Y112.743 E0.1239
G1 X168.898 Y112.921 E0.1632
G1 X169.832 Y112.743 E0.2025
G1 X170.689 Y112.180 E0.2448
G1 X171.251 Y111.324 E0.2871
G1 X171.429 Y110.390 E0.3264
G1 X171.251 Y109.456 E0.3657
G1 X170.689 Y108.600 E0.4080
G1 X169.832 Y108.037 E0.4503
G1 X168.898 Y107.859 E0.4896
G1 X167.964 Y108.037 E0.5289
G1 X167.108 Y108.600 E0.5712
G1 X166.546 Y109.456 E0.6135
G1 X166.367 Y110.390 E0.6528
G1 X166.546 Y111.324 F4400
G1 X167.108 Y112.180 F4400
G1 X167.964 Y112.743 F4400
