; G-Code generated by Simplify3D(R) Version 4.0.0
; May 6, 2018 at 9:29:27 PM
; Settings Summary
;   processName,nozzle 0.4
;   applyToModels,bearing_house
;   profileName,Flying Bear 902 Update 7-2017 (modified)
;   profileVersion,2017-07-10 09:45:20
;   baseProfile,Default
;   printMaterial,PLA
;   printQuality,Medium
;   printExtruders,
;   extruderName,Extruder 1
;   extruderToolheadNumber,0
;   extruderDiameter,0.4
;   extruderAutoWidth,1
;   extruderWidth,0.48
;   extrusionMultiplier,0.9
;   extruderUseRetract,1
;   extruderRetractionDistance,2
;   extruderExtraRestartDistance,0
;   extruderRetractionZLift,0
;   extruderRetractionSpeed,3000
;   extruderUseCoasting,0
;   extruderCoastingDistance,0.2
;   extruderUseWipe,1
;   extruderWipeDistance,5
;   primaryExtruder,0
;   layerHeight,0.2
;   topSolidLayers,2
;   bottomSolidLayers,2
;   perimeterOutlines,4
;   printPerimetersInsideOut,0
;   startPointOption,2
;   startPointOriginX,0
;   startPointOriginY,0
;   sequentialIslands,0
;   spiralVaseMode,0
;   firstLayerHeightPercentage,20
;   firstLayerWidthPercentage,115
;   firstLayerUnderspeed,0.3
;   useRaft,1
;   raftExtruder,0
;   raftTopLayers,2
;   raftBaseLayers,2
;   raftOffset,2
;   raftSeparationDistance,0.3
;   raftTopInfill,100
;   aboveRaftSpeedMultiplier,0.3
;   useSkirt,0
;   skirtExtruder,0
;   skirtLayers,1
;   skirtOutlines,2
;   skirtOffset,4
;   usePrimePillar,0
;   primePillarExtruder,999
;   primePillarWidth,12
;   primePillarLocation,7
;   primePillarSpeedMultiplier,1
;   useOozeShield,0
;   oozeShieldExtruder,999
;   oozeShieldOffset,2
;   oozeShieldOutlines,1
;   oozeShieldSidewallShape,1
;   oozeShieldSidewallAngle,30
;   oozeShieldSpeedMultiplier,1
;   infillExtruder,0
;   internalInfillPattern,Rectilinear
;   externalInfillPattern,Rectilinear
;   infillPercentage,100
;   outlineOverlapPercentage,60
;   infillExtrusionWidthPercentage,100
;   minInfillLength,5
;   infillLayerInterval,1
;   internalInfillAngles,45,-45
;   overlapInternalInfillAngles,0
;   externalInfillAngles,45,-45
;   generateSupport,1
;   supportExtruder,0
;   supportInfillPercentage,30
;   supportExtraInflation,0
;   supportBaseLayers,0
;   denseSupportExtruder,0
;   denseSupportLayers,0
;   denseSupportInfillPercentage,50
;   supportLayerInterval,1
;   supportHorizontalPartOffset,0.3
;   supportUpperSeparationLayers,1
;   supportLowerSeparationLayers,1
;   supportType,0
;   supportGridSpacing,4
;   maxOverhangAngle,70
;   supportAngles,0
;   temperatureName,Extruder 1,Heated Bed
;   temperatureNumber,0,0
;   temperatureSetpointCount,1,1
;   temperatureSetpointLayers,1,1
;   temperatureSetpointTemperatures,210,60
;   temperatureStabilizeAtStartup,1,0
;   temperatureHeatedBed,0,1
;   temperatureRelayBetweenLayers,0,0
;   temperatureRelayBetweenLoops,0,0
;   fanLayers,1
;   fanSpeeds,255
;   blipFanToFullPower,0
;   adjustSpeedForCooling,1
;   minSpeedLayerTime,10
;   minCoolingSpeedSlowdown,20
;   increaseFanForCooling,0
;   minFanLayerTime,45
;   maxCoolingFanSpeed,100
;   increaseFanForBridging,0
;   bridgingFanSpeed,100
;   use5D,1
;   relativeEdistances,0
;   allowEaxisZeroing,1
;   independentExtruderAxes,0
;   includeM10123,0
;   stickySupport,1
;   applyToolheadOffsets,0
;   gcodeXoffset,0
;   gcodeYoffset,0
;   gcodeZoffset,0
;   overrideMachineDefinition,1
;   machineTypeOverride,0
;   strokeXoverride,220
;   strokeYoverride,220
;   strokeZoverride,280
;   originOffsetXoverride,0
;   originOffsetYoverride,0
;   originOffsetZoverride,0
;   homeXdirOverride,-1
;   homeYdirOverride,-1
;   homeZdirOverride,-1
;   flipXoverride,1
;   flipYoverride,-1
;   flipZoverride,1
;   toolheadOffsets,0,0|0,0|0,0|0,0|0,0|0,0
;   overrideFirmwareConfiguration,1
;   firmwareTypeOverride,RepRap (Marlin/Repetier/Sprinter)
;   GPXconfigOverride,r2
;   baudRateOverride,250000
;   overridePrinterModels,0
;   printerModelsOverride
;   startingGcode,G28 ; home all axes,G1 X0 Y20 Z0.2 F3000 ; get ready to prime,G92 E0 ; reset extrusion distance,G1 X200 E20 F600 ; prime nozzle
;   layerChangeGcode,
;   retractionGcode,
;   toolChangeGcode,
;   endingGcode,M104 S0 ; turn off extruder,M140 S0 ; turn off bed,G28 X Y ; home x and y axes,M84 ; disable motors
;   exportFileFormat,gcode
;   celebration,0
;   celebrationSong,Random Song
;   postProcessing,
;   defaultSpeed,4000
;   outlineUnderspeed,0.5
;   solidInfillUnderspeed,0.9
;   supportUnderspeed,0.75
;   rapidXYspeed,4200
;   rapidZspeed,1002
;   minBridgingArea,50
;   bridgingExtraInflation,0
;   bridgingExtrusionMultiplier,1
;   bridgingSpeedMultiplier,1
;   useFixedBridgingAngle,0
;   fixedBridgingAngle,0
;   applyBridgingToPerimeters,0
;   filamentDiameters,1.75|1.75|1.75|1.75|1.75|1.75
;   filamentPricesPerKg,46|46|46|46|46|46
;   filamentDensities,1.25|1.25|1.25|1.25|1.25|1.25
;   useMinPrintHeight,0
;   minPrintHeight,0
;   useMaxPrintHeight,0
;   maxPrintHeight,4.3
;   useDiaphragm,0
;   diaphragmLayerInterval,20
;   robustSlicing,1
;   mergeAllIntoSolid,0
;   onlyRetractWhenCrossingOutline,1
;   retractBetweenLayers,1
;   useRetractionMinTravel,0
;   retractionMinTravel,3
;   retractWhileWiping,0
;   onlyWipeOutlines,1
;   avoidCrossingOutline,0
;   maxMovementDetourFactor,3
;   toolChangeRetractionDistance,12
;   toolChangeExtraRestartDistance,-0.5
;   toolChangeRetractionSpeed,600
;   externalThinWallType,0
;   internalThinWallType,2
;   thinWallAllowedOverlapPercentage,20
;   singleExtrusionMinLength,1
;   singleExtrusionMinPrintingWidthPercentage,50
;   singleExtrusionMaxPrintingWidthPercentage,200
;   singleExtrusionEndpointExtension,0.2
;   horizontalSizeCompensation,0
G90
M82
M106 S650
M140 S60
M104 S210 T0
M109 S210 T0
G28 ; home all axes
G1 X0 Y20 Z0.2 F3000 ; get ready to prime
G92 E0 ; reset extrusion distance
G1 X200 E20 F600 ; prime nozzle
G92 E0
G1 E-2.0000 F3000
G1 Z0.100 F1002
; process nozzle 0.4
; layer 1, Z = 0.100
T0
; tool H0.500 W0.920
; raft
G1 X82.837 Y95.900 F4200
G1 E0.0000 F900
G92 E0
G1 X137.163 Y95.900 E9.3506 F300
G1 X138.100 Y96.837 E9.5787
G1 X138.100 Y103.663 E10.7535
G1 X137.163 Y104.600 E10.9817
G1 X131.600 Y104.600 E11.9391
G1 X131.600 Y115.400 E13.7980
G1 X137.163 Y115.400 E14.7555
G1 X138.100 Y116.337 E14.9837
G1 X138.100 Y123.163 E16.1585
G1 X137.163 Y124.100 E16.3866
G1 X82.837 Y124.100 E25.7372
G1 X81.900 Y123.163 E25.9653
G1 X81.900 Y116.337 E27.1401
G1 X82.837 Y115.400 E27.3683
G1 X88.400 Y115.400 E28.3257
G1 X88.400 Y104.600 E30.1847
G1 X82.837 Y104.600 E31.1421
G1 X81.900 Y103.663 E31.3703
G1 X81.900 Y96.837 E32.5451
G1 X82.837 Y95.900 E32.7732
G92 E0
G1 E-2.0000 F3000
G1 X101.429 Y106.150 F4200
G1 E0.0000 F3000
G92 E0
G1 X100.974 Y107.390 E0.2274 F300
G1 X100.697 Y108.682 E0.4548
G1 X100.604 Y110.000 E0.6822
G1 X100.697 Y111.318 E0.9096
G1 X100.974 Y112.610 E1.1371
G1 X101.429 Y113.850 E1.3645
G1 X102.054 Y115.014 E1.5919
G1 X102.836 Y116.079 E1.8193
G1 X103.759 Y117.024 E2.0467
G1 X104.806 Y117.830 E2.2741
G1 X105.956 Y118.481 E2.5015
G1 X107.186 Y118.965 E2.7290
G1 X108.471 Y119.271 E2.9564
G1 X109.786 Y119.394 E3.1838
G1 X111.106 Y119.331 E3.4112
G1 X112.404 Y119.083 E3.6386
G1 X113.654 Y118.656 E3.8660
G1 X114.832 Y118.058 E4.0934
G1 X115.915 Y117.301 E4.3209
G1 X116.880 Y116.399 E4.5483
G1 X117.710 Y115.370 E4.7757
G1 X118.387 Y114.236 E5.0031
G1 X118.898 Y113.017 E5.2305
G1 X119.234 Y111.739 E5.4579
G1 X119.436 Y110.000 E5.7593
G1 X119.234 Y108.261 E6.0608
G1 X118.898 Y106.983 E6.2882
G1 X118.387 Y105.764 E6.5156
G1 X117.710 Y104.630 E6.7430
G1 X116.880 Y103.601 E6.9704
G1 X115.915 Y102.699 E7.1978
G1 X114.832 Y101.942 E7.4252
G1 X113.654 Y101.344 E7.6526
G1 X112.404 Y100.917 E7.8801
G1 X111.106 Y100.669 E8.1075
G1 X109.786 Y100.606 E8.3349
G1 X108.471 Y100.729 E8.5623
G1 X107.186 Y101.035 E8.7897
G1 X105.956 Y101.519 E9.0171
G1 X104.806 Y102.170 E9.2445
G1 X103.759 Y102.976 E9.4720
G1 X102.836 Y103.921 E9.6994
G1 X102.054 Y104.986 E9.9268
G1 X101.429 Y106.150 E10.1542
G92 E0
G1 E-2.0000 F3000
G1 X82.700 Y98.571 F4200
G1 E0.0000 F3000
G92 E0
G1 X137.300 Y98.571 E9.3978 F300
G1 X137.300 Y100.857 E9.7912
G1 X114.463 Y100.857 E13.7220
G1 X113.966 Y100.605 E13.8179
G1 X112.609 Y100.141 E14.0647
G1 X111.201 Y99.873 E14.3115
G1 X109.768 Y99.805 E14.5583
G1 X108.340 Y99.938 E14.8052
G1 X106.945 Y100.270 E15.0520
G1 X105.611 Y100.795 E15.2988
G1 X105.501 Y100.857 E15.3206
G1 X82.700 Y100.857 E19.2451
G1 X82.700 Y103.143 E19.6385
G1 X102.477 Y103.143 E23.0426
G1 X102.224 Y103.402 E23.1049
G1 X101.376 Y104.558 E23.3517
G1 X100.908 Y105.429 E23.5218
G1 X89.200 Y105.429 E25.5371
G1 X89.200 Y107.714 E25.9305
G1 X100.086 Y107.714 E27.8042
G1 X99.903 Y108.570 E27.9547
G1 X99.802 Y110.000 E28.2016
G1 X89.200 Y110.000 E30.0264
G1 X89.200 Y112.286 E30.4198
G1 X100.086 Y112.286 E32.2935
G1 X100.203 Y112.833 E32.3898
G1 X100.697 Y114.179 E32.6366
G1 X100.908 Y114.571 E32.7133
G1 X89.200 Y114.571 E34.7286
G1 X89.200 Y116.200 E35.0089
G1 X83.169 Y116.200 E36.0470
G1 X82.700 Y116.669 E36.1611
G1 X82.700 Y116.857 E36.1935
G1 X102.477 Y116.857 E39.5976
G1 X103.227 Y117.624 E39.7821
G1 X104.363 Y118.498 E40.0289
G1 X105.501 Y119.143 E40.2540
G1 X82.700 Y119.143 E44.1785
G1 X82.700 Y121.429 E44.5720
G1 X137.300 Y121.429 E53.9698
G1 X137.300 Y119.143 E54.3632
G1 X114.463 Y119.143 E58.2939
G1 X115.245 Y118.746 E58.4448
G1 X116.420 Y117.924 E58.6917
G1 X117.468 Y116.945 E58.9385
G1 X117.539 Y116.857 E58.9579
G1 X137.300 Y116.857 E62.3593
G1 X137.300 Y116.669 E62.3917
G1 X136.831 Y116.200 E62.5058
G1 X130.800 Y116.200 E63.5439
G1 X130.800 Y114.571 E63.8242
G1 X119.114 Y114.571 E65.8356
G1 X119.658 Y113.275 E66.0776
G1 X119.917 Y112.286 E66.2537
G1 X130.800 Y112.286 E68.1268
G1 X130.800 Y110.000 E68.5202
G1 X120.241 Y110.000 E70.3376
G1 X120.022 Y108.112 E70.6647
G1 X119.917 Y107.714 E70.7355
G1 X130.800 Y107.714 E72.6086
G1 X130.800 Y105.429 E73.0021
G1 X119.114 Y105.429 E75.0135
G1 X119.103 Y105.403 E75.0183
G1 X118.368 Y104.171 E75.2652
G1 X117.539 Y103.143 E75.4926
G1 X137.300 Y103.143 E78.8939
G92 E0
G1 E-2.0000 F3000
; layer 2, Z = 0.600
; tool H0.500 W0.800
G1 X138.100 Y103.663 F4200
G1 Z0.600 F1002
G1 E0.0000 F3000
G92 E0
G1 X137.163 Y104.600 E0.1984 F1000
G1 X131.600 Y104.600 E1.0310
G1 X131.600 Y115.400 E2.6474
G1 X137.163 Y115.400 E3.4800
G1 X138.100 Y116.337 E3.6784
G1 X138.100 Y123.163 E4.6999
G1 X137.163 Y124.100 E4.8983
G1 X82.837 Y124.100 E13.0293
G1 X81.900 Y123.163 E13.2276
G1 X81.900 Y116.337 E14.2492
G1 X82.837 Y115.400 E14.4476
G1 X88.400 Y115.400 E15.2802
G1 X88.400 Y104.600 E16.8966
G1 X82.837 Y104.600 E17.7292
G1 X81.900 Y103.663 E17.9276
G1 X81.900 Y96.837 E18.9492
G1 X82.837 Y95.900 E19.1476
G1 X137.163 Y95.900 E27.2785
G1 X138.100 Y96.837 E27.4769
G1 X138.100 Y103.663 E28.4984
G92 E0
G1 E-2.0000 F3000
G1 X119.234 Y108.261 F4200
G1 E0.0000 F3000
G92 E0
G1 X118.898 Y106.983 E0.1978 F1000
G1 X118.387 Y105.764 E0.3955
G1 X117.710 Y104.630 E0.5932
G1 X116.880 Y103.601 E0.7910
G1 X115.915 Y102.699 E0.9888
G1 X114.832 Y101.942 E1.1865
G1 X113.654 Y101.344 E1.3842
G1 X112.404 Y100.917 E1.5820
G1 X111.106 Y100.669 E1.7798
G1 X109.786 Y100.606 E1.9775
G1 X108.471 Y100.729 E2.1753
G1 X107.186 Y101.035 E2.3730
G1 X105.956 Y101.519 E2.5708
G1 X104.806 Y102.170 E2.7685
G1 X103.759 Y102.976 E2.9663
G1 X102.836 Y103.921 E3.1640
G1 X102.054 Y104.986 E3.3618
G1 X101.429 Y106.150 E3.5595
G1 X100.974 Y107.390 E3.7573
G1 X100.697 Y108.682 E3.9550
G1 X100.604 Y110.000 E4.1528
G1 X100.697 Y111.318 E4.3505
G1 X100.974 Y112.610 E4.5483
G1 X101.429 Y113.850 E4.7460
G1 X102.054 Y115.014 E4.9438
G1 X102.836 Y116.079 E5.1415
G1 X103.759 Y117.024 E5.3393
G1 X104.806 Y117.830 E5.5370
G1 X105.956 Y118.481 E5.7348
G1 X107.186 Y118.965 E5.9325
G1 X108.471 Y119.271 E6.1303
G1 X109.786 Y119.394 E6.3280
G1 X111.106 Y119.331 E6.5258
G1 X112.404 Y119.083 E6.7235
G1 X113.654 Y118.656 E6.9213
G1 X114.832 Y118.058 E7.1190
G1 X115.915 Y117.301 E7.3168
G1 X116.880 Y116.399 E7.5145
G1 X117.710 Y115.370 E7.7123
G1 X118.387 Y114.236 E7.9100
G1 X118.898 Y113.017 E8.1078
G1 X119.234 Y111.739 E8.3055
G1 X119.436 Y110.000 E8.5676
G1 X119.234 Y108.261 E8.8297
G92 E0
G1 E-2.0000 F3000
G1 X137.300 Y103.143 F4200
G1 E0.0000 F3000
G92 E0
G1 X117.539 Y103.143 E2.9577 F1000
G1 X118.368 Y104.171 E3.1555
G1 X119.103 Y105.403 E3.3701
G1 X119.114 Y105.429 E3.3743
G1 X130.800 Y105.429 E5.1234
G1 X130.800 Y107.714 E5.4655
G1 X119.917 Y107.714 E7.0943
G1 X120.022 Y108.112 E7.1558
G1 X120.241 Y110.000 E7.4403
G1 X130.800 Y110.000 E9.0206
G1 X130.800 Y112.286 E9.3627
G1 X119.917 Y112.286 E10.9915
G1 X119.658 Y113.275 E11.1446
G1 X119.114 Y114.571 E11.3550
G1 X130.800 Y114.571 E13.1041
G1 X130.800 Y116.200 E13.3479
G1 X136.831 Y116.200 E14.2506
G1 X137.300 Y116.669 E14.3498
G1 X137.300 Y116.857 E14.3780
G1 X117.539 Y116.857 E17.3357
G1 X117.468 Y116.945 E17.3526
G1 X116.420 Y117.924 E17.5672
G1 X115.245 Y118.746 E17.7818
G1 X114.463 Y119.143 E17.9131
G1 X137.300 Y119.143 E21.3311
G1 X137.300 Y121.429 E21.6732
G1 X82.700 Y121.429 E29.8452
G1 X82.700 Y119.143 E30.1873
G1 X105.501 Y119.143 E33.5999
G1 X104.363 Y118.498 E33.7956
G1 X103.227 Y117.624 E34.0103
G1 X102.477 Y116.857 E34.1707
G1 X82.700 Y116.857 E37.1308
G1 X82.700 Y116.669 E37.1590
G1 X83.169 Y116.200 E37.2582
G1 X89.200 Y116.200 E38.1609
G1 X89.200 Y114.571 E38.4047
G1 X100.908 Y114.571 E40.1570
G1 X100.697 Y114.179 E40.2237
G1 X100.203 Y112.833 E40.4384
G1 X100.086 Y112.286 E40.5221
G1 X89.200 Y112.286 E42.1514
G1 X89.200 Y110.000 E42.4935
G1 X99.802 Y110.000 E44.0803
G1 X99.903 Y108.570 E44.2949
G1 X100.086 Y107.714 E44.4259
G1 X89.200 Y107.714 E46.0552
G1 X89.200 Y105.429 E46.3973
G1 X100.908 Y105.429 E48.1497
G1 X101.376 Y104.558 E48.2976
G1 X102.224 Y103.402 E48.5122
G1 X102.477 Y103.143 E48.5664
G1 X82.700 Y103.143 E51.5265
G1 X82.700 Y100.857 E51.8686
G1 X105.501 Y100.857 E55.2812
G1 X105.611 Y100.795 E55.3001
G1 X106.945 Y100.270 E55.5147
G1 X108.340 Y99.938 E55.7294
G1 X109.768 Y99.805 E55.9440
G1 X111.201 Y99.873 E56.1586
G1 X112.609 Y100.141 E56.3733
G1 X113.966 Y100.605 E56.5879
G1 X114.463 Y100.857 E56.6713
G1 X137.300 Y100.857 E60.0893
G1 X137.300 Y98.571 E60.4314
G1 X82.700 Y98.571 E68.6034
G92 E0
G1 E-2.0000 F3000
; layer 3, Z = 0.822
; tool H0.222 W0.400
G1 X81.700 Y103.196 F4200
G1 Z0.822 F1002
G1 E0.0000 F3000
G92 E0
G1 X83.304 Y104.800 E0.0754 F3000
G1 X83.870 Y104.800 E0.0943
G1 X81.700 Y102.630 E0.1963
G1 X81.700 Y102.065 E0.2151
G1 X84.435 Y104.800 E0.3438
G1 X85.001 Y104.800 E0.3626
G1 X81.700 Y101.499 E0.5179
G1 X81.700 Y100.933 E0.5367
G1 X85.567 Y104.800 E0.7186
G1 X86.132 Y104.800 E0.7374
G1 X81.700 Y100.368 E0.9459
G1 X81.700 Y99.802 E0.9647
G1 X86.698 Y104.800 E1.1998
G1 X87.264 Y104.800 E1.2186
G1 X81.700 Y99.236 E1.4803
G1 X81.700 Y98.671 E1.4991
G1 X87.829 Y104.800 E1.7874
G1 X88.200 Y104.800 E1.7997
G1 X88.200 Y105.171 E1.8121
G1 X107.329 Y124.300 E2.7119
G1 X107.895 Y124.300 E2.7307
G1 X81.700 Y98.105 E3.9628
G1 X81.700 Y97.539 E3.9816
G1 X108.461 Y124.300 E5.2404
G1 X109.027 Y124.300 E5.2592
G1 X81.700 Y96.973 E6.5445
G1 X81.700 Y96.754 E6.5518
G1 X81.873 Y96.581 E6.5600
G1 X109.592 Y124.300 E7.8638
G1 X110.158 Y124.300 E7.8826
G1 X82.156 Y96.298 E9.1997
G1 X82.439 Y96.015 E9.2130
G1 X110.724 Y124.300 E10.5434
G1 X111.289 Y124.300 E10.5623
G1 X82.722 Y95.733 E11.9060
G1 X82.754 Y95.700 E11.9075
G1 X83.255 Y95.700 E11.9242
G1 X101.947 Y114.392 E12.8034
G1 X101.612 Y113.768 E12.8269
G1 X101.451 Y113.331 E12.8424
G1 X83.821 Y95.700 E13.6717
G1 X84.386 Y95.700 E13.6905
G1 X101.146 Y112.460 E14.4788
G1 X100.992 Y111.740 E14.5033
G1 X84.952 Y95.700 E15.2578
G1 X85.518 Y95.700 E15.2766
G1 X100.879 Y111.062 E15.9992
G1 X100.836 Y110.453 E16.0195
G1 X86.083 Y95.700 E16.7134
G1 X86.649 Y95.700 E16.7322
G1 X100.814 Y109.865 E17.3985
G1 X100.851 Y109.336 E17.4161
G1 X87.215 Y95.700 E18.0575
G1 X87.780 Y95.700 E18.0763
G1 X100.888 Y108.808 E18.6929
G1 X100.895 Y108.710 E18.6962
G1 X100.977 Y108.331 E18.7091
G1 X88.346 Y95.700 E19.3032
G1 X88.912 Y95.700 E19.3220
G1 X101.077 Y107.865 E19.8942
G1 X101.166 Y107.446 E19.9084
G1 X101.182 Y107.404 E19.9099
G1 X89.477 Y95.700 E20.4605
