; G-Code generated by Simplify3D(R) Version 4.0.0
; Aug 5, 2019 at 4:14:22 PM
; Settings Summary
;   processName,Process2
;   applyToModels,Beard_comb_-_fine,comb_cover
;   profileName,Default(2) (modified)
;   profileVersion,2019-07-27 15:21:07
;   baseProfile,
;   printMaterial,PLA
;   printQuality,Medium
;   printExtruders,
;   extruderName,Primary Extruder
;   extruderToolheadNumber,0
;   extruderDiameter,0.4
;   extruderAutoWidth,0
;   extruderWidth,0.4
;   extrusionMultiplier,0.9
;   extruderUseRetract,1
;   extruderRetractionDistance,1
;   extruderExtraRestartDistance,0
;   extruderRetractionZLift,0
;   extruderRetractionSpeed,1800
;   extruderUseCoasting,0
;   extruderCoastingDistance,0.2
;   extruderUseWipe,0
;   extruderWipeDistance,5
;   primaryExtruder,0
;   layerHeight,0.1
;   topSolidLayers,3
;   bottomSolidLayers,2
;   perimeterOutlines,2
;   printPerimetersInsideOut,0
;   startPointOption,2
;   startPointOriginX,0
;   startPointOriginY,0
;   sequentialIslands,0
;   spiralVaseMode,0
;   firstLayerHeightPercentage,90
;   firstLayerWidthPercentage,100
;   firstLayerUnderspeed,0.5
;   useRaft,0
;   raftExtruder,0
;   raftTopLayers,3
;   raftBaseLayers,2
;   raftOffset,3
;   raftSeparationDistance,0.14
;   raftTopInfill,100
;   aboveRaftSpeedMultiplier,0.3
;   useSkirt,0
;   skirtExtruder,0
;   skirtLayers,1
;   skirtOutlines,2
;   skirtOffset,4
;   usePrimePillar,0
;   primePillarExtruder,999
;   primePillarWidth,12
;   primePillarLocation,7
;   primePillarSpeedMultiplier,1
;   useOozeShield,0
;   oozeShieldExtruder,999
;   oozeShieldOffset,2
;   oozeShieldOutlines,1
;   oozeShieldSidewallShape,1
;   oozeShieldSidewallAngle,30
;   oozeShieldSpeedMultiplier,1
;   infillExtruder,0
;   internalInfillPattern,Rectilinear
;   externalInfillPattern,Rectilinear
;   infillPercentage,50
;   outlineOverlapPercentage,15
;   infillExtrusionWidthPercentage,100
;   minInfillLength,5
;   infillLayerInterval,1
;   internalInfillAngles,45,-45
;   overlapInternalInfillAngles,0
;   externalInfillAngles,45,-45
;   generateSupport,1
;   supportExtruder,0
;   supportInfillPercentage,30
;   supportExtraInflation,0
;   supportBaseLayers,0
;   denseSupportExtruder,0
;   denseSupportLayers,0
;   denseSupportInfillPercentage,70
;   supportLayerInterval,1
;   supportHorizontalPartOffset,0.3
;   supportUpperSeparationLayers,1
;   supportLowerSeparationLayers,1
;   supportType,0
;   supportGridSpacing,4
;   maxOverhangAngle,45
;   supportAngles,0
;   temperatureName,Primary Extruder,Hot Bed
;   temperatureNumber,0,1
;   temperatureSetpointCount,1,1
;   temperatureSetpointLayers,1,1
;   temperatureSetpointTemperatures,210,60
;   temperatureStabilizeAtStartup,1,0
;   temperatureHeatedBed,0,1
;   temperatureRelayBetweenLayers,0,0
;   temperatureRelayBetweenLoops,0,0
;   fanLayers,1,2
;   fanSpeeds,0,100
;   blipFanToFullPower,0
;   adjustSpeedForCooling,1
;   minSpeedLayerTime,15
;   minCoolingSpeedSlowdown,20
;   increaseFanForCooling,0
;   minFanLayerTime,45
;   maxCoolingFanSpeed,100
;   increaseFanForBridging,0
;   bridgingFanSpeed,100
;   use5D,1
;   relativeEdistances,0
;   allowEaxisZeroing,1
;   independentExtruderAxes,0
;   includeM10123,0
;   stickySupport,1
;   applyToolheadOffsets,0
;   gcodeXoffset,0
;   gcodeYoffset,0
;   gcodeZoffset,0
;   overrideMachineDefinition,0
;   machineTypeOverride,0
;   strokeXoverride,200
;   strokeYoverride,200
;   strokeZoverride,200
;   originOffsetXoverride,0
;   originOffsetYoverride,0
;   originOffsetZoverride,0
;   homeXdirOverride,-1
;   homeYdirOverride,-1
;   homeZdirOverride,-1
;   flipXoverride,1
;   flipYoverride,-1
;   flipZoverride,1
;   toolheadOffsets,0,0|0,0|0,0|0,0|0,0|0,0
;   overrideFirmwareConfiguration,0
;   firmwareTypeOverride,RepRap (Marlin/Repetier/Sprinter)
;   GPXconfigOverride,r2
;   baudRateOverride,115200
;   overridePrinterModels,0
;   printerModelsOverride
;   startingGcode,G28 ; home all axes,G1 X0 Y210 Z0.2 F3000 ; get ready to prime,G92 E0 ; reset extrusion distance,G1 X150 E20 F600 ; prime nozzle
;   layerChangeGcode,
;   retractionGcode,
;   toolChangeGcode,
;   endingGcode,G28 ; home all axes,M104 S0 ; turn off extruder,M140 S0 ; turn off bed,M84 ; disable motors
;   exportFileFormat,gcode
;   celebration,0
;   celebrationSong,Random Song
;   postProcessing,
;   defaultSpeed,4600
;   outlineUnderspeed,0.5
;   solidInfillUnderspeed,0.8
;   supportUnderspeed,0.8
;   rapidXYspeed,4800
;   rapidZspeed,1000
;   minBridgingArea,50
;   bridgingExtraInflation,0
;   bridgingExtrusionMultiplier,1
;   bridgingSpeedMultiplier,1
;   useFixedBridgingAngle,0
;   fixedBridgingAngle,0
;   applyBridgingToPerimeters,0
;   filamentDiameters,1.75|1.75|1.75|1.75|1.75|1.75
;   filamentPricesPerKg,46|46|46|46|46|46
;   filamentDensities,1.25|1.25|1.25|1.25|1.25|1.25
;   useMinPrintHeight,0
;   minPrintHeight,0
;   useMaxPrintHeight,0
;   maxPrintHeight,0
;   useDiaphragm,0
;   diaphragmLayerInterval,20
;   robustSlicing,1
;   mergeAllIntoSolid,0
;   onlyRetractWhenCrossingOutline,1
;   retractBetweenLayers,1
;   useRetractionMinTravel,0
;   retractionMinTravel,3
;   retractWhileWiping,0
;   onlyWipeOutlines,1
;   avoidCrossingOutline,0
;   maxMovementDetourFactor,3
;   toolChangeRetractionDistance,12
;   toolChangeExtraRestartDistance,-0.5
;   toolChangeRetractionSpeed,600
;   externalThinWallType,1
;   internalThinWallType,1
;   thinWallAllowedOverlapPercentage,10
;   singleExtrusionMinLength,1
;   singleExtrusionMinPrintingWidthPercentage,50
;   singleExtrusionMaxPrintingWidthPercentage,200
;   singleExtrusionEndpointExtension,0.2
;   horizontalSizeCompensation,0
G90
M82
M106 S0
M140 S60
M104 S210 T0
M109 S210 T0
G28 ; home all axes
G1 X0 Y210 Z0.2 F3000 ; get ready to prime
G92 E0 ; reset extrusion distance
G1 X150 E20 F600 ; prime nozzle
G92 E0
G1 E-1.0000 F1800
G1 Z0.090 F1000
; process Process2
; layer 1, Z = 0.090
T0
; tool H0.100 W0.400
; outer perimeter
G1 X65.752 Y72.025 F4800
G1 E0.0000 F540
G92 E0
G1 X68.242 Y70.161 E0.0466 F1150
G1 X70.972 Y68.670 E0.0931
G1 X73.886 Y67.584 E0.1397
G1 X76.926 Y66.922 E0.1862
G1 X80.035 Y66.700 E0.2329
G1 X158.019 Y66.700 E1.4001
G1 X158.339 Y66.728 E1.4049
G1 X158.642 Y66.809 E1.4096
G1 X158.926 Y66.941 E1.4143
G1 X159.183 Y67.121 E1.4189
G1 X159.405 Y67.342 E1.4236
G1 X159.585 Y67.599 E1.4283
G1 X159.718 Y67.883 E1.4330
G1 X159.799 Y68.186 E1.4377
G1 X159.844 Y68.687 E1.4452
G1 X162.979 Y68.922 E1.4923
G1 X165.864 Y69.580 E1.5366
G1 X168.619 Y70.661 E1.5809
G1 X171.181 Y72.141 E1.6252
G1 X173.495 Y73.986 E1.6695
G1 X175.508 Y76.155 E1.7138
G1 X177.175 Y78.600 E1.7580
G1 X178.459 Y81.266 E1.8023
G1 X179.331 Y84.094 E1.8466
G1 X179.772 Y87.020 E1.8909
G1 X179.772 Y89.980 E1.9352
G1 X179.331 Y92.906 E1.9795
G1 X178.459 Y95.734 E2.0238
G1 X177.175 Y98.400 E2.0681
G1 X175.508 Y100.845 E2.1124
G1 X173.495 Y103.014 E2.1567
G1 X171.181 Y104.859 E2.2010
G1 X168.619 Y106.339 E2.2452
G1 X165.864 Y107.420 E2.2895
G1 X162.979 Y108.078 E2.3338
G1 X160.228 Y108.284 E2.3751
G1 X160.228 Y95.317 E2.5692
G1 X158.847 Y95.196 E2.5899
G1 X157.703 Y94.889 E2.6077
G1 X156.628 Y94.388 E2.6254
G1 X155.657 Y93.709 E2.6432
G1 X154.819 Y92.870 E2.6609
G1 X154.140 Y91.900 E2.6786
G1 X153.639 Y90.825 E2.6964
G1 X153.332 Y89.681 E2.7141
G1 X153.211 Y88.300 E2.7349
G1 X58.243 Y88.300 E4.1563
G1 X58.450 Y85.398 E4.1998
G1 X59.112 Y82.358 E4.2464
G1 X60.198 Y79.444 E4.2929
G1 X61.689 Y76.714 E4.3395
G1 X63.553 Y74.224 E4.3860
G1 X65.752 Y72.025 E4.4326
; inner perimeter
G1 X66.015 Y72.328 F4800
G92 E0
G1 X68.459 Y70.498 E0.0457 F1725
G1 X71.139 Y69.035 E0.0914
G1 X73.999 Y67.968 E0.1371
G1 X76.983 Y67.319 E0.1828
G1 X80.049 Y67.100 E0.2288
G1 X158.002 Y67.100 E1.3955
G1 X158.269 Y67.123 E1.3995
G1 X158.505 Y67.186 E1.4032
G1 X158.726 Y67.289 E1.4068
G1 X158.925 Y67.429 E1.4105
G1 X159.098 Y67.601 E1.4141
G1 X159.238 Y67.800 E1.4178
G1 X159.341 Y68.021 E1.4214
G1 X159.404 Y68.256 E1.4251
G1 X159.475 Y69.060 E1.4371
G1 X162.919 Y69.318 E1.4888
G1 X165.746 Y69.963 E1.5322
G1 X168.445 Y71.023 E1.5756
G1 X170.955 Y72.472 E1.6190
G1 X173.222 Y74.280 E1.6624
G1 X175.194 Y76.405 E1.7058
G1 X176.827 Y78.801 E1.7492
G1 X178.085 Y81.413 E1.7926
G1 X178.940 Y84.183 E1.8360
G1 X179.372 Y87.050 E1.8794
G1 X179.372 Y89.950 E1.9228
G1 X178.940 Y92.817 E1.9662
G1 X178.085 Y95.587 E2.0096
G1 X176.827 Y98.199 E2.0530
G1 X175.194 Y100.595 E2.0963
G1 X173.222 Y102.720 E2.1397
G1 X170.955 Y104.528 E2.1831
G1 X168.445 Y105.977 E2.2265
G1 X165.746 Y107.037 E2.2699
G1 X162.919 Y107.682 E2.3133
G1 X160.628 Y107.853 E2.3477
G1 X160.628 Y94.950 E2.5408
G1 X158.917 Y94.801 E2.5665
G1 X157.840 Y94.512 E2.5832
G1 X156.829 Y94.041 E2.5999
G1 X155.916 Y93.401 E2.6166
G1 X155.127 Y92.612 E2.6333
G1 X154.487 Y91.699 E2.6500
G1 X154.016 Y90.688 E2.6667
G1 X153.727 Y89.611 E2.6834
G1 X153.578 Y87.900 E2.7091
G1 X58.672 Y87.900 E4.1295
G1 X58.847 Y85.455 E4.1662
G1 X59.496 Y82.471 E4.2119
G1 X60.563 Y79.611 E4.2576
G1 X62.026 Y76.931 E4.3033
G1 X63.856 Y74.487 E4.3490
G1 X66.015 Y72.328 E4.3947
; solid layer
G1 X59.225 Y87.560 F4800
G92 E0
G1 X59.050 Y87.385 E0.0037 F1840
G1 X59.088 Y86.857 E0.0116
G1 X59.790 Y87.560 E0.0265
G1 X60.356 Y87.560 E0.0350
G1 X59.126 Y86.329 E0.0610
G1 X59.163 Y85.802 E0.0689
G1 X60.922 Y87.560 E0.1061
G1 X61.488 Y87.560 E0.1146
G1 X59.229 Y85.301 E0.1624
G1 X59.330 Y84.837 E0.1695
G1 X62.053 Y87.560 E0.2272
G1 X62.619 Y87.560 E0.2357
G1 X59.431 Y84.372 E0.3031
G1 X59.532 Y83.907 E0.3103
G1 X63.185 Y87.560 E0.3876
G1 X63.750 Y87.560 E0.3960
G1 X59.633 Y83.443 E0.4832
G1 X59.734 Y82.978 E0.4903
G1 X64.316 Y87.560 E0.5873
G1 X64.882 Y87.560 E0.5958
G1 X59.841 Y82.520 E0.7024
G1 X59.995 Y82.108 E0.7090
G1 X65.447 Y87.560 E0.8244
G1 X66.013 Y87.560 E0.8329
G1 X60.149 Y81.696 E0.9570
G1 X60.302 Y81.284 E0.9636
G1 X66.579 Y87.560 E1.0965
G1 X67.144 Y87.560 E1.1049
G1 X60.456 Y80.871 E1.2465
G1 X60.610 Y80.459 E1.2531
G1 X67.710 Y87.560 E1.4034
G1 X68.276 Y87.560 E1.4118
G1 X60.763 Y80.047 E1.5709
G1 X60.873 Y79.752 E1.5756
G1 X60.930 Y79.649 E1.5773
G1 X68.841 Y87.560 E1.7448
G1 X69.407 Y87.560 E1.7533
G1 X61.130 Y79.283 E1.9285
G1 X61.330 Y78.917 E1.9347
G1 X69.973 Y87.560 E2.1177
G1 X70.538 Y87.560 E2.1261
G1 X61.529 Y78.551 E2.3168
G1 X61.729 Y78.185 E2.3231
G1 X71.104 Y87.560 E2.5215
G1 X71.670 Y87.560 E2.5300
G1 X61.929 Y77.819 E2.7361
G1 X62.129 Y77.453 E2.7424
G1 X72.236 Y87.560 E2.9563
G1 X72.801 Y87.560 E2.9648
G1 X62.332 Y77.091 E3.1864
G1 X62.574 Y76.767 E3.1924
G1 X73.367 Y87.560 E3.4209
G1 X73.933 Y87.560 E3.4294
G1 X62.816 Y76.444 E3.6646
G1 X63.058 Y76.120 E3.6707
G1 X74.498 Y87.560 E3.9128
G1 X75.064 Y87.560 E3.9213
G1 X63.300 Y75.797 E4.1703
G1 X63.543 Y75.473 E4.1764
G1 X75.630 Y87.560 E4.4322
G1 X76.195 Y87.560 E4.4407
G1 X63.785 Y75.149 E4.7033
G1 X64.027 Y74.826 E4.7094
G1 X76.761 Y87.560 E4.9789
G1 X77.327 Y87.560 E4.9874
G1 X64.295 Y74.529 E5.2632
G1 X64.578 Y74.246 E5.2692
G1 X77.892 Y87.560 E5.5510
G1 X78.458 Y87.560 E5.5595
G1 X64.861 Y73.963 E5.8473
G1 X65.144 Y73.680 E5.8533
G1 X79.024 Y87.560 E6.1471
G1 X79.589 Y87.560 E6.1556
G1 X65.427 Y73.397 E6.4553
G1 X65.709 Y73.114 E6.4613
G1 X80.155 Y87.560 E6.7671
G1 X80.721 Y87.560 E6.7755
G1 X65.992 Y72.832 E7.0873
G1 X66.238 Y72.586 E7.0925
G1 X66.281 Y72.554 E7.0933
G1 X81.287 Y87.560 E7.4109
G1 X81.852 Y87.560 E7.4194
G1 X66.604 Y72.312 E7.7421
G1 X66.928 Y72.070 E7.7482
G1 X82.418 Y87.560 E8.0761
G1 X82.984 Y87.560 E8.0845
G1 X67.251 Y71.827 E8.4175
G1 X67.575 Y71.585 E8.4236
G1 X83.549 Y87.560 E8.7617
G1 X84.115 Y87.560 E8.7702
G1 X67.898 Y71.343 E9.1134
G1 X68.222 Y71.101 E9.1195
G1 X84.681 Y87.560 E9.4679
G1 X85.246 Y87.560 E9.4763
G1 X68.545 Y70.859 E9.8298
G1 X68.643 Y70.785 E9.8317
G1 X68.898 Y70.646 E9.8360
G1 X85.812 Y87.560 E10.1940
G1 X86.378 Y87.560 E10.2025
G1 X69.264 Y70.446 E10.5647
G1 X69.630 Y70.247 E10.5710
G1 X86.943 Y87.560 E10.9375
G1 X87.509 Y87.560 E10.9459
G1 X69.996 Y70.047 E11.3166
G1 X70.362 Y69.847 E11.3229
G1 X88.075 Y87.560 E11.6978
G1 X88.640 Y87.560 E11.7062
G1 X70.728 Y69.647 E12.0854
G1 X71.093 Y69.447 E12.0916
G1 X89.206 Y87.560 E12.4750
G1 X89.772 Y87.560 E12.4835
G1 X71.482 Y69.270 E12.8706
G1 X71.894 Y69.116 E12.8772
G1 X90.337 Y87.560 E13.2676
G1 X90.903 Y87.560 E13.2761
G1 X72.306 Y68.963 E13.6697
G1 X72.718 Y68.809 E13.6763
G1 X91.469 Y87.560 E14.0732
G1 X92.035 Y87.560 E14.0816
G1 X73.130 Y68.655 E14.4818
G1 X73.542 Y68.502 E14.4884
G1 X92.600 Y87.560 E14.8918
G1 X93.166 Y87.560 E14.9002
G1 X73.954 Y68.348 E15.3069
G1 X74.095 Y68.295 E15.3091
G1 X74.401 Y68.229 E15.3138
G1 X93.732 Y87.560 E15.7230
G1 X94.297 Y87.560 E15.7315
G1 X74.865 Y68.128 E16.1428
G1 X75.330 Y68.027 E16.1499
G1 X94.863 Y87.560 E16.5633
G1 X95.429 Y87.560 E16.5718
G1 X75.794 Y67.926 E16.9874
G1 X76.259 Y67.825 E16.9945
G1 X95.994 Y87.560 E17.4122
G1 X96.560 Y87.560 E17.4207
G1 X76.724 Y67.724 E17.8406
G1 X77.031 Y67.657 E17.8453
G1 X77.210 Y67.644 E17.8480
G1 X97.126 Y87.560 E18.2695
G1 X97.691 Y87.560 E18.2780
G1 X77.738 Y67.606 E18.7003
G1 X78.266 Y67.568 E18.7083
G1 X98.257 Y87.560 E19.1314
G1 X98.823 Y87.560 E19.1399
G1 X78.793 Y67.531 E19.5638
G1 X79.321 Y67.493 E19.5718
G1 X99.388 Y87.560 E19.9965
G1 X99.954 Y87.560 E20.0050
G1 X79.849 Y67.455 E20.4305
G1 X80.061 Y67.440 E20.4337
G1 X80.400 Y67.440 E20.4388
G1 X100.520 Y87.560 E20.8646
G1 X101.085 Y87.560 E20.8731
G1 X80.965 Y67.440 E21.2990
G1 X81.531 Y67.440 E21.3075
G1 X101.651 Y87.560 E21.7333
G1 X102.217 Y87.560 E21.7418
G1 X82.097 Y67.440 E22.1677
G1 X82.663 Y67.440 E22.1761
G1 X102.783 Y87.560 E22.6020
G1 X103.348 Y87.560 E22.6105
G1 X83.228 Y67.440 E23.0363
G1 X83.794 Y67.440 E23.0448
G1 X103.914 Y87.560 E23.4707
G1 X104.480 Y87.560 E23.4791
G1 X84.360 Y67.440 E23.9050
G1 X84.925 Y67.440 E23.9135
G1 X105.045 Y87.560 E24.3394
G1 X105.611 Y87.560 E24.3478
G1 X85.491 Y67.440 E24.7737
G1 X86.057 Y67.440 E24.7822
G1 X106.177 Y87.560 E25.2080
G1 X106.742 Y87.560 E25.2165
G1 X86.622 Y67.440 E25.6424
G1 X87.188 Y67.440 E25.6508
G1 X107.308 Y87.560 E26.0767
G1 X107.874 Y87.560 E26.0852
G1 X87.754 Y67.440 E26.5111
G1 X88.319 Y67.440 E26.5195
G1 X108.439 Y87.560 E26.9454
G1 X109.005 Y87.560 E26.9539
G1 X88.885 Y67.440 E27.3797
G1 X89.451 Y67.440 E27.3882
G1 X109.571 Y87.560 E27.8141
G1 X110.136 Y87.560 E27.8225
G1 X90.016 Y67.440 E28.2484
G1 X90.582 Y67.440 E28.2569
G1 X110.702 Y87.560 E28.6827
G1 X111.268 Y87.560 E28.6912
G1 X91.148 Y67.440 E29.1171
G1 X91.714 Y67.440 E29.1256
G1 X111.834 Y87.560 E29.5514
G1 X112.399 Y87.560 E29.5599
G1 X92.279 Y67.440 E29.9858
G1 X92.845 Y67.440 E29.9942
G1 X112.965 Y87.560 E30.4201
G1 X113.531 Y87.560 E30.4286
G1 X93.411 Y67.440 E30.8544
G1 X93.976 Y67.440 E30.8629
G1 X114.096 Y87.560 E31.2888
G1 X114.662 Y87.560 E31.2972
G1 X94.542 Y67.440 E31.7231
G1 X95.108 Y67.440 E31.7316
G1 X115.228 Y87.560 E32.1575
G1 X115.793 Y87.560 E32.1659
G1 X95.673 Y67.440 E32.5918
G1 X96.239 Y67.440 E32.6003
G1 X116.359 Y87.560 E33.0261
G1 X116.925 Y87.560 E33.0346
G1 X96.805 Y67.440 E33.4605
G1 X97.370 Y67.440 E33.4689
G1 X117.490 Y87.560 E33.8948
G1 X118.056 Y87.560 E33.9033
G1 X97.936 Y67.440 E34.3292
G1 X98.502 Y67.440 E34.3376
G1 X118.622 Y87.560 E34.7635
G1 X119.187 Y87.560 E34.7720
G1 X99.067 Y67.440 E35.1978
G1 X99.633 Y67.440 E35.2063
G1 X119.753 Y87.560 E35.6322
G1 X120.319 Y87.560 E35.6406
G1 X100.199 Y67.440 E36.0665
G1 X100.764 Y67.440 E36.0750
G1 X120.884 Y87.560 E36.5009
G1 X121.450 Y87.560 E36.5093
G1 X101.330 Y67.440 E36.9352
G1 X101.896 Y67.440 E36.9437
G1 X122.016 Y87.560 E37.3695
G1 X122.582 Y87.560 E37.3780
G1 X102.462 Y67.440 E37.8039
G1 X103.027 Y67.440 E37.8123
G1 X123.147 Y87.560 E38.2382
G1 X123.713 Y87.560 E38.2467
G1 X103.593 Y67.440 E38.6725
G1 X104.159 Y67.440 E38.6810
G1 X124.279 Y87.560 E39.1069
G1 X124.844 Y87.560 E39.1154
G1 X104.724 Y67.440 E39.5412
G1 X105.290 Y67.440 E39.5497
G1 X125.410 Y87.560 E39.9756
G1 X125.976 Y87.560 E39.9840
G1 X105.856 Y67.440 E40.4099
G1 X106.421 Y67.440 E40.4184
G1 X126.541 Y87.560 E40.8442
G1 X127.107 Y87.560 E40.8527
G1 X106.987 Y67.440 E41.2786
G1 X107.553 Y67.440 E41.2870
G1 X127.673 Y87.560 E41.7129
G1 X128.238 Y87.560 E41.7214
