; G-Code generated by Simplify3D(R) Version 3.0.2
; аев 7, 2017 at 6:27:55 PM
; Settings Summary
;   processName,Pr1 n=0.4 l=0.2
;   applyToModels,BeardCombV3
;   profileName,Flying Bear 902 Update 7-2017 (modified)
;   profileVersion,2017-07-10 09:45:20
;   baseProfile,Default
;   printMaterial,PLA
;   printQuality,Medium
;   printExtruders,
;   extruderName,Extruder 1
;   extruderToolheadNumber,0
;   extruderDiameter,0.4
;   extruderAutoWidth,1
;   extruderWidth,0.48
;   extrusionMultiplier,0.9
;   extruderUseRetract,1
;   extruderRetractionDistance,2
;   extruderExtraRestartDistance,0
;   extruderRetractionZLift,0
;   extruderRetractionSpeed,3000
;   extruderUseCoasting,0
;   extruderCoastingDistance,0.2
;   extruderUseWipe,1
;   extruderWipeDistance,5
;   primaryExtruder,0
;   layerHeight,0.2
;   topSolidLayers,3
;   bottomSolidLayers,3
;   perimeterOutlines,1
;   printPerimetersInsideOut,0
;   startPointOption,2
;   startPointOriginX,0
;   startPointOriginY,0
;   startPointOriginZ,300
;   sequentialIslands,0
;   spiralVaseMode,0
;   firstLayerHeightPercentage,90
;   firstLayerWidthPercentage,100
;   firstLayerUnderspeed,0.5
;   useRaft,0
;   raftExtruder,0
;   raftLayers,3
;   raftOffset,3
;   raftSeparationDistance,0.14
;   raftInfill,85
;   disableRaftBaseLayers,0
;   useSkirt,0
;   skirtExtruder,0
;   skirtLayers,1
;   skirtOutlines,2
;   skirtOffset,4
;   usePrimePillar,0
;   primePillarExtruder,999
;   primePillarWidth,12
;   primePillarLocation,7
;   primePillarSpeedMultiplier,1
;   useOozeShield,0
;   oozeShieldExtruder,999
;   oozeShieldOffset,2
;   oozeShieldOutlines,1
;   oozeShieldSidewallShape,1
;   oozeShieldSidewallAngle,30
;   oozeShieldSpeedMultiplier,1
;   infillExtruder,0
;   internalInfillPattern,Rectilinear
;   externalInfillPattern,Rectilinear
;   infillPercentage,10
;   outlineOverlapPercentage,25
;   infillExtrusionWidthPercentage,100
;   minInfillLength,5
;   infillLayerInterval,1
;   infillAngles,45,-45
;   overlapInfillAngles,0
;   generateSupport,1
;   supportExtruder,0
;   supportInfillPercentage,30
;   supportExtraInflation,0
;   denseSupportLayers,0
;   denseSupportInfillPercentage,70
;   supportLayerInterval,1
;   supportHorizontalPartOffset,0.3
;   supportUpperSeparationLayers,1
;   supportLowerSeparationLayers,1
;   supportType,0
;   supportGridSpacing,4
;   maxOverhangAngle,45
;   supportAngles,0
;   temperatureName,Extruder 1,Heated Bed
;   temperatureNumber,0,0
;   temperatureSetpointCount,1,2
;   temperatureSetpointLayers,1,1,3
;   temperatureSetpointTemperatures,215,75,60
;   temperatureStabilizeAtStartup,1,0
;   temperatureHeatedBed,0,1
;   temperatureRelayBetweenLayers,0,0
;   temperatureRelayBetweenLoops,0,0
;   fanLayers,1,2
;   fanSpeeds,0,100
;   blipFanToFullPower,0
;   adjustSpeedForCooling,1
;   minSpeedLayerTime,15
;   minCoolingSpeedSlowdown,20
;   increaseFanForCooling,0
;   minFanLayerTime,45
;   maxCoolingFanSpeed,100
;   increaseFanForBridging,0
;   bridgingFanSpeed,100
;   use5D,1
;   relativeEdistances,0
;   allowEaxisZeroing,1
;   independentExtruderAxes,0
;   includeM10123,0
;   stickySupport,1
;   applyToolheadOffsets,0
;   gcodeXoffset,0
;   gcodeYoffset,0
;   gcodeZoffset,0
;   overrideMachineDefinition,1
;   machineTypeOverride,0
;   strokeXoverride,220
;   strokeYoverride,220
;   strokeZoverride,280
;   originOffsetXoverride,0
;   originOffsetYoverride,0
;   originOffsetZoverride,0
;   homeXdirOverride,-1
;   homeYdirOverride,-1
;   homeZdirOverride,-1
;   flipXoverride,1
;   flipYoverride,-1
;   flipZoverride,1
;   toolheadOffsets,0,0|0,0|0,0|0,0|0,0|0,0
;   overrideFirmwareConfiguration,1
;   firmwareTypeOverride,RepRap (Marlin/Repetier/Sprinter)
;   GPXconfigOverride,r2
;   baudRateOverride,250000
;   overridePrinterModels,0
;   printerModelsOverride
;   startingGcode,G28 ; home all axes,G1 X0 Y20 Z0.2 F3000 ; get ready to prime,G92 E0 ; reset extrusion distance,G1 X200 E20 F600 ; prime nozzle
;   layerChangeGcode,
;   retractionGcode,
;   toolChangeGcode,
;   endingGcode,M104 S0 ; turn off extruder,M140 S0 ; turn off bed,G28 X Y ; home x and y axes,M84 ; disable motors
;   createX3G,0
;   celebration,0
;   celebrationSong,Random Song
;   createMB5G,0
;   postProcessing,
;   defaultSpeed,3400
;   outlineUnderspeed,0.5
;   solidInfillUnderspeed,0.8
;   supportUnderspeed,0.8
;   rapidXYspeed,4800
;   rapidZspeed,1000
;   minBridgingArea,50
;   bridgingExtraInflation,0
;   bridgingExtrusionMultiplier,1
;   bridgingSpeedMultiplier,1
;   filamentDiameter,1.75
;   filamentPricePerKg,46
;   filamentDensity,1.25
;   useMinPrintHeight,0
;   minPrintHeight,0
;   useMaxPrintHeight,0
;   maxPrintHeight,4.41
;   useDiaphragm,0
;   diaphragmLayerInterval,20
;   robustSlicing,1
;   mergeAllIntoSolid,0
;   onlyRetractWhenCrossingOutline,1
;   retractBetweenLayers,1
;   useRetractionMinTravel,0
;   retractionMinTravel,3
;   retractWhileWiping,0
;   onlyWipeOutlines,1
;   avoidCrossingOutline,0
;   maxMovementDetourFactor,3
;   toolChangeRetractionDistance,12
;   toolChangeExtraRestartDistance,-0.5
;   toolChangeRetractionSpeed,600
;   allowThinWallGapFill,1
;   thinWallAllowedOverlapPercentage,10
;   horizontalSizeCompensation,0
G90
M82
M106 S0
M140 S75
M104 S215 T0
M109 S215 T0
G28 ; home all axes
G1 X0 Y20 Z0.2 F3000 ; get ready to prime
G92 E0 ; reset extrusion distance
G1 X200 E20 F600 ; prime nozzle
G92 E0
G1 E-2.0000 F3000
G1 Z0.180 F1000
; layer 1, Z = 0.18
T0
; tool H0.200 W0.480
; outer perimeter
G1 X52.375 Y49.913 F4800
G1 E0.0000 F900
G92 E0
G1 X52.947 Y49.415 E0.0272 F850
G1 X53.191 Y49.227 E0.0383
G1 X53.740 Y48.851 E0.0622
G1 X54.060 Y48.659 E0.0756
G1 X54.462 Y48.442 E0.0920
G1 X54.954 Y48.217 E0.1114
G1 X55.306 Y48.080 E0.1250
G1 X55.920 Y47.887 E0.1482
G1 X56.282 Y47.799 E0.1615
G1 X57.008 Y47.677 E0.1880
G1 X57.646 Y47.626 E0.2110
G1 X67.442 Y47.720 E0.5628
G1 X67.230 Y67.872 E1.2868
G1 X69.427 Y67.895 E1.3657
G1 X69.616 Y49.834 E2.0145
G1 X70.096 Y48.873 E2.0531
G1 X70.393 Y48.322 E2.0755
G1 X70.605 Y48.735 E2.0922
G1 X71.136 Y49.850 E2.1366
G1 X70.947 Y67.911 E2.7854
G1 X73.427 Y67.937 E2.8745
G1 X73.616 Y49.876 E3.5233
G1 X74.096 Y48.915 E3.5618
G1 X74.392 Y48.364 E3.5843
G1 X74.605 Y48.777 E3.6010
G1 X75.136 Y49.892 E3.6454
G1 X74.947 Y67.953 E4.2942
G1 X77.427 Y67.979 E4.3833
G1 X77.616 Y49.917 E5.0321
G1 X78.096 Y48.957 E5.0706
G1 X78.392 Y48.406 E5.0931
G1 X78.604 Y48.819 E5.1098
G1 X79.136 Y49.934 E5.1542
G1 X78.946 Y67.995 E5.8030
G1 X81.426 Y68.021 E5.8921
G1 X81.616 Y49.959 E6.5409
G1 X82.096 Y48.999 E6.5794
G1 X82.392 Y48.448 E6.6019
G1 X82.604 Y48.861 E6.6186
G1 X83.135 Y49.976 E6.6630
G1 X82.946 Y68.037 E7.3118
G1 X85.426 Y68.063 E7.4009
G1 X85.615 Y50.001 E8.0497
G1 X86.096 Y49.041 E8.0882
G1 X86.392 Y48.490 E8.1107
G1 X86.604 Y48.903 E8.1274
G1 X87.135 Y50.017 E8.1718
G1 X86.946 Y68.079 E8.8206
G1 X89.426 Y68.105 E8.9097
G1 X89.615 Y50.043 E9.5585
G1 X90.095 Y49.083 E9.5970
G1 X90.392 Y48.532 E9.6195
G1 X90.604 Y48.945 E9.6362
G1 X91.135 Y50.059 E9.6806
G1 X90.946 Y68.121 E10.3294
G1 X93.426 Y68.147 E10.4185
G1 X93.615 Y50.085 E11.0673
G1 X94.095 Y49.125 E11.1059
G1 X94.391 Y48.573 E11.1283
G1 X94.604 Y48.987 E11.1450
G1 X95.135 Y50.101 E11.1894
G1 X94.946 Y68.162 E11.8382
G1 X97.425 Y68.188 E11.9273
G1 X97.615 Y50.127 E12.5761
G1 X98.095 Y49.167 E12.6147
G1 X98.391 Y48.615 E12.6371
G1 X98.603 Y49.029 E12.6538
G1 X99.135 Y50.143 E12.6982
G1 X98.945 Y68.204 E13.3470
G1 X101.425 Y68.230 E13.4361
G1 X101.614 Y50.169 E14.0849
G1 X102.095 Y49.209 E14.1235
G1 X102.391 Y48.657 E14.1459
G1 X102.603 Y49.070 E14.1626
G1 X103.134 Y50.185 E14.2070
G1 X102.945 Y68.246 E14.8558
G1 X105.425 Y68.272 E14.9449
G1 X105.614 Y50.211 E15.5937
G1 X106.094 Y49.251 E15.6323
G1 X106.391 Y48.699 E15.6547
G1 X106.603 Y49.112 E15.6714
G1 X107.134 Y50.227 E15.7158
G1 X106.945 Y68.288 E16.3646
G1 X109.425 Y68.314 E16.4537
G1 X109.614 Y50.253 E17.1025
G1 X110.094 Y49.292 E17.1411
G1 X110.390 Y48.741 E17.1635
G1 X110.603 Y49.154 E17.1802
G1 X111.134 Y50.269 E17.2246
G1 X110.945 Y68.330 E17.8734
G1 X113.425 Y68.356 E17.9625
G1 X113.614 Y50.295 E18.6113
G1 X114.094 Y49.334 E18.6499
G1 X114.390 Y48.783 E18.6723
G1 X114.602 Y49.196 E18.6890
G1 X115.134 Y50.311 E18.7334
G1 X114.944 Y68.372 E19.3822
G1 X117.424 Y68.398 E19.4713
G1 X117.614 Y50.337 E20.1201
G1 X118.094 Y49.376 E20.1587
G1 X118.390 Y48.825 E20.1811
G1 X118.602 Y49.238 E20.1978
G1 X119.133 Y50.353 E20.2422
G1 X118.944 Y68.414 E20.8910
G1 X121.424 Y68.440 E20.9801
G1 X121.613 Y50.378 E21.6289
G1 X122.094 Y49.418 E21.6675
G1 X122.390 Y48.867 E21.6899
G1 X122.602 Y49.280 E21.7066
G1 X123.133 Y50.395 E21.7510
G1 X122.944 Y68.456 E22.3998
G1 X125.424 Y68.482 E22.4889
G1 X125.613 Y50.420 E23.1377
G1 X126.093 Y49.460 E23.1763
G1 X126.390 Y48.909 E23.1987
G1 X126.602 Y49.322 E23.2154
G1 X127.133 Y50.436 E23.2598
G1 X126.944 Y68.498 E23.9086
G1 X129.424 Y68.524 E23.9977
G1 X129.613 Y50.462 E24.6465
G1 X130.093 Y49.502 E24.6851
G1 X130.389 Y48.951 E24.7075
G1 X130.602 Y49.364 E24.7242
G1 X131.133 Y50.478 E24.7686
G1 X130.944 Y68.540 E25.4174
G1 X133.423 Y68.566 E25.5065
G1 X133.613 Y50.504 E26.1553
G1 X134.093 Y49.544 E26.1939
G1 X134.389 Y48.993 E26.2163
G1 X134.601 Y49.406 E26.2330
G1 X135.133 Y50.520 E26.2774
G1 X134.943 Y68.582 E26.9262
G1 X137.423 Y68.607 E27.0153
G1 X137.612 Y50.546 E27.6641
G1 X138.093 Y49.586 E27.7027
G1 X138.389 Y49.034 E27.7251
G1 X138.601 Y49.448 E27.7418
G1 X139.132 Y50.562 E27.7862
G1 X138.943 Y68.623 E28.4350
G1 X141.423 Y68.649 E28.5241
G1 X141.612 Y50.588 E29.1729
G1 X142.092 Y49.628 E29.2115
G1 X142.389 Y49.076 E29.2339
G1 X142.601 Y49.489 E29.2506
G1 X143.132 Y50.604 E29.2950
G1 X142.943 Y68.665 E29.9438
G1 X145.423 Y68.691 E30.0329
G1 X145.612 Y50.630 E30.6817
G1 X146.156 Y49.546 E30.7253
G1 X146.388 Y49.117 E30.7428
G1 X146.600 Y49.531 E30.7595
G1 X147.132 Y50.646 E30.8038
G1 X146.943 Y68.707 E31.4527
G1 X149.423 Y68.733 E31.5417
G1 X149.612 Y50.672 E32.1905
G1 X150.159 Y49.582 E32.2344
G1 X150.388 Y49.159 E32.2516
G1 X150.597 Y49.567 E32.2681
G1 X151.132 Y50.688 E32.3127
G1 X150.942 Y68.749 E32.9615
G1 X153.422 Y68.775 E33.0506
G1 X153.612 Y50.714 E33.6994
G1 X154.162 Y49.618 E33.7435
G1 X154.387 Y49.201 E33.7605
G1 X154.595 Y49.605 E33.7768
G1 X155.131 Y50.730 E33.8216
G1 X154.942 Y68.791 E34.4704
G1 X157.422 Y68.817 E34.5595
G1 X157.611 Y50.756 E35.2083
G1 X158.164 Y49.656 E35.2525
G1 X158.387 Y49.242 E35.2694
G1 X158.593 Y49.643 E35.2856
G1 X159.131 Y50.772 E35.3305
G1 X158.942 Y68.833 E35.9793
G1 X161.422 Y68.859 E36.0684
G1 X161.611 Y50.798 E36.7172
G1 X162.165 Y49.695 E36.7616
G1 X162.387 Y49.284 E36.7783
G1 X162.591 Y49.682 E36.7944
G1 X163.131 Y50.814 E36.8394
G1 X162.942 Y68.875 E37.4882
G1 X165.422 Y68.901 E37.5773
G1 X165.611 Y50.840 E38.2261
G1 X166.166 Y49.734 E38.2705
G1 X166.387 Y49.326 E38.2872
G1 X166.590 Y49.722 E38.3032
G1 X167.131 Y50.856 E38.3483
G1 X166.942 Y68.917 E38.9971
G1 X170.358 Y68.953 E39.1199
G1 X170.570 Y48.800 E39.8438
G1 X170.644 Y48.801 E39.8464
G1 X170.884 Y48.821 E39.8551
G1 X171.021 Y48.847 E39.8601
G1 X171.256 Y48.917 E39.8689
G1 X171.588 Y49.078 E39.8822
G1 X171.787 Y49.215 E39.8909
G1 X171.944 Y49.349 E39.8983
G1 X172.246 Y49.693 E39.9147
G1 X172.461 Y50.034 E39.9292
G1 X172.580 Y50.278 E39.9390
G1 X172.668 Y50.504 E39.9476
G1 X172.806 Y51.021 E39.9669
G1 X172.873 Y51.562 E39.9865
G1 X172.880 Y51.813 E39.9955
G1 X172.677 Y71.246 E40.6936
G1 X172.665 Y71.473 E40.7017
G1 X172.635 Y71.676 E40.7091
G1 X172.587 Y71.876 E40.7165
G1 X172.520 Y72.070 E40.7239
G1 X172.437 Y72.258 E40.7312
G1 X172.336 Y72.437 E40.7386
G1 X172.220 Y72.606 E40.7460
G1 X172.089 Y72.764 E40.7534
G1 X171.944 Y72.910 E40.7608
G1 X171.786 Y73.042 E40.7682
G1 X171.617 Y73.159 E40.7755
G1 X171.438 Y73.260 E40.7829
G1 X171.251 Y73.344 E40.7903
G1 X171.056 Y73.411 E40.7977
G1 X170.857 Y73.460 E40.8051
G1 X170.654 Y73.491 E40.8124
G1 X170.442 Y73.504 E40.8201
G1 X168.944 Y73.536 E40.8739
G1 X167.440 Y73.591 E40.9279
G1 X165.937 Y73.668 E40.9820
G1 X164.435 Y73.768 E41.0361
G1 X162.936 Y73.890 E41.0901
G1 X161.438 Y74.035 E41.1442
G1 X159.942 Y74.203 E41.1982
G1 X158.449 Y74.393 E41.2523
G1 X156.959 Y74.605 E41.3064
G1 X155.473 Y74.840 E41.3604
G1 X153.990 Y75.097 E41.4145
G1 X152.511 Y75.376 E41.4685
G1 X151.036 Y75.677 E41.5226
G1 X149.567 Y76.001 E41.5767
G1 X148.102 Y76.346 E41.6307
G1 X146.642 Y76.713 E41.6848
G1 X145.189 Y77.103 E41.7388
G1 X143.741 Y77.514 E41.7929
G1 X142.300 Y77.947 E41.8470
G1 X140.865 Y78.401 E41.9010
G1 X139.437 Y78.877 E41.9551
G1 X138.017 Y79.374 E42.0091
G1 X136.604 Y79.892 E42.0632
G1 X135.199 Y80.432 E42.1172
G1 X133.802 Y80.993 E42.1713
G1 X132.414 Y81.574 E42.2254
G1 X131.035 Y82.177 E42.2794
G1 X129.665 Y82.800 E42.3335
G1 X128.305 Y83.443 E42.3875
G1 X126.954 Y84.107 E42.4416
G1 X125.614 Y84.791 E42.4957
G1 X124.284 Y85.495 E42.5497
G1 X122.964 Y86.219 E42.6038
G1 X121.656 Y86.963 E42.6578
G1 X120.359 Y87.726 E42.7119
G1 X119.073 Y88.508 E42.7660
G1 X117.800 Y89.310 E42.8200
G1 X116.538 Y90.131 E42.8741
G1 X115.289 Y90.971 E42.9281
G1 X114.053 Y91.829 E42.9822
G1 X112.830 Y92.706 E43.0363
G1 X111.620 Y93.601 E43.0903
G1 X110.424 Y94.514 E43.1444
G1 X109.242 Y95.445 E43.1984
G1 X108.073 Y96.394 E43.2525
G1 X106.920 Y97.360 E43.3066
G1 X105.780 Y98.344 E43.3606
G1 X104.656 Y99.344 E43.4147
G1 X103.547 Y100.361 E43.4687
G1 X102.453 Y101.395 E43.5228
G1 X101.375 Y102.444 E43.5768
G1 X100.312 Y103.510 E43.6309
G1 X99.266 Y104.592 E43.6850
G1 X98.236 Y105.690 E43.7390
G1 X97.223 Y106.802 E43.7931
G1 X96.226 Y107.930 E43.8471
G1 X95.247 Y109.073 E43.9012
G1 X94.285 Y110.230 E43.9553
G1 X93.340 Y111.402 E44.0093
G1 X92.413 Y112.587 E44.0634
G1 X91.504 Y113.787 E44.1174
G1 X90.613 Y115.000 E44.1715
G1 X89.741 Y116.226 E44.2256
G1 X88.887 Y117.465 E44.2796
G1 X88.051 Y118.717 E44.3337
G1 X87.235 Y119.981 E44.3877
G1 X86.437 Y121.257 E44.4418
G1 X85.659 Y122.545 E44.4959
G1 X84.900 Y123.845 E44.5499
G1 X84.161 Y125.156 E44.6040
G1 X83.442 Y126.478 E44.6580
G1 X82.742 Y127.810 E44.7121
G1 X82.063 Y129.153 E44.7662
G1 X81.403 Y130.506 E44.8202
G1 X80.765 Y131.869 E44.8743
G1 X80.146 Y133.241 E44.9283
G1 X79.549 Y134.622 E44.9824
G1 X78.972 Y136.012 E45.0364
G1 X78.416 Y137.410 E45.0905
G1 X77.881 Y138.817 E45.1446
G1 X77.368 Y140.232 E45.1986
G1 X76.875 Y141.654 E45.2527
G1 X76.405 Y143.083 E45.3067
G1 X75.955 Y144.519 E45.3608
G1 X75.527 Y145.962 E45.4149
G1 X75.121 Y147.411 E45.4689
G1 X74.737 Y148.867 E45.5230
G1 X74.375 Y150.327 E45.5770
G1 X74.034 Y151.793 E45.6311
G1 X73.716 Y153.264 E45.6852
G1 X73.420 Y154.740 E45.7392
G1 X73.145 Y156.219 E45.7933
G1 X72.894 Y157.703 E45.8473
G1 X72.664 Y159.190 E45.9014
G1 X72.457 Y160.681 E45.9555
G1 X72.272 Y162.175 E46.0095
G1 X72.110 Y163.671 E46.0636
G1 X71.970 Y165.169 E46.1176
G1 X71.853 Y166.670 E46.1717
G1 X71.758 Y168.172 E46.2258
G1 X71.686 Y169.675 E46.2798
G1 X71.636 Y171.179 E46.3339
G1 X71.613 Y172.444 E46.3793
G1 X47.121 Y172.187 E47.2591
G1 X48.262 Y63.749 E51.1545
G1 X48.299 Y62.285 E51.2071
G1 X48.366 Y60.846 E51.2589
G1 X48.460 Y59.609 E51.3035
G1 X48.638 Y58.106 E51.3578
G1 X48.840 Y56.933 E51.4006
G1 X49.081 Y55.886 E51.4392
G1 X49.387 Y54.838 E51.4784
G1 X49.635 Y54.144 E51.5049
G1 X49.732 Y53.900 E51.5143
G1 X49.939 Y53.417 E51.5332
G1 X50.164 Y52.945 E51.5519
G1 X50.506 Y52.309 E51.5779
G1 X50.853 Y51.744 E51.6017
G1 X51.038 Y51.470 E51.6136
G1 X51.434 Y50.939 E51.6374
G1 X51.740 Y50.572 E51.6545
G1 X52.137 Y50.145 E51.6755
G1 X52.375 Y49.913 E51.6874
G1 X52.947 Y49.415 F3400
G1 X53.191 Y49.227 F3400
G1 X53.740 Y48.851 F3400
G1 X54.060 Y48.659 F3400
G1 X54.462 Y48.442 F3400
G1 X54.954 Y48.217 F3400
G1 X55.306 Y48.080 F3400
G1 X55.920 Y47.887 F3400
G1 X56.282 Y47.799 F3400
G1 X56.778 Y47.716 F3400
; solid layer
G1 X50.920 Y52.323 F4800
G92 E0
G1 X54.310 Y48.933 E0.1722 F1360
G1 X54.623 Y48.765 E0.1850
G1 X55.094 Y48.549 E0.2036
G1 X55.426 Y48.420 E0.2164
G1 X55.536 Y48.385 E0.2205
G1 X50.200 Y53.721 E0.4916
G1 X50.065 Y54.037 E0.5039
G1 X49.972 Y54.271 E0.5130
G1 X49.774 Y54.827 E0.5342
G1 X56.467 Y48.133 E0.8742
G1 X57.052 Y48.035 E0.8955
