; G-Code generated by Simplify3D(R) Version 4.0.0
; Jan 11, 2021 at 6:05:52 PM
; Settings Summary
;   processName,bed level
;   applyToModels,Bed_Levelling
;   profileName,def (modified)
;   profileVersion,2020-09-07 14:01:24
;   baseProfile,Default (modified)
;   printMaterial,PLA
;   printQuality,Medium
;   printExtruders,
;   extruderName,Primary Extruder
;   extruderToolheadNumber,0
;   extruderDiameter,0.4
;   extruderAutoWidth,0
;   extruderWidth,0.4
;   extrusionMultiplier,0.9
;   extruderUseRetract,1
;   extruderRetractionDistance,1
;   extruderExtraRestartDistance,0
;   extruderRetractionZLift,0
;   extruderRetractionSpeed,1800
;   extruderUseCoasting,0
;   extruderCoastingDistance,0.2
;   extruderUseWipe,0
;   extruderWipeDistance,5
;   primaryExtruder,0
;   layerHeight,0.2
;   topSolidLayers,3
;   bottomSolidLayers,2
;   perimeterOutlines,2
;   printPerimetersInsideOut,1
;   startPointOption,2
;   startPointOriginX,0
;   startPointOriginY,0
;   sequentialIslands,0
;   spiralVaseMode,0
;   firstLayerHeightPercentage,90
;   firstLayerWidthPercentage,103
;   firstLayerUnderspeed,0.4
;   useRaft,0
;   raftExtruder,0
;   raftTopLayers,2
;   raftBaseLayers,2
;   raftOffset,1.4
;   raftSeparationDistance,0.14
;   raftTopInfill,100
;   aboveRaftSpeedMultiplier,0.3
;   useSkirt,0
;   skirtExtruder,0
;   skirtLayers,1
;   skirtOutlines,2
;   skirtOffset,4
;   usePrimePillar,0
;   primePillarExtruder,999
;   primePillarWidth,12
;   primePillarLocation,7
;   primePillarSpeedMultiplier,1
;   useOozeShield,0
;   oozeShieldExtruder,999
;   oozeShieldOffset,2
;   oozeShieldOutlines,1
;   oozeShieldSidewallShape,1
;   oozeShieldSidewallAngle,30
;   oozeShieldSpeedMultiplier,1
;   infillExtruder,0
;   internalInfillPattern,Rectilinear
;   externalInfillPattern,Rectilinear
;   infillPercentage,10
;   outlineOverlapPercentage,15
;   infillExtrusionWidthPercentage,100
;   minInfillLength,5
;   infillLayerInterval,1
;   internalInfillAngles,45,-45
;   overlapInternalInfillAngles,0
;   externalInfillAngles,45,-45
;   generateSupport,0
;   supportExtruder,0
;   supportInfillPercentage,30
;   supportExtraInflation,0
;   supportBaseLayers,0
;   denseSupportExtruder,0
;   denseSupportLayers,0
;   denseSupportInfillPercentage,70
;   supportLayerInterval,1
;   supportHorizontalPartOffset,0.2
;   supportUpperSeparationLayers,1
;   supportLowerSeparationLayers,1
;   supportType,0
;   supportGridSpacing,4
;   maxOverhangAngle,45
;   supportAngles,0
;   temperatureName,Primary Extruder,Hot Bed
;   temperatureNumber,0,1
;   temperatureSetpointCount,1,1
;   temperatureSetpointLayers,1,1
;   temperatureSetpointTemperatures,210,60
;   temperatureStabilizeAtStartup,1,0
;   temperatureHeatedBed,0,1
;   temperatureRelayBetweenLayers,0,0
;   temperatureRelayBetweenLoops,0,0
;   fanLayers,1,2
;   fanSpeeds,0,100
;   blipFanToFullPower,0
;   adjustSpeedForCooling,1
;   minSpeedLayerTime,15
;   minCoolingSpeedSlowdown,20
;   increaseFanForCooling,0
;   minFanLayerTime,45
;   maxCoolingFanSpeed,100
;   increaseFanForBridging,0
;   bridgingFanSpeed,100
;   use5D,1
;   relativeEdistances,0
;   allowEaxisZeroing,1
;   independentExtruderAxes,0
;   includeM10123,0
;   stickySupport,1
;   applyToolheadOffsets,0
;   gcodeXoffset,-0.09
;   gcodeYoffset,-0.03
;   gcodeZoffset,0
;   overrideMachineDefinition,0
;   machineTypeOverride,0
;   strokeXoverride,200
;   strokeYoverride,200
;   strokeZoverride,200
;   originOffsetXoverride,0
;   originOffsetYoverride,0
;   originOffsetZoverride,0
;   homeXdirOverride,-1
;   homeYdirOverride,-1
;   homeZdirOverride,-1
;   flipXoverride,1
;   flipYoverride,-1
;   flipZoverride,1
;   toolheadOffsets,0,0|0,0|0,0|0,0|0,0|0,0
;   overrideFirmwareConfiguration,0
;   firmwareTypeOverride,RepRap (Marlin/Repetier/Sprinter)
;   GPXconfigOverride,r2
;   baudRateOverride,115200
;   overridePrinterModels,0
;   printerModelsOverride
;   startingGcode,G28 ; home all axes,G1 X3 Y5 Z0.2 F3000 ; get ready to prime,G92 E0 ; reset extrusion distance,G1 Y150 E20 F600 ; prime nozzle
;   layerChangeGcode,
;   retractionGcode,
;   toolChangeGcode,
;   endingGcode,M104 S0 ; turn off extruder,M140 S0 ; turn off bedG1 X0 Y0; home,M84 ; disable motors,M107 ; fan off,G28 X Y; Home,M18; Disable steppers
;   exportFileFormat,gcode
;   celebration,0
;   celebrationSong,Random Song
;   postProcessing,
;   defaultSpeed,2000
;   outlineUnderspeed,0.5
;   solidInfillUnderspeed,0.8
;   supportUnderspeed,0.8
;   rapidXYspeed,4800
;   rapidZspeed,1000
;   minBridgingArea,50
;   bridgingExtraInflation,0
;   bridgingExtrusionMultiplier,1
;   bridgingSpeedMultiplier,1
;   useFixedBridgingAngle,0
;   fixedBridgingAngle,0
;   applyBridgingToPerimeters,0
;   filamentDiameters,1.75|1.75|1.75|1.75|1.75|1.75
;   filamentPricesPerKg,46|46|46|46|46|46
;   filamentDensities,1.25|1.25|1.25|1.25|1.25|1.25
;   useMinPrintHeight,0
;   minPrintHeight,0
;   useMaxPrintHeight,0
;   maxPrintHeight,0
;   useDiaphragm,0
;   diaphragmLayerInterval,20
;   robustSlicing,1
;   mergeAllIntoSolid,0
;   onlyRetractWhenCrossingOutline,1
;   retractBetweenLayers,1
;   useRetractionMinTravel,0
;   retractionMinTravel,3
;   retractWhileWiping,0
;   onlyWipeOutlines,1
;   avoidCrossingOutline,0
;   maxMovementDetourFactor,3
;   toolChangeRetractionDistance,12
;   toolChangeExtraRestartDistance,-0.5
;   toolChangeRetractionSpeed,600
;   externalThinWallType,1
;   internalThinWallType,2
;   thinWallAllowedOverlapPercentage,8
;   singleExtrusionMinLength,1
;   singleExtrusionMinPrintingWidthPercentage,50
;   singleExtrusionMaxPrintingWidthPercentage,200
;   singleExtrusionEndpointExtension,0.2
;   horizontalSizeCompensation,0
G90
M82
M106 S0
M140 S60
M104 S210 T0
M109 S210 T0
G28 ; home all axes
G1 X3 Y5 Z0.2 F3000 ; get ready to prime
G92 E0 ; reset extrusion distance
G1 Y150 E20 F600 ; prime nozzle
G92 E0
G1 E-1.0000 F1800
G1 Z0.180 F1000
; process bed level
; layer 1, Z = 0.180
T0
; tool H0.200 W0.412
; outer perimeter
G1 X22.616 Y16.676 F4800
G1 E0.0000 F540
G92 E0
G1 X45.204 Y16.676 E0.6964 F400
G1 X45.204 Y39.264 E1.3929
G1 X22.616 Y39.264 E2.0893
G1 X22.616 Y16.676 E2.7857
G1 X23.204 Y17.264 F4800
G92 E0
G1 X23.204 Y38.676 E0.6602 F400
G1 X44.616 Y38.676 E1.3204
G1 X44.616 Y17.264 E1.9805
G1 X23.204 Y17.264 E2.6407
G92 E0
G1 E-1.0000 F1800
; inner perimeter
G1 X24.528 Y18.588 F4800
G1 E0.0000 F1800
G92 E0
G1 X43.292 Y18.588 E0.5785 F600
G1 X43.292 Y37.352 E1.1571
G1 X24.528 Y37.352 E1.7356
G1 X24.528 Y18.588 E2.3141
; outer perimeter
G1 X24.116 Y18.176 F4800
G92 E0
G1 X43.704 Y18.176 E0.6039 F400
G1 X43.704 Y37.764 E1.2079
G1 X24.116 Y37.764 E1.8118
G1 X24.116 Y18.176 E2.4158
; solid layer
G1 X42.941 Y18.938 F4800
G92 E0
G1 X42.942 Y18.939 E0.0001 F640
G1 X42.942 Y19.522 E0.0180
G1 X42.358 Y18.938 E0.0435
G1 X41.775 Y18.938 E0.0614
G1 X42.942 Y20.105 E0.1123
G1 X42.942 Y20.687 E0.1303
G1 X41.193 Y18.938 E0.2065
G1 X40.610 Y18.938 E0.2245
G1 X42.942 Y21.270 E0.3262
G1 X42.942 Y21.853 E0.3442
G1 X40.027 Y18.938 E0.4712
G1 X39.445 Y18.938 E0.4892
G1 X42.942 Y22.435 E0.6417
G1 X42.942 Y23.018 E0.6597
G1 X38.862 Y18.938 E0.8375
G1 X38.279 Y18.938 E0.8555
G1 X42.942 Y23.601 E1.0588
G1 X42.942 Y24.183 E1.0768
G1 X37.697 Y18.938 E1.3055
G1 X37.114 Y18.938 E1.3234
G1 X42.942 Y24.766 E1.5776
G1 X42.942 Y25.349 E1.5955
G1 X36.531 Y18.938 E1.8750
G1 X35.949 Y18.938 E1.8930
G1 X42.942 Y25.931 E2.1979
G1 X42.942 Y26.514 E2.2159
G1 X35.366 Y18.938 E2.5462
G1 X34.783 Y18.938 E2.5642
G1 X42.942 Y27.097 E2.9199
G1 X42.942 Y27.679 E2.9379
G1 X34.201 Y18.938 E3.3190
G1 X33.618 Y18.938 E3.3370
G1 X42.942 Y28.262 E3.7435
G1 X42.942 Y28.845 E3.7615
G1 X33.035 Y18.938 E4.1934
G1 X32.453 Y18.938 E4.2114
G1 X42.942 Y29.427 E4.6688
G1 X42.942 Y30.010 E4.6867
G1 X31.870 Y18.938 E5.1695
G1 X31.287 Y18.938 E5.1875
G1 X42.942 Y30.593 E5.6956
G1 X42.942 Y31.175 E5.7136
G1 X30.705 Y18.938 E6.2472
G1 X30.122 Y18.938 E6.2651
G1 X42.942 Y31.758 E6.8241
G1 X42.942 Y32.341 E6.8421
G1 X29.539 Y18.938 E7.4265
G1 X28.957 Y18.938 E7.4444
G1 X42.942 Y32.923 E8.0542
G1 X42.942 Y33.506 E8.0722
G1 X28.374 Y18.938 E8.7074
G1 X27.791 Y18.938 E8.7253
G1 X42.942 Y34.089 E9.3859
G1 X42.942 Y34.671 E9.4039
G1 X27.209 Y18.938 E10.0899
G1 X26.626 Y18.938 E10.1079
G1 X42.942 Y35.254 E10.8193
G1 X42.942 Y35.836 E10.8373
G1 X26.044 Y18.938 E11.5741
G1 X25.461 Y18.938 E11.5920
G1 X42.942 Y36.419 E12.3543
G1 X42.942 Y37.002 E12.3722
G1 X24.878 Y18.938 E13.1599
G1 X24.878 Y19.521 E13.1778
G1 X42.359 Y37.002 E13.9401
G1 X41.777 Y37.002 E13.9580
G1 X24.878 Y20.103 E14.6948
G1 X24.878 Y20.686 E14.7128
G1 X41.194 Y37.002 E15.4242
G1 X40.611 Y37.002 E15.4422
G1 X24.878 Y21.269 E16.1282
G1 X24.878 Y21.851 E16.1462
G1 X40.029 Y37.002 E16.8068
G1 X39.446 Y37.002 E16.8247
G1 X24.878 Y22.434 E17.4599
G1 X24.878 Y23.017 E17.4779
G1 X38.863 Y37.002 E18.0877
G1 X38.281 Y37.002 E18.1056
G1 X24.878 Y23.599 E18.6900
G1 X24.878 Y24.182 E18.7080
G1 X37.698 Y37.002 E19.2670
G1 X37.115 Y37.002 E19.2849
G1 X24.878 Y24.765 E19.8185
G1 X24.878 Y25.347 E19.8365
G1 X36.533 Y37.002 E20.3447
G1 X35.950 Y37.002 E20.3626
G1 X24.878 Y25.930 E20.8454
G1 X24.878 Y26.513 E20.8633
G1 X35.367 Y37.002 E21.3207
G1 X34.785 Y37.002 E21.3387
G1 X24.878 Y27.095 E21.7706
G1 X24.878 Y27.678 E21.7886
G1 X34.202 Y37.002 E22.1951
G1 X33.619 Y37.002 E22.2131
G1 X24.878 Y28.261 E22.5942
G1 X24.878 Y28.843 E22.6122
G1 X33.037 Y37.002 E22.9679
G1 X32.454 Y37.002 E22.9859
G1 X24.878 Y29.426 E23.3162
G1 X24.878 Y30.009 E23.3342
G1 X31.871 Y37.002 E23.6391
G1 X31.289 Y37.002 E23.6571
G1 X24.878 Y30.591 E23.9366
G1 X24.878 Y31.174 E23.9546
G1 X30.706 Y37.002 E24.2087
G1 X30.123 Y37.002 E24.2266
G1 X24.878 Y31.757 E24.4554
G1 X24.878 Y32.339 E24.4733
G1 X29.541 Y37.002 E24.6766
G1 X28.958 Y37.002 E24.6946
G1 X24.878 Y32.922 E24.8725
G1 X24.878 Y33.505 E24.8904
G1 X28.375 Y37.002 E25.0429
G1 X27.793 Y37.002 E25.0609
G1 X24.878 Y34.087 E25.1880
G1 X24.878 Y34.670 E25.2059
G1 X27.210 Y37.002 E25.3076
G1 X26.627 Y37.002 E25.3256
G1 X24.878 Y35.253 E25.4019
G1 X24.878 Y35.835 E25.4198
G1 X26.045 Y37.002 E25.4707
G1 X25.462 Y37.002 E25.4887
G1 X24.878 Y36.418 E25.5141
G1 X24.878 Y37.001 E25.5321
G1 X24.879 Y37.002 E25.5321
G92 E0
G1 E-1.0000 F1800
; outer perimeter
G1 X22.616 Y101.676 F4800
G1 E0.0000 F1800
G92 E0
G1 X45.204 Y101.676 E0.6964 F400
G1 X45.204 Y124.264 E1.3929
G1 X22.616 Y124.264 E2.0893
G1 X22.616 Y101.676 E2.7857
G1 X23.204 Y102.264 F4800
G92 E0
G1 X23.204 Y123.676 E0.6602 F400
G1 X44.616 Y123.676 E1.3204
G1 X44.616 Y102.264 E1.9805
G1 X23.204 Y102.264 E2.6407
G92 E0
G1 E-1.0000 F1800
; inner perimeter
G1 X24.528 Y103.588 F4800
G1 E0.0000 F1800
G92 E0
G1 X43.292 Y103.588 E0.5785 F600
G1 X43.292 Y122.352 E1.1571
G1 X24.528 Y122.352 E1.7356
G1 X24.528 Y103.588 E2.3141
; outer perimeter
G1 X24.116 Y103.176 F4800
G92 E0
G1 X43.704 Y103.176 E0.6039 F400
G1 X43.704 Y122.764 E1.2079
G1 X24.116 Y122.764 E1.8118
G1 X24.116 Y103.176 E2.4158
; solid layer
G1 X24.878 Y121.486 F4800
G92 E0
G1 X25.394 Y122.002 E0.0225 F640
G1 X25.977 Y122.002 E0.0405
G1 X24.878 Y120.903 E0.0884
G1 X24.878 Y120.320 E0.1063
G1 X26.560 Y122.002 E0.1797
G1 X27.142 Y122.002 E0.1976
G1 X24.878 Y119.738 E0.2964
G1 X24.878 Y119.155 E0.3143
G1 X27.725 Y122.002 E0.4384
G1 X28.308 Y122.002 E0.4564
G1 X24.878 Y118.572 E0.6059
G1 X24.878 Y117.990 E0.6239
G1 X28.890 Y122.002 E0.7989
G1 X29.473 Y122.002 E0.8168
G1 X24.878 Y117.407 E1.0172
G1 X24.878 Y116.824 E1.0351
G1 X30.056 Y122.002 E1.2609
G1 X30.638 Y122.002 E1.2788
G1 X24.878 Y116.242 E1.5300
G1 X24.878 Y115.659 E1.5480
G1 X31.221 Y122.002 E1.8245
G1 X31.804 Y122.002 E1.8425
G1 X24.878 Y115.076 E2.1445
G1 X24.878 Y114.494 E2.1624
G1 X32.386 Y122.002 E2.4898
G1 X32.969 Y122.002 E2.5078
G1 X24.878 Y113.911 E2.8605
G1 X24.878 Y113.328 E2.8785
G1 X33.552 Y122.002 E3.2567
G1 X34.134 Y122.002 E3.2747
G1 X24.878 Y112.746 E3.6783
G1 X24.878 Y112.163 E3.6962
G1 X34.717 Y122.002 E4.1252
G1 X35.300 Y122.002 E4.1432
G1 X24.878 Y111.580 E4.5976
G1 X24.878 Y110.998 E4.6155
G1 X35.882 Y122.002 E5.0954
G1 X36.465 Y122.002 E5.1133
G1 X24.878 Y110.415 E5.6185
G1 X24.878 Y109.833 E5.6365
G1 X37.047 Y122.002 E6.1671
G1 X37.630 Y122.002 E6.1851
G1 X24.878 Y109.250 E6.7411
G1 X24.878 Y108.667 E6.7591
G1 X38.213 Y122.002 E7.3405
G1 X38.795 Y122.002 E7.3585
G1 X24.878 Y108.085 E7.9653
G1 X24.878 Y107.502 E7.9833
G1 X39.378 Y122.002 E8.6155
G1 X39.961 Y122.002 E8.6335
G1 X24.878 Y106.919 E9.2911
G1 X24.878 Y106.337 E9.3091
G1 X40.543 Y122.002 E9.9921
G1 X41.126 Y122.002 E10.0101
G1 X24.878 Y105.754 E10.7186
G1 X24.878 Y105.171 E10.7365
G1 X41.709 Y122.002 E11.4704
G1 X42.291 Y122.002 E11.4884
G1 X24.878 Y104.589 E12.2476
G1 X24.878 Y104.006 E12.2656
G1 X42.874 Y122.002 E13.0503
G1 X42.942 Y122.002 E13.0524
G1 X42.942 Y121.487 E13.0682
G1 X25.393 Y103.938 E13.8334
G1 X25.976 Y103.938 E13.8514
G1 X42.942 Y120.904 E14.5912
G1 X42.942 Y120.322 E14.6091
G1 X26.558 Y103.938 E15.3235
G1 X27.141 Y103.938 E15.3415
G1 X42.942 Y119.739 E16.0304
G1 X42.942 Y119.156 E16.0484
G1 X27.724 Y103.938 E16.7119
G1 X28.306 Y103.938 E16.7299
G1 X42.942 Y118.574 E17.3681
G1 X42.942 Y117.991 E17.3860
G1 X28.889 Y103.938 E17.9988
G1 X29.472 Y103.938 E18.0167
G1 X42.942 Y117.408 E18.6041
G1 X42.942 Y116.826 E18.6220
G1 X30.054 Y103.938 E19.1840
G1 X30.637 Y103.938 E19.2019
G1 X42.942 Y116.243 E19.7385
G1 X42.942 Y115.660 E19.7564
G1 X31.220 Y103.938 E20.2676
G1 X31.802 Y103.938 E20.2855
G1 X42.942 Y115.078 E20.7712
G1 X42.942 Y114.495 E20.7892
G1 X32.385 Y103.938 E21.2495
G1 X32.968 Y103.938 E21.2675
G1 X42.942 Y113.912 E21.7024
G1 X42.942 Y113.330 E21.7203
G1 X33.550 Y103.938 E22.1299
G1 X34.133 Y103.938 E22.1478
G1 X42.942 Y112.747 E22.5319
G1 X42.942 Y112.164 E22.5499
G1 X34.716 Y103.938 E22.9086
G1 X35.298 Y103.938 E22.9265
G1 X42.942 Y111.582 E23.2598
G1 X42.942 Y110.999 E23.2778
G1 X35.881 Y103.938 E23.5857
G1 X36.464 Y103.938 E23.6036
G1 X42.942 Y110.416 E23.8861
G1 X42.942 Y109.834 E23.9041
G1 X37.046 Y103.938 E24.1611
G1 X37.629 Y103.938 E24.1791
G1 X42.942 Y109.251 E24.4107
G1 X42.942 Y108.668 E24.4287
G1 X38.212 Y103.938 E24.6350
G1 X38.794 Y103.938 E24.6529
G1 X42.942 Y108.086 E24.8338
G1 X42.942 Y107.503 E24.8517
G1 X39.377 Y103.938 E25.0072
G1 X39.959 Y103.938 E25.0252
G1 X42.942 Y106.921 E25.1552
G1 X42.942 Y106.338 E25.1732
G1 X40.542 Y103.938 E25.2778
G1 X41.125 Y103.938 E25.2958
G1 X42.942 Y105.755 E25.3750
G1 X42.942 Y105.173 E25.3929
G1 X41.707 Y103.938 E25.4468
G1 X42.290 Y103.938 E25.4647
G1 X42.942 Y104.590 E25.4931
G1 X42.942 Y104.007 E25.5111
G1 X42.873 Y103.938 E25.5141
G92 E0
G1 E-1.0000 F1800
; outer perimeter
G1 X107.616 Y101.676 F4800
G1 E0.0000 F1800
G92 E0
G1 X130.204 Y101.676 E0.6964 F400
G1 X130.204 Y124.264 E1.3929
G1 X107.616 Y124.264 E2.0893
G1 X107.616 Y101.676 E2.7857
G1 X108.204 Y102.264 F4800
G92 E0
G1 X108.204 Y123.676 E0.6602 F400
G1 X129.616 Y123.676 E1.3204
G1 X129.616 Y102.264 E1.9805
G1 X108.204 Y102.264 E2.6407
G92 E0
G1 E-1.0000 F1800
; inner perimeter
G1 X109.528 Y103.588 F4800
G1 E0.0000 F1800
G92 E0
G1 X128.292 Y103.588 E0.5785 F600
G1 X128.292 Y122.352 E1.1571
G1 X109.528 Y122.352 E1.7356
G1 X109.528 Y103.588 E2.3141
; outer perimeter
G1 X109.116 Y103.176 F4800
G92 E0
G1 X128.704 Y103.176 E0.6039 F400
G1 X128.704 Y122.764 E1.2079
G1 X109.116 Y122.764 E1.8118
G1 X109.116 Y103.176 E2.4158
; solid layer
G1 X127.941 Y103.938 F4800
G92 E0
G1 X127.942 Y103.939 E0.0001 F640
G1 X127.942 Y104.522 E0.0180
G1 X127.358 Y103.938 E0.0435
G1 X126.775 Y103.938 E0.0614
G1 X127.942 Y105.105 E0.1123
G1 X127.942 Y105.687 E0.1303
G1 X126.193 Y103.938 E0.2065
G1 X125.610 Y103.938 E0.2245
G1 X127.942 Y106.270 E0.3262
G1 X127.942 Y106.853 E0.3442
G1 X125.027 Y103.938 E0.4712
G1 X124.445 Y103.938 E0.4892
G1 X127.942 Y107.435 E0.6417
G1 X127.942 Y108.018 E0.6597
G1 X123.862 Y103.938 E0.8375
G1 X123.279 Y103.938 E0.8555
G1 X127.942 Y108.601 E1.0588
G1 X127.942 Y109.183 E1.0768
G1 X122.697 Y103.938 E1.3055
G1 X122.114 Y103.938 E1.3234
G1 X127.942 Y109.766 E1.5776
G1 X127.942 Y110.349 E1.5955
G1 X121.531 Y103.938 E1.8750
G1 X120.949 Y103.938 E1.8930
G1 X127.942 Y110.931 E2.1979
