; G-Code generated by Simplify3D(R) Version 4.0.0
; May 19, 2018 at 5:56:45 PM
; Settings Summary
;   processName,nozzle 0.4
;   applyToModels,body_right
;   profileName,Flying Bear 902 Update 7-2017 (modified)
;   profileVersion,2017-07-10 09:45:20
;   baseProfile,Default
;   printMaterial,PLA
;   printQuality,Medium
;   printExtruders,
;   extruderName,Extruder 1
;   extruderToolheadNumber,0
;   extruderDiameter,0.4
;   extruderAutoWidth,1
;   extruderWidth,0.48
;   extrusionMultiplier,0.9
;   extruderUseRetract,1
;   extruderRetractionDistance,3
;   extruderExtraRestartDistance,0
;   extruderRetractionZLift,0
;   extruderRetractionSpeed,3000
;   extruderUseCoasting,0
;   extruderCoastingDistance,0.2
;   extruderUseWipe,1
;   extruderWipeDistance,5
;   primaryExtruder,0
;   layerHeight,0.3
;   topSolidLayers,3
;   bottomSolidLayers,2
;   perimeterOutlines,3
;   printPerimetersInsideOut,0
;   startPointOption,2
;   startPointOriginX,0
;   startPointOriginY,0
;   sequentialIslands,0
;   spiralVaseMode,0
;   firstLayerHeightPercentage,20
;   firstLayerWidthPercentage,115
;   firstLayerUnderspeed,0.3
;   useRaft,0
;   raftExtruder,0
;   raftTopLayers,2
;   raftBaseLayers,2
;   raftOffset,2
;   raftSeparationDistance,0.3
;   raftTopInfill,100
;   aboveRaftSpeedMultiplier,0.3
;   useSkirt,0
;   skirtExtruder,0
;   skirtLayers,1
;   skirtOutlines,2
;   skirtOffset,4
;   usePrimePillar,0
;   primePillarExtruder,999
;   primePillarWidth,12
;   primePillarLocation,7
;   primePillarSpeedMultiplier,1
;   useOozeShield,0
;   oozeShieldExtruder,999
;   oozeShieldOffset,2
;   oozeShieldOutlines,1
;   oozeShieldSidewallShape,1
;   oozeShieldSidewallAngle,30
;   oozeShieldSpeedMultiplier,1
;   infillExtruder,0
;   internalInfillPattern,Rectilinear
;   externalInfillPattern,Rectilinear
;   infillPercentage,10
;   outlineOverlapPercentage,60
;   infillExtrusionWidthPercentage,100
;   minInfillLength,5
;   infillLayerInterval,1
;   internalInfillAngles,45,-45
;   overlapInternalInfillAngles,0
;   externalInfillAngles,45,-45
;   generateSupport,1
;   supportExtruder,0
;   supportInfillPercentage,30
;   supportExtraInflation,0
;   supportBaseLayers,0
;   denseSupportExtruder,0
;   denseSupportLayers,0
;   denseSupportInfillPercentage,50
;   supportLayerInterval,1
;   supportHorizontalPartOffset,0.3
;   supportUpperSeparationLayers,1
;   supportLowerSeparationLayers,1
;   supportType,0
;   supportGridSpacing,4
;   maxOverhangAngle,60
;   supportAngles,0
;   temperatureName,Extruder 1,Heated Bed
;   temperatureNumber,0,0
;   temperatureSetpointCount,1,1
;   temperatureSetpointLayers,1,1
;   temperatureSetpointTemperatures,210,60
;   temperatureStabilizeAtStartup,1,0
;   temperatureHeatedBed,0,1
;   temperatureRelayBetweenLayers,0,0
;   temperatureRelayBetweenLoops,0,0
;   fanLayers,1
;   fanSpeeds,255
;   blipFanToFullPower,0
;   adjustSpeedForCooling,1
;   minSpeedLayerTime,15
;   minCoolingSpeedSlowdown,20
;   increaseFanForCooling,0
;   minFanLayerTime,45
;   maxCoolingFanSpeed,100
;   increaseFanForBridging,0
;   bridgingFanSpeed,100
;   use5D,1
;   relativeEdistances,0
;   allowEaxisZeroing,1
;   independentExtruderAxes,0
;   includeM10123,0
;   stickySupport,1
;   applyToolheadOffsets,0
;   gcodeXoffset,0
;   gcodeYoffset,0
;   gcodeZoffset,0
;   overrideMachineDefinition,1
;   machineTypeOverride,0
;   strokeXoverride,220
;   strokeYoverride,220
;   strokeZoverride,280
;   originOffsetXoverride,0
;   originOffsetYoverride,0
;   originOffsetZoverride,0
;   homeXdirOverride,-1
;   homeYdirOverride,-1
;   homeZdirOverride,-1
;   flipXoverride,1
;   flipYoverride,-1
;   flipZoverride,1
;   toolheadOffsets,0,0|0,0|0,0|0,0|0,0|0,0
;   overrideFirmwareConfiguration,1
;   firmwareTypeOverride,RepRap (Marlin/Repetier/Sprinter)
;   GPXconfigOverride,r2
;   baudRateOverride,250000
;   overridePrinterModels,0
;   printerModelsOverride
;   startingGcode,G28 ; home all axes,G1 X0 Y20 Z0.2 F3000 ; get ready to prime,G92 E0 ; reset extrusion distance,G1 X200 E20 F600 ; prime nozzle
;   layerChangeGcode,
;   retractionGcode,
;   toolChangeGcode,
;   endingGcode,M104 S0 ; turn off extruder,M140 S0 ; turn off bed,G28 X Y ; home x and y axes,M84 ; disable motors
;   exportFileFormat,gcode
;   celebration,0
;   celebrationSong,Random Song
;   postProcessing,
;   defaultSpeed,4400
;   outlineUnderspeed,0.6
;   solidInfillUnderspeed,0.85
;   supportUnderspeed,0.8
;   rapidXYspeed,4600
;   rapidZspeed,1002
;   minBridgingArea,50
;   bridgingExtraInflation,0
;   bridgingExtrusionMultiplier,1
;   bridgingSpeedMultiplier,1
;   useFixedBridgingAngle,0
;   fixedBridgingAngle,0
;   applyBridgingToPerimeters,0
;   filamentDiameters,1.75|1.75|1.75|1.75|1.75|1.75
;   filamentPricesPerKg,46|46|46|46|46|46
;   filamentDensities,1.25|1.25|1.25|1.25|1.25|1.25
;   useMinPrintHeight,0
;   minPrintHeight,0
;   useMaxPrintHeight,0
;   maxPrintHeight,4.3
;   useDiaphragm,0
;   diaphragmLayerInterval,20
;   robustSlicing,1
;   mergeAllIntoSolid,0
;   onlyRetractWhenCrossingOutline,1
;   retractBetweenLayers,1
;   useRetractionMinTravel,0
;   retractionMinTravel,3
;   retractWhileWiping,0
;   onlyWipeOutlines,1
;   avoidCrossingOutline,0
;   maxMovementDetourFactor,3
;   toolChangeRetractionDistance,12
;   toolChangeExtraRestartDistance,-0.5
;   toolChangeRetractionSpeed,600
;   externalThinWallType,0
;   internalThinWallType,0
;   thinWallAllowedOverlapPercentage,20
;   singleExtrusionMinLength,1
;   singleExtrusionMinPrintingWidthPercentage,50
;   singleExtrusionMaxPrintingWidthPercentage,200
;   singleExtrusionEndpointExtension,0.2
;   horizontalSizeCompensation,0
G90
M82
M106 S650
M140 S60
M104 S210 T0
M109 S210 T0
G28 ; home all axes
G1 X0 Y20 Z0.2 F3000 ; get ready to prime
G92 E0 ; reset extrusion distance
G1 X200 E20 F600 ; prime nozzle
G92 E0
G1 E-3.0000 F3000
G1 Z0.060 F1002
; process nozzle 0.4
; layer 1, Z = 0.060
T0
; tool H0.300 W0.552
; outer perimeter
G1 X34.609 Y51.205 F4600
G1 E0.0000 F900
G92 E0
G1 X35.352 Y50.734 E0.0545 F792
G1 X36.138 Y50.332 E0.1092
G1 X36.657 Y50.114 E0.1441
G1 X37.493 Y49.834 E0.1987
G1 X38.351 Y49.632 E0.2533
G1 X38.656 Y49.587 E0.2725
G1 X39.221 Y49.511 E0.3077
G1 X40.109 Y49.470 E0.3628
G1 X44.990 Y49.411 E0.6653
G1 X50.821 Y49.446 E1.0266
G1 X200.917 Y49.446 E10.3271
G1 X206.748 Y49.411 E10.6884
G1 X211.672 Y49.471 E10.9935
G1 X211.866 Y49.420 E11.0060
G1 X212.224 Y49.494 E11.0286
G1 X212.502 Y49.596 E11.0470
G1 X212.764 Y49.735 E11.0654
G1 X213.004 Y49.909 E11.0837
G1 X213.217 Y50.115 E11.1021
G1 X213.400 Y50.349 E11.1205
G1 X213.548 Y50.606 E11.1389
G1 X213.659 Y50.880 E11.1572
G1 X213.731 Y51.168 E11.1756
G1 X213.751 Y51.365 E11.1879
G1 X213.703 Y51.402 E11.1916
G1 X213.764 Y56.153 E11.4861
G1 X213.728 Y61.657 E11.8271
G1 X213.728 Y69.708 E12.3260
G1 X213.764 Y73.000 E12.5300
G1 X213.701 Y74.082 E12.5971
G1 X213.760 Y74.231 E12.6070
G1 X213.700 Y74.550 E12.6272
G1 X213.608 Y74.833 E12.6456
G1 X213.478 Y75.100 E12.6640
G1 X213.312 Y75.346 E12.6824
G1 X213.114 Y75.566 E12.7008
G1 X212.887 Y75.757 E12.7191
G1 X212.635 Y75.914 E12.7375
G1 X212.365 Y76.035 E12.7559
G1 X212.077 Y76.117 E12.7744
G1 X211.807 Y76.161 E12.7913
G1 X211.716 Y76.103 E12.7981
G1 X207.049 Y76.164 E13.0873
G1 X201.578 Y76.128 E13.4263
G1 X161.331 Y76.128 E15.9201
G1 X159.689 Y76.164 E16.0219
G1 X158.303 Y76.104 E16.1078
G1 X157.516 Y76.143 E16.1567
G1 X156.736 Y76.261 E16.2055
G1 X155.971 Y76.456 E16.2544
G1 X155.233 Y76.725 E16.3032
G1 X154.786 Y76.929 E16.3335
G1 X154.101 Y77.310 E16.3822
G1 X153.549 Y77.687 E16.4236
G1 X146.051 Y83.311 E17.0043
G1 X146.069 Y83.365 E17.0079
G1 X145.697 Y83.535 E17.0332
G1 X145.410 Y83.617 E17.0517
G1 X145.141 Y83.661 E17.0686
G1 X145.049 Y83.603 E17.0753
G1 X140.064 Y83.664 E17.3843
G1 X134.213 Y83.628 E17.7468
G1 X80.417 Y83.628 E21.0802
G1 X74.566 Y83.664 E21.4427
G1 X69.655 Y83.604 E21.7471
G1 X68.618 Y83.646 E21.8114
G1 X67.583 Y83.772 E21.8760
G1 X66.561 Y83.981 E21.9406
G1 X65.560 Y84.272 E22.0052
G1 X64.585 Y84.642 E22.0698
G1 X63.644 Y85.090 E22.1344
G1 X62.744 Y85.611 E22.1989
G1 X62.193 Y85.980 E22.2400
G1 X61.368 Y86.613 E22.3044
G1 X60.595 Y87.313 E22.3690
G1 X59.881 Y88.073 E22.4336
G1 X59.231 Y88.888 E22.4982
G1 X58.648 Y89.753 E22.5628
G1 X58.138 Y90.662 E22.6275
G1 X57.702 Y91.609 E22.6921
G1 X57.344 Y92.589 E22.7567
G1 X57.035 Y93.727 E22.8298
G1 X56.004 Y98.642 E23.1410
G1 X54.671 Y104.476 E23.5118
G1 X42.738 Y158.177 E26.9205
G1 X41.475 Y164.025 E27.2912
G1 X40.291 Y169.068 E27.6121
G1 X40.331 Y169.104 E27.6155
G1 X40.281 Y169.259 E27.6256
G1 X40.151 Y169.525 E27.6439
G1 X39.985 Y169.771 E27.6623
G1 X39.786 Y169.992 E27.6807
G1 X39.559 Y170.182 E27.6991
G1 X39.308 Y170.339 E27.7174
G1 X39.037 Y170.460 E27.7358
G1 X38.749 Y170.542 E27.7544
G1 X38.480 Y170.586 E27.7713
G1 X38.384 Y170.526 E27.7783
G1 X36.951 Y170.589 E27.8672
G1 X35.339 Y170.554 E27.9671
G1 X26.002 Y170.554 E28.5456
G1 X20.927 Y170.589 E28.8601
G1 X16.679 Y170.530 E29.1233
G1 X16.293 Y170.510 E29.1473
G1 X15.942 Y170.470 E29.1692
G1 X15.398 Y170.348 E29.2037
G1 X14.876 Y170.161 E29.2381
G1 X14.380 Y169.912 E29.2725
G1 X13.915 Y169.602 E29.3071
G1 X13.644 Y169.380 E29.3288
G1 X13.249 Y168.986 E29.3634
G1 X12.907 Y168.549 E29.3978
G1 X12.621 Y168.073 E29.4322
G1 X12.396 Y167.566 E29.4666
G1 X12.233 Y167.032 E29.5012
G1 X12.163 Y166.689 E29.5229
G1 X12.108 Y166.133 E29.5574
G1 X12.120 Y165.579 E29.5918
G1 X12.202 Y165.021 E29.6268
G1 X13.251 Y160.021 E29.9433
G1 X14.595 Y154.139 E30.3172
G1 X26.627 Y99.995 E33.7540
G1 X27.520 Y95.812 E34.0190
G1 X28.358 Y92.319 E34.2416
G1 X28.476 Y91.641 E34.2843
G1 X28.523 Y91.158 E34.3143
G1 X28.540 Y90.847 E34.3336
G1 X28.524 Y90.062 E34.3823
G1 X28.478 Y89.574 E34.4126
G1 X28.337 Y88.797 E34.4616
G1 X28.119 Y88.035 E34.5107
G1 X27.826 Y87.300 E34.5597
G1 X27.605 Y86.871 E34.5896
G1 X27.460 Y86.596 E34.6089
G1 X27.026 Y85.934 E34.6579
G1 X26.530 Y85.320 E34.7068
G1 X26.191 Y84.965 E34.7372
G1 X25.605 Y84.438 E34.7861
G1 X24.967 Y83.972 E34.8350
G1 X24.701 Y83.811 E34.8543
G1 X24.282 Y83.569 E34.8843
G1 X23.567 Y83.239 E34.9331
G1 X22.813 Y82.980 E34.9825
G1 X21.921 Y82.777 E35.0392
G1 X19.724 Y82.472 E35.1766
G1 X17.132 Y82.004 E35.3398
G1 X13.193 Y81.372 E35.5870
G1 X7.431 Y80.419 E35.9489
G1 X7.351 Y80.419 E35.9538
G1 X7.281 Y80.384 E35.9587
G1 X7.338 Y80.342 E35.9631
G1 X7.421 Y80.323 E35.9683
G1 X12.633 Y78.246 E36.3160
G1 X16.203 Y76.844 E36.5536
G1 X20.270 Y75.179 E36.8259
G1 X23.895 Y73.795 E37.0664
G1 X25.546 Y69.504 E37.3513
G1 X27.528 Y64.643 E37.6766
G1 X29.490 Y59.643 E38.0094
G1 X31.316 Y55.253 E38.3040
G1 X31.703 Y54.456 E38.3589
G1 X31.859 Y54.190 E38.3780
G1 X32.158 Y53.706 E38.4133
G1 X32.682 Y52.998 E38.4678
G1 X33.268 Y52.341 E38.5224
G1 X33.912 Y51.742 E38.5769
G1 X34.609 Y51.205 E38.6314
G1 X35.352 Y50.734 F4400
G1 X36.138 Y50.332 F4400
G1 X36.657 Y50.114 F4400
G1 X37.493 Y49.834 F4400
G1 X38.351 Y49.632 F4400
G1 X38.656 Y49.587 F4400
G1 X39.221 Y49.511 F4400
G1 X39.254 Y49.510 F4400
; inner perimeter
G1 X39.270 Y50.062 F4600
G92 E0
G1 X40.125 Y50.022 E0.0530 F1056
G1 X44.992 Y49.963 E0.3546
G1 X50.819 Y49.998 E0.7157
G1 X200.919 Y49.998 E10.0164
G1 X206.746 Y49.963 E10.3775
G1 X211.740 Y50.024 E10.6870
G1 X211.881 Y49.987 E10.6960
G1 X212.072 Y50.027 E10.7081
G1 X212.277 Y50.101 E10.7216
G1 X212.471 Y50.204 E10.7352
G1 X212.648 Y50.333 E10.7488
G1 X212.806 Y50.485 E10.7624
G1 X212.941 Y50.658 E10.7760
G1 X213.051 Y50.848 E10.7896
G1 X213.133 Y51.051 E10.8032
G1 X213.152 Y51.128 E10.8080
G1 X213.147 Y51.131 E10.8084
G1 X213.212 Y56.155 E11.1197
G1 X213.176 Y61.655 E11.4605
G1 X213.176 Y69.711 E11.9597
G1 X213.212 Y72.988 E12.1627
G1 X213.143 Y74.170 E12.2361
G1 X213.188 Y74.285 E12.2438
G1 X213.164 Y74.414 E12.2519
G1 X213.095 Y74.626 E12.2657
G1 X212.999 Y74.823 E12.2793
G1 X212.876 Y75.005 E12.2929
G1 X212.730 Y75.168 E12.3065
G1 X212.562 Y75.309 E12.3201
G1 X212.376 Y75.425 E12.3337
G1 X212.175 Y75.515 E12.3473
G1 X211.956 Y75.578 E12.3614
G1 X211.925 Y75.583 E12.3634
G1 X211.872 Y75.549 E12.3672
G1 X207.047 Y75.612 E12.6662
G1 X201.580 Y75.576 E13.0050
G1 X161.325 Y75.576 E15.4993
G1 X159.695 Y75.612 E15.6004
G1 X158.301 Y75.551 E15.6868
G1 X157.461 Y75.593 E15.7389
G1 X156.626 Y75.719 E15.7913
G1 X155.808 Y75.928 E15.8436
G1 X155.023 Y76.214 E15.8953
G1 X154.537 Y76.436 E15.9284
G1 X153.810 Y76.840 E15.9800
G1 X153.228 Y77.238 E16.0237
G1 X145.555 Y82.993 E16.6180
G1 X145.505 Y83.016 E16.6214
G1 X145.289 Y83.078 E16.6353
G1 X145.258 Y83.083 E16.6372
G1 X145.206 Y83.049 E16.6411
G1 X140.062 Y83.112 E16.9598
G1 X134.215 Y83.076 E17.3222
G1 X124.302 Y83.076 E17.9364
G1 X126.201 Y79.787 E18.1717
G1 X124.086 Y76.124 E18.4338
G1 X119.855 Y76.124 E18.6959
G1 X118.279 Y78.861 E18.8917
G1 X117.740 Y79.785 E18.9579
G1 X119.640 Y83.076 E19.1934
G1 X80.416 Y83.076 E21.6239
G1 X74.568 Y83.112 E21.9862
G1 X69.648 Y83.052 E22.2912
G1 X68.573 Y83.095 E22.3578
G1 X67.494 Y83.227 E22.4252
G1 X66.429 Y83.445 E22.4925
G1 X65.385 Y83.748 E22.5599
G1 X64.368 Y84.134 E22.6273
G1 X63.387 Y84.601 E22.6946
G1 X62.452 Y85.142 E22.7615
G1 X61.871 Y85.531 E22.8049
G1 X61.014 Y86.189 E22.8718
G1 X60.208 Y86.919 E22.9392
G1 X59.463 Y87.711 E23.0066
G1 X58.785 Y88.561 E23.0739
G1 X58.178 Y89.463 E23.1413
G1 X57.645 Y90.411 E23.2087
G1 X57.191 Y91.399 E23.2760
G1 X56.817 Y92.422 E23.3435
G1 X56.498 Y93.598 E23.4191
G1 X55.465 Y98.524 E23.7309
G1 X54.133 Y104.355 E24.1015
G1 X42.198 Y158.059 E27.5104
G1 X40.936 Y163.904 E27.8810
G1 X39.691 Y169.209 E28.2186
G1 X39.671 Y169.249 E28.2213
G1 X39.549 Y169.431 E28.2349
G1 X39.402 Y169.594 E28.2485
G1 X39.234 Y169.734 E28.2621
G1 X39.048 Y169.851 E28.2757
G1 X38.848 Y169.940 E28.2893
G1 X38.628 Y170.003 E28.3034
G1 X38.597 Y170.008 E28.3054
G1 X38.532 Y169.967 E28.3101
G1 X36.945 Y170.037 E28.4086
G1 X35.345 Y170.002 E28.5077
G1 X26.000 Y170.002 E29.0868
G1 X20.929 Y170.037 E29.4010
G1 X16.697 Y169.978 E29.6633
G1 X16.339 Y169.960 E29.6855
G1 X16.034 Y169.925 E29.7045
G1 X15.552 Y169.817 E29.7351
G1 X15.093 Y169.653 E29.7653
G1 X14.658 Y169.434 E29.7955
G1 X14.244 Y169.158 E29.8263
G1 X14.015 Y168.970 E29.8447
G1 X13.663 Y168.619 E29.8755
G1 X13.363 Y168.236 E29.9057
G1 X13.112 Y167.818 E29.9359
G1 X12.914 Y167.373 E29.9660
G1 X12.769 Y166.896 E29.9969
G1 X12.710 Y166.606 E30.0153
G1 X12.660 Y166.112 E30.0460
G1 X12.671 Y165.625 E30.0762
G1 X12.746 Y165.118 E30.1080
G1 X13.791 Y160.139 E30.4232
G1 X15.134 Y154.260 E30.7969
G1 X27.167 Y100.112 E34.2339
G1 X28.058 Y95.934 E34.4986
G1 X28.898 Y92.431 E34.7218
G1 X29.024 Y91.715 E34.7669
G1 X29.073 Y91.200 E34.7989
G1 X29.092 Y90.857 E34.8202
G1 X29.076 Y90.030 E34.8715
G1 X29.025 Y89.498 E34.9046
G1 X28.875 Y88.671 E34.9567
G1 X28.642 Y87.857 E35.0092
G1 X28.329 Y87.071 E35.0616
G1 X28.094 Y86.615 E35.0933
G1 X27.936 Y86.316 E35.1144
G1 X27.473 Y85.609 E35.1667
G1 X26.945 Y84.956 E35.2187
G1 X26.576 Y84.569 E35.2518
G1 X25.953 Y84.009 E35.3038
G1 X25.274 Y83.512 E35.3559
G1 X24.982 Y83.335 E35.3770
G1 X24.536 Y83.078 E35.4090
G1 X23.773 Y82.726 E35.4610
G1 X22.965 Y82.448 E35.5140
G1 X22.020 Y82.234 E35.5740
G1 X19.812 Y81.927 E35.7122
G1 X17.225 Y81.460 E35.8751
G1 X13.282 Y80.828 E36.1225
G1 X9.298 Y80.169 E36.3727
G1 X12.837 Y78.759 E36.6087
G1 X16.409 Y77.357 E36.8465
G1 X20.472 Y75.693 E37.1186
G1 X24.322 Y74.223 E37.3739
G1 X26.059 Y69.708 E37.6737
G1 X28.041 Y64.848 E37.9988
G1 X30.002 Y59.850 E38.3315
G1 X31.819 Y55.480 E38.6248
G1 X32.191 Y54.716 E38.6775
G1 X32.332 Y54.474 E38.6948
G1 X32.615 Y54.016 E38.7282
G1 X33.110 Y53.346 E38.7798
G1 X33.663 Y52.728 E38.8312
G1 X34.270 Y52.164 E38.8825
G1 X34.926 Y51.657 E38.9339
G1 X35.626 Y51.214 E38.9852
G1 X36.371 Y50.833 E39.0371
G1 X36.852 Y50.631 E39.0694
G1 X37.644 Y50.365 E39.1212
G1 X38.456 Y50.175 E39.1728
G1 X38.733 Y50.133 E39.1902
G1 X39.270 Y50.062 E39.2238
G1 X39.319 Y50.612 F4600
G92 E0
G1 X40.141 Y50.574 E0.0509 F1056
G1 X44.994 Y50.515 E0.3517
G1 X50.817 Y50.550 E0.7125
G1 X137.613 Y50.550 E6.0907
G1 X137.283 Y50.766 E6.1151
G1 X136.963 Y51.049 E6.1416
G1 X135.030 Y52.998 E6.3117
G1 X134.502 Y53.519 E6.3576
