; G-Code generated by Simplify3D(R) Version 4.0.0
; May 19, 2018 at 3:16:13 PM
; Settings Summary
;   processName,nozzle 0.4
;   applyToModels,body_left
;   profileName,Flying Bear 902 Update 7-2017 (modified)
;   profileVersion,2017-07-10 09:45:20
;   baseProfile,Default
;   printMaterial,PLA
;   printQuality,Medium
;   printExtruders,
;   extruderName,Extruder 1
;   extruderToolheadNumber,0
;   extruderDiameter,0.4
;   extruderAutoWidth,1
;   extruderWidth,0.48
;   extrusionMultiplier,0.9
;   extruderUseRetract,1
;   extruderRetractionDistance,3
;   extruderExtraRestartDistance,0
;   extruderRetractionZLift,0
;   extruderRetractionSpeed,3000
;   extruderUseCoasting,0
;   extruderCoastingDistance,0.2
;   extruderUseWipe,1
;   extruderWipeDistance,5
;   primaryExtruder,0
;   layerHeight,0.3
;   topSolidLayers,3
;   bottomSolidLayers,2
;   perimeterOutlines,3
;   printPerimetersInsideOut,0
;   startPointOption,2
;   startPointOriginX,0
;   startPointOriginY,0
;   sequentialIslands,0
;   spiralVaseMode,0
;   firstLayerHeightPercentage,20
;   firstLayerWidthPercentage,115
;   firstLayerUnderspeed,0.3
;   useRaft,0
;   raftExtruder,0
;   raftTopLayers,2
;   raftBaseLayers,2
;   raftOffset,2
;   raftSeparationDistance,0.3
;   raftTopInfill,100
;   aboveRaftSpeedMultiplier,0.3
;   useSkirt,0
;   skirtExtruder,0
;   skirtLayers,1
;   skirtOutlines,2
;   skirtOffset,4
;   usePrimePillar,0
;   primePillarExtruder,999
;   primePillarWidth,12
;   primePillarLocation,7
;   primePillarSpeedMultiplier,1
;   useOozeShield,0
;   oozeShieldExtruder,999
;   oozeShieldOffset,2
;   oozeShieldOutlines,1
;   oozeShieldSidewallShape,1
;   oozeShieldSidewallAngle,30
;   oozeShieldSpeedMultiplier,1
;   infillExtruder,0
;   internalInfillPattern,Rectilinear
;   externalInfillPattern,Rectilinear
;   infillPercentage,10
;   outlineOverlapPercentage,60
;   infillExtrusionWidthPercentage,100
;   minInfillLength,5
;   infillLayerInterval,1
;   internalInfillAngles,45,-45
;   overlapInternalInfillAngles,0
;   externalInfillAngles,45,-45
;   generateSupport,1
;   supportExtruder,0
;   supportInfillPercentage,30
;   supportExtraInflation,0
;   supportBaseLayers,0
;   denseSupportExtruder,0
;   denseSupportLayers,0
;   denseSupportInfillPercentage,50
;   supportLayerInterval,1
;   supportHorizontalPartOffset,0.3
;   supportUpperSeparationLayers,1
;   supportLowerSeparationLayers,1
;   supportType,0
;   supportGridSpacing,4
;   maxOverhangAngle,60
;   supportAngles,0
;   temperatureName,Extruder 1,Heated Bed
;   temperatureNumber,0,0
;   temperatureSetpointCount,1,1
;   temperatureSetpointLayers,1,1
;   temperatureSetpointTemperatures,210,60
;   temperatureStabilizeAtStartup,1,0
;   temperatureHeatedBed,0,1
;   temperatureRelayBetweenLayers,0,0
;   temperatureRelayBetweenLoops,0,0
;   fanLayers,1
;   fanSpeeds,255
;   blipFanToFullPower,0
;   adjustSpeedForCooling,1
;   minSpeedLayerTime,15
;   minCoolingSpeedSlowdown,20
;   increaseFanForCooling,0
;   minFanLayerTime,45
;   maxCoolingFanSpeed,100
;   increaseFanForBridging,0
;   bridgingFanSpeed,100
;   use5D,1
;   relativeEdistances,0
;   allowEaxisZeroing,1
;   independentExtruderAxes,0
;   includeM10123,0
;   stickySupport,1
;   applyToolheadOffsets,0
;   gcodeXoffset,0
;   gcodeYoffset,0
;   gcodeZoffset,0
;   overrideMachineDefinition,1
;   machineTypeOverride,0
;   strokeXoverride,220
;   strokeYoverride,220
;   strokeZoverride,280
;   originOffsetXoverride,0
;   originOffsetYoverride,0
;   originOffsetZoverride,0
;   homeXdirOverride,-1
;   homeYdirOverride,-1
;   homeZdirOverride,-1
;   flipXoverride,1
;   flipYoverride,-1
;   flipZoverride,1
;   toolheadOffsets,0,0|0,0|0,0|0,0|0,0|0,0
;   overrideFirmwareConfiguration,1
;   firmwareTypeOverride,RepRap (Marlin/Repetier/Sprinter)
;   GPXconfigOverride,r2
;   baudRateOverride,250000
;   overridePrinterModels,0
;   printerModelsOverride
;   startingGcode,G28 ; home all axes,G1 X0 Y20 Z0.2 F3000 ; get ready to prime,G92 E0 ; reset extrusion distance,G1 X200 E20 F600 ; prime nozzle
;   layerChangeGcode,
;   retractionGcode,
;   toolChangeGcode,
;   endingGcode,M104 S0 ; turn off extruder,M140 S0 ; turn off bed,G28 X Y ; home x and y axes,M84 ; disable motors
;   exportFileFormat,gcode
;   celebration,0
;   celebrationSong,Random Song
;   postProcessing,
;   defaultSpeed,4400
;   outlineUnderspeed,0.6
;   solidInfillUnderspeed,0.85
;   supportUnderspeed,0.8
;   rapidXYspeed,4600
;   rapidZspeed,1002
;   minBridgingArea,50
;   bridgingExtraInflation,0
;   bridgingExtrusionMultiplier,1
;   bridgingSpeedMultiplier,1
;   useFixedBridgingAngle,0
;   fixedBridgingAngle,0
;   applyBridgingToPerimeters,0
;   filamentDiameters,1.75|1.75|1.75|1.75|1.75|1.75
;   filamentPricesPerKg,46|46|46|46|46|46
;   filamentDensities,1.25|1.25|1.25|1.25|1.25|1.25
;   useMinPrintHeight,0
;   minPrintHeight,0
;   useMaxPrintHeight,0
;   maxPrintHeight,4.3
;   useDiaphragm,0
;   diaphragmLayerInterval,20
;   robustSlicing,1
;   mergeAllIntoSolid,0
;   onlyRetractWhenCrossingOutline,1
;   retractBetweenLayers,1
;   useRetractionMinTravel,0
;   retractionMinTravel,3
;   retractWhileWiping,0
;   onlyWipeOutlines,1
;   avoidCrossingOutline,0
;   maxMovementDetourFactor,3
;   toolChangeRetractionDistance,12
;   toolChangeExtraRestartDistance,-0.5
;   toolChangeRetractionSpeed,600
;   externalThinWallType,0
;   internalThinWallType,0
;   thinWallAllowedOverlapPercentage,20
;   singleExtrusionMinLength,1
;   singleExtrusionMinPrintingWidthPercentage,50
;   singleExtrusionMaxPrintingWidthPercentage,200
;   singleExtrusionEndpointExtension,0.2
;   horizontalSizeCompensation,0
G90
M82
M106 S650
M140 S60
M104 S210 T0
M109 S210 T0
G28 ; home all axes
G1 X0 Y20 Z0.2 F3000 ; get ready to prime
G92 E0 ; reset extrusion distance
G1 X200 E20 F600 ; prime nozzle
G92 E0
G1 E-3.0000 F3000
G1 Z0.060 F1002
; process nozzle 0.4
; layer 1, Z = 0.060
T0
; tool H0.300 W0.552
; outer perimeter
G1 X15.398 Y49.652 F4600
G1 E0.0000 F900
G92 E0
G1 X15.942 Y49.530 E0.0345 F792
G1 X16.293 Y49.490 E0.0564
G1 X16.679 Y49.470 E0.0804
G1 X20.927 Y49.411 E0.3436
G1 X26.002 Y49.446 E0.6581
G1 X35.339 Y49.446 E1.2367
G1 X36.951 Y49.411 E1.3366
G1 X38.384 Y49.474 E1.4254
G1 X38.480 Y49.414 E1.4324
G1 X38.749 Y49.458 E1.4493
G1 X39.037 Y49.540 E1.4679
G1 X39.308 Y49.661 E1.4863
G1 X39.559 Y49.818 E1.5047
G1 X39.786 Y50.008 E1.5230
G1 X39.985 Y50.229 E1.5414
G1 X40.150 Y50.473 E1.5597
G1 X40.334 Y50.864 E1.5865
G1 X40.342 Y50.887 E1.5879
G1 X40.291 Y50.932 E1.5922
G1 X41.474 Y55.974 E1.9131
G1 X42.738 Y61.823 E2.2838
G1 X54.671 Y115.524 E5.6925
G1 X56.004 Y121.358 E6.0633
G1 X57.035 Y126.273 E6.3745
G1 X57.344 Y127.411 E6.4476
G1 X57.702 Y128.391 E6.5122
G1 X58.138 Y129.338 E6.5768
G1 X58.648 Y130.247 E6.6414
G1 X59.231 Y131.112 E6.7060
G1 X59.881 Y131.927 E6.7706
G1 X60.595 Y132.687 E6.8352
G1 X61.368 Y133.387 E6.8998
G1 X62.193 Y134.020 E6.9643
G1 X62.744 Y134.389 E7.0054
G1 X63.644 Y134.910 E7.0698
G1 X64.585 Y135.358 E7.1344
G1 X65.560 Y135.728 E7.1990
G1 X66.561 Y136.019 E7.2636
G1 X67.583 Y136.228 E7.3282
G1 X68.618 Y136.354 E7.3929
G1 X69.655 Y136.396 E7.4572
G1 X74.566 Y136.336 E7.7615
G1 X80.417 Y136.372 E8.1241
G1 X134.213 Y136.372 E11.4575
G1 X140.064 Y136.336 E11.8200
G1 X145.049 Y136.397 E12.1289
G1 X145.141 Y136.339 E12.1356
G1 X145.410 Y136.383 E12.1525
G1 X145.697 Y136.465 E12.1710
G1 X146.069 Y136.635 E12.1964
G1 X146.051 Y136.689 E12.2000
G1 X153.549 Y142.313 E12.7807
G1 X154.101 Y142.690 E12.8221
G1 X154.786 Y143.071 E12.8707
G1 X155.233 Y143.275 E12.9011
G1 X155.971 Y143.544 E12.9498
G1 X156.736 Y143.739 E12.9987
G1 X157.516 Y143.857 E13.0476
G1 X158.303 Y143.896 E13.0965
G1 X159.689 Y143.836 E13.1824
G1 X161.331 Y143.872 E13.2842
G1 X201.578 Y143.872 E15.7780
G1 X207.049 Y143.836 E16.1170
G1 X211.716 Y143.897 E16.4062
G1 X211.807 Y143.839 E16.4130
G1 X212.077 Y143.883 E16.4298
G1 X212.365 Y143.965 E16.4484
G1 X212.635 Y144.086 E16.4668
G1 X212.887 Y144.243 E16.4852
G1 X213.114 Y144.434 E16.5035
G1 X213.312 Y144.654 E16.5219
G1 X213.478 Y144.900 E16.5403
G1 X213.608 Y145.167 E16.5587
G1 X213.700 Y145.450 E16.5771
G1 X213.760 Y145.769 E16.5972
G1 X213.701 Y145.918 E16.6072
G1 X213.764 Y147.001 E16.6744
G1 X213.764 Y151.607 E16.9598
G1 X213.728 Y156.270 E17.2487
G1 X213.728 Y158.343 E17.3772
G1 X213.764 Y163.847 E17.7182
G1 X213.703 Y168.598 E18.0126
G1 X213.751 Y168.635 E18.0164
G1 X213.731 Y168.832 E18.0287
G1 X213.659 Y169.119 E18.0471
G1 X213.548 Y169.394 E18.0654
G1 X213.400 Y169.651 E18.0838
G1 X213.217 Y169.885 E18.1022
G1 X213.004 Y170.091 E18.1205
G1 X212.764 Y170.265 E18.1389
G1 X212.502 Y170.404 E18.1573
G1 X212.224 Y170.506 E18.1756
G1 X211.866 Y170.580 E18.1983
G1 X211.672 Y170.529 E18.2107
G1 X206.748 Y170.589 E18.5159
G1 X200.917 Y170.554 E18.8771
G1 X50.821 Y170.554 E28.1777
G1 X44.990 Y170.589 E28.5390
G1 X40.109 Y170.530 E28.8415
G1 X39.221 Y170.489 E28.8966
G1 X38.656 Y170.413 E28.9318
G1 X38.351 Y170.368 E28.9509
G1 X37.493 Y170.166 E29.0056
G1 X36.657 Y169.886 E29.0602
G1 X36.138 Y169.668 E29.0951
G1 X35.352 Y169.266 E29.1498
G1 X34.609 Y168.795 E29.2043
G1 X33.912 Y168.258 E29.2588
G1 X33.268 Y167.659 E29.3133
G1 X32.682 Y167.002 E29.3679
G1 X32.158 Y166.294 E29.4225
G1 X31.859 Y165.810 E29.4577
G1 X31.703 Y165.544 E29.4768
G1 X31.316 Y164.747 E29.5317
G1 X29.490 Y160.357 E29.8264
G1 X27.528 Y155.357 E30.1592
G1 X25.546 Y150.496 E30.4845
G1 X23.895 Y146.205 E30.7693
G1 X20.270 Y144.821 E31.0098
G1 X16.203 Y143.156 E31.2821
G1 X12.633 Y141.754 E31.5197
G1 X7.421 Y139.677 E31.8674
G1 X7.341 Y139.659 E31.8725
G1 X7.282 Y139.614 E31.8771
G1 X7.349 Y139.582 E31.8816
G1 X7.431 Y139.580 E31.8868
G1 X13.193 Y138.628 E32.2486
G1 X17.132 Y137.996 E32.4958
G1 X19.724 Y137.528 E32.6590
G1 X21.921 Y137.223 E32.7964
G1 X22.813 Y137.020 E32.8532
G1 X23.567 Y136.761 E32.9026
G1 X24.282 Y136.431 E32.9513
G1 X24.701 Y136.189 E32.9813
G1 X24.967 Y136.028 E33.0006
G1 X25.605 Y135.562 E33.0495
G1 X26.191 Y135.035 E33.0984
G1 X26.530 Y134.680 E33.1288
G1 X27.026 Y134.066 E33.1777
G1 X27.460 Y133.404 E33.2267
G1 X27.605 Y133.129 E33.2460
G1 X27.826 Y132.700 E33.2759
G1 X28.119 Y131.965 E33.3250
G1 X28.337 Y131.203 E33.3740
G1 X28.478 Y130.426 E33.4230
G1 X28.524 Y129.938 E33.4534
G1 X28.540 Y129.153 E33.5020
G1 X28.523 Y128.842 E33.5213
G1 X28.476 Y128.359 E33.5514
G1 X28.358 Y127.681 E33.5940
G1 X27.520 Y124.188 E33.8166
G1 X26.627 Y120.005 E34.0816
G1 X14.595 Y65.861 E37.5184
G1 X13.251 Y59.979 E37.8923
G1 X12.202 Y54.979 E38.2089
G1 X12.120 Y54.421 E38.2438
G1 X12.108 Y53.867 E38.2782
G1 X12.163 Y53.311 E38.3127
G1 X12.233 Y52.968 E38.3344
G1 X12.396 Y52.434 E38.3691
G1 X12.621 Y51.927 E38.4034
G1 X12.907 Y51.451 E38.4378
G1 X13.249 Y51.014 E38.4722
G1 X13.644 Y50.620 E38.5068
G1 X13.915 Y50.398 E38.5285
G1 X14.380 Y50.088 E38.5631
G1 X14.876 Y49.839 E38.5975
G1 X15.398 Y49.652 E38.6319
G1 X15.942 Y49.530 F4400
G1 X16.293 Y49.490 F4400
G1 X16.679 Y49.470 F4400
G1 X20.382 Y49.418 F4400
; inner perimeter
G1 X20.929 Y49.963 F4600
G92 E0
G1 X26.000 Y49.998 E0.3142 F1056
G1 X35.345 Y49.998 E0.8933
G1 X36.945 Y49.963 E0.9924
G1 X38.532 Y50.033 E1.0909
G1 X38.597 Y49.992 E1.0956
G1 X38.628 Y49.997 E1.0976
G1 X38.848 Y50.060 E1.1117
G1 X39.048 Y50.149 E1.1253
G1 X39.234 Y50.265 E1.1389
G1 X39.402 Y50.406 E1.1525
G1 X39.549 Y50.569 E1.1661
G1 X39.668 Y50.747 E1.1793
G1 X39.692 Y50.797 E1.1828
G1 X40.936 Y56.096 E1.5200
G1 X42.198 Y61.941 E1.8906
G1 X54.133 Y115.645 E5.2995
G1 X55.465 Y121.476 E5.6701
G1 X56.498 Y126.402 E5.9819
G1 X56.817 Y127.578 E6.0575
G1 X57.191 Y128.601 E6.1250
G1 X57.645 Y129.589 E6.1923
G1 X58.178 Y130.537 E6.2597
G1 X58.785 Y131.439 E6.3271
G1 X59.463 Y132.289 E6.3944
G1 X60.208 Y133.081 E6.4618
G1 X61.014 Y133.811 E6.5292
G1 X61.871 Y134.469 E6.5961
G1 X62.452 Y134.858 E6.6395
G1 X63.387 Y135.399 E6.7064
G1 X64.368 Y135.866 E6.7737
G1 X65.385 Y136.252 E6.8411
G1 X66.429 Y136.555 E6.9085
G1 X67.494 Y136.773 E6.9758
G1 X68.573 Y136.905 E7.0432
G1 X69.648 Y136.948 E7.1099
G1 X74.568 Y136.888 E7.4148
G1 X80.416 Y136.924 E7.7771
G1 X119.436 Y136.924 E10.1949
G1 X119.029 Y137.271 E10.2281
G1 X118.605 Y137.767 E10.2685
G1 X118.264 Y138.324 E10.3090
G1 X118.014 Y138.927 E10.3494
G1 X117.862 Y139.562 E10.3899
G1 X117.811 Y140.213 E10.4303
G1 X117.862 Y140.863 E10.4708
G1 X118.014 Y141.498 E10.5112
G1 X118.264 Y142.101 E10.5517
G1 X118.605 Y142.658 E10.5921
G1 X119.029 Y143.154 E10.6326
G1 X119.526 Y143.578 E10.6730
G1 X120.082 Y143.919 E10.7135
G1 X120.685 Y144.169 E10.7539
G1 X121.320 Y144.322 E10.7944
G1 X121.971 Y144.373 E10.8348
G1 X122.622 Y144.322 E10.8753
G1 X123.256 Y144.169 E10.9157
G1 X123.860 Y143.919 E10.9562
G1 X124.416 Y143.578 E10.9966
G1 X124.913 Y143.154 E11.0371
G1 X125.337 Y142.658 E11.0775
G1 X125.678 Y142.101 E11.1180
G1 X125.927 Y141.498 E11.1584
G1 X126.080 Y140.863 E11.1989
G1 X126.131 Y140.213 E11.2393
G1 X126.080 Y139.562 E11.2798
G1 X125.927 Y138.927 E11.3202
G1 X125.678 Y138.324 E11.3607
G1 X125.337 Y137.767 E11.4011
G1 X124.913 Y137.271 E11.4416
G1 X124.506 Y136.924 E11.4747
G1 X134.215 Y136.924 E12.0763
G1 X140.062 Y136.888 E12.4386
G1 X145.206 Y136.951 E12.7573
G1 X145.258 Y136.917 E12.7612
G1 X145.289 Y136.922 E12.7631
G1 X145.505 Y136.984 E12.7770
G1 X145.555 Y137.007 E12.7805
G1 X153.228 Y142.762 E13.3747
G1 X153.810 Y143.160 E13.4184
G1 X154.537 Y143.564 E13.4700
G1 X155.023 Y143.786 E13.5031
G1 X155.808 Y144.072 E13.5549
G1 X156.626 Y144.281 E13.6072
G1 X157.461 Y144.407 E13.6595
G1 X158.301 Y144.449 E13.7116
G1 X159.695 Y144.388 E13.7980
G1 X161.325 Y144.424 E13.8991
G1 X201.580 Y144.424 E16.3934
G1 X207.047 Y144.388 E16.7322
G1 X211.872 Y144.451 E17.0312
G1 X211.925 Y144.417 E17.0351
G1 X211.956 Y144.422 E17.0370
G1 X212.175 Y144.485 E17.0512
G1 X212.376 Y144.575 E17.0648
G1 X212.562 Y144.691 E17.0783
G1 X212.730 Y144.832 E17.0919
G1 X212.876 Y144.995 E17.1055
G1 X212.999 Y145.177 E17.1191
G1 X213.095 Y145.374 E17.1327
G1 X213.164 Y145.586 E17.1465
G1 X213.188 Y145.715 E17.1547
G1 X213.143 Y145.830 E17.1623
G1 X213.212 Y147.017 E17.2360
G1 X213.212 Y151.604 E17.5202
G1 X213.176 Y156.268 E17.8092
G1 X213.176 Y158.345 E17.9379
G1 X213.212 Y163.845 E18.2787
G1 X213.147 Y168.869 E18.5900
G1 X213.152 Y168.872 E18.5904
G1 X213.133 Y168.948 E18.5953
G1 X213.051 Y169.152 E18.6089
G1 X212.941 Y169.342 E18.6224
G1 X212.806 Y169.515 E18.6360
G1 X212.648 Y169.667 E18.6496
G1 X212.471 Y169.796 E18.6632
G1 X212.277 Y169.899 E18.6768
G1 X212.072 Y169.973 E18.6903
G1 X211.881 Y170.013 E18.7024
G1 X211.740 Y169.976 E18.7114
G1 X206.746 Y170.037 E19.0209
G1 X200.919 Y170.002 E19.3820
G1 X50.819 Y170.002 E28.6827
G1 X44.992 Y170.037 E29.0438
G1 X40.125 Y169.978 E29.3454
G1 X39.270 Y169.938 E29.3984
G1 X38.733 Y169.867 E29.4320
G1 X38.456 Y169.825 E29.4494
G1 X37.644 Y169.634 E29.5010
G1 X36.852 Y169.369 E29.5528
G1 X36.371 Y169.167 E29.5851
G1 X35.626 Y168.786 E29.6370
G1 X34.926 Y168.343 E29.6883
G1 X34.270 Y167.836 E29.7397
G1 X33.663 Y167.272 E29.7910
G1 X33.110 Y166.654 E29.8424
G1 X32.615 Y165.985 E29.8940
G1 X32.332 Y165.526 E29.9274
G1 X32.191 Y165.284 E29.9447
G1 X31.819 Y164.520 E29.9974
G1 X30.002 Y160.150 E30.2907
G1 X28.041 Y155.152 E30.6234
G1 X26.059 Y150.292 E30.9485
G1 X24.322 Y145.777 E31.2483
G1 X20.472 Y144.307 E31.5036
G1 X16.409 Y142.643 E31.7758
G1 X12.837 Y141.241 E32.0135
G1 X9.298 Y139.831 E32.2495
G1 X13.282 Y139.172 E32.4997
G1 X17.225 Y138.540 E32.7472
G1 X19.812 Y138.073 E32.9100
G1 X22.020 Y137.766 E33.0482
G1 X22.965 Y137.552 E33.1082
G1 X23.773 Y137.274 E33.1612
G1 X24.536 Y136.922 E33.2132
G1 X24.982 Y136.665 E33.2452
G1 X25.274 Y136.488 E33.2663
G1 X25.953 Y135.991 E33.3185
G1 X26.576 Y135.431 E33.3704
G1 X26.945 Y135.044 E33.4035
G1 X27.473 Y134.391 E33.4555
G1 X27.936 Y133.684 E33.5079
G1 X28.094 Y133.385 E33.5289
G1 X28.329 Y132.929 E33.5606
G1 X28.642 Y132.143 E33.6130
G1 X28.875 Y131.329 E33.6655
G1 X29.025 Y130.501 E33.7176
G1 X29.076 Y129.970 E33.7507
G1 X29.092 Y129.143 E33.8020
G1 X29.073 Y128.800 E33.8233
G1 X29.024 Y128.285 E33.8553
G1 X28.898 Y127.569 E33.9004
G1 X28.058 Y124.066 E34.1236
