; G-Code generated by Simplify3D(R) Version 4.0.0
; Dec 25, 2020 at 10:36:05 AM
; Settings Summary
;   processName,Process1
;   applyToModels,Body_V2_ring_18,Body_V2_ring_18(2),Body_V2_ring_18(3)
;   profileName,new profile (modified)
;   profileVersion,2020-09-07 14:01:24
;   baseProfile,Default (modified)
;   printMaterial,PLA
;   printQuality,Medium
;   printExtruders,
;   extruderName,Primary Extruder
;   extruderToolheadNumber,0
;   extruderDiameter,0.4
;   extruderAutoWidth,0
;   extruderWidth,0.4
;   extrusionMultiplier,0.9
;   extruderUseRetract,1
;   extruderRetractionDistance,1
;   extruderExtraRestartDistance,0
;   extruderRetractionZLift,0
;   extruderRetractionSpeed,1800
;   extruderUseCoasting,0
;   extruderCoastingDistance,0.2
;   extruderUseWipe,0
;   extruderWipeDistance,5
;   primaryExtruder,0
;   layerHeight,0.3
;   topSolidLayers,3
;   bottomSolidLayers,3
;   perimeterOutlines,2
;   printPerimetersInsideOut,1
;   startPointOption,2
;   startPointOriginX,0
;   startPointOriginY,0
;   sequentialIslands,0
;   spiralVaseMode,0
;   firstLayerHeightPercentage,90
;   firstLayerWidthPercentage,103
;   firstLayerUnderspeed,0.5
;   useRaft,0
;   raftExtruder,0
;   raftTopLayers,3
;   raftBaseLayers,2
;   raftOffset,3
;   raftSeparationDistance,0.14
;   raftTopInfill,100
;   aboveRaftSpeedMultiplier,0.3
;   useSkirt,0
;   skirtExtruder,0
;   skirtLayers,1
;   skirtOutlines,2
;   skirtOffset,4
;   usePrimePillar,0
;   primePillarExtruder,999
;   primePillarWidth,12
;   primePillarLocation,7
;   primePillarSpeedMultiplier,1
;   useOozeShield,0
;   oozeShieldExtruder,999
;   oozeShieldOffset,2
;   oozeShieldOutlines,1
;   oozeShieldSidewallShape,1
;   oozeShieldSidewallAngle,30
;   oozeShieldSpeedMultiplier,1
;   infillExtruder,0
;   internalInfillPattern,Rectilinear
;   externalInfillPattern,Rectilinear
;   infillPercentage,23
;   outlineOverlapPercentage,15
;   infillExtrusionWidthPercentage,100
;   minInfillLength,5
;   infillLayerInterval,1
;   internalInfillAngles,45,-45
;   overlapInternalInfillAngles,0
;   externalInfillAngles,45,-45
;   generateSupport,0
;   supportExtruder,0
;   supportInfillPercentage,30
;   supportExtraInflation,0
;   supportBaseLayers,0
;   denseSupportExtruder,0
;   denseSupportLayers,0
;   denseSupportInfillPercentage,70
;   supportLayerInterval,1
;   supportHorizontalPartOffset,0.3
;   supportUpperSeparationLayers,1
;   supportLowerSeparationLayers,1
;   supportType,0
;   supportGridSpacing,4
;   maxOverhangAngle,45
;   supportAngles,0
;   temperatureName,Primary Extruder,Hot Bed
;   temperatureNumber,0,1
;   temperatureSetpointCount,1,1
;   temperatureSetpointLayers,1,1
;   temperatureSetpointTemperatures,210,60
;   temperatureStabilizeAtStartup,1,0
;   temperatureHeatedBed,0,1
;   temperatureRelayBetweenLayers,0,0
;   temperatureRelayBetweenLoops,0,0
;   fanLayers,1,2
;   fanSpeeds,0,100
;   blipFanToFullPower,0
;   adjustSpeedForCooling,1
;   minSpeedLayerTime,15
;   minCoolingSpeedSlowdown,20
;   increaseFanForCooling,0
;   minFanLayerTime,45
;   maxCoolingFanSpeed,100
;   increaseFanForBridging,0
;   bridgingFanSpeed,100
;   use5D,1
;   relativeEdistances,0
;   allowEaxisZeroing,1
;   independentExtruderAxes,0
;   includeM10123,0
;   stickySupport,1
;   applyToolheadOffsets,0
;   gcodeXoffset,-0.03
;   gcodeYoffset,-0.03
;   gcodeZoffset,0
;   overrideMachineDefinition,0
;   machineTypeOverride,0
;   strokeXoverride,200
;   strokeYoverride,200
;   strokeZoverride,200
;   originOffsetXoverride,0
;   originOffsetYoverride,0
;   originOffsetZoverride,0
;   homeXdirOverride,-1
;   homeYdirOverride,-1
;   homeZdirOverride,-1
;   flipXoverride,1
;   flipYoverride,-1
;   flipZoverride,1
;   toolheadOffsets,0,0|0,0|0,0|0,0|0,0|0,0
;   overrideFirmwareConfiguration,0
;   firmwareTypeOverride,RepRap (Marlin/Repetier/Sprinter)
;   GPXconfigOverride,r2
;   baudRateOverride,115200
;   overridePrinterModels,0
;   printerModelsOverride
;   startingGcode,G28 ; home all axes,G1 X3 Y5 Z0.2 F3000 ; get ready to prime,G92 E0 ; reset extrusion distance,G1 Y150 E20 F600 ; prime nozzle
;   layerChangeGcode,
;   retractionGcode,
;   toolChangeGcode,
;   endingGcode,M104 S0 ; turn off extruder,M140 S0 ; turn off bedG1 X0 Y0; home,M84 ; disable motors,M107 ; fan off,G28 X Y; Home,M18; Disable steppers
;   exportFileFormat,gcode
;   celebration,0
;   celebrationSong,Random Song
;   postProcessing,
;   defaultSpeed,4600
;   outlineUnderspeed,0.5
;   solidInfillUnderspeed,0.8
;   supportUnderspeed,0.8
;   rapidXYspeed,4800
;   rapidZspeed,1000
;   minBridgingArea,50
;   bridgingExtraInflation,0
;   bridgingExtrusionMultiplier,1
;   bridgingSpeedMultiplier,1
;   useFixedBridgingAngle,0
;   fixedBridgingAngle,0
;   applyBridgingToPerimeters,0
;   filamentDiameters,1.75|1.75|1.75|1.75|1.75|1.75
;   filamentPricesPerKg,46|46|46|46|46|46
;   filamentDensities,1.25|1.25|1.25|1.25|1.25|1.25
;   useMinPrintHeight,0
;   minPrintHeight,0
;   useMaxPrintHeight,0
;   maxPrintHeight,0
;   useDiaphragm,0
;   diaphragmLayerInterval,20
;   robustSlicing,1
;   mergeAllIntoSolid,0
;   onlyRetractWhenCrossingOutline,1
;   retractBetweenLayers,1
;   useRetractionMinTravel,0
;   retractionMinTravel,3
;   retractWhileWiping,0
;   onlyWipeOutlines,1
;   avoidCrossingOutline,0
;   maxMovementDetourFactor,3
;   toolChangeRetractionDistance,12
;   toolChangeExtraRestartDistance,-0.5
;   toolChangeRetractionSpeed,600
;   externalThinWallType,1
;   internalThinWallType,1
;   thinWallAllowedOverlapPercentage,10
;   singleExtrusionMinLength,1
;   singleExtrusionMinPrintingWidthPercentage,50
;   singleExtrusionMaxPrintingWidthPercentage,200
;   singleExtrusionEndpointExtension,0.2
;   horizontalSizeCompensation,0
G90
M82
M106 S0
M140 S60
M104 S210 T0
M109 S210 T0
G28 ; home all axes
G1 X3 Y5 Z0.2 F3000 ; get ready to prime
G92 E0 ; reset extrusion distance
G1 Y150 E20 F600 ; prime nozzle
G92 E0
G1 E-1.0000 F1800
G1 Z0.270 F1000
; process Process1
; layer 1, Z = 0.270
T0
; tool H0.300 W0.412
; outer perimeter
G1 X105.304 Y84.479 F4800
G1 E0.0000 F540
G92 E0
G1 X105.959 Y83.730 E0.0460 F1150
G1 X106.678 Y83.043 E0.0920
G1 X107.455 Y82.423 E0.1380
G1 X108.285 Y81.875 E0.1840
G1 X109.161 Y81.404 E0.2300
G1 X110.075 Y81.013 E0.2760
G1 X111.021 Y80.706 E0.3220
G1 X111.991 Y80.484 E0.3680
G1 X112.976 Y80.351 E0.4140
G1 X113.970 Y80.306 E0.4600
G1 X114.964 Y80.351 E0.5060
G1 X115.949 Y80.484 E0.5519
G1 X116.919 Y80.706 E0.5979
G1 X117.865 Y81.013 E0.6439
G1 X118.779 Y81.404 E0.6899
G1 X119.655 Y81.875 E0.7359
G1 X120.485 Y82.423 E0.7819
G1 X121.262 Y83.043 E0.8279
G1 X121.981 Y83.730 E0.8739
G1 X122.636 Y84.479 E0.9199
G1 X123.220 Y85.284 E0.9659
G1 X123.730 Y86.138 E1.0119
G1 X124.162 Y87.034 E1.0579
G1 X124.511 Y87.965 E1.1039
G1 X124.776 Y88.924 E1.1499
G1 X124.953 Y89.902 E1.1959
G1 X125.043 Y90.893 E1.2419
G1 X125.043 Y91.887 E1.2879
G1 X124.953 Y92.878 E1.3339
G1 X124.776 Y93.856 E1.3799
G1 X124.511 Y94.815 E1.4259
G1 X124.162 Y95.746 E1.4719
G1 X123.730 Y96.642 E1.5179
G1 X123.220 Y97.496 E1.5639
G1 X122.636 Y98.301 E1.6099
G1 X121.981 Y99.050 E1.6558
G1 X121.262 Y99.737 E1.7018
G1 X120.485 Y100.357 E1.7478
G1 X119.655 Y100.905 E1.7938
G1 X118.779 Y101.376 E1.8398
G1 X117.865 Y101.767 E1.8858
G1 X116.919 Y102.074 E1.9318
G1 X115.949 Y102.296 E1.9778
G1 X114.964 Y102.429 E2.0238
G1 X113.970 Y102.474 E2.0698
G1 X112.976 Y102.429 E2.1158
G1 X111.991 Y102.296 E2.1618
G1 X111.021 Y102.074 E2.2078
G1 X110.075 Y101.767 E2.2538
G1 X109.161 Y101.376 E2.2998
G1 X108.285 Y100.905 E2.3458
G1 X107.455 Y100.357 E2.3918
G1 X106.678 Y99.737 E2.4378
G1 X105.959 Y99.050 E2.4838
G1 X105.304 Y98.301 E2.5298
G1 X104.720 Y97.496 E2.5758
G1 X104.210 Y96.642 E2.6218
G1 X103.778 Y95.746 E2.6678
G1 X103.429 Y94.815 E2.7138
G1 X103.164 Y93.856 E2.7597
G1 X102.987 Y92.878 E2.8057
G1 X102.897 Y91.887 E2.8517
G1 X102.897 Y90.893 E2.8977
G1 X102.987 Y89.902 E2.9437
G1 X103.164 Y88.924 E2.9897
G1 X103.429 Y87.965 E3.0357
G1 X103.778 Y87.034 E3.0817
G1 X104.210 Y86.138 E3.1277
G1 X104.720 Y85.284 E3.1737
G1 X105.304 Y84.479 E3.2197
G1 X105.912 Y84.875 F4800
G92 E0
G1 X105.337 Y85.659 E0.0449 F1150
G1 X104.839 Y86.492 E0.0899
G1 X104.420 Y87.369 E0.1348
G1 X104.086 Y88.280 E0.1797
G1 X103.838 Y89.220 E0.2246
G1 X103.679 Y90.178 E0.2695
G1 X103.611 Y91.147 E0.3145
G1 X103.634 Y92.118 E0.3594
G1 X103.747 Y93.083 E0.4043
G1 X103.951 Y94.033 E0.4492
G1 X104.242 Y94.959 E0.4942
G1 X104.619 Y95.855 E0.5391
G1 X105.078 Y96.711 E0.5840
G1 X105.616 Y97.520 E0.6290
G1 X106.226 Y98.275 E0.6739
G1 X106.905 Y98.970 E0.7188
G1 X107.646 Y99.598 E0.7637
G1 X108.442 Y100.154 E0.8086
G1 X109.287 Y100.634 E0.8536
G1 X110.174 Y101.031 E0.8985
G1 X111.093 Y101.345 E0.9434
G1 X112.038 Y101.570 E0.9883
G1 X113.000 Y101.706 E1.0333
G1 X113.970 Y101.752 E1.0782
G1 X114.940 Y101.706 E1.1231
G1 X115.902 Y101.570 E1.1680
G1 X116.847 Y101.345 E1.2130
G1 X117.766 Y101.031 E1.2579
G1 X118.653 Y100.634 E1.3028
G1 X119.498 Y100.154 E1.3477
G1 X120.294 Y99.598 E1.3927
G1 X121.035 Y98.970 E1.4376
G1 X121.714 Y98.275 E1.4825
G1 X122.324 Y97.520 E1.5274
G1 X122.862 Y96.711 E1.5724
G1 X123.321 Y95.855 E1.6173
G1 X123.698 Y94.959 E1.6622
G1 X123.989 Y94.033 E1.7071
G1 X124.193 Y93.083 E1.7521
G1 X124.306 Y92.118 E1.7970
G1 X124.329 Y91.147 E1.8419
G1 X124.261 Y90.178 E1.8868
G1 X124.102 Y89.220 E1.9318
G1 X123.854 Y88.280 E1.9767
G1 X123.520 Y87.369 E2.0216
G1 X123.101 Y86.492 E2.0665
G1 X122.602 Y85.659 E2.1115
G1 X122.028 Y84.875 E2.1564
G1 X121.382 Y84.149 E2.2013
G1 X120.672 Y83.487 E2.2462
G1 X119.902 Y82.894 E2.2912
G1 X119.081 Y82.376 E2.3361
G1 X118.214 Y81.937 E2.3810
G1 X117.310 Y81.581 E2.4259
G1 X116.377 Y81.311 E2.4709
G1 X115.423 Y81.130 E2.5158
G1 X114.456 Y81.039 E2.5607
G1 X113.484 Y81.039 E2.6056
G1 X112.517 Y81.130 E2.6505
G1 X111.563 Y81.311 E2.6955
G1 X110.630 Y81.581 E2.7404
G1 X109.726 Y81.937 E2.7853
G1 X108.859 Y82.376 E2.8302
G1 X108.038 Y82.894 E2.8752
G1 X107.268 Y83.487 E2.9201
G1 X106.558 Y84.149 E2.9650
G1 X105.912 Y84.875 E3.0099
; internal single extrusion
G1 X105.630 Y84.652 F4800
G92 E0
; tool H0.300 W0.298
G1 X105.680 Y84.596 E0.0025 F1150
; tool H0.300 W0.302
G1 X106.176 Y84.033 E0.0279
; tool H0.300 W0.305
G1 X106.221 Y83.981 E0.0303
; tool H0.300 W0.303
G1 X106.269 Y83.932 E0.0326
; tool H0.300 W0.298
G1 X106.322 Y83.879 E0.0351
; tool H0.300 W0.301
G1 X106.867 Y83.364 E0.0605
; tool H0.300 W0.307
G1 X106.917 Y83.317 E0.0628
; tool H0.300 W0.304
G1 X106.969 Y83.273 E0.0652
; tool H0.300 W0.299
G1 X107.026 Y83.224 E0.0677
; tool H0.300 W0.296
G1 X107.084 Y83.177 E0.0702
; tool H0.300 W0.302
G1 X107.616 Y82.760 E0.0930
; tool H0.300 W0.308
G1 X107.669 Y82.718 E0.0954
; tool H0.300 W0.306
G1 X107.725 Y82.678 E0.0977
; tool H0.300 W0.301
G1 X107.786 Y82.635 E0.1003
; tool H0.300 W0.296
G1 X107.848 Y82.592 E0.1028
; tool H0.300 W0.301
G1 X108.415 Y82.226 E0.1256
; tool H0.300 W0.309
G1 X108.472 Y82.189 E0.1280
; tool H0.300 W0.307
G1 X108.531 Y82.154 E0.1303
; tool H0.300 W0.300
G1 X108.661 Y82.079 E0.1354
; tool H0.300 W0.294
G1 X108.727 Y82.043 E0.1378
; tool H0.300 W0.301
G1 X109.259 Y81.765 E0.1581
; tool H0.300 W0.310
G1 X109.320 Y81.733 E0.1605
; tool H0.300 W0.308
G1 X109.381 Y81.705 E0.1629
; tool H0.300 W0.301
G1 X109.517 Y81.641 E0.1679
; tool H0.300 W0.294
G1 X109.586 Y81.610 E0.1704
; tool H0.300 W0.293
G1 X109.655 Y81.581 E0.1729
; tool H0.300 W0.302
G1 X110.141 Y81.382 E0.1907
; tool H0.300 W0.310
G1 X110.204 Y81.356 E0.1930
; tool H0.300 W0.309
G1 X110.268 Y81.333 E0.1954
; tool H0.300 W0.300
G1 X110.480 Y81.257 E0.2030
; tool H0.300 W0.293
G1 X110.551 Y81.233 E0.2055
; tool H0.300 W0.301
G1 X111.054 Y81.079 E0.2232
; tool H0.300 W0.311
G1 X111.119 Y81.059 E0.2256
G1 X111.185 Y81.042 E0.2280
; tool H0.300 W0.301
G1 X111.403 Y80.985 E0.2356
; tool H0.300 W0.293
G1 X111.475 Y80.967 E0.2381
G1 X111.549 Y80.951 E0.2405
; tool H0.300 W0.301
G1 X111.990 Y80.859 E0.2558
; tool H0.300 W0.311
G1 X112.056 Y80.845 E0.2581
G1 X112.124 Y80.834 E0.2605
; tool H0.300 W0.301
G1 X112.420 Y80.786 E0.2707
; tool H0.300 W0.292
G1 X112.494 Y80.775 E0.2731
; tool H0.300 W0.301
G1 X112.942 Y80.724 E0.2883
; tool H0.300 W0.311
G1 X113.009 Y80.716 E0.2907
G1 X113.077 Y80.711 E0.2931
; tool H0.300 W0.300
G1 X113.452 Y80.685 E0.3057
; tool H0.300 W0.292
G1 X113.527 Y80.683 E0.3082
; tool H0.300 W0.301
G1 X113.902 Y80.675 E0.3208
; tool H0.300 W0.311
G1 X113.970 Y80.673 E0.3232
G1 X114.038 Y80.675 E0.3256
; tool H0.300 W0.301
G1 X114.413 Y80.683 E0.3383
; tool H0.300 W0.292
G1 X114.488 Y80.685 E0.3407
; tool H0.300 W0.296
G1 X114.713 Y80.701 E0.3482
; tool H0.300 W0.304
G1 X114.931 Y80.716 E0.3557
; tool H0.300 W0.311
G1 X114.998 Y80.724 E0.3581
; tool H0.300 W0.301
G1 X115.446 Y80.775 E0.3732
; tool H0.300 W0.292
G1 X115.520 Y80.786 E0.3757
; tool H0.300 W0.301
G1 X115.816 Y80.834 E0.3858
; tool H0.300 W0.311
G1 X115.884 Y80.845 E0.3882
G1 X115.950 Y80.859 E0.3906
; tool H0.300 W0.301
G1 X116.391 Y80.951 E0.4058
; tool H0.300 W0.292
G1 X116.465 Y80.967 E0.4083
G1 X116.537 Y80.985 E0.4107
; tool H0.300 W0.301
G1 X116.755 Y81.042 E0.4184
; tool H0.300 W0.310
G1 X116.821 Y81.059 E0.4207
G1 X116.886 Y81.079 E0.4231
; tool H0.300 W0.301
G1 X117.389 Y81.233 E0.4409
; tool H0.300 W0.293
G1 X117.460 Y81.257 E0.4433
; tool H0.300 W0.300
G1 X117.672 Y81.333 E0.4509
; tool H0.300 W0.309
G1 X117.736 Y81.356 E0.4533
; tool H0.300 W0.310
G1 X117.799 Y81.382 E0.4556
; tool H0.300 W0.302
G1 X118.285 Y81.581 E0.4734
; tool H0.300 W0.293
G1 X118.354 Y81.610 E0.4759
; tool H0.300 W0.294
G1 X118.423 Y81.641 E0.4784
; tool H0.300 W0.301
G1 X118.559 Y81.705 E0.4835
; tool H0.300 W0.308
G1 X118.620 Y81.733 E0.4858
; tool H0.300 W0.310
G1 X118.681 Y81.765 E0.4882
; tool H0.300 W0.301
G1 X119.213 Y82.043 E0.5085
; tool H0.300 W0.294
G1 X119.279 Y82.079 E0.5110
; tool H0.300 W0.300
G1 X119.409 Y82.154 E0.5160
; tool H0.300 W0.307
G1 X119.468 Y82.189 E0.5184
; tool H0.300 W0.309
G1 X119.525 Y82.226 E0.5207
; tool H0.300 W0.301
G1 X120.092 Y82.592 E0.5436
; tool H0.300 W0.296
G1 X120.154 Y82.635 E0.5460
; tool H0.300 W0.301
G1 X120.215 Y82.678 E0.5486
; tool H0.300 W0.306
G1 X120.271 Y82.718 E0.5509
; tool H0.300 W0.308
G1 X120.324 Y82.760 E0.5533
; tool H0.300 W0.302
G1 X120.856 Y83.177 E0.5761
; tool H0.300 W0.296
G1 X120.914 Y83.224 E0.5786
; tool H0.300 W0.299
G1 X120.971 Y83.273 E0.5812
; tool H0.300 W0.304
G1 X121.023 Y83.317 E0.5835
; tool H0.300 W0.307
G1 X121.073 Y83.364 E0.5858
; tool H0.300 W0.301
G1 X121.618 Y83.879 E0.6112
; tool H0.300 W0.298
G1 X121.671 Y83.932 E0.6137
; tool H0.300 W0.303
G1 X121.719 Y83.981 E0.6161
; tool H0.300 W0.305
G1 X121.764 Y84.033 E0.6184
; tool H0.300 W0.302
G1 X122.260 Y84.596 E0.6438
; tool H0.300 W0.298
G1 X122.310 Y84.652 E0.6463
; tool H0.300 W0.301
G1 X122.352 Y84.705 E0.6486
; tool H0.300 W0.304
G1 X122.392 Y84.760 E0.6510
; tool H0.300 W0.302
G1 X122.879 Y85.427 E0.6789
G1 X122.919 Y85.483 E0.6812
G1 X122.954 Y85.542 E0.6835
G1 X123.377 Y86.250 E0.7115
G1 X123.412 Y86.309 E0.7138
G1 X123.442 Y86.370 E0.7161
G1 X123.799 Y87.115 E0.7441
; tool H0.300 W0.303
G1 X123.829 Y87.176 E0.7464
; tool H0.300 W0.301
G1 X123.855 Y87.239 E0.7487
G1 X124.142 Y88.013 E0.7766
; tool H0.300 W0.305
G1 X124.166 Y88.077 E0.7789
; tool H0.300 W0.302
G1 X124.187 Y88.142 E0.7812
; tool H0.300 W0.298
G1 X124.208 Y88.214 E0.7838
; tool H0.300 W0.301
G1 X124.403 Y88.939 E0.8092
; tool H0.300 W0.306
G1 X124.421 Y89.005 E0.8115
; tool H0.300 W0.304
G1 X124.436 Y89.071 E0.8138
; tool H0.300 W0.298
G1 X124.452 Y89.145 E0.8163
; tool H0.300 W0.296
G1 X124.465 Y89.218 E0.8188
; tool H0.300 W0.302
G1 X124.581 Y89.884 E0.8417
; tool H0.300 W0.308
G1 X124.592 Y89.951 E0.8441
; tool H0.300 W0.305
G1 X124.601 Y90.019 E0.8464
; tool H0.300 W0.300
G1 X124.610 Y90.093 E0.8489
; tool H0.300 W0.296
G1 X124.618 Y90.168 E0.8514
; tool H0.300 W0.301
G1 X124.672 Y90.841 E0.8743
; tool H0.300 W0.308
G1 X124.678 Y90.909 E0.8766
; tool H0.300 W0.307
G1 X124.680 Y90.977 E0.8790
; tool H0.300 W0.299
G1 X124.686 Y91.127 E0.8840
; tool H0.300 W0.294
G1 X124.685 Y91.202 E0.8865
