; G-Code generated by Simplify3D(R) Version 4.0.0
; May 2, 2018 at 4:20:49 PM
; Settings Summary
;   processName,nozzle 0.4
;   applyToModels,bolt_mout
;   profileName,Flying Bear 902 Update 7-2017 (modified)
;   profileVersion,2017-07-10 09:45:20
;   baseProfile,Default
;   printMaterial,PLA
;   printQuality,Medium
;   printExtruders,
;   extruderName,Extruder 1
;   extruderToolheadNumber,0
;   extruderDiameter,0.4
;   extruderAutoWidth,1
;   extruderWidth,0.48
;   extrusionMultiplier,0.9
;   extruderUseRetract,1
;   extruderRetractionDistance,2
;   extruderExtraRestartDistance,0
;   extruderRetractionZLift,0
;   extruderRetractionSpeed,3000
;   extruderUseCoasting,0
;   extruderCoastingDistance,0.2
;   extruderUseWipe,1
;   extruderWipeDistance,5
;   primaryExtruder,0
;   layerHeight,0.2
;   topSolidLayers,4
;   bottomSolidLayers,4
;   perimeterOutlines,3
;   printPerimetersInsideOut,0
;   startPointOption,2
;   startPointOriginX,0
;   startPointOriginY,0
;   sequentialIslands,0
;   spiralVaseMode,0
;   firstLayerHeightPercentage,20
;   firstLayerWidthPercentage,100
;   firstLayerUnderspeed,0.3
;   useRaft,0
;   raftExtruder,0
;   raftTopLayers,2
;   raftBaseLayers,2
;   raftOffset,2
;   raftSeparationDistance,0.3
;   raftTopInfill,100
;   aboveRaftSpeedMultiplier,0.3
;   useSkirt,0
;   skirtExtruder,0
;   skirtLayers,1
;   skirtOutlines,2
;   skirtOffset,4
;   usePrimePillar,0
;   primePillarExtruder,999
;   primePillarWidth,12
;   primePillarLocation,7
;   primePillarSpeedMultiplier,1
;   useOozeShield,0
;   oozeShieldExtruder,999
;   oozeShieldOffset,2
;   oozeShieldOutlines,1
;   oozeShieldSidewallShape,1
;   oozeShieldSidewallAngle,30
;   oozeShieldSpeedMultiplier,1
;   infillExtruder,0
;   internalInfillPattern,Rectilinear
;   externalInfillPattern,Rectilinear
;   infillPercentage,16
;   outlineOverlapPercentage,60
;   infillExtrusionWidthPercentage,100
;   minInfillLength,5
;   infillLayerInterval,1
;   internalInfillAngles,45,-45
;   overlapInternalInfillAngles,0
;   externalInfillAngles,45,-45
;   generateSupport,0
;   supportExtruder,0
;   supportInfillPercentage,30
;   supportExtraInflation,0
;   supportBaseLayers,0
;   denseSupportExtruder,0
;   denseSupportLayers,0
;   denseSupportInfillPercentage,50
;   supportLayerInterval,1
;   supportHorizontalPartOffset,0.3
;   supportUpperSeparationLayers,1
;   supportLowerSeparationLayers,1
;   supportType,0
;   supportGridSpacing,4
;   maxOverhangAngle,70
;   supportAngles,0
;   temperatureName,Extruder 1,Heated Bed
;   temperatureNumber,0,0
;   temperatureSetpointCount,1,1
;   temperatureSetpointLayers,1,1
;   temperatureSetpointTemperatures,210,60
;   temperatureStabilizeAtStartup,1,0
;   temperatureHeatedBed,0,1
;   temperatureRelayBetweenLayers,0,0
;   temperatureRelayBetweenLoops,0,0
;   fanLayers,1
;   fanSpeeds,255
;   blipFanToFullPower,0
;   adjustSpeedForCooling,1
;   minSpeedLayerTime,15
;   minCoolingSpeedSlowdown,20
;   increaseFanForCooling,0
;   minFanLayerTime,45
;   maxCoolingFanSpeed,100
;   increaseFanForBridging,0
;   bridgingFanSpeed,100
;   use5D,1
;   relativeEdistances,0
;   allowEaxisZeroing,1
;   independentExtruderAxes,0
;   includeM10123,0
;   stickySupport,1
;   applyToolheadOffsets,0
;   gcodeXoffset,0
;   gcodeYoffset,0
;   gcodeZoffset,0
;   overrideMachineDefinition,1
;   machineTypeOverride,0
;   strokeXoverride,220
;   strokeYoverride,220
;   strokeZoverride,280
;   originOffsetXoverride,0
;   originOffsetYoverride,0
;   originOffsetZoverride,0
;   homeXdirOverride,-1
;   homeYdirOverride,-1
;   homeZdirOverride,-1
;   flipXoverride,1
;   flipYoverride,-1
;   flipZoverride,1
;   toolheadOffsets,0,0|0,0|0,0|0,0|0,0|0,0
;   overrideFirmwareConfiguration,1
;   firmwareTypeOverride,RepRap (Marlin/Repetier/Sprinter)
;   GPXconfigOverride,r2
;   baudRateOverride,250000
;   overridePrinterModels,0
;   printerModelsOverride
;   startingGcode,G28 ; home all axes,G1 X0 Y20 Z0.2 F3000 ; get ready to prime,G92 E0 ; reset extrusion distance,G1 X200 E20 F600 ; prime nozzle
;   layerChangeGcode,
;   retractionGcode,
;   toolChangeGcode,
;   endingGcode,M104 S0 ; turn off extruder,M140 S0 ; turn off bed,G28 X Y ; home x and y axes,M84 ; disable motors
;   exportFileFormat,gcode
;   celebration,0
;   celebrationSong,Random Song
;   postProcessing,
;   defaultSpeed,4600
;   outlineUnderspeed,0.6
;   solidInfillUnderspeed,0.85
;   supportUnderspeed,0.8
;   rapidXYspeed,5200
;   rapidZspeed,1002
;   minBridgingArea,50
;   bridgingExtraInflation,0
;   bridgingExtrusionMultiplier,1
;   bridgingSpeedMultiplier,1
;   useFixedBridgingAngle,0
;   fixedBridgingAngle,0
;   applyBridgingToPerimeters,0
;   filamentDiameters,1.75|1.75|1.75|1.75|1.75|1.75
;   filamentPricesPerKg,46|46|46|46|46|46
;   filamentDensities,1.25|1.25|1.25|1.25|1.25|1.25
;   useMinPrintHeight,0
;   minPrintHeight,0
;   useMaxPrintHeight,0
;   maxPrintHeight,2.3
;   useDiaphragm,0
;   diaphragmLayerInterval,20
;   robustSlicing,1
;   mergeAllIntoSolid,0
;   onlyRetractWhenCrossingOutline,1
;   retractBetweenLayers,1
;   useRetractionMinTravel,0
;   retractionMinTravel,3
;   retractWhileWiping,0
;   onlyWipeOutlines,1
;   avoidCrossingOutline,0
;   maxMovementDetourFactor,3
;   toolChangeRetractionDistance,12
;   toolChangeExtraRestartDistance,-0.5
;   toolChangeRetractionSpeed,600
;   externalThinWallType,1
;   internalThinWallType,0
;   thinWallAllowedOverlapPercentage,15
;   singleExtrusionMinLength,1
;   singleExtrusionMinPrintingWidthPercentage,50
;   singleExtrusionMaxPrintingWidthPercentage,200
;   singleExtrusionEndpointExtension,0.2
;   horizontalSizeCompensation,0
G90
M82
M106 S650
M140 S60
M104 S210 T0
M109 S210 T0
G28 ; home all axes
G1 X0 Y20 Z0.2 F3000 ; get ready to prime
G92 E0 ; reset extrusion distance
G1 X200 E20 F600 ; prime nozzle
G92 E0
G1 E-2.0000 F3000
G1 Z0.040 F1002
; process nozzle 0.4
; layer 1, Z = 0.040
T0
; tool H0.200 W0.480
; outer perimeter
G1 X98.784 Y120.090 F5200
G1 E0.0000 F900
G92 E0
G1 X107.636 Y120.090 E0.3180 F552
G1 X107.675 Y120.454 E0.3311
G1 X107.496 Y120.493 E0.3377
G1 X107.348 Y120.549 E0.3434
G1 X107.078 Y120.577 E0.3532
G1 X99.318 Y120.556 E0.6319
G1 X99.141 Y120.537 E0.6383
G1 X98.747 Y120.457 E0.6527
G1 X98.784 Y120.090 E0.6660
G92 E0
G1 E-2.0000 F3000
G1 X103.784 Y120.090 F4600
; external single extrusion
G1 X107.957 Y120.576 F5200
G1 E0.0000 F3000
G92 E0
; tool H0.200 W0.347
G1 X108.114 Y120.303 E0.0082 F552
; tool H0.200 W0.482
G1 X108.170 Y120.204 E0.0123
; tool H0.200 W0.571
G1 X108.246 Y120.146 E0.0163
; tool H0.200 W0.553
G1 X108.431 Y120.107 E0.0242
; tool H0.200 W0.474
G1 X108.615 Y120.067 E0.0309
; tool H0.200 W0.395
G1 X108.800 Y120.028 E0.0365
; tool H0.200 W0.316
G1 X108.985 Y119.988 E0.0409
; tool H0.200 W0.240
G1 X109.170 Y119.949 E0.0443
G1 X109.355 Y119.909 E0.0477
G1 X109.447 Y119.889 E0.0494
G92 E0
G1 E-2.0000 F3000
; layer 2, Z = 0.240
; tool H0.200 W0.480
; outer perimeter
G1 X109.196 Y119.928 F5200
G1 Z0.240 F1002
G1 E0.0000 F3000
G92 E0
G1 X108.543 Y120.319 E0.0273 F2488
G1 X108.309 Y120.485 E0.0376
G1 X108.058 Y120.693 E0.0494
G1 X99.836 Y128.640 E0.4601
G1 X99.510 Y128.919 E0.4755
G1 X99.163 Y129.156 E0.4906
G1 X98.791 Y129.350 E0.5057
G1 X98.398 Y129.502 E0.5208
G1 X97.987 Y129.609 E0.5361
G1 X97.787 Y129.643 E0.5434
G1 X97.365 Y129.679 E0.5586
G1 X96.944 Y129.664 E0.5737
G1 X96.527 Y129.604 E0.5888
G1 X96.118 Y129.495 E0.6040
G1 X95.925 Y129.426 E0.6114
G1 X95.540 Y129.249 E0.6266
G1 X95.181 Y129.031 E0.6417
G1 X94.847 Y128.772 E0.6569
G1 X94.695 Y128.633 E0.6643
G1 X94.408 Y128.317 E0.6796
G1 X94.281 Y128.152 E0.6871
G1 X94.166 Y127.982 E0.6945
G1 X93.956 Y127.609 E0.7099
G1 X93.871 Y127.423 E0.7172
G1 X93.731 Y127.024 E0.7324
G1 X93.637 Y126.614 E0.7475
G1 X93.588 Y126.191 E0.7628
G1 X93.583 Y125.988 E0.7701
G1 X93.609 Y125.566 E0.7853
G1 X93.683 Y125.147 E0.8006
G1 X93.735 Y124.951 E0.8079
G1 X93.879 Y124.551 E0.8231
G1 X94.066 Y124.175 E0.8382
G1 X94.294 Y123.819 E0.8534
G1 X94.421 Y123.658 E0.8608
G1 X94.712 Y123.337 E0.8763
G1 X97.495 Y120.645 E1.0154
G1 X97.677 Y120.360 E1.0276
G1 X97.786 Y119.929 E1.0435
G1 X95.828 Y119.928 E1.1139
G1 X95.828 Y121.208 E1.1598
G1 X90.570 Y121.208 E1.3487
G1 X90.570 Y110.418 E1.7363
G1 X101.937 Y110.416 E2.1446
G1 X101.967 Y110.798 E2.1584
G1 X102.041 Y111.345 E2.1782
G1 X102.151 Y111.886 E2.1980
G1 X102.298 Y112.419 E2.2179
G1 X102.482 Y112.941 E2.2378
G1 X102.701 Y113.447 E2.2576
G1 X102.954 Y113.938 E2.2774
G1 X103.240 Y114.410 E2.2972
G1 X103.557 Y114.863 E2.3171
G1 X103.904 Y115.293 E2.3370
G1 X104.281 Y115.697 E2.3568
G1 X104.685 Y116.074 E2.3766
G1 X105.112 Y116.423 E2.3964
G1 X105.564 Y116.743 E2.4163
G1 X106.036 Y117.030 E2.4362
G1 X106.524 Y117.285 E2.4560
G1 X107.031 Y117.506 E2.4758
G1 X107.552 Y117.692 E2.4957
G1 X108.084 Y117.841 E2.5155
G1 X108.625 Y117.953 E2.5354
G1 X109.172 Y118.029 E2.5552
G1 X109.722 Y118.066 E2.5751
G1 X110.277 Y118.066 E2.5950
G1 X110.828 Y118.028 E2.6148
G1 X111.378 Y117.952 E2.6348
G1 X111.921 Y117.839 E2.6547
G1 X112.455 Y117.688 E2.6746
G1 X112.977 Y117.501 E2.6945
G1 X113.485 Y117.279 E2.7145
G1 X113.977 Y117.022 E2.7344
G1 X114.448 Y116.734 E2.7542
G1 X114.886 Y116.423 E2.7735
G1 X115.313 Y116.074 E2.7933
G1 X115.717 Y115.697 E2.8132
G1 X116.094 Y115.293 E2.8330
G1 X116.441 Y114.863 E2.8529
G1 X116.758 Y114.410 E2.8727
G1 X117.044 Y113.938 E2.8926
G1 X117.297 Y113.447 E2.9124
G1 X117.516 Y112.941 E2.9322
G1 X117.700 Y112.419 E2.9521
G1 X117.847 Y111.886 E2.9719
G1 X117.957 Y111.345 E2.9918
G1 X118.031 Y110.798 E3.0116
G1 X118.059 Y110.416 E3.0254
G1 X129.428 Y110.418 E3.4338
G1 X129.428 Y117.492 E3.6879
G1 X129.415 Y117.685 E3.6948
G1 X129.378 Y117.869 E3.7016
G1 X129.319 Y118.046 E3.7083
G1 X129.236 Y118.212 E3.7149
G1 X129.131 Y118.367 E3.7217
G1 X129.008 Y118.508 E3.7284
G1 X128.868 Y118.631 E3.7351
G1 X128.712 Y118.736 E3.7418
G1 X128.546 Y118.819 E3.7485
G1 X128.369 Y118.878 E3.7552
G1 X128.185 Y118.915 E3.7620
G1 X127.992 Y118.928 E3.7689
G1 X126.263 Y118.928 E3.8310
G1 X124.263 Y120.926 E3.9325
G1 X115.925 Y120.926 E4.2320
G1 X115.927 Y121.208 E4.2422
G1 X110.170 Y121.208 E4.4490
G1 X110.170 Y119.928 E4.4949
G1 X109.196 Y119.928 E4.5299
G1 X108.543 Y120.319 F4600
G1 X108.309 Y120.485 F4600
G1 X108.058 Y120.693 F4600
G1 X105.451 Y123.213 F4600
; inner perimeter
G1 X107.738 Y120.335 F5200
G92 E0
G1 X99.514 Y128.285 E0.4109 F3317
G1 X99.218 Y128.537 E0.4248
G1 X98.916 Y128.743 E0.4380
G1 X98.593 Y128.912 E0.4510
G1 X98.250 Y129.044 E0.4643
G1 X97.886 Y129.139 E0.4778
G1 X97.726 Y129.167 E0.4836
G1 X97.353 Y129.198 E0.4971
G1 X96.987 Y129.185 E0.5102
G1 X96.623 Y129.133 E0.5234
G1 X96.262 Y129.037 E0.5368
G1 X96.107 Y128.981 E0.5428
G1 X95.765 Y128.824 E0.5563
G1 X95.453 Y128.635 E0.5694
G1 X95.156 Y128.405 E0.5829
G1 X95.036 Y128.294 E0.5888
G1 X94.776 Y128.009 E0.6026
G1 X94.671 Y127.871 E0.6088
G1 X94.574 Y127.729 E0.6150
G1 X94.384 Y127.391 E0.6289
G1 X94.317 Y127.244 E0.6347
G1 X94.192 Y126.890 E0.6482
G1 X94.111 Y126.533 E0.6614
G1 X94.068 Y126.157 E0.6750
G1 X94.063 Y125.997 E0.6807
G1 X94.087 Y125.622 E0.6942
G1 X94.152 Y125.250 E0.7078
G1 X94.193 Y125.094 E0.7136
G1 X94.321 Y124.740 E0.7271
G1 X94.484 Y124.412 E0.7403
G1 X94.686 Y124.097 E0.7537
G1 X94.787 Y123.968 E0.7596
G1 X95.057 Y123.671 E0.7740
G1 X97.870 Y120.951 E0.9146
G1 X98.123 Y120.553 E0.9315
G1 X98.404 Y119.450 E0.9724
G1 X95.348 Y119.447 E1.0821
G1 X95.348 Y120.728 E1.1281
G1 X91.050 Y120.728 E1.2825
G1 X91.050 Y110.898 E1.6356
G1 X101.496 Y110.896 E2.0108
G1 X101.567 Y111.425 E2.0300
G1 X101.684 Y111.998 E2.0510
G1 X101.840 Y112.563 E2.0721
G1 X102.035 Y113.116 E2.0931
G1 X102.267 Y113.653 E2.1141
G1 X102.535 Y114.173 E2.1352
G1 X102.837 Y114.672 E2.1561
G1 X103.173 Y115.152 E2.1772
G1 X103.541 Y115.607 E2.1982
G1 X103.941 Y116.037 E2.2193
G1 X104.369 Y116.435 E2.2403
G1 X104.821 Y116.805 E2.2612
G1 X105.300 Y117.145 E2.2824
G1 X105.800 Y117.448 E2.3034
G1 X106.317 Y117.718 E2.3243
G1 X106.854 Y117.952 E2.3454
G1 X107.406 Y118.149 E2.3664
G1 X107.970 Y118.307 E2.3874
G1 X108.543 Y118.427 E2.4085
G1 X109.124 Y118.507 E2.4295
G1 X109.706 Y118.546 E2.4505
G1 X110.293 Y118.546 E2.4716
G1 X110.878 Y118.506 E2.4926
G1 X111.460 Y118.426 E2.5138
G1 X112.036 Y118.305 E2.5349
G1 X112.601 Y118.146 E2.5560
G1 X113.155 Y117.947 E2.5771
G1 X113.693 Y117.712 E2.5982
G1 X114.213 Y117.440 E2.6193
G1 X114.713 Y117.135 E2.6403
G1 X115.178 Y116.804 E2.6608
G1 X115.629 Y116.435 E2.6817
G1 X116.057 Y116.037 E2.7028
G1 X116.457 Y115.607 E2.7238
G1 X116.825 Y115.152 E2.7449
G1 X117.161 Y114.672 E2.7659
G1 X117.463 Y114.173 E2.7869
G1 X117.731 Y113.653 E2.8079
G1 X117.963 Y113.116 E2.8289
G1 X118.158 Y112.563 E2.8499
G1 X118.314 Y111.998 E2.8710
G1 X118.431 Y111.425 E2.8920
G1 X118.502 Y110.896 E2.9112
G1 X128.948 Y110.898 E3.2864
G1 X128.948 Y117.476 E3.5227
G1 X128.939 Y117.620 E3.5279
G1 X128.913 Y117.745 E3.5325
G1 X128.874 Y117.861 E3.5369
G1 X128.820 Y117.969 E3.5412
G1 X128.749 Y118.075 E3.5458
G1 X128.668 Y118.168 E3.5502
G1 X128.575 Y118.249 E3.5547
G1 X128.470 Y118.320 E3.5592
G1 X128.361 Y118.374 E3.5636
G1 X128.245 Y118.413 E3.5680
G1 X128.120 Y118.439 E3.5726
G1 X127.976 Y118.448 E3.5778
G1 X126.064 Y118.448 E3.6464
G1 X124.064 Y120.446 E3.7480
G1 X115.442 Y120.446 E4.0577
G1 X115.444 Y120.728 E4.0678
G1 X110.650 Y120.728 E4.2400
G1 X110.649 Y119.449 E4.2860
G1 X109.063 Y119.448 E4.3430
G1 X108.281 Y119.917 E4.3757
G1 X108.017 Y120.104 E4.3873
G1 X107.738 Y120.335 E4.4004
G1 X107.417 Y119.977 F5200
G92 E0
G1 X100.658 Y126.511 E0.3377 F3317
G1 X100.695 Y126.219 E0.3482
G1 X100.696 Y125.785 E0.3639
G1 X100.642 Y125.352 E0.3795
G1 X100.535 Y124.933 E0.3950
G1 X100.376 Y124.533 E0.4105
G1 X100.167 Y124.154 E0.4261
G1 X99.919 Y123.811 E0.4413
G1 X99.623 Y123.493 E0.4569
G1 X99.287 Y123.217 E0.4725
G1 X98.924 Y122.985 E0.4880
G1 X98.533 Y122.801 E0.5035
G1 X98.128 Y122.669 E0.5188
G1 X97.707 Y122.590 E0.5342
G1 X97.269 Y122.559 E0.5500
G1 X96.868 Y122.587 E0.5644
G1 X98.244 Y121.256 E0.6331
G1 X98.570 Y120.746 E0.6549
G1 X99.021 Y118.971 E0.7207
G1 X94.868 Y118.967 E0.8698
G1 X94.868 Y120.248 E0.9158
G1 X91.530 Y120.248 E1.0357
G1 X91.530 Y111.378 E1.3544
G1 X101.076 Y111.376 E1.6973
G1 X101.093 Y111.505 E1.7019
G1 X101.217 Y112.110 E1.7241
G1 X101.382 Y112.707 E1.7464
G1 X101.588 Y113.291 E1.7686
G1 X101.833 Y113.858 E1.7908
G1 X102.116 Y114.407 E1.8130
G1 X102.435 Y114.934 E1.8351
G1 X102.789 Y115.441 E1.8573
G1 X103.179 Y115.922 E1.8796
G1 X103.601 Y116.376 E1.9019
G1 X104.053 Y116.797 E1.9240
G1 X104.530 Y117.187 E1.9461
G1 X105.036 Y117.546 E1.9684
G1 X105.564 Y117.866 E1.9906
G1 X106.110 Y118.151 E2.0127
G1 X106.677 Y118.399 E2.0350
G1 X107.261 Y118.607 E2.0572
G1 X107.856 Y118.774 E2.0794
G1 X108.461 Y118.900 E2.1016
G1 X108.954 Y118.968 E2.1195
G1 X108.930 Y118.968 E2.1204
G1 X108.018 Y119.515 E2.1586
G1 X107.725 Y119.723 E2.1715
G1 X107.417 Y119.977 E2.1858
G1 X111.130 Y120.248 F5200
G92 E0
G1 X111.129 Y118.969 E0.0459 F3317
G1 X111.034 Y118.969 E0.0494
G1 X111.542 Y118.899 E0.0678
G1 X112.150 Y118.772 E0.0901
G1 X112.747 Y118.603 E0.1124
G1 X113.332 Y118.394 E0.1347
G1 X113.901 Y118.145 E0.1570
G1 X114.450 Y117.858 E0.1792
G1 X114.977 Y117.536 E0.2014
G1 X115.469 Y117.186 E0.2231
G1 X115.945 Y116.797 E0.2452
G1 X116.397 Y116.376 E0.2674
G1 X116.819 Y115.922 E0.2897
G1 X117.209 Y115.441 E0.3119
G1 X117.563 Y114.934 E0.3341
G1 X117.882 Y114.407 E0.3562
G1 X118.165 Y113.858 E0.3784
G1 X118.410 Y113.291 E0.4006
G1 X118.616 Y112.707 E0.4229
G1 X118.781 Y112.110 E0.4451
G1 X118.905 Y111.504 E0.4673
G1 X118.922 Y111.376 E0.4720
G1 X128.468 Y111.378 E0.8149
G1 X128.468 Y117.459 E1.0333
G1 X128.462 Y117.556 E1.0368
G1 X128.449 Y117.621 E1.0392
G1 X128.430 Y117.677 E1.0413
G1 X128.405 Y117.727 E1.0433
G1 X128.368 Y117.783 E1.0457
G1 X128.328 Y117.828 E1.0479
G1 X128.283 Y117.867 E1.0500
G1 X128.228 Y117.904 E1.0524
G1 X128.177 Y117.930 E1.0545
G1 X128.120 Y117.949 E1.0566
G1 X128.056 Y117.962 E1.0590
G1 X127.959 Y117.968 E1.0624
G1 X125.866 Y117.968 E1.1377
G1 X123.865 Y119.966 E1.2392
G1 X114.960 Y119.966 E1.5591
