; G-Code generated by Simplify3D(R) Version 4.0.0
; May 2, 2018 at 4:21:55 PM
; Settings Summary
;   processName,nozzle 0.4
;   applyToModels,Flying_Bear_Z_End_Stop_Bracket_SIDE_B
;   profileName,Flying Bear 902 Update 7-2017 (modified)
;   profileVersion,2017-07-10 09:45:20
;   baseProfile,Default
;   printMaterial,PLA
;   printQuality,Medium
;   printExtruders,
;   extruderName,Extruder 1
;   extruderToolheadNumber,0
;   extruderDiameter,0.4
;   extruderAutoWidth,1
;   extruderWidth,0.48
;   extrusionMultiplier,0.9
;   extruderUseRetract,1
;   extruderRetractionDistance,2
;   extruderExtraRestartDistance,0
;   extruderRetractionZLift,0
;   extruderRetractionSpeed,3000
;   extruderUseCoasting,0
;   extruderCoastingDistance,0.2
;   extruderUseWipe,1
;   extruderWipeDistance,5
;   primaryExtruder,0
;   layerHeight,0.2
;   topSolidLayers,4
;   bottomSolidLayers,4
;   perimeterOutlines,3
;   printPerimetersInsideOut,0
;   startPointOption,2
;   startPointOriginX,0
;   startPointOriginY,0
;   sequentialIslands,0
;   spiralVaseMode,0
;   firstLayerHeightPercentage,20
;   firstLayerWidthPercentage,100
;   firstLayerUnderspeed,0.3
;   useRaft,0
;   raftExtruder,0
;   raftTopLayers,2
;   raftBaseLayers,2
;   raftOffset,2
;   raftSeparationDistance,0.3
;   raftTopInfill,100
;   aboveRaftSpeedMultiplier,0.3
;   useSkirt,0
;   skirtExtruder,0
;   skirtLayers,1
;   skirtOutlines,2
;   skirtOffset,4
;   usePrimePillar,0
;   primePillarExtruder,999
;   primePillarWidth,12
;   primePillarLocation,7
;   primePillarSpeedMultiplier,1
;   useOozeShield,0
;   oozeShieldExtruder,999
;   oozeShieldOffset,2
;   oozeShieldOutlines,1
;   oozeShieldSidewallShape,1
;   oozeShieldSidewallAngle,30
;   oozeShieldSpeedMultiplier,1
;   infillExtruder,0
;   internalInfillPattern,Rectilinear
;   externalInfillPattern,Rectilinear
;   infillPercentage,16
;   outlineOverlapPercentage,60
;   infillExtrusionWidthPercentage,100
;   minInfillLength,5
;   infillLayerInterval,1
;   internalInfillAngles,45,-45
;   overlapInternalInfillAngles,0
;   externalInfillAngles,45,-45
;   generateSupport,0
;   supportExtruder,0
;   supportInfillPercentage,30
;   supportExtraInflation,0
;   supportBaseLayers,0
;   denseSupportExtruder,0
;   denseSupportLayers,0
;   denseSupportInfillPercentage,50
;   supportLayerInterval,1
;   supportHorizontalPartOffset,0.3
;   supportUpperSeparationLayers,1
;   supportLowerSeparationLayers,1
;   supportType,0
;   supportGridSpacing,4
;   maxOverhangAngle,70
;   supportAngles,0
;   temperatureName,Extruder 1,Heated Bed
;   temperatureNumber,0,0
;   temperatureSetpointCount,1,1
;   temperatureSetpointLayers,1,1
;   temperatureSetpointTemperatures,210,60
;   temperatureStabilizeAtStartup,1,0
;   temperatureHeatedBed,0,1
;   temperatureRelayBetweenLayers,0,0
;   temperatureRelayBetweenLoops,0,0
;   fanLayers,1
;   fanSpeeds,255
;   blipFanToFullPower,0
;   adjustSpeedForCooling,1
;   minSpeedLayerTime,15
;   minCoolingSpeedSlowdown,20
;   increaseFanForCooling,0
;   minFanLayerTime,45
;   maxCoolingFanSpeed,100
;   increaseFanForBridging,0
;   bridgingFanSpeed,100
;   use5D,1
;   relativeEdistances,0
;   allowEaxisZeroing,1
;   independentExtruderAxes,0
;   includeM10123,0
;   stickySupport,1
;   applyToolheadOffsets,0
;   gcodeXoffset,0
;   gcodeYoffset,0
;   gcodeZoffset,0
;   overrideMachineDefinition,1
;   machineTypeOverride,0
;   strokeXoverride,220
;   strokeYoverride,220
;   strokeZoverride,280
;   originOffsetXoverride,0
;   originOffsetYoverride,0
;   originOffsetZoverride,0
;   homeXdirOverride,-1
;   homeYdirOverride,-1
;   homeZdirOverride,-1
;   flipXoverride,1
;   flipYoverride,-1
;   flipZoverride,1
;   toolheadOffsets,0,0|0,0|0,0|0,0|0,0|0,0
;   overrideFirmwareConfiguration,1
;   firmwareTypeOverride,RepRap (Marlin/Repetier/Sprinter)
;   GPXconfigOverride,r2
;   baudRateOverride,250000
;   overridePrinterModels,0
;   printerModelsOverride
;   startingGcode,G28 ; home all axes,G1 X0 Y20 Z0.2 F3000 ; get ready to prime,G92 E0 ; reset extrusion distance,G1 X200 E20 F600 ; prime nozzle
;   layerChangeGcode,
;   retractionGcode,
;   toolChangeGcode,
;   endingGcode,M104 S0 ; turn off extruder,M140 S0 ; turn off bed,G28 X Y ; home x and y axes,M84 ; disable motors
;   exportFileFormat,gcode
;   celebration,0
;   celebrationSong,Random Song
;   postProcessing,
;   defaultSpeed,4600
;   outlineUnderspeed,0.6
;   solidInfillUnderspeed,0.85
;   supportUnderspeed,0.8
;   rapidXYspeed,5200
;   rapidZspeed,1002
;   minBridgingArea,50
;   bridgingExtraInflation,0
;   bridgingExtrusionMultiplier,1
;   bridgingSpeedMultiplier,1
;   useFixedBridgingAngle,0
;   fixedBridgingAngle,0
;   applyBridgingToPerimeters,0
;   filamentDiameters,1.75|1.75|1.75|1.75|1.75|1.75
;   filamentPricesPerKg,46|46|46|46|46|46
;   filamentDensities,1.25|1.25|1.25|1.25|1.25|1.25
;   useMinPrintHeight,0
;   minPrintHeight,0
;   useMaxPrintHeight,0
;   maxPrintHeight,2.3
;   useDiaphragm,0
;   diaphragmLayerInterval,20
;   robustSlicing,1
;   mergeAllIntoSolid,0
;   onlyRetractWhenCrossingOutline,1
;   retractBetweenLayers,1
;   useRetractionMinTravel,0
;   retractionMinTravel,3
;   retractWhileWiping,0
;   onlyWipeOutlines,1
;   avoidCrossingOutline,0
;   maxMovementDetourFactor,3
;   toolChangeRetractionDistance,12
;   toolChangeExtraRestartDistance,-0.5
;   toolChangeRetractionSpeed,600
;   externalThinWallType,1
;   internalThinWallType,0
;   thinWallAllowedOverlapPercentage,15
;   singleExtrusionMinLength,1
;   singleExtrusionMinPrintingWidthPercentage,50
;   singleExtrusionMaxPrintingWidthPercentage,200
;   singleExtrusionEndpointExtension,0.2
;   horizontalSizeCompensation,0
G90
M82
M106 S650
M140 S60
M104 S210 T0
M109 S210 T0
G28 ; home all axes
G1 X0 Y20 Z0.2 F3000 ; get ready to prime
G92 E0 ; reset extrusion distance
G1 X200 E20 F600 ; prime nozzle
G92 E0
G1 E-2.0000 F3000
G1 Z0.040 F1002
; process nozzle 0.4
; layer 1, Z = 0.040
T0
; tool H0.200 W0.480
; outer perimeter
G1 X91.590 Y118.917 F5200
G1 E0.0000 F900
G92 E0
G1 X91.742 Y118.811 E0.0067 F828
G1 X91.908 Y118.727 E0.0133
G1 X92.083 Y118.666 E0.0200
G1 X92.265 Y118.628 E0.0267
G1 X92.458 Y118.615 E0.0336
G1 X96.162 Y118.615 E0.1667
G1 X96.449 Y118.598 E0.1770
G1 X96.751 Y118.544 E0.1880
G1 X97.044 Y118.456 E0.1990
G1 X97.325 Y118.334 E0.2100
G1 X97.590 Y118.180 E0.2210
G1 X97.835 Y117.996 E0.2320
G1 X98.050 Y117.794 E0.2426
G1 X98.247 Y117.558 E0.2537
G1 X98.769 Y116.723 E0.2890
G1 X99.155 Y116.159 E0.3136
G1 X99.570 Y115.615 E0.3382
G1 X100.011 Y115.094 E0.3627
G1 X100.479 Y114.595 E0.3873
G1 X100.971 Y114.121 E0.4118
G1 X101.487 Y113.673 E0.4364
G1 X102.025 Y113.252 E0.4609
G1 X102.584 Y112.859 E0.4855
G1 X103.163 Y112.494 E0.5100
G1 X103.759 Y112.160 E0.5346
G1 X104.371 Y111.857 E0.5591
G1 X104.998 Y111.586 E0.5836
G1 X105.639 Y111.346 E0.6082
G1 X106.290 Y111.140 E0.6327
G1 X106.951 Y110.967 E0.6573
G1 X107.620 Y110.829 E0.6818
G1 X108.296 Y110.724 E0.7064
G1 X108.976 Y110.655 E0.7309
G1 X109.658 Y110.620 E0.7555
G1 X110.342 Y110.620 E0.7800
G1 X111.024 Y110.655 E0.8046
G1 X111.704 Y110.724 E0.8291
G1 X112.380 Y110.829 E0.8537
G1 X113.049 Y110.967 E0.8782
G1 X113.710 Y111.140 E0.9028
G1 X114.361 Y111.346 E0.9273
G1 X115.002 Y111.586 E0.9519
G1 X115.629 Y111.857 E0.9764
G1 X116.241 Y112.160 E1.0010
G1 X116.837 Y112.494 E1.0255
G1 X117.416 Y112.859 E1.0501
G1 X117.975 Y113.252 E1.0746
G1 X118.513 Y113.673 E1.0992
G1 X119.029 Y114.121 E1.1237
G1 X119.521 Y114.595 E1.1483
G1 X119.989 Y115.094 E1.1728
G1 X120.430 Y115.615 E1.1974
G1 X120.845 Y116.159 E1.2219
G1 X121.231 Y116.724 E1.2465
G1 X121.754 Y117.559 E1.2819
G1 X121.953 Y117.796 E1.2930
G1 X122.176 Y118.006 E1.3040
G1 X122.422 Y118.188 E1.3150
G1 X122.688 Y118.340 E1.3260
G1 X122.969 Y118.460 E1.3370
G1 X123.252 Y118.545 E1.3476
G1 X123.552 Y118.598 E1.3586
G1 X123.849 Y118.615 E1.3693
G1 X127.555 Y118.616 E1.5024
G1 X127.735 Y118.628 E1.5089
G1 X127.917 Y118.666 E1.5155
G1 X128.092 Y118.727 E1.5222
G1 X128.258 Y118.811 E1.5289
G1 X128.410 Y118.917 E1.5355
G1 X128.547 Y119.042 E1.5422
G1 X128.666 Y119.185 E1.5489
G1 X128.765 Y119.342 E1.5555
G1 X128.842 Y119.511 E1.5622
G1 X128.897 Y119.694 E1.5691
G1 X129.056 Y120.467 E1.5974
G1 X129.185 Y121.251 E1.6260
G1 X129.281 Y122.040 E1.6545
G1 X129.345 Y122.831 E1.6830
G1 X129.365 Y123.480 E1.7064
G1 X118.104 Y123.480 E2.1109
G1 X118.079 Y123.188 E2.1214
G1 X118.008 Y122.651 E2.1409
G1 X117.900 Y122.117 E2.1604
G1 X117.756 Y121.593 E2.1799
G1 X117.584 Y121.093 E2.1989
G1 X117.373 Y120.593 E2.2184
G1 X117.128 Y120.107 E2.2380
G1 X116.852 Y119.639 E2.2575
G1 X116.545 Y119.190 E2.2770
G1 X116.209 Y118.763 E2.2966
G1 X115.845 Y118.359 E2.3161
G1 X115.455 Y117.980 E2.3356
G1 X115.040 Y117.629 E2.3551
G1 X114.603 Y117.306 E2.3747
G1 X114.145 Y117.013 E2.3942
G1 X113.668 Y116.751 E2.4137
G1 X113.175 Y116.522 E2.4333
G1 X112.668 Y116.326 E2.4528
G1 X112.149 Y116.165 E2.4723
G1 X111.620 Y116.039 E2.4918
G1 X111.084 Y115.948 E2.5114
G1 X110.543 Y115.894 E2.5309
G1 X110.000 Y115.875 E2.5504
G1 X109.456 Y115.894 E2.5700
G1 X108.915 Y115.948 E2.5895
G1 X108.378 Y116.039 E2.6091
G1 X107.849 Y116.165 E2.6286
G1 X107.329 Y116.327 E2.6482
G1 X106.822 Y116.523 E2.6677
G1 X106.328 Y116.753 E2.6873
G1 X105.851 Y117.015 E2.7068
G1 X105.393 Y117.309 E2.7264
G1 X104.956 Y117.632 E2.7459
G1 X104.541 Y117.985 E2.7655
G1 X104.150 Y118.364 E2.7850
G1 X103.786 Y118.768 E2.8046
G1 X103.450 Y119.196 E2.8241
G1 X103.143 Y119.646 E2.8437
G1 X102.867 Y120.115 E2.8632
G1 X102.623 Y120.602 E2.8828
G1 X102.413 Y121.103 E2.9023
G1 X102.236 Y121.618 E2.9219
G1 X102.094 Y122.143 E2.9414
G1 X101.988 Y122.677 E2.9609
G1 X101.918 Y123.215 E2.9804
G1 X101.898 Y123.478 E2.9899
G1 X90.629 Y123.480 E3.3947
G1 X90.655 Y122.831 E3.4181
G1 X90.719 Y122.039 E3.4466
G1 X90.815 Y121.251 E3.4751
G1 X90.944 Y120.467 E3.5037
G1 X91.096 Y119.733 E3.5306
G1 X91.159 Y119.510 E3.5389
G1 X91.235 Y119.342 E3.5455
G1 X91.334 Y119.185 E3.5522
G1 X91.453 Y119.042 E3.5589
G1 X91.590 Y118.917 E3.5655
G1 X91.742 Y118.811 F4600
G1 X91.908 Y118.727 F4600
G1 X92.083 Y118.666 F4600
G1 X92.265 Y118.628 F4600
G1 X92.458 Y118.615 F4600
G1 X96.162 Y118.615 F4600
G1 X96.449 Y118.598 F4600
G1 X96.520 Y118.585 F4600
; inner perimeter
G1 X96.506 Y119.075 F5200
G92 E0
G1 X96.863 Y119.012 E0.0130 F1104
G1 X97.210 Y118.907 E0.0260
G1 X97.542 Y118.763 E0.0391
G1 X97.856 Y118.581 E0.0521
G1 X98.144 Y118.364 E0.0651
G1 X98.399 Y118.124 E0.0776
G1 X98.637 Y117.841 E0.0909
G1 X99.171 Y116.986 E0.1271
G1 X99.545 Y116.440 E0.1509
G1 X99.944 Y115.916 E0.1746
G1 X100.370 Y115.413 E0.1982
G1 X100.821 Y114.932 E0.2219
G1 X101.295 Y114.475 E0.2456
G1 X101.793 Y114.043 E0.2692
G1 X102.311 Y113.637 E0.2929
G1 X102.850 Y113.258 E0.3166
G1 X103.408 Y112.907 E0.3402
G1 X103.983 Y112.585 E0.3639
G1 X104.573 Y112.293 E0.3876
G1 X105.178 Y112.031 E0.4112
G1 X105.795 Y111.800 E0.4349
G1 X106.423 Y111.601 E0.4586
G1 X107.061 Y111.435 E0.4822
G1 X107.706 Y111.301 E0.5059
G1 X108.357 Y111.201 E0.5296
G1 X109.012 Y111.134 E0.5532
G1 X109.671 Y111.100 E0.5769
G1 X110.329 Y111.100 E0.6006
G1 X110.988 Y111.134 E0.6242
G1 X111.643 Y111.201 E0.6479
G1 X112.294 Y111.301 E0.6716
G1 X112.939 Y111.435 E0.6952
G1 X113.577 Y111.601 E0.7189
G1 X114.205 Y111.800 E0.7426
G1 X114.822 Y112.031 E0.7662
G1 X115.427 Y112.293 E0.7899
G1 X116.017 Y112.585 E0.8136
G1 X116.592 Y112.907 E0.8373
G1 X117.150 Y113.258 E0.8609
G1 X117.689 Y113.637 E0.8846
G1 X118.207 Y114.043 E0.9083
G1 X118.705 Y114.475 E0.9319
G1 X119.179 Y114.932 E0.9556
G1 X119.630 Y115.413 E0.9793
G1 X120.056 Y115.916 E1.0029
G1 X120.455 Y116.440 E1.0266
G1 X120.830 Y116.986 E1.0504
G1 X121.365 Y117.842 E1.0866
G1 X121.604 Y118.126 E1.1000
G1 X121.868 Y118.375 E1.1130
G1 X122.159 Y118.590 E1.1260
G1 X122.473 Y118.771 E1.1390
G1 X122.805 Y118.912 E1.1520
G1 X123.141 Y119.013 E1.1646
G1 X123.496 Y119.076 E1.1776
G1 X123.835 Y119.095 E1.1898
G1 X127.539 Y119.096 E1.3228
G1 X127.671 Y119.105 E1.3275
G1 X127.789 Y119.129 E1.3319
G1 X127.903 Y119.169 E1.3362
G1 X128.011 Y119.224 E1.3406
G1 X128.110 Y119.293 E1.3449
G1 X128.199 Y119.375 E1.3492
G1 X128.277 Y119.468 E1.3536
G1 X128.341 Y119.570 E1.3579
G1 X128.391 Y119.680 E1.3623
G1 X128.431 Y119.812 E1.3672
G1 X128.584 Y120.554 E1.3944
G1 X128.709 Y121.319 E1.4223
G1 X128.803 Y122.088 E1.4501
G1 X128.865 Y122.857 E1.4778
G1 X128.870 Y123.000 E1.4830
G1 X118.538 Y123.000 E1.8541
G1 X118.481 Y122.571 E1.8696
G1 X118.367 Y122.007 E1.8903
G1 X118.215 Y121.451 E1.9110
G1 X118.032 Y120.922 E1.9311
G1 X117.809 Y120.391 E1.9518
G1 X117.550 Y119.877 E1.9725
G1 X117.258 Y119.381 E1.9932
G1 X116.933 Y118.906 E2.0138
G1 X116.576 Y118.453 E2.0345
G1 X116.191 Y118.025 E2.0552
G1 X115.777 Y117.625 E2.0759
G1 X115.338 Y117.252 E2.0966
G1 X114.875 Y116.910 E2.1173
G1 X114.390 Y116.600 E2.1379
G1 X113.885 Y116.323 E2.1586
G1 X113.363 Y116.080 E2.1793
G1 X112.826 Y115.873 E2.2000
G1 X112.276 Y115.702 E2.2207
G1 X111.716 Y115.568 E2.2414
G1 X111.148 Y115.472 E2.2620
G1 X110.575 Y115.414 E2.2827
G1 X110.000 Y115.395 E2.3034
G1 X109.424 Y115.414 E2.3241
G1 X108.850 Y115.472 E2.3448
G1 X108.282 Y115.568 E2.3655
G1 X107.721 Y115.702 E2.3862
G1 X107.171 Y115.874 E2.4069
G1 X106.633 Y116.081 E2.4276
G1 X106.111 Y116.325 E2.4483
G1 X105.606 Y116.602 E2.4691
G1 X105.121 Y116.913 E2.4898
G1 X104.657 Y117.256 E2.5105
G1 X104.218 Y117.629 E2.5312
G1 X103.804 Y118.031 E2.5519
G1 X103.419 Y118.459 E2.5726
G1 X103.063 Y118.913 E2.5933
G1 X102.738 Y119.389 E2.6140
G1 X102.446 Y119.885 E2.6347
G1 X102.187 Y120.401 E2.6554
G1 X101.964 Y120.932 E2.6761
G1 X101.777 Y121.477 E2.6968
G1 X101.627 Y122.034 E2.7175
G1 X101.514 Y122.599 E2.7382
G1 X101.462 Y122.998 E2.7527
G1 X91.129 Y123.000 E3.1238
G1 X91.134 Y122.860 E3.1289
G1 X91.197 Y122.088 E3.1567
G1 X91.291 Y121.319 E3.1846
G1 X91.416 Y120.554 E3.2124
G1 X91.562 Y119.847 E3.2383
G1 X91.611 Y119.675 E3.2447
G1 X91.659 Y119.570 E3.2489
G1 X91.723 Y119.468 E3.2532
G1 X91.801 Y119.375 E3.2576
G1 X91.890 Y119.293 E3.2619
G1 X91.989 Y119.224 E3.2663
G1 X92.097 Y119.169 E3.2706
G1 X92.211 Y119.129 E3.2749
G1 X92.329 Y119.105 E3.2793
G1 X92.474 Y119.095 E3.2845
G1 X96.176 Y119.095 E3.4175
G1 X96.506 Y119.075 E3.4293
G1 X96.562 Y119.553 F5200
G92 E0
G1 X96.974 Y119.480 E0.0150 F1104
G1 X97.375 Y119.359 E0.0301
G1 X97.759 Y119.192 E0.0451
G1 X98.121 Y118.982 E0.0602
G1 X98.454 Y118.732 E0.0751
G1 X98.749 Y118.454 E0.0897
G1 X99.026 Y118.124 E0.1051
G1 X99.572 Y117.249 E0.1422
G1 X99.934 Y116.721 E0.1652
G1 X100.318 Y116.217 E0.1880
G1 X100.728 Y115.732 E0.2108
G1 X101.162 Y115.270 E0.2335
G1 X101.619 Y114.830 E0.2563
G1 X102.098 Y114.414 E0.2791
G1 X102.598 Y114.023 E0.3019
G1 X103.117 Y113.658 E0.3247
G1 X103.653 Y113.320 E0.3475
G1 X104.207 Y113.010 E0.3703
G1 X104.775 Y112.728 E0.3930
G1 X105.357 Y112.476 E0.4158
G1 X105.952 Y112.254 E0.4386
G1 X106.556 Y112.063 E0.4614
G1 X107.170 Y111.903 E0.4842
G1 X107.791 Y111.774 E0.5070
G1 X108.418 Y111.677 E0.5298
G1 X109.049 Y111.612 E0.5526
G1 X109.683 Y111.580 E0.5753
G1 X110.317 Y111.580 E0.5981
G1 X110.951 Y111.612 E0.6209
G1 X111.582 Y111.677 E0.6437
G1 X112.209 Y111.774 E0.6665
G1 X112.830 Y111.903 E0.6893
G1 X113.444 Y112.063 E0.7121
G1 X114.048 Y112.254 E0.7348
G1 X114.643 Y112.476 E0.7576
G1 X115.225 Y112.728 E0.7804
G1 X115.793 Y113.010 E0.8032
G1 X116.347 Y113.320 E0.8260
G1 X116.883 Y113.658 E0.8488
G1 X117.402 Y114.023 E0.8716
G1 X117.902 Y114.414 E0.8944
G1 X118.381 Y114.830 E0.9171
G1 X118.838 Y115.270 E0.9399
G1 X119.272 Y115.732 E0.9627
G1 X119.682 Y116.217 E0.9855
G1 X120.066 Y116.721 E1.0083
G1 X120.428 Y117.249 E1.0313
G1 X120.976 Y118.126 E1.0684
G1 X121.254 Y118.457 E1.0840
G1 X121.559 Y118.744 E1.0990
G1 X121.896 Y118.993 E1.1140
G1 X122.259 Y119.201 E1.1291
G1 X122.642 Y119.365 E1.1440
G1 X123.030 Y119.481 E1.1586
G1 X123.441 Y119.553 E1.1736
G1 X123.821 Y119.575 E1.1873
G1 X127.523 Y119.576 E1.3202
G1 X127.606 Y119.582 E1.3232
G1 X127.661 Y119.593 E1.3252
G1 X127.714 Y119.612 E1.3272
G1 X127.764 Y119.637 E1.3293
G1 X127.810 Y119.669 E1.3313
G1 X127.852 Y119.707 E1.3333
G1 X127.888 Y119.750 E1.3353
