; G-Code generated by Simplify3D(R) Version 4.0.0
; Dec 25, 2020 at 12:21:01 AM
; Settings Summary
;   processName,Process1
;   applyToModels,Bolt_V1_30_06_18,Lid__V1_30_06_18
;   profileName,new profile (modified)
;   profileVersion,2020-09-07 14:01:24
;   baseProfile,Default (modified)
;   printMaterial,PLA
;   printQuality,Medium
;   printExtruders,
;   extruderName,Primary Extruder
;   extruderToolheadNumber,0
;   extruderDiameter,0.4
;   extruderAutoWidth,0
;   extruderWidth,0.4
;   extrusionMultiplier,0.9
;   extruderUseRetract,1
;   extruderRetractionDistance,1
;   extruderExtraRestartDistance,0
;   extruderRetractionZLift,0
;   extruderRetractionSpeed,1800
;   extruderUseCoasting,0
;   extruderCoastingDistance,0.2
;   extruderUseWipe,0
;   extruderWipeDistance,5
;   primaryExtruder,0
;   layerHeight,0.3
;   topSolidLayers,3
;   bottomSolidLayers,3
;   perimeterOutlines,2
;   printPerimetersInsideOut,1
;   startPointOption,2
;   startPointOriginX,0
;   startPointOriginY,0
;   sequentialIslands,0
;   spiralVaseMode,0
;   firstLayerHeightPercentage,90
;   firstLayerWidthPercentage,103
;   firstLayerUnderspeed,0.5
;   useRaft,0
;   raftExtruder,0
;   raftTopLayers,3
;   raftBaseLayers,2
;   raftOffset,3
;   raftSeparationDistance,0.14
;   raftTopInfill,100
;   aboveRaftSpeedMultiplier,0.3
;   useSkirt,0
;   skirtExtruder,0
;   skirtLayers,1
;   skirtOutlines,2
;   skirtOffset,4
;   usePrimePillar,0
;   primePillarExtruder,999
;   primePillarWidth,12
;   primePillarLocation,7
;   primePillarSpeedMultiplier,1
;   useOozeShield,0
;   oozeShieldExtruder,999
;   oozeShieldOffset,2
;   oozeShieldOutlines,1
;   oozeShieldSidewallShape,1
;   oozeShieldSidewallAngle,30
;   oozeShieldSpeedMultiplier,1
;   infillExtruder,0
;   internalInfillPattern,Rectilinear
;   externalInfillPattern,Rectilinear
;   infillPercentage,23
;   outlineOverlapPercentage,15
;   infillExtrusionWidthPercentage,100
;   minInfillLength,5
;   infillLayerInterval,1
;   internalInfillAngles,45,-45
;   overlapInternalInfillAngles,0
;   externalInfillAngles,45,-45
;   generateSupport,0
;   supportExtruder,0
;   supportInfillPercentage,30
;   supportExtraInflation,0
;   supportBaseLayers,0
;   denseSupportExtruder,0
;   denseSupportLayers,0
;   denseSupportInfillPercentage,70
;   supportLayerInterval,1
;   supportHorizontalPartOffset,0.3
;   supportUpperSeparationLayers,1
;   supportLowerSeparationLayers,1
;   supportType,0
;   supportGridSpacing,4
;   maxOverhangAngle,45
;   supportAngles,0
;   temperatureName,Primary Extruder,Hot Bed
;   temperatureNumber,0,1
;   temperatureSetpointCount,1,1
;   temperatureSetpointLayers,1,1
;   temperatureSetpointTemperatures,210,60
;   temperatureStabilizeAtStartup,1,0
;   temperatureHeatedBed,0,1
;   temperatureRelayBetweenLayers,0,0
;   temperatureRelayBetweenLoops,0,0
;   fanLayers,1,2
;   fanSpeeds,0,100
;   blipFanToFullPower,0
;   adjustSpeedForCooling,1
;   minSpeedLayerTime,15
;   minCoolingSpeedSlowdown,20
;   increaseFanForCooling,0
;   minFanLayerTime,45
;   maxCoolingFanSpeed,100
;   increaseFanForBridging,0
;   bridgingFanSpeed,100
;   use5D,1
;   relativeEdistances,0
;   allowEaxisZeroing,1
;   independentExtruderAxes,0
;   includeM10123,0
;   stickySupport,1
;   applyToolheadOffsets,0
;   gcodeXoffset,-0.03
;   gcodeYoffset,-0.03
;   gcodeZoffset,0
;   overrideMachineDefinition,0
;   machineTypeOverride,0
;   strokeXoverride,200
;   strokeYoverride,200
;   strokeZoverride,200
;   originOffsetXoverride,0
;   originOffsetYoverride,0
;   originOffsetZoverride,0
;   homeXdirOverride,-1
;   homeYdirOverride,-1
;   homeZdirOverride,-1
;   flipXoverride,1
;   flipYoverride,-1
;   flipZoverride,1
;   toolheadOffsets,0,0|0,0|0,0|0,0|0,0|0,0
;   overrideFirmwareConfiguration,0
;   firmwareTypeOverride,RepRap (Marlin/Repetier/Sprinter)
;   GPXconfigOverride,r2
;   baudRateOverride,115200
;   overridePrinterModels,0
;   printerModelsOverride
;   startingGcode,G28 ; home all axes,G1 X3 Y5 Z0.2 F3000 ; get ready to prime,G92 E0 ; reset extrusion distance,G1 Y150 E20 F600 ; prime nozzle
;   layerChangeGcode,
;   retractionGcode,
;   toolChangeGcode,
;   endingGcode,M104 S0 ; turn off extruder,M140 S0 ; turn off bedG1 X0 Y0; home,M84 ; disable motors,M107 ; fan off,G28 X Y; Home,M18; Disable steppers
;   exportFileFormat,gcode
;   celebration,0
;   celebrationSong,Random Song
;   postProcessing,
;   defaultSpeed,4600
;   outlineUnderspeed,0.5
;   solidInfillUnderspeed,0.8
;   supportUnderspeed,0.8
;   rapidXYspeed,4800
;   rapidZspeed,1000
;   minBridgingArea,50
;   bridgingExtraInflation,0
;   bridgingExtrusionMultiplier,1
;   bridgingSpeedMultiplier,1
;   useFixedBridgingAngle,0
;   fixedBridgingAngle,0
;   applyBridgingToPerimeters,0
;   filamentDiameters,1.75|1.75|1.75|1.75|1.75|1.75
;   filamentPricesPerKg,46|46|46|46|46|46
;   filamentDensities,1.25|1.25|1.25|1.25|1.25|1.25
;   useMinPrintHeight,0
;   minPrintHeight,0
;   useMaxPrintHeight,0
;   maxPrintHeight,0
;   useDiaphragm,0
;   diaphragmLayerInterval,20
;   robustSlicing,1
;   mergeAllIntoSolid,0
;   onlyRetractWhenCrossingOutline,1
;   retractBetweenLayers,1
;   useRetractionMinTravel,0
;   retractionMinTravel,3
;   retractWhileWiping,0
;   onlyWipeOutlines,1
;   avoidCrossingOutline,0
;   maxMovementDetourFactor,3
;   toolChangeRetractionDistance,12
;   toolChangeExtraRestartDistance,-0.5
;   toolChangeRetractionSpeed,600
;   externalThinWallType,1
;   internalThinWallType,1
;   thinWallAllowedOverlapPercentage,10
;   singleExtrusionMinLength,1
;   singleExtrusionMinPrintingWidthPercentage,50
;   singleExtrusionMaxPrintingWidthPercentage,200
;   singleExtrusionEndpointExtension,0.2
;   horizontalSizeCompensation,0
G90
M82
M106 S0
M140 S60
M104 S210 T0
M109 S210 T0
G28 ; home all axes
G1 X3 Y5 Z0.2 F3000 ; get ready to prime
G92 E0 ; reset extrusion distance
G1 Y150 E20 F600 ; prime nozzle
G92 E0
G1 E-1.0000 F1800
G1 Z0.270 F1000
; process Process1
; layer 1, Z = 0.270
T0
; tool H0.300 W0.412
; inner perimeter
G1 X51.586 Y60.804 F4800
G1 E0.0000 F540
G92 E0
G1 X53.567 Y59.229 E0.1171 F1725
G1 X55.600 Y57.720 E0.2341
G1 X57.682 Y56.281 E0.3512
G1 X59.811 Y54.913 E0.4682
G1 X61.985 Y53.616 E0.5853
G1 X64.202 Y52.394 E0.7024
G1 X66.458 Y51.247 E0.8194
G1 X68.751 Y50.176 E0.9365
G1 X71.080 Y49.183 E1.0536
G1 X73.440 Y48.269 E1.1706
G1 X75.830 Y47.434 E1.2877
G1 X78.246 Y46.680 E1.4047
G1 X80.686 Y46.008 E1.5218
G1 X83.148 Y45.418 E1.6389
G1 X85.627 Y44.911 E1.7559
G1 X88.123 Y44.488 E1.8730
G1 X90.631 Y44.149 E1.9900
G1 X93.150 Y43.894 E2.1071
G1 X95.675 Y43.724 E2.2242
G1 X98.205 Y43.639 E2.3412
G1 X100.736 Y43.639 E2.4583
G1 X103.266 Y43.724 E2.5754
G1 X105.791 Y43.894 E2.6924
G1 X108.310 Y44.149 E2.8095
G1 X110.818 Y44.488 E2.9265
G1 X113.313 Y44.911 E3.0436
G1 X115.793 Y45.418 E3.1607
G1 X118.255 Y46.008 E3.2777
G1 X120.695 Y46.680 E3.3948
G1 X123.111 Y47.434 E3.5118
G1 X125.501 Y48.269 E3.6289
G1 X127.861 Y49.183 E3.7460
G1 X130.190 Y50.176 E3.8630
G1 X132.483 Y51.247 E3.9801
G1 X134.739 Y52.394 E4.0972
G1 X136.956 Y53.616 E4.2142
G1 X139.130 Y54.913 E4.3313
G1 X141.259 Y56.281 E4.4483
G1 X143.341 Y57.720 E4.5654
G1 X145.374 Y59.229 E4.6825
G1 X147.355 Y60.804 E4.7995
G1 X149.282 Y62.446 E4.9166
G1 X151.152 Y64.151 E5.0337
G1 X152.965 Y65.918 E5.1507
G1 X154.716 Y67.745 E5.2678
G1 X156.406 Y69.630 E5.3848
G1 X158.031 Y71.570 E5.5019
G1 X159.590 Y73.564 E5.6190
G1 X161.081 Y75.610 E5.7360
G1 X162.503 Y77.704 E5.8531
G1 X163.853 Y79.845 E5.9702
G1 X165.131 Y82.030 E6.0872
G1 X166.335 Y84.256 E6.2043
G1 X167.463 Y86.522 E6.3213
G1 X168.515 Y88.825 E6.4384
G1 X169.488 Y91.161 E6.5555
G1 X170.383 Y93.529 E6.6725
G1 X171.197 Y95.925 E6.7896
G1 X171.931 Y98.348 E6.9066
G1 X172.582 Y100.794 E7.0237
G1 X173.152 Y103.260 E7.1408
G1 X173.637 Y105.744 E7.2578
G1 X174.040 Y108.243 E7.3749
G1 X174.358 Y110.754 E7.4920
G1 X174.591 Y113.275 E7.6090
G1 X174.740 Y115.802 E7.7261
G1 X174.804 Y118.332 E7.8431
G1 X174.783 Y120.863 E7.9602
G1 X174.676 Y123.392 E8.0773
G1 X174.485 Y125.916 E8.1943
G1 X174.209 Y128.432 E8.3114
G1 X173.849 Y130.937 E8.4285
G1 X173.405 Y133.429 E8.5455
G1 X172.877 Y135.905 E8.6626
G1 X172.267 Y138.361 E8.7796
G1 X171.574 Y140.796 E8.8967
G1 X170.800 Y143.206 E9.0138
G1 X169.945 Y145.588 E9.1308
G1 X169.011 Y147.941 E9.2479
G1 X167.999 Y150.260 E9.3649
G1 X166.909 Y152.545 E9.4820
G1 X165.742 Y154.791 E9.5991
G1 X164.501 Y156.998 E9.7161
G1 X163.187 Y159.161 E9.8332
G1 X161.801 Y161.278 E9.9503
G1 X160.344 Y163.348 E10.0673
G1 X158.819 Y165.368 E10.1844
G1 X157.226 Y167.336 E10.3014
G1 X155.569 Y169.249 E10.4185
G1 X153.848 Y171.105 E10.5356
G1 X152.066 Y172.902 E10.6526
G1 X150.224 Y174.639 E10.7697
G1 X148.325 Y176.312 E10.8868
G1 X146.371 Y177.921 E11.0038
G1 X144.364 Y179.463 E11.1209
G1 X142.306 Y180.937 E11.2379
G1 X140.200 Y182.341 E11.3550
G1 X138.048 Y183.674 E11.4721
G1 X135.853 Y184.933 E11.5891
G1 X133.616 Y186.118 E11.7062
G1 X131.341 Y187.227 E11.8233
G1 X129.030 Y188.260 E11.9403
G1 X126.685 Y189.213 E12.0574
G1 X124.310 Y190.088 E12.1744
G1 X121.906 Y190.882 E12.2915
G1 X119.478 Y191.595 E12.4086
G1 X117.026 Y192.227 E12.5256
G1 X114.556 Y192.775 E12.6427
G1 X112.067 Y193.240 E12.7598
G1 X109.565 Y193.621 E12.8768
G1 X107.052 Y193.918 E12.9939
G1 X104.529 Y194.131 E13.1109
G1 X102.001 Y194.258 E13.2280
G1 X99.470 Y194.301 E13.3451
G1 X96.940 Y194.258 E13.4621
G1 X94.412 Y194.131 E13.5792
G1 X91.889 Y193.918 E13.6962
G1 X89.376 Y193.621 E13.8133
G1 X86.874 Y193.240 E13.9304
G1 X84.386 Y192.775 E14.0474
G1 X81.914 Y192.227 E14.1645
G1 X79.463 Y191.595 E14.2816
G1 X77.035 Y190.882 E14.3986
G1 X74.631 Y190.088 E14.5157
G1 X72.256 Y189.213 E14.6327
G1 X69.911 Y188.260 E14.7498
G1 X67.600 Y187.228 E14.8669
G1 X65.325 Y186.118 E14.9839
G1 X63.088 Y184.933 E15.1010
G1 X60.893 Y183.674 E15.2181
G1 X58.741 Y182.341 E15.3351
G1 X56.635 Y180.937 E15.4522
G1 X54.577 Y179.463 E15.5692
G1 X52.570 Y177.921 E15.6863
G1 X50.616 Y176.312 E15.8034
G1 X48.717 Y174.638 E15.9204
G1 X46.875 Y172.902 E16.0375
G1 X45.093 Y171.105 E16.1545
G1 X43.372 Y169.249 E16.2716
G1 X41.715 Y167.336 E16.3887
G1 X40.122 Y165.368 E16.5057
G1 X38.597 Y163.348 E16.6228
G1 X37.140 Y161.278 E16.7399
G1 X35.754 Y159.161 E16.8569
G1 X34.440 Y156.998 E16.9740
G1 X33.199 Y154.791 E17.0910
G1 X32.032 Y152.545 E17.2081
G1 X30.942 Y150.260 E17.3252
G1 X29.930 Y147.940 E17.4422
G1 X28.996 Y145.588 E17.5593
G1 X28.141 Y143.206 E17.6763
G1 X27.367 Y140.796 E17.7934
G1 X26.674 Y138.361 E17.9105
G1 X26.064 Y135.905 E18.0275
G1 X25.536 Y133.429 E18.1446
G1 X25.092 Y130.937 E18.2617
G1 X24.732 Y128.432 E18.3787
G1 X24.456 Y125.916 E18.4958
G1 X24.265 Y123.392 E18.6129
G1 X24.158 Y120.863 E18.7299
G1 X24.137 Y118.332 E18.8470
G1 X24.201 Y115.802 E18.9640
G1 X24.350 Y113.275 E19.0811
G1 X24.583 Y110.754 E19.1982
G1 X24.901 Y108.243 E19.3152
G1 X25.303 Y105.744 E19.4323
G1 X25.789 Y103.260 E19.5493
G1 X26.359 Y100.794 E19.6664
G1 X27.010 Y98.348 E19.7835
G1 X27.744 Y95.925 E19.9005
G1 X28.558 Y93.529 E20.0176
G1 X29.453 Y91.161 E20.1347
G1 X30.426 Y88.825 E20.2517
G1 X31.478 Y86.522 E20.3688
G1 X32.606 Y84.256 E20.4858
G1 X33.810 Y82.030 E20.6029
G1 X35.087 Y79.845 E20.7200
G1 X36.438 Y77.704 E20.8370
G1 X37.860 Y75.610 E20.9541
G1 X39.351 Y73.564 E21.0712
G1 X40.910 Y71.570 E21.1882
G1 X42.535 Y69.630 E21.3053
G1 X44.225 Y67.745 E21.4223
G1 X45.977 Y65.918 E21.5394
G1 X47.789 Y64.151 E21.6565
G1 X49.659 Y62.446 E21.7735
G1 X51.586 Y60.804 E21.8906
; outer perimeter
G1 X51.324 Y60.486 F4800
G92 E0
G1 X53.316 Y58.902 E0.1177 F1150
G1 X55.360 Y57.385 E0.2354
G1 X57.453 Y55.938 E0.3531
G1 X59.594 Y54.562 E0.4708
G1 X61.780 Y53.259 E0.5885
G1 X64.009 Y52.030 E0.7062
G1 X66.277 Y50.876 E0.8239
G1 X68.584 Y49.800 E0.9416
G1 X70.924 Y48.801 E1.0593
G1 X73.298 Y47.882 E1.1770
G1 X75.700 Y47.043 E1.2947
G1 X78.130 Y46.285 E1.4124
G1 X80.584 Y45.609 E1.5301
G1 X83.058 Y45.016 E1.6478
G1 X85.552 Y44.506 E1.7655
G1 X88.061 Y44.081 E1.8832
G1 X90.583 Y43.740 E2.0009
G1 X93.115 Y43.484 E2.1186
G1 X95.654 Y43.313 E2.2363
G1 X98.198 Y43.227 E2.3540
G1 X100.743 Y43.227 E2.4718
G1 X103.286 Y43.313 E2.5894
G1 X105.826 Y43.484 E2.7072
G1 X108.358 Y43.740 E2.8249
G1 X110.880 Y44.081 E2.9426
G1 X113.389 Y44.506 E3.0603
G1 X115.883 Y45.016 E3.1780
G1 X118.357 Y45.609 E3.2957
G1 X120.811 Y46.285 E3.4134
G1 X123.241 Y47.043 E3.5311
G1 X125.643 Y47.882 E3.6488
G1 X128.017 Y48.801 E3.7665
G1 X130.357 Y49.800 E3.8842
G1 X132.664 Y50.876 E4.0019
G1 X134.932 Y52.030 E4.1196
G1 X137.161 Y53.259 E4.2373
G1 X139.347 Y54.562 E4.3550
G1 X141.488 Y55.938 E4.4727
G1 X143.581 Y57.385 E4.5904
G1 X145.625 Y58.902 E4.7081
G1 X147.617 Y60.486 E4.8258
G1 X149.554 Y62.137 E4.9435
G1 X151.435 Y63.851 E5.0612
G1 X153.257 Y65.628 E5.1789
G1 X155.018 Y67.465 E5.2966
G1 X156.717 Y69.360 E5.4143
G1 X158.351 Y71.311 E5.5320
G1 X159.919 Y73.316 E5.6497
G1 X161.418 Y75.373 E5.7674
G1 X162.848 Y77.478 E5.8851
G1 X164.205 Y79.631 E6.0028
G1 X165.490 Y81.828 E6.1205
G1 X166.701 Y84.066 E6.2382
G1 X167.835 Y86.345 E6.3559
G1 X168.892 Y88.660 E6.4736
G1 X169.871 Y91.009 E6.5913
G1 X170.771 Y93.390 E6.7090
G1 X171.589 Y95.799 E6.8267
G1 X172.327 Y98.235 E6.9444
G1 X172.982 Y100.694 E7.0621
G1 X173.555 Y103.174 E7.1798
G1 X174.043 Y105.672 E7.2975
G1 X174.448 Y108.185 E7.4152
G1 X174.767 Y110.710 E7.5330
G1 X175.002 Y113.244 E7.6507
G1 X175.152 Y115.784 E7.7683
G1 X175.216 Y118.328 E7.8861
G1 X175.195 Y120.874 E8.0038
G1 X175.088 Y123.416 E8.1215
G1 X174.896 Y125.954 E8.2392
G1 X174.618 Y128.484 E8.3569
G1 X174.256 Y131.003 E8.4746
G1 X173.809 Y133.508 E8.5923
G1 X173.279 Y135.997 E8.7100
G1 X172.665 Y138.467 E8.8277
G1 X171.968 Y140.915 E8.9454
G1 X171.190 Y143.338 E9.0631
G1 X170.331 Y145.734 E9.1808
G1 X169.392 Y148.099 E9.2985
G1 X168.373 Y150.432 E9.4162
G1 X167.277 Y152.728 E9.5339
G1 X166.105 Y154.987 E9.6516
G1 X164.857 Y157.206 E9.7693
G1 X163.536 Y159.380 E9.8870
G1 X162.142 Y161.510 E10.0047
G1 X160.677 Y163.591 E10.1224
G1 X159.143 Y165.622 E10.2401
G1 X157.542 Y167.600 E10.3578
G1 X155.876 Y169.524 E10.4755
G1 X154.145 Y171.390 E10.5932
G1 X152.353 Y173.197 E10.7109
G1 X150.502 Y174.943 E10.8286
G1 X148.592 Y176.626 E10.9463
G1 X146.627 Y178.244 E11.0640
G1 X144.610 Y179.794 E11.1817
G1 X142.541 Y181.276 E11.2994
G1 X140.423 Y182.688 E11.4171
G1 X138.259 Y184.028 E11.5348
G1 X136.052 Y185.294 E11.6525
G1 X133.803 Y186.486 E11.7702
G1 X131.515 Y187.601 E11.8879
G1 X129.191 Y188.639 E12.0056
G1 X126.834 Y189.598 E12.1233
G1 X124.446 Y190.477 E12.2410
G1 X122.029 Y191.276 E12.3587
G1 X119.587 Y191.993 E12.4764
G1 X117.123 Y192.627 E12.5941
G1 X114.638 Y193.179 E12.7118
G1 X112.136 Y193.646 E12.8296
G1 X109.621 Y194.030 E12.9472
G1 X107.093 Y194.328 E13.0650
G1 X104.557 Y194.542 E13.1827
G1 X102.015 Y194.670 E13.3004
G1 X99.470 Y194.713 E13.4181
G1 X96.926 Y194.670 E13.5358
G1 X94.384 Y194.542 E13.6535
G1 X91.848 Y194.328 E13.7712
G1 X89.320 Y194.030 E13.8889
G1 X86.805 Y193.646 E14.0066
G1 X84.303 Y193.179 E14.1243
G1 X81.818 Y192.627 E14.2420
G1 X79.354 Y191.993 E14.3597
G1 X76.912 Y191.276 E14.4774
G1 X74.495 Y190.477 E14.5951
G1 X72.107 Y189.598 E14.7128
G1 X69.750 Y188.639 E14.8305
G1 X67.426 Y187.601 E14.9482
G1 X65.138 Y186.486 E15.0659
G1 X62.889 Y185.294 E15.1836
G1 X60.682 Y184.028 E15.3013
G1 X58.518 Y182.688 E15.4190
G1 X56.401 Y181.276 E15.5367
G1 X54.331 Y179.794 E15.6544
G1 X52.313 Y178.244 E15.7721
G1 X50.349 Y176.626 E15.8898
G1 X48.439 Y174.943 E16.0075
G1 X46.588 Y173.197 E16.1252
G1 X44.796 Y171.390 E16.2429
G1 X43.065 Y169.524 E16.3606
G1 X41.399 Y167.600 E16.4783
G1 X39.798 Y165.622 E16.5960
G1 X38.264 Y163.591 E16.7137
G1 X36.799 Y161.510 E16.8314
G1 X35.405 Y159.380 E16.9491
G1 X34.084 Y157.206 E17.0668
G1 X32.836 Y154.987 E17.1845
G1 X31.664 Y152.728 E17.3022
G1 X30.568 Y150.432 E17.4199
G1 X29.549 Y148.099 E17.5376
G1 X28.610 Y145.734 E17.6553
G1 X27.751 Y143.338 E17.7730
G1 X26.972 Y140.915 E17.8908
G1 X26.276 Y138.467 E18.0085
G1 X25.662 Y135.997 E18.1261
G1 X25.132 Y133.508 E18.2438
G1 X24.685 Y131.003 E18.3616
G1 X24.323 Y128.484 E18.4793
G1 X24.045 Y125.954 E18.5970
