; G-Code generated by Simplify3D(R) Version 4.0.0
; Oct 25, 2019 at 11:46:22 AM
; Settings Summary
;   processName,Process2
;   applyToModels,box_lid_34.5,box,box_lid_34.5(2),box(2),box_lid_34.5(2)(2)
;   profileName,Default(2) (modified)
;   profileVersion,2019-07-27 15:21:07
;   baseProfile,
;   printMaterial,PLA
;   printQuality,Medium
;   printExtruders,
;   extruderName,Primary Extruder
;   extruderToolheadNumber,0
;   extruderDiameter,0.4
;   extruderAutoWidth,1
;   extruderWidth,0.48
;   extrusionMultiplier,0.9
;   extruderUseRetract,1
;   extruderRetractionDistance,1
;   extruderExtraRestartDistance,0
;   extruderRetractionZLift,0
;   extruderRetractionSpeed,1800
;   extruderUseCoasting,0
;   extruderCoastingDistance,0.2
;   extruderUseWipe,0
;   extruderWipeDistance,5
;   primaryExtruder,0
;   layerHeight,0.2
;   topSolidLayers,3
;   bottomSolidLayers,2
;   perimeterOutlines,2
;   printPerimetersInsideOut,1
;   startPointOption,2
;   startPointOriginX,0
;   startPointOriginY,0
;   sequentialIslands,0
;   spiralVaseMode,0
;   firstLayerHeightPercentage,90
;   firstLayerWidthPercentage,100
;   firstLayerUnderspeed,0.5
;   useRaft,0
;   raftExtruder,0
;   raftTopLayers,3
;   raftBaseLayers,2
;   raftOffset,3
;   raftSeparationDistance,0.14
;   raftTopInfill,100
;   aboveRaftSpeedMultiplier,0.3
;   useSkirt,0
;   skirtExtruder,0
;   skirtLayers,1
;   skirtOutlines,2
;   skirtOffset,4
;   usePrimePillar,0
;   primePillarExtruder,999
;   primePillarWidth,12
;   primePillarLocation,7
;   primePillarSpeedMultiplier,1
;   useOozeShield,0
;   oozeShieldExtruder,999
;   oozeShieldOffset,2
;   oozeShieldOutlines,1
;   oozeShieldSidewallShape,1
;   oozeShieldSidewallAngle,30
;   oozeShieldSpeedMultiplier,1
;   infillExtruder,0
;   internalInfillPattern,Rectilinear
;   externalInfillPattern,Rectilinear
;   infillPercentage,10
;   outlineOverlapPercentage,15
;   infillExtrusionWidthPercentage,100
;   minInfillLength,5
;   infillLayerInterval,1
;   internalInfillAngles,45,-45
;   overlapInternalInfillAngles,0
;   externalInfillAngles,45,-45
;   generateSupport,0
;   supportExtruder,0
;   supportInfillPercentage,30
;   supportExtraInflation,0
;   supportBaseLayers,0
;   denseSupportExtruder,0
;   denseSupportLayers,0
;   denseSupportInfillPercentage,70
;   supportLayerInterval,1
;   supportHorizontalPartOffset,0.3
;   supportUpperSeparationLayers,1
;   supportLowerSeparationLayers,1
;   supportType,0
;   supportGridSpacing,4
;   maxOverhangAngle,45
;   supportAngles,0
;   temperatureName,Primary Extruder,Hot Bed
;   temperatureNumber,0,1
;   temperatureSetpointCount,1,1
;   temperatureSetpointLayers,1,1
;   temperatureSetpointTemperatures,200,60
;   temperatureStabilizeAtStartup,1,0
;   temperatureHeatedBed,0,1
;   temperatureRelayBetweenLayers,0,0
;   temperatureRelayBetweenLoops,0,0
;   fanLayers,1,2
;   fanSpeeds,0,100
;   blipFanToFullPower,0
;   adjustSpeedForCooling,1
;   minSpeedLayerTime,15
;   minCoolingSpeedSlowdown,20
;   increaseFanForCooling,0
;   minFanLayerTime,45
;   maxCoolingFanSpeed,100
;   increaseFanForBridging,0
;   bridgingFanSpeed,100
;   use5D,1
;   relativeEdistances,0
;   allowEaxisZeroing,1
;   independentExtruderAxes,0
;   includeM10123,0
;   stickySupport,1
;   applyToolheadOffsets,0
;   gcodeXoffset,-9
;   gcodeYoffset,-4
;   gcodeZoffset,0
;   overrideMachineDefinition,0
;   machineTypeOverride,0
;   strokeXoverride,200
;   strokeYoverride,200
;   strokeZoverride,200
;   originOffsetXoverride,0
;   originOffsetYoverride,0
;   originOffsetZoverride,0
;   homeXdirOverride,-1
;   homeYdirOverride,-1
;   homeZdirOverride,-1
;   flipXoverride,1
;   flipYoverride,-1
;   flipZoverride,1
;   toolheadOffsets,0,0|0,0|0,0|0,0|0,0|0,0
;   overrideFirmwareConfiguration,0
;   firmwareTypeOverride,RepRap (Marlin/Repetier/Sprinter)
;   GPXconfigOverride,r2
;   baudRateOverride,115200
;   overridePrinterModels,0
;   printerModelsOverride
;   startingGcode,G28 ; home all axes,G1 X2 Y15 Z0.2 F3000 ; get ready to prime,G92 E0 ; reset extrusion distance,G1 Y150 E20 F600 ; prime nozzle
;   layerChangeGcode,
;   retractionGcode,
;   toolChangeGcode,
;   endingGcode,M104 S0 ; turn off extruder,M140 S0 ; turn off bed,G28 X Y ; home X & Y,M84 ; disable motors,M107; Fan off
;   exportFileFormat,gcode
;   celebration,0
;   celebrationSong,Random Song
;   postProcessing,
;   defaultSpeed,4000
;   outlineUnderspeed,0.5
;   solidInfillUnderspeed,0.8
;   supportUnderspeed,0.8
;   rapidXYspeed,4800
;   rapidZspeed,1000
;   minBridgingArea,50
;   bridgingExtraInflation,0
;   bridgingExtrusionMultiplier,1
;   bridgingSpeedMultiplier,1
;   useFixedBridgingAngle,0
;   fixedBridgingAngle,0
;   applyBridgingToPerimeters,0
;   filamentDiameters,1.75|1.75|1.75|1.75|1.75|1.75
;   filamentPricesPerKg,46|46|46|46|46|46
;   filamentDensities,1.25|1.25|1.25|1.25|1.25|1.25
;   useMinPrintHeight,0
;   minPrintHeight,0
;   useMaxPrintHeight,0
;   maxPrintHeight,0
;   useDiaphragm,0
;   diaphragmLayerInterval,20
;   robustSlicing,1
;   mergeAllIntoSolid,0
;   onlyRetractWhenCrossingOutline,1
;   retractBetweenLayers,1
;   useRetractionMinTravel,0
;   retractionMinTravel,3
;   retractWhileWiping,0
;   onlyWipeOutlines,1
;   avoidCrossingOutline,0
;   maxMovementDetourFactor,3
;   toolChangeRetractionDistance,12
;   toolChangeExtraRestartDistance,-0.5
;   toolChangeRetractionSpeed,600
;   externalThinWallType,1
;   internalThinWallType,2
;   thinWallAllowedOverlapPercentage,10
;   singleExtrusionMinLength,1
;   singleExtrusionMinPrintingWidthPercentage,50
;   singleExtrusionMaxPrintingWidthPercentage,200
;   singleExtrusionEndpointExtension,0.2
;   horizontalSizeCompensation,0
G90
M82
M106 S0
M140 S60
M104 S200 T0
M109 S200 T0
G28 ; home all axes
G1 X2 Y15 Z0.2 F3000 ; get ready to prime
G92 E0 ; reset extrusion distance
G1 Y150 E20 F600 ; prime nozzle
G92 E0
G1 E-1.0000 F1800
G1 Z0.180 F1000
; process Process2
; layer 1, Z = 0.180
T0
; tool H0.200 W0.480
; inner perimeter
G1 X52.139 Y54.822 F4800
G1 E0.0000 F540
G92 E0
G1 X52.862 Y54.297 E0.0321 F1500
G1 X53.679 Y53.933 E0.0642
G1 X54.553 Y53.747 E0.0963
G1 X105.447 Y53.747 E1.9245
G1 X106.321 Y53.933 E1.9566
G1 X107.138 Y54.297 E1.9887
G1 X107.861 Y54.822 E2.0208
G1 X108.459 Y55.487 E2.0529
G1 X108.906 Y56.261 E2.0850
G1 X109.183 Y57.111 E2.1172
G1 X109.280 Y58.038 E2.1506
G1 X109.279 Y87.967 E3.2257
G1 X109.183 Y88.889 E3.2590
G1 X108.906 Y89.739 E3.2911
G1 X108.457 Y90.516 E3.3234
G1 X107.858 Y91.180 E3.3555
G1 X107.134 Y91.705 E3.3876
G1 X106.317 Y92.068 E3.4197
G1 X105.447 Y92.253 E3.4517
G1 X54.549 Y92.252 E5.2800
G1 X53.675 Y92.065 E5.3121
G1 X52.859 Y91.701 E5.3442
G1 X52.136 Y91.175 E5.3763
G1 X51.539 Y90.510 E5.4084
G1 X51.092 Y89.735 E5.4405
G1 X50.817 Y88.885 E5.4726
G1 X50.720 Y87.962 E5.5059
G1 X50.720 Y58.038 E6.5809
G1 X50.817 Y57.115 E6.6142
G1 X51.094 Y56.260 E6.6465
G1 X51.541 Y55.487 E6.6786
G1 X52.139 Y54.822 E6.7107
; outer perimeter
G1 X51.816 Y54.464 F4800
G92 E0
G1 X52.621 Y53.879 E0.0357 F1000
G1 X53.530 Y53.474 E0.0715
G1 X54.503 Y53.267 E0.1072
G1 X105.497 Y53.267 E1.9390
G1 X106.471 Y53.474 E1.9747
G1 X107.379 Y53.879 E2.0105
G1 X108.184 Y54.464 E2.0462
G1 X108.850 Y55.203 E2.0819
G1 X109.347 Y56.065 E2.1177
G1 X109.655 Y57.011 E2.1534
G1 X109.760 Y58.013 E2.1896
G1 X109.759 Y87.993 E3.2665
G1 X109.655 Y88.989 E3.3025
G1 X109.347 Y89.935 E3.3382
G1 X108.847 Y90.800 E3.3741
G1 X108.181 Y91.539 E3.4099
G1 X107.375 Y92.123 E3.4456
G1 X106.466 Y92.527 E3.4813
G1 X105.497 Y92.733 E3.5169
G1 X54.498 Y92.732 E5.3488
G1 X53.525 Y92.524 E5.3846
G1 X52.617 Y92.118 E5.4203
G1 X51.813 Y91.533 E5.4560
G1 X51.148 Y90.793 E5.4918
G1 X50.651 Y89.931 E5.5275
G1 X50.345 Y88.985 E5.5632
G1 X50.240 Y87.987 E5.5993
G1 X50.240 Y58.013 E6.6760
G1 X50.345 Y57.015 E6.7120
G1 X50.653 Y56.064 E6.7479
G1 X51.150 Y55.203 E6.7836
G1 X51.816 Y54.464 E6.8194
; solid layer
G1 X51.426 Y89.440 F4800
G92 E0
G1 X53.547 Y91.561 E0.1078 F1600
G1 X53.802 Y91.675 E0.1178
G1 X54.486 Y91.821 E0.1429
G1 X51.189 Y88.525 E0.3104
G1 X51.128 Y87.941 E0.3315
G1 X51.128 Y87.784 E0.3371
G1 X55.187 Y91.844 E0.5433
G1 X55.866 Y91.844 E0.5677
G1 X51.128 Y87.106 E0.8084
G1 X51.128 Y86.427 E0.8327
G1 X56.545 Y91.844 E1.1079
G1 X57.224 Y91.844 E1.1323
G1 X51.128 Y85.748 E1.4420
G1 X51.128 Y85.069 E1.4664
G1 X57.903 Y91.844 E1.8105
G1 X58.581 Y91.844 E1.8349
G1 X51.128 Y84.390 E2.2135
G1 X51.128 Y83.711 E2.2379
G1 X59.260 Y91.844 E2.6510
G1 X59.939 Y91.844 E2.6754
G1 X51.128 Y83.033 E3.1230
G1 X51.128 Y82.354 E3.1474
G1 X60.618 Y91.844 E3.6295
G1 X61.297 Y91.844 E3.6539
G1 X51.128 Y81.675 E4.1704
G1 X51.128 Y80.996 E4.1948
G1 X61.976 Y91.844 E4.7459
G1 X62.654 Y91.844 E4.7703
G1 X51.128 Y80.317 E5.3558
G1 X51.128 Y79.639 E5.3802
G1 X63.333 Y91.844 E6.0002
G1 X64.012 Y91.844 E6.0246
G1 X51.128 Y78.960 E6.6791
G1 X51.128 Y78.281 E6.7035
G1 X64.691 Y91.844 E7.3925
G1 X65.370 Y91.844 E7.4169
G1 X51.128 Y77.602 E8.1403
G1 X51.128 Y76.923 E8.1647
G1 X66.049 Y91.844 E8.9227
G1 X66.727 Y91.844 E8.9471
G1 X51.128 Y76.244 E9.7395
G1 X51.128 Y75.566 E9.7639
G1 X67.406 Y91.844 E10.5908
G1 X68.085 Y91.844 E10.6152
G1 X51.128 Y74.887 E11.4767
G1 X51.128 Y74.208 E11.5010
G1 X68.764 Y91.844 E12.3969
G1 X69.443 Y91.844 E12.4213
G1 X51.128 Y73.529 E13.3517
G1 X51.128 Y72.850 E13.3761
G1 X70.122 Y91.844 E14.3410
G1 X70.800 Y91.844 E14.3654
G1 X51.128 Y72.171 E15.3647
G1 X51.128 Y71.493 E15.3891
G1 X71.479 Y91.844 E16.4229
G1 X72.158 Y91.844 E16.4473
G1 X51.128 Y70.814 E17.5157
G1 X51.128 Y70.135 E17.5400
G1 X72.837 Y91.844 E18.6428
G1 X73.516 Y91.844 E18.6672
G1 X51.128 Y69.456 E19.8045
G1 X51.128 Y68.777 E19.8289
G1 X74.195 Y91.844 E21.0007
G1 X74.873 Y91.844 E21.0251
G1 X51.128 Y68.099 E22.2313
G1 X51.128 Y67.420 E22.2557
G1 X75.552 Y91.844 E23.4965
G1 X76.231 Y91.844 E23.5209
G1 X51.128 Y66.741 E24.7961
G1 X51.128 Y66.062 E24.8205
G1 X76.910 Y91.844 E26.1302
G1 X77.589 Y91.844 E26.1546
G1 X51.128 Y65.383 E27.4988
G1 X51.128 Y64.704 E27.5232
G1 X78.268 Y91.844 E28.9019
G1 X78.946 Y91.844 E28.9263
G1 X51.128 Y64.026 E30.3394
G1 X51.128 Y63.347 E30.3638
G1 X79.625 Y91.844 E31.8115
G1 X80.304 Y91.844 E31.8359
G1 X51.128 Y62.668 E33.3180
G1 X51.128 Y61.989 E33.3424
G1 X80.983 Y91.844 E34.8590
G1 X81.662 Y91.844 E34.8834
G1 X51.128 Y61.310 E36.4345
G1 X51.128 Y60.632 E36.4589
G1 X82.341 Y91.844 E38.0445
G1 X83.019 Y91.844 E38.0689
G1 X51.128 Y59.953 E39.6890
G1 X51.128 Y59.274 E39.7134
G1 X83.698 Y91.844 E41.3679
G1 X84.377 Y91.844 E41.3923
G1 X51.128 Y58.595 E43.0814
G1 X51.128 Y58.059 E43.1006
G1 X51.142 Y57.930 E43.1053
G1 X85.056 Y91.844 E44.8281
G1 X85.735 Y91.844 E44.8525
G1 X51.206 Y57.316 E46.6066
G1 X51.218 Y57.200 E46.6107
G1 X51.353 Y56.784 E46.6265
G1 X86.414 Y91.844 E48.4075
G1 X87.093 Y91.844 E48.4319
G1 X51.544 Y56.296 E50.2378
G1 X51.793 Y55.866 E50.2556
G1 X87.771 Y91.844 E52.0833
G1 X88.450 Y91.844 E52.1077
G1 X52.091 Y55.485 E53.9547
G1 X52.413 Y55.128 E53.9720
G1 X89.129 Y91.844 E55.8372
G1 X89.808 Y91.844 E55.8616
G1 X52.806 Y54.842 E57.7413
G1 X53.067 Y54.652 E57.7529
G1 X53.224 Y54.582 E57.7591
G1 X90.487 Y91.844 E59.6520
G1 X91.166 Y91.844 E59.6764
G1 X53.694 Y54.373 E61.5799
G1 X53.805 Y54.323 E61.5843
G1 X54.233 Y54.233 E61.6000
G1 X91.844 Y91.844 E63.5107
G1 X92.523 Y91.844 E63.5350
G1 X54.834 Y54.155 E65.4496
G1 X55.513 Y54.155 E65.4740
G1 X93.202 Y91.844 E67.3886
G1 X93.881 Y91.844 E67.4130
G1 X56.192 Y54.155 E69.3276
G1 X56.871 Y54.155 E69.3520
G1 X94.560 Y91.844 E71.2666
G1 X95.239 Y91.844 E71.2910
G1 X57.550 Y54.155 E73.2056
G1 X58.228 Y54.155 E73.2299
G1 X95.917 Y91.844 E75.1445
G1 X96.596 Y91.844 E75.1689
G1 X58.907 Y54.155 E77.0835
G1 X59.586 Y54.155 E77.1079
G1 X97.275 Y91.844 E79.0225
G1 X97.954 Y91.844 E79.0469
G1 X60.265 Y54.155 E80.9615
G1 X60.944 Y54.155 E80.9859
G1 X98.633 Y91.844 E82.9005
G1 X99.312 Y91.844 E82.9249
G1 X61.622 Y54.155 E84.8395
G1 X62.301 Y54.155 E84.8639
G1 X99.990 Y91.844 E86.7785
G1 X100.669 Y91.845 E86.8028
G1 X62.980 Y54.155 E88.7174
G1 X63.659 Y54.155 E88.7418
G1 X101.348 Y91.845 E90.6564
G1 X102.027 Y91.845 E90.6808
G1 X64.338 Y54.155 E92.5954
G1 X65.017 Y54.155 E92.6198
G1 X102.706 Y91.845 E94.5344
G1 X103.385 Y91.845 E94.5588
G1 X65.695 Y54.155 E96.4734
G1 X66.374 Y54.155 E96.4978
G1 X104.063 Y91.845 E98.4124
G1 X104.742 Y91.845 E98.4368
G1 X67.053 Y54.155 E100.3514
G1 X67.732 Y54.155 E100.3758
G1 X105.418 Y91.842 E102.2902
G1 X105.978 Y91.723 E102.3108
G1 X68.411 Y54.155 E104.2192
G1 X69.089 Y54.155 E104.2436
G1 X106.482 Y91.548 E106.1431
G1 X106.930 Y91.349 E106.1607
G1 X106.948 Y91.336 E106.1615
G1 X69.768 Y54.155 E108.0503
G1 X70.447 Y54.155 E108.0747
G1 X107.342 Y91.050 E109.9489
G1 X107.584 Y90.875 E109.9597
G1 X107.708 Y90.737 E109.9663
G1 X71.126 Y54.155 E111.8247
G1 X71.805 Y54.155 E111.8490
G1 X108.030 Y90.380 E113.6893
G1 X108.125 Y90.275 E113.6944
G1 X108.300 Y89.972 E113.7069
G1 X72.484 Y54.155 E115.5264
G1 X73.162 Y54.155 E115.5508
G1 X108.543 Y89.536 E117.3482
G1 X108.710 Y89.024 E117.3675
G1 X73.841 Y54.155 E119.1388
G1 X74.520 Y54.155 E119.1632
G1 X108.818 Y88.453 E120.9055
G1 X108.871 Y87.946 E120.9239
G1 X108.871 Y87.828 E120.9281
G1 X75.199 Y54.155 E122.6387
G1 X75.878 Y54.155 E122.6631
G1 X108.871 Y87.149 E124.3391
G1 X108.871 Y86.470 E124.3635
G1 X76.557 Y54.155 E126.0051
G1 X77.235 Y54.155 E126.0295
G1 X108.871 Y85.792 E127.6366
G1 X108.872 Y85.113 E127.6610
G1 X77.914 Y54.155 E129.2336
G1 X78.593 Y54.155 E129.2580
G1 X108.872 Y84.434 E130.7962
G1 X108.872 Y83.755 E130.8205
G1 X79.272 Y54.155 E132.3242
G1 X79.951 Y54.155 E132.3486
G1 X108.872 Y83.076 E133.8178
G1 X108.872 Y82.397 E133.8421
G1 X80.629 Y54.155 E135.2768
G1 X81.308 Y54.155 E135.3012
G1 X108.872 Y81.719 E136.7014
G1 X108.872 Y81.040 E136.7258
G1 X81.987 Y54.155 E138.0915
G1 X82.666 Y54.155 E138.1159
G1 X108.872 Y80.361 E139.4472
G1 X108.872 Y79.682 E139.4716
G1 X83.345 Y54.155 E140.7683
G1 X84.024 Y54.155 E140.7927
G1 X108.872 Y79.003 E142.0550
G1 X108.872 Y78.325 E142.0794
G1 X84.702 Y54.155 E143.3072
G1 X85.381 Y54.155 E143.3315
G1 X108.872 Y77.646 E144.5249
G1 X108.872 Y76.967 E144.5492
G1 X86.060 Y54.155 E145.7081
G1 X86.739 Y54.155 E145.7324
G1 X108.872 Y76.288 E146.8568
G1 X108.872 Y75.609 E146.8812
G1 X87.418 Y54.155 E147.9710
G1 X88.097 Y54.155 E147.9954
G1 X108.872 Y74.931 E149.0508
G1 X108.872 Y74.252 E149.0752
G1 X88.775 Y54.155 E150.0961
G1 X89.454 Y54.155 E150.1205
G1 X108.872 Y73.573 E151.1069
G1 X108.872 Y72.894 E151.1312
G1 X90.133 Y54.155 E152.0832
G1 X90.812 Y54.155 E152.1076
G1 X108.872 Y72.215 E153.0250
G1 X108.872 Y71.537 E153.0494
G1 X91.491 Y54.155 E153.9323
G1 X92.169 Y54.155 E153.9567
G1 X108.872 Y70.858 E154.8052
G1 X108.872 Y70.179 E154.8296
G1 X92.848 Y54.155 E155.6436
G1 X93.527 Y54.155 E155.6680
G1 X108.872 Y69.500 E156.4475
G1 X108.872 Y68.821 E156.4719
G1 X94.206 Y54.155 E157.2169
G1 X94.885 Y54.155 E157.2413
G1 X108.872 Y68.142 E157.9518
G1 X108.872 Y67.464 E157.9762
G1 X95.564 Y54.155 E158.6522
G1 X96.242 Y54.155 E158.6766
G1 X108.872 Y66.785 E159.3182
G1 X108.872 Y66.106 E159.3426
G1 X96.921 Y54.155 E159.9497
G1 X97.600 Y54.155 E159.9741
G1 X108.872 Y65.427 E160.5467
G1 X108.872 Y64.748 E160.5711
G1 X98.279 Y54.155 E161.1092
G1 X98.958 Y54.155 E161.1336
G1 X108.872 Y64.070 E161.6372
G1 X108.872 Y63.391 E161.6616
G1 X99.637 Y54.155 E162.1307
G1 X100.315 Y54.155 E162.1551
G1 X108.872 Y62.712 E162.5898
G1 X108.872 Y62.033 E162.6142
G1 X100.994 Y54.155 E163.0144
G1 X101.673 Y54.155 E163.0388
G1 X108.872 Y61.354 E163.4045
G1 X108.872 Y60.676 E163.4288
G1 X102.352 Y54.155 E163.7601
G1 X103.031 Y54.155 E163.7845
G1 X108.872 Y59.997 E164.0812
G1 X108.872 Y59.318 E164.1056
G1 X103.709 Y54.155 E164.3678
G1 X104.388 Y54.155 E164.3922
G1 X108.872 Y58.639 E164.6200
G1 X108.872 Y58.059 E164.6408
G1 X108.860 Y57.949 E164.6448
G1 X105.067 Y54.155 E164.8375
G1 X105.404 Y54.155 E164.8496
G1 X105.838 Y54.248 E164.8656
G1 X108.779 Y57.188 E165.0149
G1 X108.532 Y56.428 E165.0437
G1 X108.306 Y56.036 E165.0599
G1 X106.912 Y54.643 E165.1307
G92 E0
G1 E-1.0000 F1800
; inner perimeter
G1 X115.817 Y57.115 F4800
G1 E0.0000 F1800
G92 E0
