; G-Code generated by Simplify3D(R) Version 4.0.0
; Oct 25, 2019 at 9:40:33 AM
; Settings Summary
;   processName,Process2
;   applyToModels,box_lid_34.5
;   profileName,Default(2) (modified)
;   profileVersion,2019-07-27 15:21:07
;   baseProfile,
;   printMaterial,PLA
;   printQuality,Medium
;   printExtruders,
;   extruderName,Primary Extruder
;   extruderToolheadNumber,0
;   extruderDiameter,0.4
;   extruderAutoWidth,1
;   extruderWidth,0.48
;   extrusionMultiplier,0.9
;   extruderUseRetract,1
;   extruderRetractionDistance,1
;   extruderExtraRestartDistance,0
;   extruderRetractionZLift,0
;   extruderRetractionSpeed,1800
;   extruderUseCoasting,0
;   extruderCoastingDistance,0.2
;   extruderUseWipe,0
;   extruderWipeDistance,5
;   primaryExtruder,0
;   layerHeight,0.2
;   topSolidLayers,3
;   bottomSolidLayers,2
;   perimeterOutlines,2
;   printPerimetersInsideOut,1
;   startPointOption,2
;   startPointOriginX,0
;   startPointOriginY,0
;   sequentialIslands,0
;   spiralVaseMode,0
;   firstLayerHeightPercentage,90
;   firstLayerWidthPercentage,100
;   firstLayerUnderspeed,0.5
;   useRaft,0
;   raftExtruder,0
;   raftTopLayers,3
;   raftBaseLayers,2
;   raftOffset,3
;   raftSeparationDistance,0.14
;   raftTopInfill,100
;   aboveRaftSpeedMultiplier,0.3
;   useSkirt,0
;   skirtExtruder,0
;   skirtLayers,1
;   skirtOutlines,2
;   skirtOffset,4
;   usePrimePillar,0
;   primePillarExtruder,999
;   primePillarWidth,12
;   primePillarLocation,7
;   primePillarSpeedMultiplier,1
;   useOozeShield,0
;   oozeShieldExtruder,999
;   oozeShieldOffset,2
;   oozeShieldOutlines,1
;   oozeShieldSidewallShape,1
;   oozeShieldSidewallAngle,30
;   oozeShieldSpeedMultiplier,1
;   infillExtruder,0
;   internalInfillPattern,Rectilinear
;   externalInfillPattern,Rectilinear
;   infillPercentage,10
;   outlineOverlapPercentage,15
;   infillExtrusionWidthPercentage,100
;   minInfillLength,5
;   infillLayerInterval,1
;   internalInfillAngles,45,-45
;   overlapInternalInfillAngles,0
;   externalInfillAngles,45,-45
;   generateSupport,0
;   supportExtruder,0
;   supportInfillPercentage,30
;   supportExtraInflation,0
;   supportBaseLayers,0
;   denseSupportExtruder,0
;   denseSupportLayers,0
;   denseSupportInfillPercentage,70
;   supportLayerInterval,1
;   supportHorizontalPartOffset,0.3
;   supportUpperSeparationLayers,1
;   supportLowerSeparationLayers,1
;   supportType,0
;   supportGridSpacing,4
;   maxOverhangAngle,45
;   supportAngles,0
;   temperatureName,Primary Extruder,Hot Bed
;   temperatureNumber,0,1
;   temperatureSetpointCount,1,1
;   temperatureSetpointLayers,1,1
;   temperatureSetpointTemperatures,200,60
;   temperatureStabilizeAtStartup,1,0
;   temperatureHeatedBed,0,1
;   temperatureRelayBetweenLayers,0,0
;   temperatureRelayBetweenLoops,0,0
;   fanLayers,1,2
;   fanSpeeds,0,100
;   blipFanToFullPower,0
;   adjustSpeedForCooling,1
;   minSpeedLayerTime,15
;   minCoolingSpeedSlowdown,20
;   increaseFanForCooling,0
;   minFanLayerTime,45
;   maxCoolingFanSpeed,100
;   increaseFanForBridging,0
;   bridgingFanSpeed,100
;   use5D,1
;   relativeEdistances,0
;   allowEaxisZeroing,1
;   independentExtruderAxes,0
;   includeM10123,0
;   stickySupport,1
;   applyToolheadOffsets,0
;   gcodeXoffset,-9
;   gcodeYoffset,-4
;   gcodeZoffset,0
;   overrideMachineDefinition,0
;   machineTypeOverride,0
;   strokeXoverride,200
;   strokeYoverride,200
;   strokeZoverride,200
;   originOffsetXoverride,0
;   originOffsetYoverride,0
;   originOffsetZoverride,0
;   homeXdirOverride,-1
;   homeYdirOverride,-1
;   homeZdirOverride,-1
;   flipXoverride,1
;   flipYoverride,-1
;   flipZoverride,1
;   toolheadOffsets,0,0|0,0|0,0|0,0|0,0|0,0
;   overrideFirmwareConfiguration,0
;   firmwareTypeOverride,RepRap (Marlin/Repetier/Sprinter)
;   GPXconfigOverride,r2
;   baudRateOverride,115200
;   overridePrinterModels,0
;   printerModelsOverride
;   startingGcode,G28 ; home all axes,G1 X2 Y15 Z0.2 F3000 ; get ready to prime,G92 E0 ; reset extrusion distance,G1 Y150 E20 F600 ; prime nozzle
;   layerChangeGcode,
;   retractionGcode,
;   toolChangeGcode,
;   endingGcode,M104 S0 ; turn off extruder,M140 S0 ; turn off bed,G28 X Y ; home X & Y,M84 ; disable motors,M107; Fan off
;   exportFileFormat,gcode
;   celebration,0
;   celebrationSong,Random Song
;   postProcessing,
;   defaultSpeed,4000
;   outlineUnderspeed,0.5
;   solidInfillUnderspeed,0.8
;   supportUnderspeed,0.8
;   rapidXYspeed,4800
;   rapidZspeed,1000
;   minBridgingArea,50
;   bridgingExtraInflation,0
;   bridgingExtrusionMultiplier,1
;   bridgingSpeedMultiplier,1
;   useFixedBridgingAngle,0
;   fixedBridgingAngle,0
;   applyBridgingToPerimeters,0
;   filamentDiameters,1.75|1.75|1.75|1.75|1.75|1.75
;   filamentPricesPerKg,46|46|46|46|46|46
;   filamentDensities,1.25|1.25|1.25|1.25|1.25|1.25
;   useMinPrintHeight,0
;   minPrintHeight,0
;   useMaxPrintHeight,0
;   maxPrintHeight,0
;   useDiaphragm,0
;   diaphragmLayerInterval,20
;   robustSlicing,1
;   mergeAllIntoSolid,0
;   onlyRetractWhenCrossingOutline,1
;   retractBetweenLayers,1
;   useRetractionMinTravel,0
;   retractionMinTravel,3
;   retractWhileWiping,0
;   onlyWipeOutlines,1
;   avoidCrossingOutline,0
;   maxMovementDetourFactor,3
;   toolChangeRetractionDistance,12
;   toolChangeExtraRestartDistance,-0.5
;   toolChangeRetractionSpeed,600
;   externalThinWallType,1
;   internalThinWallType,2
;   thinWallAllowedOverlapPercentage,10
;   singleExtrusionMinLength,1
;   singleExtrusionMinPrintingWidthPercentage,50
;   singleExtrusionMaxPrintingWidthPercentage,200
;   singleExtrusionEndpointExtension,0.2
;   horizontalSizeCompensation,0
G90
M82
M106 S0
M140 S60
M104 S200 T0
M109 S200 T0
G28 ; home all axes
G1 X2 Y15 Z0.2 F3000 ; get ready to prime
G92 E0 ; reset extrusion distance
G1 Y150 E20 F600 ; prime nozzle
G92 E0
G1 E-1.0000 F1800
G1 Z0.180 F1000
; process Process2
; layer 1, Z = 0.180
T0
; tool H0.200 W0.480
; inner perimeter
G1 X84.317 Y138.723 F4800
G1 E0.0000 F540
G92 E0
G1 X84.734 Y138.538 E0.0164 F1500
G1 X85.181 Y138.443 E0.0328
G1 X135.884 Y138.443 E1.8541
G1 X136.331 Y138.538 E1.8705
G1 X136.749 Y138.723 E1.8870
G1 X137.119 Y138.992 E1.9034
G1 X137.424 Y139.332 E1.9198
G1 X137.653 Y139.727 E1.9362
G1 X137.794 Y140.162 E1.9526
G1 X137.846 Y140.654 E1.9704
G1 X137.846 Y169.291 E2.9990
G1 X137.794 Y169.783 E3.0168
G1 X137.653 Y170.218 E3.0332
G1 X137.424 Y170.613 E3.0497
G1 X137.119 Y170.953 E3.0661
G1 X136.749 Y171.222 E3.0825
G1 X136.331 Y171.408 E3.0989
G1 X135.884 Y171.503 E3.1153
G1 X85.181 Y171.503 E4.9366
G1 X84.734 Y171.408 E4.9530
G1 X84.317 Y171.222 E4.9694
G1 X83.947 Y170.953 E4.9859
G1 X83.641 Y170.613 E5.0023
G1 X83.413 Y170.218 E5.0187
G1 X83.272 Y169.783 E5.0351
G1 X83.220 Y169.291 E5.0529
G1 X83.220 Y140.654 E6.0815
G1 X83.272 Y140.162 E6.0993
G1 X83.413 Y139.727 E6.1157
G1 X83.641 Y139.332 E6.1321
G1 X83.947 Y138.992 E6.1486
G1 X84.317 Y138.723 E6.1650
; outer perimeter
G1 X84.076 Y138.305 F4800
G92 E0
G1 X84.585 Y138.079 E0.0200 F1000
G1 X85.131 Y137.963 E0.0401
G1 X135.935 Y137.963 E1.8650
G1 X136.480 Y138.079 E1.8850
G1 X136.990 Y138.305 E1.9051
G1 X137.441 Y138.633 E1.9251
G1 X137.815 Y139.048 E1.9452
G1 X138.094 Y139.531 E1.9652
G1 X138.266 Y140.062 E1.9852
G1 X138.326 Y140.629 E2.0057
G1 X138.326 Y169.316 E3.0362
G1 X138.266 Y169.883 E3.0567
G1 X138.094 Y170.414 E3.0767
G1 X137.815 Y170.897 E3.0968
G1 X137.441 Y171.312 E3.1168
G1 X136.990 Y171.640 E3.1368
G1 X136.480 Y171.867 E3.1569
G1 X135.935 Y171.983 E3.1769
G1 X85.131 Y171.983 E5.0018
G1 X84.585 Y171.867 E5.0219
G1 X84.076 Y171.640 E5.0419
G1 X83.624 Y171.312 E5.0620
G1 X83.251 Y170.897 E5.0820
G1 X82.972 Y170.414 E5.1020
G1 X82.800 Y169.883 E5.1221
G1 X82.740 Y169.316 E5.1426
G1 X82.740 Y140.629 E6.1730
G1 X82.800 Y140.062 E6.1935
G1 X82.972 Y139.531 E6.2136
G1 X83.251 Y139.048 E6.2336
G1 X83.624 Y138.633 E6.2536
G1 X84.076 Y138.305 E6.2737
; solid layer
G1 X85.247 Y171.095 F4800
G92 E0
G1 X83.652 Y169.500 E0.0810 F1600
G1 X83.628 Y169.269 E0.0893
G1 X83.628 Y168.797 E0.1063
G1 X85.926 Y171.095 E0.2230
G1 X86.604 Y171.095 E0.2474
G1 X83.628 Y168.118 E0.3986
G1 X83.628 Y167.439 E0.4230
G1 X87.283 Y171.095 E0.6087
G1 X87.962 Y171.095 E0.6330
G1 X83.628 Y166.761 E0.8532
G1 X83.628 Y166.082 E0.8776
G1 X88.641 Y171.095 E1.1322
G1 X89.320 Y171.095 E1.1566
G1 X83.628 Y165.403 E1.4458
G1 X83.628 Y164.724 E1.4701
G1 X89.998 Y171.095 E1.7938
G1 X90.677 Y171.095 E1.8182
G1 X83.628 Y164.045 E2.1763
G1 X83.628 Y163.366 E2.2006
G1 X91.356 Y171.095 E2.5932
G1 X92.035 Y171.095 E2.6176
G1 X83.628 Y162.688 E3.0447
G1 X83.628 Y162.009 E3.0691
G1 X92.714 Y171.095 E3.5306
G1 X93.393 Y171.095 E3.5550
G1 X83.628 Y161.330 E4.0510
G1 X83.628 Y160.651 E4.0754
G1 X94.071 Y171.095 E4.6060
G1 X94.750 Y171.095 E4.6303
G1 X83.628 Y159.972 E5.1953
G1 X83.628 Y159.294 E5.2197
G1 X95.429 Y171.095 E5.8192
G1 X96.108 Y171.095 E5.8436
G1 X83.628 Y158.615 E6.4776
G1 X83.628 Y157.936 E6.5020
G1 X96.787 Y171.095 E7.1704
G1 X97.466 Y171.095 E7.1948
G1 X83.628 Y157.257 E7.8977
G1 X83.628 Y156.578 E7.9221
G1 X98.144 Y171.095 E8.6596
G1 X98.823 Y171.095 E8.6839
G1 X83.628 Y155.899 E9.4559
G1 X83.628 Y155.221 E9.4802
G1 X99.502 Y171.095 E10.2866
G1 X100.181 Y171.095 E10.3110
G1 X83.628 Y154.542 E11.1519
G1 X83.628 Y153.863 E11.1763
G1 X100.860 Y171.095 E12.0516
G1 X101.538 Y171.095 E12.0760
G1 X83.628 Y153.184 E12.9859
G1 X83.628 Y152.505 E13.0103
G1 X102.217 Y171.095 E13.9546
G1 X102.896 Y171.095 E13.9790
G1 X83.628 Y151.827 E14.9578
G1 X83.628 Y151.148 E14.9822
G1 X103.575 Y171.095 E15.9955
G1 X104.254 Y171.095 E16.0199
G1 X83.628 Y150.469 E17.0677
G1 X83.628 Y149.790 E17.0920
G1 X104.933 Y171.095 E18.1743
G1 X105.611 Y171.095 E18.1987
G1 X83.628 Y149.111 E19.3154
G1 X83.628 Y148.432 E19.3398
G1 X106.290 Y171.095 E20.4911
G1 X106.969 Y171.095 E20.5154
G1 X83.628 Y147.754 E21.7012
G1 X83.628 Y147.075 E21.7256
G1 X107.648 Y171.095 E22.9458
G1 X108.327 Y171.095 E22.9701
G1 X83.628 Y146.396 E24.2248
G1 X83.628 Y145.717 E24.2492
G1 X109.005 Y171.095 E25.5384
G1 X109.684 Y171.095 E25.5628
G1 X83.628 Y145.038 E26.8864
G1 X83.628 Y144.359 E26.9108
G1 X110.363 Y171.095 E28.2690
G1 X111.042 Y171.095 E28.2933
G1 X83.628 Y143.681 E29.6860
G1 X83.628 Y143.002 E29.7104
G1 X111.721 Y171.095 E31.1375
G1 X112.400 Y171.095 E31.1618
G1 X83.628 Y142.323 E32.6234
G1 X83.628 Y141.644 E32.6478
G1 X113.078 Y171.095 E34.1439
G1 X113.757 Y171.095 E34.1683
G1 X83.628 Y140.965 E35.6989
G1 X83.628 Y140.676 E35.7092
G1 X83.665 Y140.324 E35.7220
G1 X114.436 Y171.095 E37.2851
G1 X115.115 Y171.095 E37.3095
G1 X83.834 Y139.814 E38.8986
G1 X83.973 Y139.573 E38.9086
G1 X84.115 Y139.416 E38.9162
G1 X115.794 Y171.095 E40.5255
G1 X116.473 Y171.095 E40.5498
G1 X84.484 Y139.106 E42.1748
G1 X84.522 Y139.079 E42.1765
G1 X84.861 Y138.928 E42.1899
G1 X84.963 Y138.906 E42.1936
G1 X117.151 Y171.095 E43.8288
G1 X117.830 Y171.095 E43.8531
G1 X85.586 Y138.851 E45.4911
G1 X86.265 Y138.851 E45.5155
G1 X118.509 Y171.095 E47.1535
G1 X119.188 Y171.095 E47.1779
G1 X86.944 Y138.851 E48.8159
G1 X87.623 Y138.851 E48.8403
G1 X119.867 Y171.095 E50.4783
G1 X120.545 Y171.095 E50.5026
G1 X88.301 Y138.851 E52.1406
G1 X88.980 Y138.851 E52.1650
G1 X121.224 Y171.095 E53.8030
G1 X121.903 Y171.095 E53.8274
G1 X89.659 Y138.851 E55.4654
G1 X90.338 Y138.851 E55.4898
G1 X122.582 Y171.095 E57.1278
G1 X123.261 Y171.095 E57.1521
G1 X91.017 Y138.851 E58.7901
G1 X91.696 Y138.851 E58.8145
G1 X123.940 Y171.095 E60.4525
G1 X124.618 Y171.095 E60.4769
G1 X92.374 Y138.851 E62.1149
G1 X93.053 Y138.851 E62.1393
G1 X125.297 Y171.095 E63.7773
G1 X125.976 Y171.095 E63.8016
G1 X93.732 Y138.851 E65.4396
G1 X94.411 Y138.851 E65.4640
G1 X126.655 Y171.095 E67.1020
G1 X127.334 Y171.095 E67.1264
G1 X95.090 Y138.851 E68.7644
G1 X95.769 Y138.851 E68.7888
G1 X128.013 Y171.095 E70.4268
G1 X128.691 Y171.095 E70.4512
G1 X96.447 Y138.851 E72.0891
G1 X97.126 Y138.851 E72.1135
G1 X129.370 Y171.095 E73.7515
G1 X130.049 Y171.095 E73.7759
G1 X97.805 Y138.851 E75.4139
G1 X98.484 Y138.851 E75.4383
G1 X130.728 Y171.095 E77.0763
G1 X131.407 Y171.095 E77.1007
G1 X99.163 Y138.851 E78.7386
G1 X99.841 Y138.851 E78.7630
G1 X132.085 Y171.095 E80.4010
G1 X132.764 Y171.095 E80.4254
G1 X100.520 Y138.851 E82.0634
G1 X101.199 Y138.851 E82.0878
G1 X133.443 Y171.095 E83.7258
G1 X134.122 Y171.095 E83.7502
G1 X101.878 Y138.851 E85.3881
G1 X102.557 Y138.851 E85.4125
G1 X134.801 Y171.095 E87.0505
G1 X135.480 Y171.095 E87.0749
G1 X103.236 Y138.851 E88.7129
G1 X103.914 Y138.851 E88.7373
G1 X136.103 Y171.039 E90.3725
G1 X136.205 Y171.017 E90.3762
G1 X136.544 Y170.866 E90.3895
G1 X136.582 Y170.839 E90.3912
G1 X104.593 Y138.851 E92.0162
G1 X105.272 Y138.851 E92.0406
G1 X136.951 Y170.529 E93.6499
G1 X137.092 Y170.372 E93.6575
G1 X137.232 Y170.131 E93.6675
G1 X105.951 Y138.851 E95.2565
G1 X106.630 Y138.851 E95.2809
G1 X137.401 Y169.622 E96.8441
G1 X137.438 Y169.269 E96.8568
G1 X137.438 Y168.980 E96.8672
G1 X107.309 Y138.851 E98.3978
G1 X107.987 Y138.851 E98.4221
G1 X137.438 Y168.301 E99.9182
G1 X137.438 Y167.622 E99.9426
G1 X108.666 Y138.851 E101.4042
G1 X109.345 Y138.851 E101.4286
G1 X137.438 Y166.943 E102.8557
G1 X137.438 Y166.265 E102.8801
G1 X110.024 Y138.851 E104.2727
G1 X110.703 Y138.851 E104.2971
G1 X137.438 Y165.586 E105.6552
G1 X137.438 Y164.907 E105.6796
G1 X111.381 Y138.851 E107.0033
G1 X112.060 Y138.851 E107.0276
G1 X137.438 Y164.228 E108.3168
G1 X137.438 Y163.549 E108.3412
G1 X112.739 Y138.851 E109.5959
G1 X113.418 Y138.851 E109.6203
G1 X137.438 Y162.870 E110.8405
G1 X137.438 Y162.192 E110.8649
G1 X114.097 Y138.851 E112.0506
G1 X114.776 Y138.851 E112.0750
G1 X137.438 Y161.513 E113.2262
G1 X137.438 Y160.834 E113.2506
G1 X115.454 Y138.851 E114.3673
G1 X116.133 Y138.851 E114.3917
G1 X137.438 Y160.155 E115.4740
G1 X137.438 Y159.476 E115.4984
G1 X116.812 Y138.851 E116.5462
G1 X117.491 Y138.851 E116.5706
G1 X137.438 Y158.797 E117.5839
G1 X137.438 Y158.119 E117.6082
G1 X118.170 Y138.851 E118.5871
G1 X118.848 Y138.851 E118.6114
G1 X137.438 Y157.440 E119.5558
G1 X137.438 Y156.761 E119.5802
G1 X119.527 Y138.851 E120.4900
G1 X120.206 Y138.851 E120.5144
G1 X137.438 Y156.082 E121.3898
G1 X137.438 Y155.403 E121.4141
G1 X120.885 Y138.851 E122.2550
G1 X121.564 Y138.851 E122.2794
G1 X137.438 Y154.725 E123.0858
G1 X137.438 Y154.046 E123.1102
G1 X122.243 Y138.851 E123.8821
G1 X122.921 Y138.851 E123.9065
G1 X137.438 Y153.367 E124.6439
G1 X137.438 Y152.688 E124.6683
G1 X123.600 Y138.851 E125.3712
G1 X124.279 Y138.851 E125.3956
G1 X137.438 Y152.009 E126.0641
G1 X137.438 Y151.330 E126.0885
G1 X124.958 Y138.851 E126.7224
G1 X125.637 Y138.851 E126.7468
G1 X137.438 Y150.652 E127.3463
G1 X137.438 Y149.973 E127.3707
G1 X126.316 Y138.851 E127.9357
G1 X126.994 Y138.851 E127.9601
G1 X137.438 Y149.294 E128.4906
G1 X137.438 Y148.615 E128.5150
G1 X127.673 Y138.851 E129.0110
G1 X128.352 Y138.851 E129.0354
G1 X137.438 Y147.936 E129.4970
G1 X137.438 Y147.258 E129.5214
G1 X129.031 Y138.851 E129.9484
G1 X129.710 Y138.851 E129.9728
G1 X137.438 Y146.579 E130.3654
G1 X137.438 Y145.900 E130.3898
G1 X130.388 Y138.851 E130.7479
G1 X131.067 Y138.851 E130.7723
G1 X137.438 Y145.221 E131.0959
G1 X137.438 Y144.542 E131.1203
G1 X131.746 Y138.851 E131.4094
G1 X132.425 Y138.851 E131.4338
G1 X137.438 Y143.863 E131.6884
G1 X137.438 Y143.185 E131.7128
G1 X133.104 Y138.851 E131.9330
G1 X133.783 Y138.851 E131.9574
G1 X137.438 Y142.506 E132.1431
G1 X137.438 Y141.827 E132.1674
G1 X134.461 Y138.851 E132.3186
G1 X135.140 Y138.851 E132.3430
G1 X137.438 Y141.148 E132.4597
G1 X137.438 Y140.676 E132.4767
G1 X137.413 Y140.445 E132.4850
G1 X135.819 Y138.851 E132.5660
G92 E0
G1 E-1.0000 F1800
; layer 2, Z = 0.380
M106 S255
; inner perimeter
G1 X135.884 Y138.443 F4800
G1 Z0.380 F1000
G1 E0.0000 F1800
G92 E0
G1 X136.331 Y138.538 E0.0164 F3000
G1 X136.749 Y138.723 E0.0328
G1 X137.119 Y138.992 E0.0492
G1 X137.424 Y139.332 E0.0657
G1 X137.653 Y139.727 E0.0821
G1 X137.794 Y140.162 E0.0985
G1 X137.846 Y140.654 E0.1163
G1 X137.846 Y169.291 E1.1449
G1 X137.794 Y169.783 E1.1627
G1 X137.653 Y170.218 E1.1791
G1 X137.424 Y170.613 E1.1955
G1 X137.119 Y170.953 E1.2119
