; G-Code generated by Simplify3D(R) Version 4.0.0
; Oct 25, 2019 at 9:29:08 AM
; Settings Summary
;   processName,Process2
;   applyToModels,box_lid_35,box,box_lid_34.5
;   profileName,Default(2) (modified)
;   profileVersion,2019-07-27 15:21:07
;   baseProfile,
;   printMaterial,PLA
;   printQuality,Medium
;   printExtruders,
;   extruderName,Primary Extruder
;   extruderToolheadNumber,0
;   extruderDiameter,0.4
;   extruderAutoWidth,1
;   extruderWidth,0.48
;   extrusionMultiplier,0.9
;   extruderUseRetract,1
;   extruderRetractionDistance,1
;   extruderExtraRestartDistance,0
;   extruderRetractionZLift,0
;   extruderRetractionSpeed,1800
;   extruderUseCoasting,0
;   extruderCoastingDistance,0.2
;   extruderUseWipe,0
;   extruderWipeDistance,5
;   primaryExtruder,0
;   layerHeight,0.2
;   topSolidLayers,3
;   bottomSolidLayers,2
;   perimeterOutlines,2
;   printPerimetersInsideOut,1
;   startPointOption,2
;   startPointOriginX,0
;   startPointOriginY,0
;   sequentialIslands,0
;   spiralVaseMode,0
;   firstLayerHeightPercentage,90
;   firstLayerWidthPercentage,100
;   firstLayerUnderspeed,0.5
;   useRaft,0
;   raftExtruder,0
;   raftTopLayers,3
;   raftBaseLayers,2
;   raftOffset,3
;   raftSeparationDistance,0.14
;   raftTopInfill,100
;   aboveRaftSpeedMultiplier,0.3
;   useSkirt,0
;   skirtExtruder,0
;   skirtLayers,1
;   skirtOutlines,2
;   skirtOffset,4
;   usePrimePillar,0
;   primePillarExtruder,999
;   primePillarWidth,12
;   primePillarLocation,7
;   primePillarSpeedMultiplier,1
;   useOozeShield,0
;   oozeShieldExtruder,999
;   oozeShieldOffset,2
;   oozeShieldOutlines,1
;   oozeShieldSidewallShape,1
;   oozeShieldSidewallAngle,30
;   oozeShieldSpeedMultiplier,1
;   infillExtruder,0
;   internalInfillPattern,Rectilinear
;   externalInfillPattern,Rectilinear
;   infillPercentage,10
;   outlineOverlapPercentage,15
;   infillExtrusionWidthPercentage,100
;   minInfillLength,5
;   infillLayerInterval,1
;   internalInfillAngles,45,-45
;   overlapInternalInfillAngles,0
;   externalInfillAngles,45,-45
;   generateSupport,0
;   supportExtruder,0
;   supportInfillPercentage,30
;   supportExtraInflation,0
;   supportBaseLayers,0
;   denseSupportExtruder,0
;   denseSupportLayers,0
;   denseSupportInfillPercentage,70
;   supportLayerInterval,1
;   supportHorizontalPartOffset,0.3
;   supportUpperSeparationLayers,1
;   supportLowerSeparationLayers,1
;   supportType,0
;   supportGridSpacing,4
;   maxOverhangAngle,45
;   supportAngles,0
;   temperatureName,Primary Extruder,Hot Bed
;   temperatureNumber,0,1
;   temperatureSetpointCount,1,1
;   temperatureSetpointLayers,1,1
;   temperatureSetpointTemperatures,200,60
;   temperatureStabilizeAtStartup,1,0
;   temperatureHeatedBed,0,1
;   temperatureRelayBetweenLayers,0,0
;   temperatureRelayBetweenLoops,0,0
;   fanLayers,1,2
;   fanSpeeds,0,100
;   blipFanToFullPower,0
;   adjustSpeedForCooling,1
;   minSpeedLayerTime,15
;   minCoolingSpeedSlowdown,20
;   increaseFanForCooling,0
;   minFanLayerTime,45
;   maxCoolingFanSpeed,100
;   increaseFanForBridging,0
;   bridgingFanSpeed,100
;   use5D,1
;   relativeEdistances,0
;   allowEaxisZeroing,1
;   independentExtruderAxes,0
;   includeM10123,0
;   stickySupport,1
;   applyToolheadOffsets,0
;   gcodeXoffset,-9
;   gcodeYoffset,-4
;   gcodeZoffset,0
;   overrideMachineDefinition,0
;   machineTypeOverride,0
;   strokeXoverride,200
;   strokeYoverride,200
;   strokeZoverride,200
;   originOffsetXoverride,0
;   originOffsetYoverride,0
;   originOffsetZoverride,0
;   homeXdirOverride,-1
;   homeYdirOverride,-1
;   homeZdirOverride,-1
;   flipXoverride,1
;   flipYoverride,-1
;   flipZoverride,1
;   toolheadOffsets,0,0|0,0|0,0|0,0|0,0|0,0
;   overrideFirmwareConfiguration,0
;   firmwareTypeOverride,RepRap (Marlin/Repetier/Sprinter)
;   GPXconfigOverride,r2
;   baudRateOverride,115200
;   overridePrinterModels,0
;   printerModelsOverride
;   startingGcode,G28 ; home all axes,G1 X2 Y15 Z0.2 F3000 ; get ready to prime,G92 E0 ; reset extrusion distance,G1 Y150 E20 F600 ; prime nozzle
;   layerChangeGcode,
;   retractionGcode,
;   toolChangeGcode,
;   endingGcode,M104 S0 ; turn off extruder,M140 S0 ; turn off bed,G28 X Y ; home X & Y,M84 ; disable motors,M107; Fan off
;   exportFileFormat,gcode
;   celebration,0
;   celebrationSong,Random Song
;   postProcessing,
;   defaultSpeed,4000
;   outlineUnderspeed,0.5
;   solidInfillUnderspeed,0.8
;   supportUnderspeed,0.8
;   rapidXYspeed,4800
;   rapidZspeed,1000
;   minBridgingArea,50
;   bridgingExtraInflation,0
;   bridgingExtrusionMultiplier,1
;   bridgingSpeedMultiplier,1
;   useFixedBridgingAngle,0
;   fixedBridgingAngle,0
;   applyBridgingToPerimeters,0
;   filamentDiameters,1.75|1.75|1.75|1.75|1.75|1.75
;   filamentPricesPerKg,46|46|46|46|46|46
;   filamentDensities,1.25|1.25|1.25|1.25|1.25|1.25
;   useMinPrintHeight,0
;   minPrintHeight,0
;   useMaxPrintHeight,0
;   maxPrintHeight,0
;   useDiaphragm,0
;   diaphragmLayerInterval,20
;   robustSlicing,1
;   mergeAllIntoSolid,0
;   onlyRetractWhenCrossingOutline,1
;   retractBetweenLayers,1
;   useRetractionMinTravel,0
;   retractionMinTravel,3
;   retractWhileWiping,0
;   onlyWipeOutlines,1
;   avoidCrossingOutline,0
;   maxMovementDetourFactor,3
;   toolChangeRetractionDistance,12
;   toolChangeExtraRestartDistance,-0.5
;   toolChangeRetractionSpeed,600
;   externalThinWallType,1
;   internalThinWallType,2
;   thinWallAllowedOverlapPercentage,10
;   singleExtrusionMinLength,1
;   singleExtrusionMinPrintingWidthPercentage,50
;   singleExtrusionMaxPrintingWidthPercentage,200
;   singleExtrusionEndpointExtension,0.2
;   horizontalSizeCompensation,0
G90
M82
M106 S0
M140 S60
M104 S200 T0
M109 S200 T0
G28 ; home all axes
G1 X2 Y15 Z0.2 F3000 ; get ready to prime
G92 E0 ; reset extrusion distance
G1 Y150 E20 F600 ; prime nozzle
G92 E0
G1 E-1.0000 F1800
G1 Z0.180 F1000
; process Process2
; layer 1, Z = 0.180
T0
; tool H0.200 W0.480
; inner perimeter
G1 X84.041 Y55.237 F4800
G1 E0.0000 F540
G92 E0
G1 X84.639 Y54.572 E0.0321 F1500
G1 X85.362 Y54.047 E0.0642
G1 X86.179 Y53.683 E0.0963
G1 X87.053 Y53.497 E0.1284
G1 X137.947 Y53.497 E1.9566
G1 X138.821 Y53.683 E1.9887
G1 X139.638 Y54.047 E2.0208
G1 X140.361 Y54.572 E2.0529
G1 X140.959 Y55.237 E2.0850
G1 X141.406 Y56.011 E2.1172
G1 X141.683 Y56.861 E2.1493
G1 X141.780 Y57.788 E2.1827
G1 X141.779 Y87.717 E3.2578
G1 X141.683 Y88.639 E3.2911
G1 X141.406 Y89.489 E3.3232
G1 X140.957 Y90.266 E3.3555
G1 X140.358 Y90.930 E3.3876
G1 X139.634 Y91.455 E3.4197
G1 X138.817 Y91.818 E3.4518
G1 X137.947 Y92.003 E3.4838
G1 X87.049 Y92.002 E5.3121
G1 X86.175 Y91.815 E5.3442
G1 X85.359 Y91.451 E5.3763
G1 X84.636 Y90.925 E5.4084
G1 X84.039 Y90.260 E5.4405
G1 X83.592 Y89.485 E5.4726
G1 X83.317 Y88.635 E5.5047
G1 X83.220 Y87.712 E5.5381
G1 X83.220 Y57.788 E6.6130
G1 X83.317 Y56.865 E6.6463
G1 X83.594 Y56.010 E6.6786
G1 X84.041 Y55.237 E6.7107
; outer perimeter
G1 X83.650 Y54.953 F4800
G92 E0
G1 X84.316 Y54.214 E0.0357 F1000
G1 X85.121 Y53.629 E0.0715
G1 X86.030 Y53.224 E0.1072
G1 X87.003 Y53.017 E0.1429
G1 X137.997 Y53.017 E1.9747
G1 X138.971 Y53.224 E2.0105
G1 X139.879 Y53.629 E2.0462
G1 X140.684 Y54.214 E2.0819
G1 X141.350 Y54.953 E2.1177
G1 X141.847 Y55.815 E2.1534
G1 X142.155 Y56.761 E2.1891
G1 X142.260 Y57.763 E2.2253
G1 X142.259 Y87.743 E3.3022
G1 X142.155 Y88.739 E3.3382
G1 X141.847 Y89.685 E3.3740
G1 X141.347 Y90.550 E3.4099
G1 X140.681 Y91.289 E3.4456
G1 X139.875 Y91.873 E3.4813
G1 X138.966 Y92.277 E3.5171
G1 X137.997 Y92.483 E3.5526
G1 X86.998 Y92.482 E5.3846
G1 X86.025 Y92.274 E5.4203
G1 X85.117 Y91.868 E5.4560
G1 X84.313 Y91.283 E5.4918
G1 X83.648 Y90.543 E5.5275
G1 X83.151 Y89.681 E5.5632
G1 X82.845 Y88.735 E5.5990
G1 X82.740 Y87.737 E5.6350
G1 X82.740 Y57.763 E6.7117
G1 X82.845 Y56.765 E6.7477
G1 X83.153 Y55.814 E6.7836
G1 X83.650 Y54.953 E6.8194
; solid layer
G1 X84.075 Y89.506 F4800
G92 E0
G1 X85.746 Y91.177 E0.0849 F1600
G1 X86.302 Y91.425 E0.1068
G1 X86.774 Y91.526 E0.1241
G1 X83.709 Y88.461 E0.2798
G1 X83.629 Y87.702 E0.3072
G1 X87.521 Y91.594 E0.5049
G1 X88.200 Y91.594 E0.5293
G1 X83.628 Y87.022 E0.7615
G1 X83.628 Y86.343 E0.7859
G1 X88.878 Y91.594 E1.0526
G1 X89.557 Y91.594 E1.0770
G1 X83.628 Y85.664 E1.3782
G1 X83.628 Y84.986 E1.4026
G1 X90.236 Y91.594 E1.7383
G1 X90.915 Y91.594 E1.7627
G1 X83.628 Y84.307 E2.1328
G1 X83.628 Y83.628 E2.1572
G1 X91.594 Y91.594 E2.5619
G1 X92.273 Y91.594 E2.5863
G1 X83.628 Y82.949 E3.0254
G1 X83.628 Y82.270 E3.0498
G1 X92.951 Y91.594 E3.5234
G1 X93.630 Y91.594 E3.5478
G1 X83.628 Y81.592 E4.0559
G1 X83.628 Y80.913 E4.0803
G1 X94.309 Y91.594 E4.6229
G1 X94.988 Y91.594 E4.6473
G1 X83.628 Y80.234 E5.2244
G1 X83.628 Y79.555 E5.2487
G1 X95.667 Y91.594 E5.8603
G1 X96.346 Y91.594 E5.8847
G1 X83.628 Y78.876 E6.5308
G1 X83.628 Y78.197 E6.5551
G1 X97.024 Y91.594 E7.2357
G1 X97.703 Y91.594 E7.2601
G1 X83.628 Y77.519 E7.9751
G1 X83.628 Y76.840 E7.9995
G1 X98.382 Y91.594 E8.7490
G1 X99.061 Y91.594 E8.7734
G1 X83.628 Y76.161 E9.5573
G1 X83.628 Y75.482 E9.5817
G1 X99.740 Y91.594 E10.4002
G1 X100.419 Y91.594 E10.4246
G1 X83.628 Y74.803 E11.2775
G1 X83.628 Y74.124 E11.3019
G1 X101.097 Y91.594 E12.1894
G1 X101.776 Y91.594 E12.2138
G1 X83.628 Y73.446 E13.1357
G1 X83.628 Y72.767 E13.1601
G1 X102.455 Y91.594 E14.1165
G1 X103.134 Y91.594 E14.1409
G1 X83.628 Y72.088 E15.1318
G1 X83.628 Y71.409 E15.1562
G1 X103.813 Y91.594 E16.1815
G1 X104.492 Y91.594 E16.2059
G1 X83.628 Y70.730 E17.2658
G1 X83.628 Y70.052 E17.2902
G1 X105.170 Y91.594 E18.3845
G1 X105.849 Y91.594 E18.4089
G1 X83.628 Y69.373 E19.5378
G1 X83.628 Y68.694 E19.5621
G1 X106.528 Y91.594 E20.7255
G1 X107.207 Y91.594 E20.7498
G1 X83.628 Y68.015 E21.9477
G1 X83.628 Y67.336 E21.9720
G1 X107.886 Y91.594 E23.2043
G1 X108.565 Y91.594 E23.2287
G1 X83.628 Y66.657 E24.4955
G1 X83.628 Y65.979 E24.5199
G1 X109.243 Y91.594 E25.8211
G1 X109.922 Y91.594 E25.8455
G1 X83.628 Y65.300 E27.1813
G1 X83.628 Y64.621 E27.2057
G1 X110.601 Y91.594 E28.5759
G1 X111.280 Y91.594 E28.6003
G1 X83.628 Y63.942 E30.0050
G1 X83.628 Y63.263 E30.0294
G1 X111.959 Y91.594 E31.4686
G1 X112.638 Y91.594 E31.4930
G1 X83.628 Y62.584 E32.9666
G1 X83.628 Y61.906 E32.9910
G1 X113.316 Y91.594 E34.4992
G1 X113.995 Y91.594 E34.5236
G1 X83.628 Y61.227 E36.0662
G1 X83.628 Y60.548 E36.0906
G1 X114.674 Y91.594 E37.6678
G1 X115.353 Y91.594 E37.6921
G1 X83.628 Y59.869 E39.3038
G1 X83.628 Y59.190 E39.3282
G1 X116.032 Y91.594 E40.9743
G1 X116.711 Y91.594 E40.9986
G1 X83.628 Y58.512 E42.6792
G1 X83.628 Y57.833 E42.7036
G1 X117.389 Y91.594 E44.4187
G1 X118.068 Y91.594 E44.4431
G1 X83.690 Y57.216 E46.1895
G1 X83.718 Y56.950 E46.1991
G1 X83.812 Y56.660 E46.2101
G1 X118.747 Y91.594 E47.9848
G1 X119.426 Y91.594 E48.0091
G1 X83.983 Y56.152 E49.8096
G1 X84.232 Y55.721 E49.8275
G1 X120.105 Y91.594 E51.6498
G1 X120.784 Y91.594 E51.6742
G1 X84.512 Y55.323 E53.5168
G1 X84.834 Y54.966 E53.5341
G1 X121.462 Y91.594 E55.3948
G1 X122.141 Y91.594 E55.4192
G1 X85.209 Y54.662 E57.2953
G1 X85.567 Y54.402 E57.3112
G1 X85.609 Y54.383 E57.3129
G1 X122.820 Y91.594 E59.2032
G1 X123.499 Y91.594 E59.2276
G1 X86.079 Y54.174 E61.1285
G1 X86.305 Y54.073 E61.1374
G1 X86.595 Y54.012 E61.1481
G1 X124.178 Y91.594 E63.0572
G1 X124.857 Y91.594 E63.0816
G1 X87.168 Y53.905 E64.9962
G1 X87.847 Y53.905 E65.0206
G1 X125.536 Y91.594 E66.9352
G1 X126.214 Y91.594 E66.9596
G1 X88.525 Y53.905 E68.8742
G1 X89.204 Y53.905 E68.8986
G1 X126.893 Y91.594 E70.8132
G1 X127.572 Y91.594 E70.8375
G1 X89.883 Y53.905 E72.7521
G1 X90.562 Y53.905 E72.7765
G1 X128.251 Y91.594 E74.6911
G1 X128.930 Y91.594 E74.7155
G1 X91.241 Y53.905 E76.6301
G1 X91.919 Y53.905 E76.6545
G1 X129.609 Y91.594 E78.5691
G1 X130.287 Y91.594 E78.5935
G1 X92.598 Y53.905 E80.5081
G1 X93.277 Y53.905 E80.5325
G1 X130.966 Y91.594 E82.4471
G1 X131.645 Y91.594 E82.4714
G1 X93.956 Y53.905 E84.3861
G1 X94.635 Y53.905 E84.4104
G1 X132.324 Y91.595 E86.3250
G1 X133.003 Y91.595 E86.3494
G1 X95.314 Y53.905 E88.2640
G1 X95.992 Y53.905 E88.2884
G1 X133.682 Y91.595 E90.2030
G1 X134.360 Y91.595 E90.2274
G1 X96.671 Y53.905 E92.1420
G1 X97.350 Y53.905 E92.1664
G1 X135.039 Y91.595 E94.0810
G1 X135.718 Y91.595 E94.1054
G1 X98.029 Y53.905 E96.0200
G1 X98.708 Y53.905 E96.0444
G1 X136.397 Y91.595 E97.9590
G1 X137.076 Y91.595 E97.9834
G1 X99.387 Y53.905 E99.8980
G1 X100.065 Y53.905 E99.9223
G1 X137.755 Y91.595 E101.8370
G1 X137.904 Y91.595 E101.8423
G1 X138.341 Y91.502 E101.8584
G1 X100.744 Y53.905 E103.7683
G1 X101.423 Y53.905 E103.7926
G1 X138.867 Y91.349 E105.6948
G1 X139.337 Y91.140 E105.7133
G1 X102.102 Y53.905 E107.6048
G1 X102.781 Y53.905 E107.6292
G1 X139.745 Y90.870 E109.5070
G1 X140.084 Y90.625 E109.5220
G1 X140.129 Y90.575 E109.5244
G1 X103.459 Y53.905 E111.3872
G1 X104.138 Y53.905 E111.4116
G1 X140.451 Y90.218 E113.2563
G1 X140.625 Y90.025 E113.2656
G1 X140.739 Y89.827 E113.2738
G1 X104.817 Y53.905 E115.0986
G1 X105.496 Y53.905 E115.1230
G1 X140.988 Y89.397 E116.9260
G1 X141.032 Y89.322 E116.9292
G1 X141.169 Y88.900 E116.9451
G1 X106.175 Y53.905 E118.7228
G1 X106.854 Y53.905 E118.7472
G1 X141.302 Y88.354 E120.4972
G1 X141.367 Y87.740 E120.5194
G1 X107.532 Y53.905 E122.2382
G1 X108.211 Y53.905 E122.2625
G1 X141.371 Y87.066 E123.9471
G1 X141.371 Y86.387 E123.9715
G1 X108.890 Y53.905 E125.6215
G1 X109.569 Y53.905 E125.6459
G1 X141.371 Y85.708 E127.2615
G1 X141.371 Y85.029 E127.2858
G1 X110.248 Y53.905 E128.8669
G1 X110.926 Y53.905 E128.8913
G1 X141.372 Y84.350 E130.4379
G1 X141.372 Y83.672 E130.4623
G1 X111.605 Y53.905 E131.9744
G1 X112.284 Y53.905 E131.9988
G1 X141.372 Y82.993 E133.4764
G1 X141.372 Y82.314 E133.5008
G1 X112.963 Y53.905 E134.9440
G1 X113.642 Y53.905 E134.9684
G1 X141.372 Y81.635 E136.3770
G1 X141.372 Y80.956 E136.4014
G1 X114.321 Y53.905 E137.7756
G1 X114.999 Y53.905 E137.8000
G1 X141.372 Y80.278 E139.1397
G1 X141.372 Y79.599 E139.1641
G1 X115.678 Y53.905 E140.4693
G1 X116.357 Y53.905 E140.4937
G1 X141.372 Y78.920 E141.7644
G1 X141.372 Y78.241 E141.7888
G1 X117.036 Y53.905 E143.0251
G1 X117.715 Y53.905 E143.0494
G1 X141.372 Y77.562 E144.2512
G1 X141.372 Y76.883 E144.2756
G1 X118.394 Y53.905 E145.4429
G1 X119.072 Y53.905 E145.4673
G1 X141.372 Y76.205 E146.6001
G1 X141.372 Y75.526 E146.6244
G1 X119.751 Y53.905 E147.7228
G1 X120.430 Y53.905 E147.7471
G1 X141.372 Y74.847 E148.8110
G1 X141.372 Y74.168 E148.8354
G1 X121.109 Y53.905 E149.8647
G1 X121.788 Y53.905 E149.8891
G1 X141.372 Y73.489 E150.8840
G1 X141.372 Y72.811 E150.9083
G1 X122.466 Y53.905 E151.8687
G1 X123.145 Y53.905 E151.8931
G1 X141.372 Y72.132 E152.8190
G1 X141.372 Y71.453 E152.8434
G1 X123.824 Y53.905 E153.7348
G1 X124.503 Y53.905 E153.7592
G1 X141.372 Y70.774 E154.6161
G1 X141.372 Y70.095 E154.6405
G1 X125.182 Y53.905 E155.4630
G1 X125.861 Y53.905 E155.4874
G1 X141.372 Y69.417 E156.2753
G1 X141.372 Y68.738 E156.2997
G1 X126.539 Y53.905 E157.0532
G1 X127.218 Y53.905 E157.0776
G1 X141.372 Y68.059 E157.7966
G1 X141.372 Y67.380 E157.8210
G1 X127.897 Y53.905 E158.5055
G1 X128.576 Y53.905 E158.5299
G1 X141.372 Y66.701 E159.1799
G1 X141.372 Y66.023 E159.2043
G1 X129.255 Y53.905 E159.8198
G1 X129.934 Y53.905 E159.8442
G1 X141.372 Y65.344 E160.4253
G1 X141.372 Y64.665 E160.4497
G1 X130.612 Y53.905 E160.9962
G1 X131.291 Y53.905 E161.0206
G1 X141.372 Y63.986 E161.5327
G1 X141.372 Y63.307 E161.5571
G1 X131.970 Y53.905 E162.0347
G1 X132.649 Y53.905 E162.0591
G1 X141.372 Y62.628 E162.5022
G1 X141.372 Y61.950 E162.5266
G1 X133.328 Y53.905 E162.9353
G1 X134.006 Y53.905 E162.9597
G1 X141.372 Y61.271 E163.3338
G1 X141.372 Y60.592 E163.3582
G1 X134.685 Y53.905 E163.6979
G1 X135.364 Y53.905 E163.7223
G1 X141.372 Y59.913 E164.0275
G1 X141.372 Y59.234 E164.0519
G1 X136.043 Y53.905 E164.3226
G1 X136.722 Y53.905 E164.3470
G1 X141.372 Y58.556 E164.5832
G1 X141.372 Y57.877 E164.6076
G1 X137.401 Y53.905 E164.8093
G1 X137.904 Y53.905 E164.8274
G1 X138.127 Y53.953 E164.8356
G1 X141.300 Y57.126 E164.9968
G1 X141.281 Y56.946 E165.0033
G1 X141.032 Y56.179 E165.0323
G1 X139.112 Y54.259 E165.1298
G92 E0
G1 E-1.0000 F1800
; inner perimeter
G1 X136.659 Y98.443 F4800
G1 E0.0000 F1800
G92 E0
G1 X137.115 Y98.539 E0.0167 F1500
