; G-Code generated by Simplify3D(R) Version 4.0.0
; Oct 25, 2019 at 10:00:22 AM
; Settings Summary
;   processName,Process2
;   applyToModels,box_lid_34.5,box
;   profileName,Default(2) (modified)
;   profileVersion,2019-07-27 15:21:07
;   baseProfile,
;   printMaterial,PLA
;   printQuality,Medium
;   printExtruders,
;   extruderName,Primary Extruder
;   extruderToolheadNumber,0
;   extruderDiameter,0.4
;   extruderAutoWidth,1
;   extruderWidth,0.48
;   extrusionMultiplier,0.9
;   extruderUseRetract,1
;   extruderRetractionDistance,1
;   extruderExtraRestartDistance,0
;   extruderRetractionZLift,0
;   extruderRetractionSpeed,1800
;   extruderUseCoasting,0
;   extruderCoastingDistance,0.2
;   extruderUseWipe,0
;   extruderWipeDistance,5
;   primaryExtruder,0
;   layerHeight,0.2
;   topSolidLayers,3
;   bottomSolidLayers,2
;   perimeterOutlines,2
;   printPerimetersInsideOut,1
;   startPointOption,2
;   startPointOriginX,0
;   startPointOriginY,0
;   sequentialIslands,0
;   spiralVaseMode,0
;   firstLayerHeightPercentage,90
;   firstLayerWidthPercentage,100
;   firstLayerUnderspeed,0.5
;   useRaft,0
;   raftExtruder,0
;   raftTopLayers,3
;   raftBaseLayers,2
;   raftOffset,3
;   raftSeparationDistance,0.14
;   raftTopInfill,100
;   aboveRaftSpeedMultiplier,0.3
;   useSkirt,0
;   skirtExtruder,0
;   skirtLayers,1
;   skirtOutlines,2
;   skirtOffset,4
;   usePrimePillar,0
;   primePillarExtruder,999
;   primePillarWidth,12
;   primePillarLocation,7
;   primePillarSpeedMultiplier,1
;   useOozeShield,0
;   oozeShieldExtruder,999
;   oozeShieldOffset,2
;   oozeShieldOutlines,1
;   oozeShieldSidewallShape,1
;   oozeShieldSidewallAngle,30
;   oozeShieldSpeedMultiplier,1
;   infillExtruder,0
;   internalInfillPattern,Rectilinear
;   externalInfillPattern,Rectilinear
;   infillPercentage,10
;   outlineOverlapPercentage,15
;   infillExtrusionWidthPercentage,100
;   minInfillLength,5
;   infillLayerInterval,1
;   internalInfillAngles,45,-45
;   overlapInternalInfillAngles,0
;   externalInfillAngles,45,-45
;   generateSupport,0
;   supportExtruder,0
;   supportInfillPercentage,30
;   supportExtraInflation,0
;   supportBaseLayers,0
;   denseSupportExtruder,0
;   denseSupportLayers,0
;   denseSupportInfillPercentage,70
;   supportLayerInterval,1
;   supportHorizontalPartOffset,0.3
;   supportUpperSeparationLayers,1
;   supportLowerSeparationLayers,1
;   supportType,0
;   supportGridSpacing,4
;   maxOverhangAngle,45
;   supportAngles,0
;   temperatureName,Primary Extruder,Hot Bed
;   temperatureNumber,0,1
;   temperatureSetpointCount,1,1
;   temperatureSetpointLayers,1,1
;   temperatureSetpointTemperatures,200,60
;   temperatureStabilizeAtStartup,1,0
;   temperatureHeatedBed,0,1
;   temperatureRelayBetweenLayers,0,0
;   temperatureRelayBetweenLoops,0,0
;   fanLayers,1,2
;   fanSpeeds,0,100
;   blipFanToFullPower,0
;   adjustSpeedForCooling,1
;   minSpeedLayerTime,15
;   minCoolingSpeedSlowdown,20
;   increaseFanForCooling,0
;   minFanLayerTime,45
;   maxCoolingFanSpeed,100
;   increaseFanForBridging,0
;   bridgingFanSpeed,100
;   use5D,1
;   relativeEdistances,0
;   allowEaxisZeroing,1
;   independentExtruderAxes,0
;   includeM10123,0
;   stickySupport,1
;   applyToolheadOffsets,0
;   gcodeXoffset,-9
;   gcodeYoffset,-4
;   gcodeZoffset,0
;   overrideMachineDefinition,0
;   machineTypeOverride,0
;   strokeXoverride,200
;   strokeYoverride,200
;   strokeZoverride,200
;   originOffsetXoverride,0
;   originOffsetYoverride,0
;   originOffsetZoverride,0
;   homeXdirOverride,-1
;   homeYdirOverride,-1
;   homeZdirOverride,-1
;   flipXoverride,1
;   flipYoverride,-1
;   flipZoverride,1
;   toolheadOffsets,0,0|0,0|0,0|0,0|0,0|0,0
;   overrideFirmwareConfiguration,0
;   firmwareTypeOverride,RepRap (Marlin/Repetier/Sprinter)
;   GPXconfigOverride,r2
;   baudRateOverride,115200
;   overridePrinterModels,0
;   printerModelsOverride
;   startingGcode,G28 ; home all axes,G1 X2 Y15 Z0.2 F3000 ; get ready to prime,G92 E0 ; reset extrusion distance,G1 Y150 E20 F600 ; prime nozzle
;   layerChangeGcode,
;   retractionGcode,
;   toolChangeGcode,
;   endingGcode,M104 S0 ; turn off extruder,M140 S0 ; turn off bed,G28 X Y ; home X & Y,M84 ; disable motors,M107; Fan off
;   exportFileFormat,gcode
;   celebration,0
;   celebrationSong,Random Song
;   postProcessing,
;   defaultSpeed,4000
;   outlineUnderspeed,0.5
;   solidInfillUnderspeed,0.8
;   supportUnderspeed,0.8
;   rapidXYspeed,4800
;   rapidZspeed,1000
;   minBridgingArea,50
;   bridgingExtraInflation,0
;   bridgingExtrusionMultiplier,1
;   bridgingSpeedMultiplier,1
;   useFixedBridgingAngle,0
;   fixedBridgingAngle,0
;   applyBridgingToPerimeters,0
;   filamentDiameters,1.75|1.75|1.75|1.75|1.75|1.75
;   filamentPricesPerKg,46|46|46|46|46|46
;   filamentDensities,1.25|1.25|1.25|1.25|1.25|1.25
;   useMinPrintHeight,0
;   minPrintHeight,0
;   useMaxPrintHeight,0
;   maxPrintHeight,0
;   useDiaphragm,0
;   diaphragmLayerInterval,20
;   robustSlicing,1
;   mergeAllIntoSolid,0
;   onlyRetractWhenCrossingOutline,1
;   retractBetweenLayers,1
;   useRetractionMinTravel,0
;   retractionMinTravel,3
;   retractWhileWiping,0
;   onlyWipeOutlines,1
;   avoidCrossingOutline,0
;   maxMovementDetourFactor,3
;   toolChangeRetractionDistance,12
;   toolChangeExtraRestartDistance,-0.5
;   toolChangeRetractionSpeed,600
;   externalThinWallType,1
;   internalThinWallType,2
;   thinWallAllowedOverlapPercentage,10
;   singleExtrusionMinLength,1
;   singleExtrusionMinPrintingWidthPercentage,50
;   singleExtrusionMaxPrintingWidthPercentage,200
;   singleExtrusionEndpointExtension,0.2
;   horizontalSizeCompensation,0
G90
M82
M106 S0
M140 S60
M104 S200 T0
M109 S200 T0
G28 ; home all axes
G1 X2 Y15 Z0.2 F3000 ; get ready to prime
G92 E0 ; reset extrusion distance
G1 Y150 E20 F600 ; prime nozzle
G92 E0
G1 E-1.0000 F1800
G1 Z0.180 F1000
; process Process2
; layer 1, Z = 0.180
T0
; tool H0.200 W0.480
; inner perimeter
G1 X84.041 Y75.237 F4800
G1 E0.0000 F540
G92 E0
G1 X84.639 Y74.572 E0.0321 F1500
G1 X85.362 Y74.047 E0.0642
G1 X86.179 Y73.683 E0.0963
G1 X87.053 Y73.497 E0.1284
G1 X137.947 Y73.497 E1.9566
G1 X138.821 Y73.683 E1.9887
G1 X139.638 Y74.047 E2.0208
G1 X140.361 Y74.572 E2.0529
G1 X140.959 Y75.237 E2.0850
G1 X141.406 Y76.011 E2.1172
G1 X141.683 Y76.861 E2.1493
G1 X141.780 Y77.788 E2.1827
G1 X141.779 Y107.717 E3.2578
G1 X141.683 Y108.639 E3.2911
G1 X141.406 Y109.489 E3.3232
G1 X140.957 Y110.266 E3.3555
G1 X140.358 Y110.930 E3.3876
G1 X139.634 Y111.455 E3.4197
G1 X138.817 Y111.818 E3.4518
G1 X137.947 Y112.003 E3.4838
G1 X87.049 Y112.002 E5.3121
G1 X86.175 Y111.815 E5.3442
G1 X85.359 Y111.451 E5.3763
G1 X84.636 Y110.925 E5.4084
G1 X84.039 Y110.260 E5.4405
G1 X83.592 Y109.485 E5.4726
G1 X83.317 Y108.635 E5.5047
G1 X83.220 Y107.712 E5.5381
G1 X83.220 Y77.788 E6.6130
G1 X83.317 Y76.865 E6.6463
G1 X83.594 Y76.010 E6.6786
G1 X84.041 Y75.237 E6.7107
; outer perimeter
G1 X83.650 Y74.953 F4800
G92 E0
G1 X84.316 Y74.214 E0.0357 F1000
G1 X85.121 Y73.629 E0.0715
G1 X86.029 Y73.224 E0.1072
G1 X87.003 Y73.017 E0.1429
G1 X137.997 Y73.017 E1.9747
G1 X138.970 Y73.224 E2.0105
G1 X139.879 Y73.629 E2.0462
G1 X140.684 Y74.214 E2.0819
G1 X141.350 Y74.953 E2.1177
G1 X141.847 Y75.814 E2.1534
G1 X142.155 Y76.761 E2.1891
G1 X142.260 Y77.763 E2.2253
G1 X142.259 Y107.743 E3.3022
G1 X142.155 Y108.739 E3.3382
G1 X141.847 Y109.685 E3.3740
G1 X141.347 Y110.550 E3.4099
G1 X140.681 Y111.289 E3.4456
G1 X139.875 Y111.873 E3.4813
G1 X138.966 Y112.277 E3.5171
G1 X137.997 Y112.483 E3.5526
G1 X86.998 Y112.482 E5.3846
G1 X86.025 Y112.274 E5.4203
G1 X85.117 Y111.868 E5.4560
G1 X84.313 Y111.283 E5.4918
G1 X83.648 Y110.543 E5.5275
G1 X83.151 Y109.681 E5.5632
G1 X82.845 Y108.735 E5.5990
G1 X82.740 Y107.737 E5.6350
G1 X82.740 Y77.763 E6.7117
G1 X82.845 Y76.765 E6.7477
G1 X83.153 Y75.814 E6.7836
G1 X83.650 Y74.953 E6.8194
; solid layer
G1 X83.855 Y108.971 F4800
G92 E0
G1 X86.310 Y111.427 E0.1247 F1600
G1 X87.092 Y111.594 E0.1534
G1 X87.156 Y111.594 E0.1558
G1 X83.672 Y108.110 E0.3327
G1 X83.628 Y107.691 E0.3479
G1 X83.628 Y107.387 E0.3588
G1 X87.835 Y111.594 E0.5725
G1 X88.514 Y111.594 E0.5969
G1 X83.628 Y106.708 E0.8451
G1 X83.628 Y106.029 E0.8695
G1 X89.193 Y111.594 E1.1521
G1 X89.871 Y111.594 E1.1765
G1 X83.628 Y105.350 E1.4937
G1 X83.628 Y104.671 E1.5181
G1 X90.550 Y111.594 E1.8697
G1 X91.229 Y111.594 E1.8941
G1 X83.628 Y103.993 E2.2802
G1 X83.628 Y103.314 E2.3046
G1 X91.908 Y111.594 E2.7252
G1 X92.587 Y111.594 E2.7496
G1 X83.628 Y102.635 E3.2047
G1 X83.628 Y101.956 E3.2291
G1 X93.266 Y111.594 E3.7187
G1 X93.944 Y111.594 E3.7431
G1 X83.628 Y101.277 E4.2671
G1 X83.628 Y100.599 E4.2915
G1 X94.623 Y111.594 E4.8501
G1 X95.302 Y111.594 E4.8745
G1 X83.628 Y99.920 E5.4675
G1 X83.628 Y99.241 E5.4919
G1 X95.981 Y111.594 E6.1194
G1 X96.660 Y111.594 E6.1438
G1 X83.628 Y98.562 E6.8058
G1 X83.628 Y97.883 E6.8302
G1 X97.339 Y111.594 E7.5267
G1 X98.017 Y111.594 E7.5511
G1 X83.628 Y97.204 E8.2821
G1 X83.628 Y96.526 E8.3064
G1 X98.696 Y111.594 E9.0719
G1 X99.375 Y111.594 E9.0963
G1 X83.628 Y95.847 E9.8962
G1 X83.628 Y95.168 E9.9206
G1 X100.054 Y111.594 E10.7551
G1 X100.733 Y111.594 E10.7794
G1 X83.628 Y94.489 E11.6484
G1 X83.628 Y93.810 E11.6728
G1 X101.412 Y111.594 E12.5762
G1 X102.090 Y111.594 E12.6005
G1 X83.628 Y93.131 E13.5384
G1 X83.628 Y92.453 E13.5628
G1 X102.769 Y111.594 E14.5352
G1 X103.448 Y111.594 E14.5596
G1 X83.628 Y91.774 E15.5664
G1 X83.628 Y91.095 E15.5908
G1 X104.127 Y111.594 E16.6322
G1 X104.806 Y111.594 E16.6565
G1 X83.628 Y90.416 E17.7324
G1 X83.628 Y89.737 E17.7568
G1 X105.485 Y111.594 E18.8671
G1 X106.163 Y111.594 E18.8914
G1 X83.628 Y89.059 E20.0362
G1 X83.628 Y88.380 E20.0606
G1 X106.842 Y111.594 E21.2399
G1 X107.521 Y111.594 E21.2643
G1 X83.628 Y87.701 E22.4781
G1 X83.628 Y87.022 E22.5024
G1 X108.200 Y111.594 E23.7507
G1 X108.879 Y111.594 E23.7751
G1 X83.628 Y86.343 E25.0578
G1 X83.628 Y85.664 E25.0822
G1 X109.558 Y111.594 E26.3994
G1 X110.236 Y111.594 E26.4238
G1 X83.628 Y84.986 E27.7755
G1 X83.628 Y84.307 E27.7999
G1 X110.915 Y111.594 E29.1861
G1 X111.594 Y111.594 E29.2105
G1 X83.628 Y83.628 E30.6312
G1 X83.628 Y82.949 E30.6555
G1 X112.273 Y111.594 E32.1107
G1 X112.952 Y111.594 E32.1351
G1 X83.628 Y82.270 E33.6247
G1 X83.628 Y81.592 E33.6491
G1 X113.631 Y111.594 E35.1732
G1 X114.309 Y111.594 E35.1976
G1 X83.628 Y80.913 E36.7562
G1 X83.628 Y80.234 E36.7806
G1 X114.988 Y111.594 E38.3737
G1 X115.667 Y111.594 E38.3981
G1 X83.628 Y79.555 E40.0257
G1 X83.628 Y78.876 E40.0501
G1 X116.346 Y111.594 E41.7121
G1 X117.025 Y111.594 E41.7365
G1 X83.628 Y78.197 E43.4331
G1 X83.628 Y77.809 E43.4470
G1 X83.656 Y77.546 E43.4565
G1 X117.704 Y111.594 E45.1862
G1 X118.382 Y111.594 E45.2105
G1 X83.723 Y76.935 E46.9712
G1 X83.889 Y76.422 E46.9906
G1 X119.061 Y111.594 E48.7773
G1 X119.740 Y111.594 E48.8017
G1 X84.098 Y75.953 E50.6123
G1 X84.347 Y75.522 E50.6302
G1 X120.419 Y111.594 E52.4626
G1 X121.098 Y111.594 E52.4870
G1 X84.661 Y75.157 E54.3380
G1 X84.913 Y74.877 E54.3515
G1 X84.998 Y74.816 E54.3553
G1 X121.777 Y111.594 E56.2236
G1 X122.455 Y111.594 E56.2480
G1 X85.391 Y74.530 E58.1309
G1 X85.567 Y74.402 E58.1387
G1 X85.827 Y74.287 E58.1489
G1 X123.134 Y111.594 E60.0441
G1 X123.813 Y111.594 E60.0685
G1 X86.296 Y74.077 E61.9744
G1 X86.305 Y74.073 E61.9747
G1 X86.854 Y73.957 E61.9949
G1 X124.492 Y111.594 E63.9069
G1 X125.171 Y111.594 E63.9313
G1 X87.482 Y73.905 E65.8459
G1 X88.161 Y73.905 E65.8702
G1 X125.850 Y111.594 E67.7848
G1 X126.529 Y111.594 E67.8092
G1 X88.839 Y73.905 E69.7238
G1 X89.518 Y73.905 E69.7482
G1 X127.207 Y111.594 E71.6628
G1 X127.886 Y111.594 E71.6872
G1 X90.197 Y73.905 E73.6018
G1 X90.876 Y73.905 E73.6262
G1 X128.565 Y111.594 E75.5408
G1 X129.244 Y111.594 E75.5652
G1 X91.555 Y73.905 E77.4798
G1 X92.234 Y73.905 E77.5041
G1 X129.923 Y111.594 E79.4187
G1 X130.602 Y111.594 E79.4431
G1 X92.912 Y73.905 E81.3577
G1 X93.591 Y73.905 E81.3821
G1 X131.280 Y111.594 E83.2967
G1 X131.959 Y111.594 E83.3211
G1 X94.270 Y73.905 E85.2357
G1 X94.949 Y73.905 E85.2601
G1 X132.638 Y111.594 E87.1747
G1 X133.317 Y111.595 E87.1991
G1 X95.628 Y73.905 E89.1137
G1 X96.307 Y73.905 E89.1381
G1 X133.996 Y111.595 E91.0527
G1 X134.675 Y111.595 E91.0771
G1 X96.985 Y73.905 E92.9917
G1 X97.664 Y73.905 E93.0160
G1 X135.353 Y111.595 E94.9306
G1 X136.032 Y111.595 E94.9550
G1 X98.343 Y73.905 E96.8696
G1 X99.022 Y73.905 E96.8940
G1 X136.711 Y111.595 E98.8086
G1 X137.390 Y111.595 E98.8330
G1 X99.701 Y73.905 E100.7476
G1 X100.379 Y73.905 E100.7720
G1 X138.040 Y111.566 E102.6851
G1 X138.600 Y111.447 E102.7057
G1 X101.058 Y73.905 E104.6128
G1 X101.737 Y73.905 E104.6372
G1 X139.084 Y111.253 E106.5344
G1 X139.430 Y111.099 E106.5480
G1 X139.534 Y111.023 E106.5526
G1 X102.416 Y73.905 E108.4382
G1 X103.095 Y73.905 E108.4626
G1 X139.928 Y110.738 E110.3337
G1 X140.084 Y110.625 E110.3406
G1 X140.278 Y110.410 E110.3510
G1 X103.774 Y73.905 E112.2055
G1 X104.452 Y73.905 E112.2298
G1 X140.600 Y110.053 E114.0661
G1 X140.625 Y110.025 E114.0675
G1 X140.854 Y109.628 E114.0839
G1 X105.131 Y73.905 E115.8987
G1 X105.810 Y73.905 E115.9230
G1 X141.079 Y109.175 E117.7147
G1 X141.246 Y108.662 E117.7341
G1 X106.489 Y73.905 E119.4997
G1 X107.168 Y73.905 E119.5241
G1 X141.332 Y108.070 E121.2597
G1 X141.371 Y107.696 E121.2732
G1 X141.371 Y107.430 E121.2827
G1 X107.847 Y73.905 E122.9858
G1 X108.525 Y73.905 E123.0102
G1 X141.371 Y106.751 E124.6787
G1 X141.371 Y106.073 E124.7031
G1 X109.204 Y73.905 E126.3372
G1 X109.883 Y73.905 E126.3616
G1 X141.371 Y105.394 E127.9612
G1 X141.372 Y104.715 E127.9856
G1 X110.562 Y73.905 E129.5507
G1 X111.241 Y73.905 E129.5751
G1 X141.372 Y104.036 E131.1058
G1 X141.372 Y103.357 E131.1301
G1 X111.919 Y73.905 E132.6263
G1 X112.598 Y73.905 E132.6507
G1 X141.372 Y102.679 E134.1124
G1 X141.372 Y102.000 E134.1368
G1 X113.277 Y73.905 E135.5639
G1 X113.956 Y73.905 E135.5883
G1 X141.372 Y101.321 E136.9810
G1 X141.372 Y100.642 E137.0054
G1 X114.635 Y73.905 E138.3637
G1 X115.314 Y73.905 E138.3880
G1 X141.372 Y99.963 E139.7118
G1 X141.372 Y99.285 E139.7362
G1 X115.992 Y73.905 E141.0254
G1 X116.671 Y73.905 E141.0498
G1 X141.372 Y98.606 E142.3046
G1 X141.372 Y97.927 E142.3290
G1 X117.350 Y73.905 E143.5493
G1 X118.029 Y73.905 E143.5737
G1 X141.372 Y97.248 E144.7595
G1 X141.372 Y96.569 E144.7838
G1 X118.708 Y73.905 E145.9352
G1 X119.387 Y73.905 E145.9596
G1 X141.372 Y95.891 E147.0764
G1 X141.372 Y95.212 E147.1008
G1 X120.065 Y73.905 E148.1831
G1 X120.744 Y73.905 E148.2075
G1 X141.372 Y94.533 E149.2554
G1 X141.372 Y93.854 E149.2798
G1 X121.423 Y73.905 E150.2932
G1 X122.102 Y73.905 E150.3176
G1 X141.372 Y93.175 E151.2965
G1 X141.372 Y92.496 E151.3209
G1 X122.781 Y73.905 E152.2653
G1 X123.459 Y73.905 E152.2897
G1 X141.372 Y91.818 E153.1996
G1 X141.372 Y91.139 E153.2240
G1 X124.138 Y73.905 E154.0995
G1 X124.817 Y73.905 E154.1238
G1 X141.372 Y90.460 E154.9648
G1 X141.372 Y89.781 E154.9892
G1 X125.496 Y73.905 E155.7957
G1 X126.175 Y73.905 E155.8201
G1 X141.372 Y89.102 E156.5921
G1 X141.372 Y88.424 E156.6165
G1 X126.854 Y73.905 E157.3540
G1 X127.532 Y73.905 E157.3784
G1 X141.372 Y87.745 E158.0814
G1 X141.372 Y87.066 E158.1058
G1 X128.211 Y73.905 E158.7744
G1 X128.890 Y73.905 E158.7987
G1 X141.372 Y86.387 E159.4328
G1 X141.372 Y85.708 E159.4572
G1 X129.569 Y73.905 E160.0568
G1 X130.248 Y73.905 E160.0812
G1 X141.372 Y85.030 E160.6463
G1 X141.372 Y84.351 E160.6707
G1 X130.926 Y73.905 E161.2013
G1 X131.605 Y73.905 E161.2257
G1 X141.372 Y83.672 E161.7218
G1 X141.372 Y82.993 E161.7462
G1 X132.284 Y73.905 E162.2079
G1 X132.963 Y73.905 E162.2323
G1 X141.372 Y82.314 E162.6594
G1 X141.372 Y81.636 E162.6838
G1 X133.642 Y73.905 E163.0765
G1 X134.321 Y73.905 E163.1009
G1 X141.372 Y80.957 E163.4591
G1 X141.372 Y80.278 E163.4835
G1 X134.999 Y73.905 E163.8072
G1 X135.678 Y73.905 E163.8316
G1 X141.372 Y79.599 E164.1208
G1 X141.372 Y78.920 E164.1452
G1 X136.357 Y73.905 E164.4000
G1 X137.036 Y73.905 E164.4243
G1 X141.372 Y78.241 E164.6446
G1 X141.372 Y77.809 E164.6602
G1 X141.343 Y77.534 E164.6701
G1 X137.715 Y73.905 E164.8544
G1 X137.904 Y73.905 E164.8612
G1 X138.526 Y74.038 E164.8840
G1 X141.208 Y76.719 E165.0203
