; G-Code generated by Simplify3D(R) Version 4.0.0
; Dec 31, 2020 at 3:38:30 PM
; Settings Summary
;   processName,Process1
;   applyToModels,cable_holder_2,cable_holder
;   profileName,new profile (modified)
;   profileVersion,2020-09-07 14:01:24
;   baseProfile,Default (modified)
;   printMaterial,PLA
;   printQuality,Medium
;   printExtruders,
;   extruderName,Primary Extruder
;   extruderToolheadNumber,0
;   extruderDiameter,0.4
;   extruderAutoWidth,0
;   extruderWidth,0.4
;   extrusionMultiplier,0.9
;   extruderUseRetract,1
;   extruderRetractionDistance,1
;   extruderExtraRestartDistance,0
;   extruderRetractionZLift,0
;   extruderRetractionSpeed,1800
;   extruderUseCoasting,0
;   extruderCoastingDistance,0.2
;   extruderUseWipe,0
;   extruderWipeDistance,5
;   primaryExtruder,0
;   layerHeight,0.3
;   topSolidLayers,3
;   bottomSolidLayers,3
;   perimeterOutlines,2
;   printPerimetersInsideOut,1
;   startPointOption,2
;   startPointOriginX,0
;   startPointOriginY,0
;   sequentialIslands,0
;   spiralVaseMode,0
;   firstLayerHeightPercentage,90
;   firstLayerWidthPercentage,103
;   firstLayerUnderspeed,0.5
;   useRaft,0
;   raftExtruder,0
;   raftTopLayers,3
;   raftBaseLayers,2
;   raftOffset,3
;   raftSeparationDistance,0.14
;   raftTopInfill,100
;   aboveRaftSpeedMultiplier,0.3
;   useSkirt,0
;   skirtExtruder,0
;   skirtLayers,1
;   skirtOutlines,2
;   skirtOffset,4
;   usePrimePillar,0
;   primePillarExtruder,999
;   primePillarWidth,12
;   primePillarLocation,7
;   primePillarSpeedMultiplier,1
;   useOozeShield,0
;   oozeShieldExtruder,999
;   oozeShieldOffset,2
;   oozeShieldOutlines,1
;   oozeShieldSidewallShape,1
;   oozeShieldSidewallAngle,30
;   oozeShieldSpeedMultiplier,1
;   infillExtruder,0
;   internalInfillPattern,Rectilinear
;   externalInfillPattern,Rectilinear
;   infillPercentage,20
;   outlineOverlapPercentage,15
;   infillExtrusionWidthPercentage,100
;   minInfillLength,5
;   infillLayerInterval,1
;   internalInfillAngles,45,-45
;   overlapInternalInfillAngles,0
;   externalInfillAngles,45,-45
;   generateSupport,1
;   supportExtruder,0
;   supportInfillPercentage,30
;   supportExtraInflation,0
;   supportBaseLayers,0
;   denseSupportExtruder,0
;   denseSupportLayers,0
;   denseSupportInfillPercentage,70
;   supportLayerInterval,1
;   supportHorizontalPartOffset,0.3
;   supportUpperSeparationLayers,1
;   supportLowerSeparationLayers,1
;   supportType,0
;   supportGridSpacing,4
;   maxOverhangAngle,45
;   supportAngles,0
;   temperatureName,Primary Extruder,Hot Bed
;   temperatureNumber,0,1
;   temperatureSetpointCount,1,1
;   temperatureSetpointLayers,1,1
;   temperatureSetpointTemperatures,210,60
;   temperatureStabilizeAtStartup,1,0
;   temperatureHeatedBed,0,1
;   temperatureRelayBetweenLayers,0,0
;   temperatureRelayBetweenLoops,0,0
;   fanLayers,1,2
;   fanSpeeds,0,100
;   blipFanToFullPower,0
;   adjustSpeedForCooling,1
;   minSpeedLayerTime,15
;   minCoolingSpeedSlowdown,20
;   increaseFanForCooling,0
;   minFanLayerTime,45
;   maxCoolingFanSpeed,100
;   increaseFanForBridging,0
;   bridgingFanSpeed,100
;   use5D,1
;   relativeEdistances,0
;   allowEaxisZeroing,1
;   independentExtruderAxes,0
;   includeM10123,0
;   stickySupport,1
;   applyToolheadOffsets,0
;   gcodeXoffset,-0.03
;   gcodeYoffset,-0.03
;   gcodeZoffset,0
;   overrideMachineDefinition,0
;   machineTypeOverride,0
;   strokeXoverride,200
;   strokeYoverride,200
;   strokeZoverride,200
;   originOffsetXoverride,0
;   originOffsetYoverride,0
;   originOffsetZoverride,0
;   homeXdirOverride,-1
;   homeYdirOverride,-1
;   homeZdirOverride,-1
;   flipXoverride,1
;   flipYoverride,-1
;   flipZoverride,1
;   toolheadOffsets,0,0|0,0|0,0|0,0|0,0|0,0
;   overrideFirmwareConfiguration,0
;   firmwareTypeOverride,RepRap (Marlin/Repetier/Sprinter)
;   GPXconfigOverride,r2
;   baudRateOverride,115200
;   overridePrinterModels,0
;   printerModelsOverride
;   startingGcode,G28 ; home all axes,G1 X3 Y5 Z0.2 F3000 ; get ready to prime,G92 E0 ; reset extrusion distance,G1 Y150 E20 F600 ; prime nozzle
;   layerChangeGcode,
;   retractionGcode,
;   toolChangeGcode,
;   endingGcode,M104 S0 ; turn off extruder,M140 S0 ; turn off bedG1 X0 Y0; home,M84 ; disable motors,M107 ; fan off,G28 X Y; Home,M18; Disable steppers
;   exportFileFormat,gcode
;   celebration,0
;   celebrationSong,Random Song
;   postProcessing,
;   defaultSpeed,4600
;   outlineUnderspeed,0.5
;   solidInfillUnderspeed,0.8
;   supportUnderspeed,0.8
;   rapidXYspeed,4800
;   rapidZspeed,1000
;   minBridgingArea,50
;   bridgingExtraInflation,0
;   bridgingExtrusionMultiplier,1
;   bridgingSpeedMultiplier,1
;   useFixedBridgingAngle,0
;   fixedBridgingAngle,0
;   applyBridgingToPerimeters,0
;   filamentDiameters,1.75|1.75|1.75|1.75|1.75|1.75
;   filamentPricesPerKg,46|46|46|46|46|46
;   filamentDensities,1.25|1.25|1.25|1.25|1.25|1.25
;   useMinPrintHeight,0
;   minPrintHeight,0
;   useMaxPrintHeight,0
;   maxPrintHeight,0
;   useDiaphragm,0
;   diaphragmLayerInterval,20
;   robustSlicing,1
;   mergeAllIntoSolid,0
;   onlyRetractWhenCrossingOutline,1
;   retractBetweenLayers,1
;   useRetractionMinTravel,0
;   retractionMinTravel,3
;   retractWhileWiping,0
;   onlyWipeOutlines,1
;   avoidCrossingOutline,0
;   maxMovementDetourFactor,3
;   toolChangeRetractionDistance,12
;   toolChangeExtraRestartDistance,-0.5
;   toolChangeRetractionSpeed,600
;   externalThinWallType,1
;   internalThinWallType,1
;   thinWallAllowedOverlapPercentage,10
;   singleExtrusionMinLength,1
;   singleExtrusionMinPrintingWidthPercentage,50
;   singleExtrusionMaxPrintingWidthPercentage,200
;   singleExtrusionEndpointExtension,0.2
;   horizontalSizeCompensation,0
G90
M82
M106 S0
M140 S60
M104 S210 T0
M109 S210 T0
G28 ; home all axes
G1 X3 Y5 Z0.2 F3000 ; get ready to prime
G92 E0 ; reset extrusion distance
G1 Y150 E20 F600 ; prime nozzle
G92 E0
G1 E-1.0000 F1800
G1 Z0.270 F1000
; process Process1
; layer 1, Z = 0.270
T0
; tool H0.300 W0.412
; inner perimeter
G1 X91.438 Y94.618 F4800
G1 E0.0000 F540
G92 E0
G1 X136.502 Y94.618 E2.0841 F1725
G1 X136.502 Y105.889 E2.6054
G1 X132.692 Y109.698 E2.8545
G1 X128.566 Y109.698 E3.0453
G1 X128.566 Y106.698 E3.1841
G1 X99.374 Y106.698 E4.5342
G1 X99.374 Y109.698 E4.6729
G1 X95.248 Y109.698 E4.8638
G1 X91.438 Y105.889 E5.1129
G1 X91.438 Y94.618 E5.6342
; outer perimeter
G1 X91.026 Y94.206 F4800
G92 E0
G1 X136.914 Y94.206 E2.1222 F1150
G1 X136.914 Y106.059 E2.6704
G1 X132.863 Y110.110 E2.9354
G1 X128.154 Y110.110 E3.1531
G1 X128.154 Y107.110 E3.2919
G1 X99.786 Y107.110 E4.6039
G1 X99.786 Y110.110 E4.7426
G1 X95.077 Y110.110 E4.9604
G1 X91.026 Y106.059 E5.2253
G1 X91.026 Y94.206 E5.7735
; inner perimeter
G1 X97.107 Y101.042 F4800
G92 E0
G1 X96.846 Y101.303 E0.0171 F1725
G1 X96.634 Y101.606 E0.0342
G1 X96.477 Y101.941 E0.0513
G1 X96.382 Y102.298 E0.0684
G1 X96.350 Y102.666 E0.0855
G1 X96.382 Y103.034 E0.1026
G1 X96.477 Y103.391 E0.1197
G1 X96.634 Y103.726 E0.1368
G1 X96.846 Y104.029 E0.1538
G1 X97.107 Y104.291 E0.1709
G1 X97.410 Y104.503 E0.1880
G1 X97.745 Y104.659 E0.2051
G1 X98.102 Y104.754 E0.2222
G1 X98.470 Y104.787 E0.2393
G1 X98.838 Y104.754 E0.2564
G1 X99.195 Y104.659 E0.2735
G1 X99.530 Y104.503 E0.2906
G1 X99.833 Y104.291 E0.3077
G1 X100.094 Y104.029 E0.3248
G1 X100.306 Y103.726 E0.3419
G1 X100.463 Y103.391 E0.3590
G1 X100.558 Y103.034 E0.3761
G1 X100.590 Y102.666 E0.3932
G1 X100.558 Y102.298 E0.4102
G1 X100.463 Y101.941 E0.4273
G1 X100.306 Y101.606 E0.4444
G1 X100.094 Y101.303 E0.4615
G1 X99.833 Y101.042 E0.4786
G1 X99.530 Y100.830 E0.4957
G1 X99.195 Y100.674 E0.5128
G1 X98.838 Y100.578 E0.5299
G1 X98.470 Y100.546 E0.5470
G1 X98.102 Y100.578 E0.5641
G1 X97.745 Y100.674 E0.5812
G1 X97.410 Y100.830 E0.5983
G1 X97.107 Y101.042 E0.6154
; outer perimeter
G1 X97.373 Y101.359 F4800
G92 E0
G1 X97.162 Y101.569 E0.0138 F1150
G1 X96.992 Y101.813 E0.0275
G1 X96.866 Y102.083 E0.0413
G1 X96.789 Y102.370 E0.0550
G1 X96.763 Y102.666 E0.0688
G1 X96.789 Y102.963 E0.0826
G1 X96.866 Y103.250 E0.0963
G1 X96.992 Y103.520 E0.1101
G1 X97.162 Y103.763 E0.1238
G1 X97.373 Y103.974 E0.1376
G1 X97.617 Y104.144 E0.1514
G1 X97.886 Y104.270 E0.1651
G1 X98.174 Y104.347 E0.1789
G1 X98.470 Y104.373 E0.1926
G1 X98.766 Y104.347 E0.2064
G1 X99.054 Y104.270 E0.2202
G1 X99.323 Y104.144 E0.2339
G1 X99.567 Y103.974 E0.2477
G1 X99.778 Y103.763 E0.2614
G1 X99.948 Y103.520 E0.2752
G1 X100.074 Y103.250 E0.2890
G1 X100.151 Y102.963 E0.3027
G1 X100.177 Y102.666 E0.3165
G1 X100.151 Y102.370 E0.3302
G1 X100.074 Y102.083 E0.3440
G1 X99.948 Y101.813 E0.3577
G1 X99.778 Y101.569 E0.3715
G1 X99.567 Y101.359 E0.3853
G1 X99.323 Y101.188 E0.3990
G1 X99.054 Y101.062 E0.4128
G1 X98.766 Y100.985 E0.4265
G1 X98.470 Y100.959 E0.4403
G1 X98.174 Y100.985 E0.4541
G1 X97.886 Y101.062 E0.4678
G1 X97.617 Y101.188 E0.4816
G1 X97.373 Y101.359 E0.4953
G92 E0
G1 E-1.0000 F1800
; inner perimeter
G1 X127.350 Y102.666 F4800
G1 E0.0000 F1800
G92 E0
G1 X127.382 Y103.034 E0.0171 F1725
G1 X127.477 Y103.391 E0.0342
G1 X127.634 Y103.727 E0.0513
G1 X127.846 Y104.029 E0.0684
G1 X128.107 Y104.291 E0.0855
G1 X128.410 Y104.503 E0.1026
G1 X128.745 Y104.659 E0.1197
G1 X129.102 Y104.754 E0.1367
G1 X129.470 Y104.787 E0.1538
G1 X129.838 Y104.754 E0.1709
G1 X130.195 Y104.659 E0.1880
G1 X130.530 Y104.503 E0.2051
G1 X130.833 Y104.291 E0.2222
G1 X131.094 Y104.029 E0.2393
G1 X131.306 Y103.726 E0.2564
G1 X131.462 Y103.391 E0.2735
G1 X131.558 Y103.034 E0.2906
G1 X131.590 Y102.666 E0.3077
G1 X131.558 Y102.298 E0.3248
G1 X131.462 Y101.941 E0.3419
G1 X131.306 Y101.606 E0.3590
G1 X131.094 Y101.303 E0.3761
G1 X130.833 Y101.042 E0.3931
G1 X130.530 Y100.830 E0.4102
G1 X130.195 Y100.674 E0.4273
G1 X129.838 Y100.578 E0.4444
G1 X129.470 Y100.546 E0.4615
G1 X129.102 Y100.578 E0.4786
G1 X128.745 Y100.674 E0.4957
G1 X128.410 Y100.830 E0.5128
G1 X128.107 Y101.042 E0.5299
G1 X127.846 Y101.303 E0.5470
G1 X127.634 Y101.606 E0.5641
G1 X127.477 Y101.941 E0.5812
G1 X127.382 Y102.298 E0.5983
G1 X127.350 Y102.666 E0.6154
; outer perimeter
G1 X127.763 Y102.666 F4800
G92 E0
G1 X127.789 Y102.963 E0.0138 F1150
G1 X127.866 Y103.250 E0.0275
G1 X127.992 Y103.520 E0.0413
G1 X128.163 Y103.763 E0.0550
G1 X128.373 Y103.974 E0.0688
G1 X128.617 Y104.144 E0.0826
G1 X128.886 Y104.270 E0.0963
G1 X129.174 Y104.347 E0.1101
G1 X129.470 Y104.373 E0.1238
G1 X129.766 Y104.347 E0.1376
G1 X130.054 Y104.270 E0.1514
G1 X130.323 Y104.144 E0.1651
G1 X130.567 Y103.974 E0.1789
G1 X130.777 Y103.763 E0.1926
G1 X130.948 Y103.520 E0.2064
G1 X131.074 Y103.250 E0.2201
G1 X131.151 Y102.963 E0.2339
G1 X131.177 Y102.666 E0.2477
G1 X131.151 Y102.370 E0.2614
G1 X131.074 Y102.082 E0.2752
G1 X130.948 Y101.813 E0.2889
G1 X130.777 Y101.569 E0.3027
G1 X130.567 Y101.359 E0.3165
G1 X130.323 Y101.188 E0.3302
G1 X130.054 Y101.062 E0.3440
G1 X129.766 Y100.985 E0.3577
G1 X129.470 Y100.959 E0.3715
G1 X129.174 Y100.985 E0.3853
G1 X128.886 Y101.062 E0.3990
G1 X128.617 Y101.188 E0.4128
G1 X128.373 Y101.359 E0.4265
G1 X128.163 Y101.569 E0.4403
G1 X127.992 Y101.813 E0.4541
G1 X127.866 Y102.083 E0.4678
G1 X127.789 Y102.370 E0.4816
G1 X127.763 Y102.666 E0.4953
G92 E0
G1 E-1.0000 F1800
; solid layer
G1 X129.225 Y105.117 F4800
G1 E0.0000 F1800
G92 E0
G1 X133.002 Y108.894 E0.2470 F1840
G1 X133.293 Y108.602 E0.2661
G1 X129.800 Y105.109 E0.4945
G1 X129.899 Y105.101 E0.4991
G1 X130.274 Y105.000 E0.5171
G1 X133.585 Y108.311 E0.7336
G1 X133.876 Y108.020 E0.7526
G1 X130.677 Y104.821 E0.9619
G1 X130.706 Y104.807 E0.9634
G1 X131.024 Y104.585 E0.9813
G1 X134.167 Y107.728 E1.1869
G1 X134.459 Y107.437 E1.2060
G1 X131.320 Y104.299 E1.4112
G1 X131.364 Y104.255 E1.4140
G1 X131.568 Y103.963 E1.4305
G1 X134.750 Y107.146 E1.6386
G1 X135.041 Y106.854 E1.6577
G1 X131.763 Y103.576 E1.8721
G1 X131.793 Y103.512 E1.8754
G1 X131.896 Y103.126 E1.8938
G1 X135.333 Y106.563 E2.1186
G1 X135.624 Y106.272 E2.1377
G1 X131.935 Y102.582 E2.3790
G1 X128.917 Y106.556 F4800
G92 E0
G1 X131.709 Y109.348 E0.1826 F1840
G1 X131.126 Y109.348 E0.2096
G1 X128.917 Y107.139 E0.3540
G1 X128.917 Y107.721 E0.3810
G1 X130.543 Y109.348 E0.4874
G1 X129.961 Y109.348 E0.5143
G1 X128.917 Y108.304 E0.5826
G1 X128.917 Y108.887 E0.6096
G1 X129.378 Y109.348 E0.6397
G1 X135.974 Y94.969 F4800
G92 E0
G1 X136.152 Y95.146 E0.0116 F1840
G1 X136.152 Y95.729 E0.0386
G1 X135.391 Y94.969 E0.0883
G1 X134.809 Y94.969 E0.1152
G1 X136.152 Y96.312 E0.2031
G1 X136.152 Y96.894 E0.2300
G1 X134.226 Y94.969 E0.3560
G1 X133.644 Y94.969 E0.3829
G1 X136.152 Y97.477 E0.5470
G1 X136.152 Y98.060 E0.5739
G1 X133.061 Y94.969 E0.7761
G1 X132.478 Y94.969 E0.8030
G1 X136.152 Y98.642 E1.0433
G1 X136.152 Y99.225 E1.0702
G1 X131.896 Y94.969 E1.3486
G1 X131.313 Y94.969 E1.3756
G1 X136.152 Y99.808 E1.6920
G1 X136.152 Y100.390 E1.7190
G1 X130.730 Y94.969 E2.0736
G1 X130.148 Y94.969 E2.1005
G1 X136.152 Y100.973 E2.4932
G1 X136.152 Y101.556 E2.5202
G1 X129.565 Y94.969 E2.9510
G1 X128.982 Y94.969 E2.9779
G1 X136.152 Y102.138 E3.4469
G1 X136.152 Y102.721 E3.4738
G1 X128.400 Y94.969 E3.9808
G1 X127.817 Y94.969 E4.0078
G1 X136.152 Y103.304 E4.5529
G1 X136.152 Y103.886 E4.5799
G1 X127.234 Y94.969 E5.1631
G1 X126.652 Y94.969 E5.1901
G1 X136.152 Y104.469 E5.8114
G1 X136.152 Y105.051 E5.8384
G1 X126.069 Y94.969 E6.4978
G1 X125.486 Y94.969 E6.5248
G1 X136.152 Y105.634 E7.2224
G1 X136.152 Y105.744 E7.2274
G1 X135.915 Y105.980 E7.2429
G1 X131.806 Y101.871 E7.5116
G1 X131.793 Y101.821 E7.5140
G1 X131.611 Y101.430 E7.5340
G1 X131.364 Y101.077 E7.5539
G1 X131.059 Y100.773 E7.5738
G1 X130.706 Y100.526 E7.5938
G1 X130.315 Y100.343 E7.6137
G1 X130.265 Y100.330 E7.6161
G1 X124.904 Y94.969 E7.9668
G1 X124.321 Y94.969 E7.9937
G1 X129.554 Y100.202 E8.3360
G1 X129.470 Y100.194 E8.3399
G1 X129.041 Y100.232 E8.3598
G1 X129.010 Y100.240 E8.3613
G1 X123.738 Y94.969 E8.7061
G1 X123.156 Y94.969 E8.7330
G1 X128.560 Y100.373 E9.0865
G1 X128.234 Y100.526 E9.1032
G1 X128.173 Y100.568 E9.1066
G1 X122.573 Y94.969 E9.4729
G1 X121.990 Y94.969 E9.4998
G1 X127.838 Y100.816 E9.8823
G1 X127.576 Y101.077 E9.8993
G1 X127.552 Y101.113 E9.9013
G1 X121.408 Y94.969 E10.3032
G1 X120.825 Y94.969 E10.3301
G1 X127.316 Y101.459 E10.7547
G1 X127.147 Y101.821 E10.7731
G1 X127.136 Y101.862 E10.7751
G1 X120.242 Y94.969 E11.2260
G1 X119.660 Y94.969 E11.2529
G1 X127.027 Y102.336 E11.7348
G1 X126.998 Y102.666 E11.7501
G1 X127.020 Y102.911 E11.7615
G1 X119.077 Y94.969 E12.2809
G1 X118.494 Y94.969 E12.3079
G1 X127.243 Y103.717 E12.8801
G1 X127.329 Y103.902 E12.8895
G1 X127.576 Y104.255 E12.9094
G1 X127.881 Y104.560 E12.9294
G1 X128.234 Y104.807 E12.9493
G1 X128.419 Y104.893 E12.9587
G1 X132.711 Y109.185 E13.2394
G1 X132.547 Y109.348 E13.2501
G1 X132.291 Y109.348 E13.2620
G1 X117.912 Y94.969 E14.2024
G1 X117.329 Y94.969 E14.2294
G1 X128.709 Y106.348 E14.9736
G1 X128.126 Y106.348 E15.0006
G1 X116.747 Y94.969 E15.7449
G1 X116.164 Y94.969 E15.7718
G1 X127.543 Y106.348 E16.5161
G1 X126.961 Y106.348 E16.5430
G1 X115.581 Y94.969 E17.2873
G1 X114.999 Y94.969 E17.3142
G1 X126.378 Y106.348 E18.0585
G1 X125.795 Y106.348 E18.0855
G1 X114.416 Y94.969 E18.8297
G1 X113.833 Y94.969 E18.8567
G1 X125.213 Y106.348 E19.6009
G1 X124.630 Y106.348 E19.6279
G1 X113.251 Y94.969 E20.3722
G1 X112.668 Y94.969 E20.3991
G1 X124.047 Y106.348 E21.1434
G1 X123.465 Y106.348 E21.1703
G1 X112.085 Y94.969 E21.9146
G1 X111.503 Y94.969 E21.9415
G1 X122.882 Y106.348 E22.6858
G1 X122.299 Y106.348 E22.7127
G1 X110.920 Y94.969 E23.4570
G1 X110.337 Y94.969 E23.4840
G1 X121.717 Y106.348 E24.2282
G1 X121.134 Y106.348 E24.2552
G1 X109.755 Y94.969 E24.9994
G1 X109.172 Y94.969 E25.0264
G1 X120.551 Y106.348 E25.7707
G1 X119.969 Y106.348 E25.7976
G1 X108.589 Y94.969 E26.5419
G1 X108.007 Y94.969 E26.5688
G1 X119.386 Y106.348 E27.3131
G1 X118.803 Y106.348 E27.3400
G1 X107.424 Y94.969 E28.0843
G1 X106.841 Y94.969 E28.1112
G1 X118.221 Y106.348 E28.8555
G1 X117.638 Y106.348 E28.8825
G1 X106.259 Y94.969 E29.6267
G1 X105.676 Y94.969 E29.6537
G1 X117.055 Y106.348 E30.3979
G1 X116.473 Y106.348 E30.4249
G1 X105.093 Y94.969 E31.1692
G1 X104.511 Y94.969 E31.1961
G1 X115.890 Y106.348 E31.9404
G1 X115.307 Y106.348 E31.9673
