; G-Code generated by Simplify3D(R) Version 4.0.0
; Feb 6, 2019 at 10:51:18 AM
; Settings Summary
;   processName,Process1
;   applyToModels,CactusPot
;   profileName,Flyingbear p902 (modified)
;   profileVersion,2017-02-06 00:22:54
;   baseProfile,Default
;   printMaterial,PLA
;   printQuality,Medium
;   printExtruders,
;   extruderName,Extruder 1
;   extruderToolheadNumber,0
;   extruderDiameter,0.4
;   extruderAutoWidth,1
;   extruderWidth,0.48
;   extrusionMultiplier,1
;   extruderUseRetract,1
;   extruderRetractionDistance,1
;   extruderExtraRestartDistance,0
;   extruderRetractionZLift,0
;   extruderRetractionSpeed,3400
;   extruderUseCoasting,0
;   extruderCoastingDistance,0.2
;   extruderUseWipe,0
;   extruderWipeDistance,5
;   primaryExtruder,0
;   layerHeight,0.3
;   topSolidLayers,3
;   bottomSolidLayers,2
;   perimeterOutlines,2
;   printPerimetersInsideOut,0
;   startPointOption,2
;   startPointOriginX,0
;   startPointOriginY,0
;   sequentialIslands,0
;   spiralVaseMode,0
;   firstLayerHeightPercentage,100
;   firstLayerWidthPercentage,100
;   firstLayerUnderspeed,0.5
;   useRaft,0
;   raftExtruder,0
;   raftTopLayers,3
;   raftBaseLayers,1
;   raftOffset,2
;   raftSeparationDistance,0.2
;   raftTopInfill,100
;   aboveRaftSpeedMultiplier,0.3
;   useSkirt,0
;   skirtExtruder,0
;   skirtLayers,1
;   skirtOutlines,2
;   skirtOffset,4
;   usePrimePillar,0
;   primePillarExtruder,999
;   primePillarWidth,12
;   primePillarLocation,7
;   primePillarSpeedMultiplier,1
;   useOozeShield,0
;   oozeShieldExtruder,999
;   oozeShieldOffset,2
;   oozeShieldOutlines,1
;   oozeShieldSidewallShape,1
;   oozeShieldSidewallAngle,30
;   oozeShieldSpeedMultiplier,1
;   infillExtruder,0
;   internalInfillPattern,Rectilinear
;   externalInfillPattern,Rectilinear
;   infillPercentage,10
;   outlineOverlapPercentage,15
;   infillExtrusionWidthPercentage,100
;   minInfillLength,5
;   infillLayerInterval,1
;   internalInfillAngles,45,-45
;   overlapInternalInfillAngles,0
;   externalInfillAngles,45,-45
;   generateSupport,1
;   supportExtruder,0
;   supportInfillPercentage,15
;   supportExtraInflation,0.5
;   supportBaseLayers,0
;   denseSupportExtruder,0
;   denseSupportLayers,0
;   denseSupportInfillPercentage,70
;   supportLayerInterval,1
;   supportHorizontalPartOffset,0.3
;   supportUpperSeparationLayers,1
;   supportLowerSeparationLayers,1
;   supportType,1
;   supportGridSpacing,1
;   maxOverhangAngle,60
;   supportAngles,0
;   temperatureName,Extruder 1,Heated Bed
;   temperatureNumber,0,0
;   temperatureSetpointCount,1,1
;   temperatureSetpointLayers,1,1
;   temperatureSetpointTemperatures,210,60
;   temperatureStabilizeAtStartup,1,1
;   temperatureHeatedBed,0,1
;   temperatureRelayBetweenLayers,0,0
;   temperatureRelayBetweenLoops,0,0
;   fanLayers,1,2
;   fanSpeeds,0,100
;   blipFanToFullPower,0
;   adjustSpeedForCooling,1
;   minSpeedLayerTime,15
;   minCoolingSpeedSlowdown,20
;   increaseFanForCooling,0
;   minFanLayerTime,45
;   maxCoolingFanSpeed,100
;   increaseFanForBridging,1
;   bridgingFanSpeed,100
;   use5D,1
;   relativeEdistances,0
;   allowEaxisZeroing,1
;   independentExtruderAxes,0
;   includeM10123,0
;   stickySupport,1
;   applyToolheadOffsets,0
;   gcodeXoffset,0
;   gcodeYoffset,0
;   gcodeZoffset,0
;   overrideMachineDefinition,1
;   machineTypeOverride,0
;   strokeXoverride,220
;   strokeYoverride,220
;   strokeZoverride,280
;   originOffsetXoverride,0
;   originOffsetYoverride,0
;   originOffsetZoverride,0
;   homeXdirOverride,-1
;   homeYdirOverride,-1
;   homeZdirOverride,-1
;   flipXoverride,1
;   flipYoverride,-1
;   flipZoverride,1
;   toolheadOffsets,0,0|0,0|0,0|0,0|0,0|0,0
;   overrideFirmwareConfiguration,1
;   firmwareTypeOverride,RepRap (Marlin/Repetier/Sprinter)
;   GPXconfigOverride,r2
;   baudRateOverride,250000
;   overridePrinterModels,0
;   printerModelsOverride
;   startingGcode,G28 ; home all axes,G1 X0 Y5 Z0.2 F3000 ; get ready to prime,G92 E0 ; reset extrusion distance,G1 X200 E20 F600 ; prime nozzle
;   layerChangeGcode,
;   retractionGcode,
;   toolChangeGcode,
;   endingGcode,M104 S0 ; turn off extruder,M140 S0 ; turn off bed,G91 ; use relative coordinates,G1 Z0.6 F5000 ; lift nozzle by 0.6mm,G90 ; use absolute coordinates,G28 X0 ; home X axis,G28 Y0 ; home X axis,M84 ; disable motors,M107 ; turn off fan
;   exportFileFormat,gcode
;   celebration,0
;   celebrationSong,Random Song
;   postProcessing,
;   defaultSpeed,4400
;   outlineUnderspeed,0.9
;   solidInfillUnderspeed,1
;   supportUnderspeed,0.8
;   rapidXYspeed,4200
;   rapidZspeed,1002
;   minBridgingArea,50
;   bridgingExtraInflation,0
;   bridgingExtrusionMultiplier,1
;   bridgingSpeedMultiplier,1
;   useFixedBridgingAngle,0
;   fixedBridgingAngle,0
;   applyBridgingToPerimeters,0
;   filamentDiameters,1.75|1.75|1.75|1.75|1.75|1.75
;   filamentPricesPerKg,46|46|46|46|46|46
;   filamentDensities,1.25|1.25|1.25|1.25|1.25|1.25
;   useMinPrintHeight,0
;   minPrintHeight,0
;   useMaxPrintHeight,0
;   maxPrintHeight,0
;   useDiaphragm,0
;   diaphragmLayerInterval,20
;   robustSlicing,1
;   mergeAllIntoSolid,0
;   onlyRetractWhenCrossingOutline,1
;   retractBetweenLayers,1
;   useRetractionMinTravel,0
;   retractionMinTravel,3
;   retractWhileWiping,0
;   onlyWipeOutlines,1
;   avoidCrossingOutline,0
;   maxMovementDetourFactor,3
;   toolChangeRetractionDistance,12
;   toolChangeExtraRestartDistance,-0.5
;   toolChangeRetractionSpeed,600
;   externalThinWallType,1
;   internalThinWallType,1
;   thinWallAllowedOverlapPercentage,10
;   singleExtrusionMinLength,1
;   singleExtrusionMinPrintingWidthPercentage,50
;   singleExtrusionMaxPrintingWidthPercentage,200
;   singleExtrusionEndpointExtension,0.2
;   horizontalSizeCompensation,0
G90
M82
M106 S0
M140 S60
M190 S60
M104 S210 T0
M109 S210 T0
G28 ; home all axes
G1 X0 Y5 Z0.2 F3000 ; get ready to prime
G92 E0 ; reset extrusion distance
G1 X200 E20 F600 ; prime nozzle
G92 E0
G1 E-1.0000 F3400
G1 Z0.300 F1002
; process Process1
; layer 1, Z = 0.300
T0
; tool H0.300 W0.480
; outer perimeter
G1 X100.691 Y89.120 F4200
G1 E0.0000 F1020
G92 E0
G1 X119.309 Y89.120 E1.1146 F1980
G1 X130.916 Y103.675 E2.2292
G1 X126.774 Y121.826 E3.3438
G1 X110.000 Y129.903 E4.4583
G1 X93.226 Y121.826 E5.5729
G1 X89.084 Y103.675 E6.6875
G1 X100.691 Y89.120 E7.8021
; inner perimeter
G1 X100.922 Y89.600 F4200
G92 E0
G1 X119.078 Y89.600 E1.0869 F2090
G1 X130.397 Y103.794 E2.1738
G1 X126.357 Y121.494 E3.2607
G1 X110.000 Y129.371 E4.3476
G1 X93.643 Y121.494 E5.4345
G1 X89.603 Y103.794 E6.5215
G1 X100.922 Y89.600 E7.6084
; solid layer
G1 X118.518 Y90.008 F4200
G92 E0
G1 X120.310 Y91.799 E0.1517 F2200
G1 X122.983 Y95.151 E0.4084
G1 X117.839 Y90.008 E0.8439
G1 X117.160 Y90.008 E0.8845
G1 X125.656 Y98.503 E1.6038
G1 X128.329 Y101.855 E1.8605
G1 X116.482 Y90.008 E2.8635
G1 X115.803 Y90.008 E2.9042
G1 X129.906 Y104.111 E4.0982
G1 X129.780 Y104.664 E4.1322
G1 X115.124 Y90.008 E5.3730
G1 X114.445 Y90.008 E5.4137
G1 X129.654 Y105.216 E6.7013
G1 X129.528 Y105.769 E6.7353
G1 X113.766 Y90.008 E8.0697
G1 X113.088 Y90.008 E8.1104
G1 X129.402 Y106.322 E9.4916
G1 X129.275 Y106.874 E9.5256
G1 X112.409 Y90.008 E10.9536
G1 X111.730 Y90.008 E10.9943
G1 X129.149 Y107.427 E12.4691
G1 X129.023 Y107.980 E12.5030
G1 X111.051 Y90.008 E14.0247
G1 X110.372 Y90.008 E14.0653
G1 X128.897 Y108.532 E15.6337
G1 X128.771 Y109.085 E15.6677
G1 X109.693 Y90.008 E17.2829
G1 X109.015 Y90.008 E17.3235
G1 X128.645 Y109.638 E18.9855
G1 X128.518 Y110.190 E19.0195
G1 X108.336 Y90.008 E20.7283
G1 X107.657 Y90.008 E20.7689
G1 X128.392 Y110.743 E22.5245
G1 X128.266 Y111.296 E22.5584
G1 X106.978 Y90.008 E24.3608
G1 X106.299 Y90.008 E24.4015
G1 X128.140 Y111.848 E26.2506
G1 X128.014 Y112.401 E26.2846
G1 X105.620 Y90.008 E28.1805
G1 X104.942 Y90.008 E28.2212
G1 X127.888 Y112.954 E30.1640
G1 X127.762 Y113.506 E30.1979
G1 X104.263 Y90.008 E32.1875
G1 X103.584 Y90.008 E32.2281
G1 X127.635 Y114.059 E34.2644
G1 X127.509 Y114.612 E34.2984
G1 X102.905 Y90.008 E36.3815
G1 X102.226 Y90.008 E36.4222
G1 X127.383 Y115.164 E38.5521
G1 X127.257 Y115.717 E38.5861
G1 X101.548 Y90.008 E40.7628
G1 X101.119 Y90.008 E40.7884
G1 X101.008 Y90.147 E40.7991
G1 X127.131 Y116.270 E43.0108
G1 X127.005 Y116.822 E43.0448
G1 X100.707 Y90.524 E45.2713
G1 X100.406 Y90.902 E45.3003
G1 X126.879 Y117.375 E47.5416
G1 X126.752 Y117.928 E47.5756
G1 X100.104 Y91.280 E49.8318
G1 X99.803 Y91.657 E49.8607
G1 X126.626 Y118.480 E52.1317
G1 X126.500 Y119.033 E52.1656
G1 X99.502 Y92.035 E54.4515
G1 X99.201 Y92.413 E54.4804
G1 X126.374 Y119.586 E56.7810
G1 X126.248 Y120.138 E56.8150
G1 X98.900 Y92.790 E59.1305
G1 X98.599 Y93.168 E59.1594
G1 X126.122 Y120.691 E61.4897
G1 X126.003 Y121.211 E61.5216
G1 X125.976 Y121.224 E61.5234
G1 X98.297 Y93.546 E63.8668
G1 X97.996 Y93.923 E63.8958
G1 X125.518 Y121.445 E66.2259
G1 X125.060 Y121.666 E66.2564
G1 X97.695 Y94.301 E68.5732
G1 X97.394 Y94.679 E68.6021
G1 X124.601 Y121.886 E70.9057
G1 X124.143 Y122.107 E70.9362
G1 X97.093 Y95.056 E73.2264
G1 X96.792 Y95.434 E73.2553
G1 X123.685 Y122.327 E75.5323
G1 X123.227 Y122.548 E75.5628
G1 X96.490 Y95.812 E77.8265
G1 X96.189 Y96.189 E77.8554
G1 X122.769 Y122.769 E80.1058
G1 X122.311 Y122.989 E80.1362
G1 X95.888 Y96.567 E82.3733
G1 X95.587 Y96.945 E82.4022
G1 X121.852 Y123.210 E84.6260
G1 X121.394 Y123.431 E84.6565
G1 X95.286 Y97.322 E86.8670
G1 X94.985 Y97.700 E86.8959
G1 X120.936 Y123.651 E89.0931
G1 X120.478 Y123.872 E89.1236
G1 X94.683 Y98.078 E91.3075
G1 X94.382 Y98.455 E91.3364
G1 X120.020 Y124.093 E93.5071
G1 X119.562 Y124.313 E93.5375
G1 X94.081 Y98.833 E95.6949
G1 X93.780 Y99.210 E95.7238
G1 X119.103 Y124.534 E97.8678
G1 X118.645 Y124.755 E97.8983
G1 X93.479 Y99.588 E100.0290
G1 X93.178 Y99.966 E100.0579
G1 X118.187 Y124.975 E102.1754
G1 X117.729 Y125.196 E102.2059
G1 X92.876 Y100.343 E104.3100
G1 X92.575 Y100.721 E104.3389
G1 X117.271 Y125.417 E106.4298
G1 X116.812 Y125.637 E106.4603
G1 X92.274 Y101.099 E108.5378
G1 X91.973 Y101.476 E108.5668
G1 X116.354 Y125.858 E110.6311
G1 X115.896 Y126.078 E110.6615
G1 X91.672 Y101.854 E112.7125
G1 X91.371 Y102.232 E112.7414
G1 X115.438 Y126.299 E114.7791
G1 X114.980 Y126.520 E114.8096
G1 X91.069 Y102.609 E116.8340
G1 X90.768 Y102.987 E116.8629
G1 X114.522 Y126.740 E118.8740
G1 X114.063 Y126.961 E118.9044
G1 X90.467 Y103.365 E120.9023
G1 X90.166 Y103.742 E120.9312
G1 X113.605 Y127.182 E122.9157
G1 X113.147 Y127.402 E122.9462
G1 X90.164 Y104.420 E124.8920
G1 X90.365 Y105.299 E124.9460
G1 X112.689 Y127.623 E126.8361
G1 X112.231 Y127.844 E126.8665
G1 X90.566 Y106.179 E128.7008
G1 X90.767 Y107.058 E128.7548
G1 X111.773 Y128.064 E130.5333
G1 X111.314 Y128.285 E130.5638
G1 X90.967 Y107.938 E132.2865
G1 X91.168 Y108.818 E132.3405
G1 X110.856 Y128.506 E134.0074
G1 X110.398 Y128.726 E134.0379
G1 X91.369 Y109.697 E135.6490
G1 X91.570 Y110.577 E135.7030
G1 X109.828 Y128.835 E137.2489
G1 X108.519 Y128.204 E137.3359
G1 X91.770 Y111.456 E138.7539
G1 X91.971 Y112.336 E138.8079
G1 X107.209 Y127.574 E140.0980
G1 X105.900 Y126.943 E140.1850
G1 X92.172 Y113.215 E141.3473
G1 X92.373 Y114.095 E141.4014
G1 X104.590 Y126.313 E142.4358
G1 X103.281 Y125.682 E142.5228
G1 X92.573 Y114.975 E143.4294
G1 X92.774 Y115.854 E143.4834
G1 X101.972 Y125.052 E144.2621
G1 X100.662 Y124.421 E144.3491
G1 X92.975 Y116.734 E145.0000
G1 X93.176 Y117.613 E145.0540
G1 X99.353 Y123.791 E145.5770
G1 X98.044 Y123.160 E145.6640
G1 X93.377 Y118.493 E146.0591
G1 X93.577 Y119.373 E146.1131
G1 X96.734 Y122.529 E146.3804
G1 X95.425 Y121.899 E146.4674
G1 X93.778 Y120.252 E146.6068
G1 X93.979 Y121.132 E146.6609
G1 X94.115 Y121.268 E146.6724
G92 E0
G1 E-1.0000 F3400
; layer 2, Z = 0.600
M106 S255
; outer perimeter
G1 X93.178 Y121.864 F4200
G1 Z0.600 F1002
G1 E0.0000 F3400
G92 E0
G1 X89.024 Y103.662 E1.1178 F3960
G1 X100.665 Y89.064 E2.2355
G1 X119.335 Y89.064 E3.3533
G1 X130.976 Y103.662 E4.4711
G1 X126.822 Y121.864 E5.5888
G1 X110.000 Y129.965 E6.7066
G1 X93.178 Y121.864 E7.8244
; inner perimeter
G1 X93.595 Y121.532 F4200
G92 E0
G1 X89.543 Y103.780 E1.0901 F4180
G1 X100.896 Y89.544 E2.1802
G1 X119.104 Y89.544 E3.2703
G1 X130.457 Y103.780 E4.3604
G1 X126.405 Y121.532 E5.4505
G1 X110.000 Y129.432 E6.5406
G1 X93.595 Y121.532 E7.6306
; solid layer
G1 X99.341 Y92.148 F4200
G92 E0
G1 X101.537 Y89.952 E0.1859 F4400
G1 X102.216 Y89.952 E0.2266
G1 X96.668 Y95.500 E0.6963
G1 X93.995 Y98.852 E0.9529
G1 X102.895 Y89.952 E1.7064
G1 X103.574 Y89.952 E1.7471
G1 X91.322 Y102.204 E2.7843
G1 X89.985 Y103.881 E2.9128
G1 X90.048 Y104.157 E2.9297
G1 X104.252 Y89.952 E4.1324
G1 X104.931 Y89.952 E4.1730
G1 X90.174 Y104.710 E5.4225
G1 X90.300 Y105.262 E5.4564
G1 X105.610 Y89.952 E6.7527
G1 X106.289 Y89.952 E6.7933
G1 X90.426 Y105.815 E8.1363
G1 X90.552 Y106.368 E8.1703
G1 X106.968 Y89.952 E9.5601
G1 X107.647 Y89.952 E9.6007
G1 X90.679 Y106.920 E11.0374
G1 X90.805 Y107.473 E11.0713
G1 X108.325 Y89.952 E12.5547
G1 X109.004 Y89.952 E12.5953
G1 X90.931 Y108.026 E14.1256
G1 X91.057 Y108.578 E14.1595
G1 X109.683 Y89.952 E15.7365
G1 X110.362 Y89.952 E15.7771
G1 X91.183 Y109.131 E17.4009
G1 X91.309 Y109.684 E17.4349
G1 X111.041 Y89.952 E19.1055
G1 X111.719 Y89.952 E19.1461
G1 X91.435 Y110.236 E20.8635
G1 X91.562 Y110.789 E20.8974
G1 X112.398 Y89.952 E22.6616
G1 X113.077 Y89.952 E22.7022
G1 X91.688 Y111.342 E24.5132
G1 X91.814 Y111.894 E24.5471
G1 X113.756 Y89.952 E26.4049
G1 X114.435 Y89.952 E26.4455
G1 X91.940 Y112.447 E28.3501
G1 X92.066 Y113.000 E28.3840
G1 X115.114 Y89.952 E30.3354
G1 X115.792 Y89.952 E30.3760
G1 X92.192 Y113.552 E32.3742
G1 X92.318 Y114.105 E32.4081
G1 X116.471 Y89.952 E34.4530
G1 X117.150 Y89.952 E34.4937
G1 X92.445 Y114.658 E36.5854
G1 X92.571 Y115.211 E36.6193
G1 X117.829 Y89.952 E38.7579
G1 X118.508 Y89.952 E38.7985
G1 X92.697 Y115.763 E40.9838
G1 X92.823 Y116.316 E41.0178
G1 X119.031 Y90.108 E43.2367
G1 X119.333 Y90.485 E43.2656
G1 X92.949 Y116.869 E45.4994
G1 X93.075 Y117.421 E45.5334
G1 X119.634 Y90.863 E47.7820
G1 X119.935 Y91.240 E47.8109
G1 X93.201 Y117.974 E50.0743
G1 X93.328 Y118.527 E50.1083
G1 X120.236 Y91.618 E52.3865
G1 X120.537 Y91.996 E52.4154
G1 X93.454 Y119.079 E54.7085
G1 X93.580 Y119.632 E54.7424
G1 X120.838 Y92.373 E57.0503
G1 X121.140 Y92.751 E57.0792
G1 X93.706 Y120.185 E59.4019
G1 X93.832 Y120.737 E59.4359
G1 X121.441 Y93.129 E61.7734
G1 X121.742 Y93.506 E61.8023
G1 X93.983 Y121.266 E64.1526
G1 X94.441 Y121.486 E64.1830
G1 X122.043 Y93.884 E66.5200
G1 X122.344 Y94.262 E66.5489
G1 X94.899 Y121.707 E68.8726
G1 X95.357 Y121.928 E68.9031
G1 X122.645 Y94.639 E71.2134
G1 X122.947 Y95.017 E71.2424
G1 X95.815 Y122.148 E73.5395
G1 X96.274 Y122.369 E73.5699
G1 X123.248 Y95.395 E75.8537
G1 X123.549 Y95.772 E75.8826
G1 X96.732 Y122.589 E78.1532
G1 X97.190 Y122.810 E78.1836
G1 X123.850 Y96.150 E80.4408
G1 X124.151 Y96.528 E80.4697
G1 X97.648 Y123.031 E82.7137
G1 X98.106 Y123.251 E82.7441
G1 X124.452 Y96.905 E84.9747
G1 X124.754 Y97.283 E85.0037
G1 X98.564 Y123.472 E87.2210
G1 X99.023 Y123.693 E87.2514
G1 X125.055 Y97.661 E89.4555
G1 X125.356 Y98.038 E89.4844
G1 X99.481 Y123.913 E91.6752
G1 X99.939 Y124.134 E91.7056
G1 X125.657 Y98.416 E93.8831
G1 X125.958 Y98.794 E93.9120
G1 X100.397 Y124.355 E96.0762
G1 X100.855 Y124.575 E96.1066
G1 X126.259 Y99.171 E98.2575
G1 X126.561 Y99.549 E98.2864
G1 X101.313 Y124.796 E100.4240
G1 X101.772 Y125.017 E100.4544
G1 X126.862 Y99.927 E102.5787
G1 X127.163 Y100.304 E102.6076
G1 X102.230 Y125.237 E104.7186
G1 X102.688 Y125.458 E104.7491
G1 X127.464 Y100.682 E106.8468
G1 X127.765 Y101.059 E106.8757
G1 X103.146 Y125.679 E108.9601
G1 X103.604 Y125.899 E108.9905
G1 X128.066 Y101.437 E111.0617
G1 X128.368 Y101.815 E111.0906
G1 X104.063 Y126.120 E113.1484
G1 X104.521 Y126.340 E113.1788
G1 X128.669 Y102.192 E115.2234
G1 X128.970 Y102.570 E115.2523
G1 X104.979 Y126.561 E117.2835
G1 X105.437 Y126.782 E117.3140
G1 X129.271 Y102.948 E119.3319
G1 X129.572 Y103.325 E119.3608
G1 X105.895 Y127.002 E121.3655
G1 X106.353 Y127.223 E121.3959
G1 X129.873 Y103.703 E123.3873
G1 X130.015 Y103.881 E123.4009
G1 X129.909 Y104.346 E123.4295
G1 X106.812 Y127.444 E125.3850
