; G-Code generated by Simplify3D(R) Version 4.0.0
; Jun 19, 2018 at 12:47:28 PM
; Settings Summary
;   processName,Process1
;   applyToModels,camera_clip
;   profileName,Flyingbear p902 (modified)
;   profileVersion,2017-02-06 00:22:54
;   baseProfile,Default
;   printMaterial,PLA
;   printQuality,Medium
;   printExtruders,
;   extruderName,Extruder 1
;   extruderToolheadNumber,0
;   extruderDiameter,0.4
;   extruderAutoWidth,1
;   extruderWidth,0.48
;   extrusionMultiplier,1
;   extruderUseRetract,1
;   extruderRetractionDistance,1
;   extruderExtraRestartDistance,0
;   extruderRetractionZLift,0
;   extruderRetractionSpeed,3400
;   extruderUseCoasting,0
;   extruderCoastingDistance,0.2
;   extruderUseWipe,0
;   extruderWipeDistance,5
;   primaryExtruder,0
;   layerHeight,0.2
;   topSolidLayers,4
;   bottomSolidLayers,3
;   perimeterOutlines,2
;   printPerimetersInsideOut,1
;   startPointOption,2
;   startPointOriginX,0
;   startPointOriginY,0
;   sequentialIslands,0
;   spiralVaseMode,0
;   firstLayerHeightPercentage,90
;   firstLayerWidthPercentage,100
;   firstLayerUnderspeed,0.5
;   useRaft,0
;   raftExtruder,0
;   raftTopLayers,3
;   raftBaseLayers,1
;   raftOffset,2
;   raftSeparationDistance,0.2
;   raftTopInfill,100
;   aboveRaftSpeedMultiplier,0.3
;   useSkirt,0
;   skirtExtruder,0
;   skirtLayers,1
;   skirtOutlines,2
;   skirtOffset,4
;   usePrimePillar,0
;   primePillarExtruder,999
;   primePillarWidth,12
;   primePillarLocation,7
;   primePillarSpeedMultiplier,1
;   useOozeShield,0
;   oozeShieldExtruder,999
;   oozeShieldOffset,2
;   oozeShieldOutlines,1
;   oozeShieldSidewallShape,1
;   oozeShieldSidewallAngle,30
;   oozeShieldSpeedMultiplier,1
;   infillExtruder,0
;   internalInfillPattern,Rectilinear
;   externalInfillPattern,Rectilinear
;   infillPercentage,20
;   outlineOverlapPercentage,15
;   infillExtrusionWidthPercentage,100
;   minInfillLength,5
;   infillLayerInterval,1
;   internalInfillAngles,45,-45
;   overlapInternalInfillAngles,0
;   externalInfillAngles,45,-45
;   generateSupport,0
;   supportExtruder,0
;   supportInfillPercentage,30
;   supportExtraInflation,0
;   supportBaseLayers,0
;   denseSupportExtruder,0
;   denseSupportLayers,0
;   denseSupportInfillPercentage,70
;   supportLayerInterval,1
;   supportHorizontalPartOffset,0.3
;   supportUpperSeparationLayers,1
;   supportLowerSeparationLayers,1
;   supportType,0
;   supportGridSpacing,4
;   maxOverhangAngle,45
;   supportAngles,0
;   temperatureName,Extruder 1,Heated Bed
;   temperatureNumber,0,0
;   temperatureSetpointCount,1,1
;   temperatureSetpointLayers,1,1
;   temperatureSetpointTemperatures,210,60
;   temperatureStabilizeAtStartup,1,1
;   temperatureHeatedBed,0,1
;   temperatureRelayBetweenLayers,0,0
;   temperatureRelayBetweenLoops,0,0
;   fanLayers,1,2
;   fanSpeeds,0,100
;   blipFanToFullPower,0
;   adjustSpeedForCooling,1
;   minSpeedLayerTime,15
;   minCoolingSpeedSlowdown,20
;   increaseFanForCooling,0
;   minFanLayerTime,45
;   maxCoolingFanSpeed,100
;   increaseFanForBridging,1
;   bridgingFanSpeed,100
;   use5D,1
;   relativeEdistances,0
;   allowEaxisZeroing,1
;   independentExtruderAxes,0
;   includeM10123,0
;   stickySupport,1
;   applyToolheadOffsets,0
;   gcodeXoffset,0
;   gcodeYoffset,0
;   gcodeZoffset,0
;   overrideMachineDefinition,1
;   machineTypeOverride,0
;   strokeXoverride,220
;   strokeYoverride,220
;   strokeZoverride,280
;   originOffsetXoverride,0
;   originOffsetYoverride,0
;   originOffsetZoverride,0
;   homeXdirOverride,-1
;   homeYdirOverride,-1
;   homeZdirOverride,-1
;   flipXoverride,1
;   flipYoverride,-1
;   flipZoverride,1
;   toolheadOffsets,0,0|0,0|0,0|0,0|0,0|0,0
;   overrideFirmwareConfiguration,1
;   firmwareTypeOverride,RepRap (Marlin/Repetier/Sprinter)
;   GPXconfigOverride,r2
;   baudRateOverride,250000
;   overridePrinterModels,0
;   printerModelsOverride
;   startingGcode,G28 ; home all axes,G1 X0 Y0 Z0.2 F3000 ; get ready to prime,G92 E0 ; reset extrusion distance,G1 X200 E20 F600 ; prime nozzle
;   layerChangeGcode,
;   retractionGcode,
;   toolChangeGcode,
;   endingGcode,M104 S0 ; turn off extruder,M140 S0 ; turn off bed,G91 ; use relative coordinates,G1 Z0.6 F5000 ; lift nozzle by 0.6mm,G90 ; use absolute coordinates,G28 X0 ; home X axis,G28 Y0 ; home X axis,M84 ; disable motors,M107 ; turn off fan
;   exportFileFormat,gcode
;   celebration,0
;   celebrationSong,Random Song
;   postProcessing,
;   defaultSpeed,4200
;   outlineUnderspeed,0.9
;   solidInfillUnderspeed,1
;   supportUnderspeed,0.8
;   rapidXYspeed,4200
;   rapidZspeed,1002
;   minBridgingArea,50
;   bridgingExtraInflation,0
;   bridgingExtrusionMultiplier,1
;   bridgingSpeedMultiplier,1
;   useFixedBridgingAngle,0
;   fixedBridgingAngle,0
;   applyBridgingToPerimeters,0
;   filamentDiameters,1.75|1.75|1.75|1.75|1.75|1.75
;   filamentPricesPerKg,46|46|46|46|46|46
;   filamentDensities,1.25|1.25|1.25|1.25|1.25|1.25
;   useMinPrintHeight,0
;   minPrintHeight,0
;   useMaxPrintHeight,0
;   maxPrintHeight,0
;   useDiaphragm,0
;   diaphragmLayerInterval,20
;   robustSlicing,1
;   mergeAllIntoSolid,0
;   onlyRetractWhenCrossingOutline,1
;   retractBetweenLayers,1
;   useRetractionMinTravel,0
;   retractionMinTravel,3
;   retractWhileWiping,0
;   onlyWipeOutlines,1
;   avoidCrossingOutline,0
;   maxMovementDetourFactor,3
;   toolChangeRetractionDistance,12
;   toolChangeExtraRestartDistance,-0.5
;   toolChangeRetractionSpeed,600
;   externalThinWallType,1
;   internalThinWallType,1
;   thinWallAllowedOverlapPercentage,10
;   singleExtrusionMinLength,1
;   singleExtrusionMinPrintingWidthPercentage,50
;   singleExtrusionMaxPrintingWidthPercentage,200
;   singleExtrusionEndpointExtension,0.2
;   horizontalSizeCompensation,0
G90
M82
M106 S0
M140 S60
M190 S60
M104 S210 T0
M109 S210 T0
G28 ; home all axes
G1 X0 Y0 Z0.2 F3000 ; get ready to prime
G92 E0 ; reset extrusion distance
G1 X200 E20 F600 ; prime nozzle
G92 E0
G1 E-1.0000 F3400
G1 Z0.180 F1002
; process Process1
; layer 1, Z = 0.180
T0
; tool H0.200 W0.480
; inner perimeter
G1 X93.000 Y92.855 F4200
G1 E0.0000 F1020
G92 E0
G1 X93.114 Y92.748 E0.0063 F1995
G1 X93.378 Y92.558 E0.0193
G1 X93.666 Y92.418 E0.0320
G1 X93.800 Y92.374 E0.0377
G1 X94.105 Y92.315 E0.0501
G1 X94.273 Y92.305 E0.0568
G1 X127.542 Y92.306 E1.3846
G1 X127.542 Y95.326 E1.5051
G1 X127.173 Y95.326 E1.5199
G1 X126.480 Y93.349 E1.6035
G1 X116.773 Y93.349 E1.9909
G1 X113.573 Y96.672 E2.1750
G1 X112.999 Y96.672 E2.1979
G1 X112.999 Y93.350 E2.3305
G1 X97.420 Y93.348 E2.9523
G1 X96.908 Y93.394 E2.9729
G1 X96.585 Y93.468 E2.9861
G1 X96.141 Y93.630 E3.0050
G1 X95.859 Y93.775 E3.0176
G1 X95.594 Y93.945 E3.0302
G1 X95.234 Y94.243 E3.0488
G1 X95.011 Y94.479 E3.0618
G1 X94.724 Y94.863 E3.0809
G1 X94.459 Y95.369 E3.1037
G1 X94.303 Y95.833 E3.1232
G1 X94.233 Y96.169 E3.1369
G1 X94.192 Y96.676 E3.1572
G1 X94.192 Y123.324 E4.2208
G1 X94.233 Y123.831 E4.2411
G1 X94.303 Y124.167 E4.2548
G1 X94.459 Y124.631 E4.2744
G1 X94.725 Y125.139 E4.2972
G1 X95.034 Y125.548 E4.3177
G1 X95.238 Y125.761 E4.3295
G1 X95.641 Y126.089 E4.3502
G1 X96.127 Y126.365 E4.3725
G1 X96.585 Y126.532 E4.3920
G1 X96.908 Y126.606 E4.4052
G1 X97.420 Y126.652 E4.4257
G1 X112.999 Y126.650 E5.0475
G1 X112.999 Y123.328 E5.1801
G1 X113.573 Y123.328 E5.2030
G1 X116.773 Y126.651 E5.3871
G1 X126.480 Y126.651 E5.7746
G1 X127.173 Y124.674 E5.8582
G1 X127.542 Y124.674 E5.8729
G1 X127.542 Y127.694 E5.9934
G1 X94.273 Y127.695 E7.3213
G1 X94.094 Y127.684 E7.3284
G1 X93.923 Y127.657 E7.3353
G1 X93.824 Y127.634 E7.3394
G1 X93.591 Y127.550 E7.3493
G1 X93.364 Y127.436 E7.3594
G1 X93.252 Y127.361 E7.3648
G1 X92.990 Y127.134 E7.3786
G1 X92.886 Y127.015 E7.3849
G1 X92.788 Y126.881 E7.3916
G1 X92.708 Y126.752 E7.3976
G1 X92.636 Y126.607 E7.4041
G1 X92.522 Y126.285 E7.4177
G1 X92.490 Y126.139 E7.4237
G1 X92.457 Y125.755 E7.4390
G1 X92.457 Y94.245 E8.6967
G1 X92.489 Y93.876 E8.7115
G1 X92.573 Y93.551 E8.7249
G1 X92.710 Y93.249 E8.7381
G1 X92.895 Y92.975 E8.7513
G1 X93.000 Y92.855 E8.7576
; outer perimeter
G1 X92.654 Y92.521 F4200
G92 E0
G1 X92.808 Y92.377 E0.0084 F1890
G1 X93.131 Y92.144 E0.0243
G1 X93.485 Y91.972 E0.0400
G1 X93.679 Y91.908 E0.0482
G1 X94.046 Y91.838 E0.0631
G1 X94.259 Y91.825 E0.0716
G1 X128.022 Y91.826 E1.4192
G1 X128.022 Y95.806 E1.5780
G1 X126.833 Y95.806 E1.6255
G1 X126.139 Y93.829 E1.7091
G1 X116.977 Y93.829 E2.0748
G1 X113.777 Y97.152 E2.2589
G1 X112.519 Y97.152 E2.3091
G1 X112.519 Y93.830 E2.4417
G1 X97.442 Y93.828 E3.0435
G1 X96.983 Y93.869 E3.0619
G1 X96.722 Y93.929 E3.0726
G1 X96.334 Y94.071 E3.0891
G1 X96.099 Y94.192 E3.0996
G1 X95.878 Y94.334 E3.1101
G1 X95.563 Y94.594 E3.1264
G1 X95.379 Y94.788 E3.1371
G1 X95.132 Y95.120 E3.1536
G1 X94.902 Y95.558 E3.1733
G1 X94.767 Y95.959 E3.1902
G1 X94.709 Y96.237 E3.2016
G1 X94.672 Y96.695 E3.2199
G1 X94.672 Y123.305 E4.2819
G1 X94.709 Y123.763 E4.3003
G1 X94.767 Y124.041 E4.3116
G1 X94.902 Y124.442 E4.3285
G1 X95.132 Y124.881 E4.3483
G1 X95.400 Y125.237 E4.3661
G1 X95.564 Y125.407 E4.3755
G1 X95.913 Y125.691 E4.3934
G1 X96.329 Y125.927 E4.4126
G1 X96.722 Y126.071 E4.4292
G1 X96.983 Y126.131 E4.4399
G1 X97.442 Y126.172 E4.4583
G1 X112.519 Y126.170 E5.0601
G1 X112.519 Y122.848 E5.1927
G1 X113.777 Y122.848 E5.2429
G1 X116.977 Y126.171 E5.4270
G1 X126.139 Y126.171 E5.7927
G1 X126.833 Y124.194 E5.8763
G1 X128.022 Y124.194 E5.9238
G1 X128.022 Y128.174 E6.0826
G1 X94.259 Y128.175 E7.4302
G1 X94.042 Y128.162 E7.4389
G1 X93.830 Y128.128 E7.4475
G1 X93.687 Y128.094 E7.4533
G1 X93.401 Y127.992 E7.4654
G1 X93.122 Y127.852 E7.4779
G1 X92.960 Y127.744 E7.4857
G1 X92.651 Y127.475 E7.5020
G1 X92.511 Y127.316 E7.5105
G1 X92.389 Y127.149 E7.5187
G1 X92.289 Y126.986 E7.5264
G1 X92.193 Y126.795 E7.5349
G1 X92.059 Y126.416 E7.5509
G1 X92.015 Y126.210 E7.5593
G1 X91.978 Y125.776 E7.5767
G1 X91.978 Y94.224 E8.8360
G1 X92.014 Y93.795 E8.8532
G1 X92.119 Y93.391 E8.8699
G1 X92.289 Y93.014 E8.8864
G1 X92.514 Y92.681 E8.9024
G1 X92.654 Y92.521 E8.9109
; solid layer
G1 X113.407 Y93.042 F4200
G92 E0
G1 X114.984 Y94.619 E0.0890 F2100
G1 X114.651 Y94.965 E0.1081
G1 X113.407 Y93.721 E0.1783
G1 X113.407 Y94.400 E0.2054
G1 X114.318 Y95.310 E0.2568
G1 X113.984 Y95.656 E0.2760
G1 X113.407 Y95.079 E0.3086
G1 X113.407 Y95.758 E0.3356
G1 X113.651 Y96.002 E0.3494
G92 E0
G1 E-1.0000 F3400
G1 X126.656 Y92.714 F4200
G1 E0.0000 F3400
G92 E0
G1 X127.134 Y93.193 E0.0270 F2100
G1 X127.134 Y93.872 E0.0541
G1 X127.074 Y93.812 E0.0575
G1 X126.769 Y92.941 E0.0944
G1 X126.203 Y92.941 E0.1169
G1 X125.977 Y92.714 E0.1297
G1 X125.298 Y92.714 E0.1568
G1 X125.525 Y92.941 E0.1696
G1 X124.846 Y92.941 E0.1967
G1 X124.619 Y92.714 E0.2095
G1 X123.940 Y92.714 E0.2366
G1 X124.167 Y92.941 E0.2494
G1 X123.488 Y92.941 E0.2765
G1 X123.261 Y92.714 E0.2893
G1 X122.582 Y92.714 E0.3164
G1 X122.809 Y92.941 E0.3292
G1 X122.130 Y92.941 E0.3563
G1 X121.904 Y92.714 E0.3691
G1 X121.225 Y92.714 E0.3962
G1 X121.451 Y92.941 E0.4089
G1 X120.773 Y92.941 E0.4360
G1 X120.546 Y92.714 E0.4488
G1 X119.867 Y92.714 E0.4759
G1 X120.094 Y92.941 E0.4887
G1 X119.415 Y92.941 E0.5158
G1 X119.188 Y92.714 E0.5286
G1 X118.509 Y92.714 E0.5557
G1 X118.736 Y92.941 E0.5685
G1 X118.057 Y92.941 E0.5956
G1 X117.831 Y92.714 E0.6084
G1 X117.152 Y92.714 E0.6355
G1 X117.378 Y92.941 E0.6483
G1 X116.700 Y92.941 E0.6754
G1 X116.473 Y92.714 E0.6882
G1 X115.794 Y92.714 E0.7153
G1 X116.316 Y93.236 E0.7447
G1 X115.983 Y93.581 E0.7639
G1 X115.115 Y92.714 E0.8128
G1 X114.436 Y92.714 E0.8399
G1 X115.650 Y93.927 E0.9084
G1 X115.317 Y94.273 E0.9276
G1 X113.758 Y92.714 E1.0156
G1 X113.079 Y92.714 E1.0426
G1 X113.306 Y92.942 E1.0555
G1 X112.627 Y92.942 E1.0826
G1 X112.400 Y92.714 E1.0954
G1 X111.721 Y92.714 E1.1225
G1 X111.949 Y92.942 E1.1354
G1 X111.270 Y92.941 E1.1625
G1 X111.042 Y92.714 E1.1753
G1 X110.363 Y92.714 E1.2024
G1 X110.591 Y92.941 E1.2153
G1 X109.912 Y92.941 E1.2424
G1 X109.684 Y92.714 E1.2552
G1 X109.006 Y92.714 E1.2823
G1 X109.233 Y92.941 E1.2951
G1 X108.554 Y92.941 E1.3222
G1 X108.327 Y92.714 E1.3351
G1 X107.648 Y92.714 E1.3622
G1 X107.875 Y92.941 E1.3750
G1 X107.196 Y92.941 E1.4021
G1 X106.969 Y92.714 E1.4149
G1 X106.290 Y92.714 E1.4420
G1 X106.518 Y92.941 E1.4549
G1 X105.839 Y92.941 E1.4819
G1 X105.611 Y92.714 E1.4948
G1 X104.933 Y92.714 E1.5219
G1 X105.160 Y92.941 E1.5347
G1 X104.481 Y92.941 E1.5618
G1 X104.254 Y92.714 E1.5746
G1 X103.575 Y92.714 E1.6017
G1 X103.802 Y92.941 E1.6145
G1 X103.123 Y92.941 E1.6416
G1 X102.896 Y92.714 E1.6545
G1 X102.217 Y92.714 E1.6816
G1 X102.444 Y92.941 E1.6944
G1 X101.765 Y92.941 E1.7215
G1 X101.538 Y92.714 E1.7343
G1 X100.859 Y92.714 E1.7614
G1 X101.087 Y92.941 E1.7742
G1 X100.408 Y92.941 E1.8013
G1 X100.181 Y92.714 E1.8141
G1 X99.502 Y92.714 E1.8412
G1 X99.729 Y92.941 E1.8540
G1 X99.050 Y92.940 E1.8811
G1 X98.823 Y92.713 E1.8939
G1 X98.144 Y92.713 E1.9210
G1 X98.371 Y92.940 E1.9338
G1 X97.692 Y92.940 E1.9609
G1 X97.465 Y92.713 E1.9737
G1 X96.786 Y92.713 E2.0008
G1 X97.045 Y92.972 E2.0154
G1 X96.844 Y92.990 E2.0235
G1 X96.470 Y93.076 E2.0388
G1 X96.108 Y92.713 E2.0593
G1 X95.429 Y92.713 E2.0864
G1 X95.973 Y93.258 E2.1171
G1 X95.654 Y93.422 E2.1314
G1 X95.535 Y93.498 E2.1371
G1 X94.750 Y92.713 E2.1814
G1 X94.285 Y92.713 E2.1999
G1 X94.156 Y92.721 E2.2051
G1 X94.091 Y92.733 E2.2077
G1 X95.145 Y93.787 E2.2672
G1 X94.955 Y93.944 E2.2771
G1 X94.794 Y94.115 E2.2864
G1 X93.588 Y92.909 E2.3545
G1 X93.374 Y93.063 E2.3650
G1 X93.293 Y93.139 E2.3694
G1 X93.221 Y93.221 E2.3738
G1 X94.492 Y94.492 E2.4455
G1 X94.378 Y94.645 E2.4531
G1 X94.236 Y94.915 E2.4653
G1 X92.975 Y93.654 E2.5365
G1 X92.960 Y93.687 E2.5380
G1 X92.893 Y93.945 E2.5486
G1 X92.869 Y94.226 E2.5599
G1 X94.024 Y95.382 E2.6251
G1 X93.909 Y95.726 E2.6396
G1 X93.871 Y95.907 E2.6470
G1 X92.865 Y94.902 E2.7037
G1 X92.865 Y95.581 E2.7308
G1 X93.796 Y96.512 E2.7833
G1 X93.784 Y96.660 E2.7893
G1 X93.784 Y97.179 E2.8100
G1 X92.865 Y96.260 E2.8619
G1 X92.865 Y96.938 E2.8890
G1 X93.784 Y97.857 E2.9408
G1 X93.784 Y98.536 E2.9679
G1 X92.865 Y97.617 E3.0198
G1 X92.865 Y98.296 E3.0469
G1 X93.784 Y99.215 E3.0988
G1 X93.784 Y99.894 E3.1258
G1 X92.865 Y98.975 E3.1777
G1 X92.865 Y99.654 E3.2048
G1 X93.784 Y100.573 E3.2567
G1 X93.784 Y101.252 E3.2838
G1 X92.865 Y100.333 E3.3357
G1 X92.865 Y101.011 E3.3627
G1 X93.784 Y101.930 E3.4146
G1 X93.784 Y102.609 E3.4417
G1 X92.865 Y101.690 E3.4936
G1 X92.865 Y102.369 E3.5207
G1 X93.784 Y103.288 E3.5725
G1 X93.784 Y103.967 E3.5996
G1 X92.865 Y103.048 E3.6515
G1 X92.865 Y103.727 E3.6786
G1 X93.784 Y104.646 E3.7305
G1 X93.784 Y105.324 E3.7576
G1 X92.865 Y104.405 E3.8094
G1 X92.865 Y105.084 E3.8365
G1 X93.784 Y106.003 E3.8884
G1 X93.784 Y106.682 E3.9155
G1 X92.865 Y105.763 E3.9674
G1 X92.865 Y106.442 E3.9945
G1 X93.784 Y107.361 E4.0463
G1 X93.784 Y108.040 E4.0734
G1 X92.865 Y107.121 E4.1253
G1 X92.865 Y107.800 E4.1524
G1 X93.784 Y108.719 E4.2043
G1 X93.784 Y109.397 E4.2314
G1 X92.865 Y108.478 E4.2832
G1 X92.865 Y109.157 E4.3103
G1 X93.784 Y110.076 E4.3622
G1 X93.784 Y110.755 E4.3893
G1 X92.865 Y109.836 E4.4412
G1 X92.865 Y110.515 E4.4683
G1 X93.784 Y111.434 E4.5201
G1 X93.784 Y112.113 E4.5472
G1 X92.865 Y111.194 E4.5991
G1 X92.865 Y111.873 E4.6262
G1 X93.784 Y112.792 E4.6781
G1 X93.784 Y113.470 E4.7052
G1 X92.865 Y112.551 E4.7570
G1 X92.865 Y113.230 E4.7841
G1 X93.784 Y114.149 E4.8360
G1 X93.784 Y114.828 E4.8631
G1 X92.865 Y113.909 E4.9150
G1 X92.865 Y114.588 E4.9421
G1 X93.784 Y115.507 E4.9939
G1 X93.784 Y116.186 E5.0210
G1 X92.865 Y115.267 E5.0729
G1 X92.865 Y115.945 E5.1000
G1 X93.784 Y116.864 E5.1519
G1 X93.784 Y117.543 E5.1790
G1 X92.865 Y116.624 E5.2308
G1 X92.865 Y117.303 E5.2579
G1 X93.784 Y118.222 E5.3098
G1 X93.784 Y118.901 E5.3369
G1 X92.865 Y117.982 E5.3888
G1 X92.865 Y118.661 E5.4159
G1 X93.784 Y119.580 E5.4677
G1 X93.784 Y120.259 E5.4948
G1 X92.865 Y119.340 E5.5467
G1 X92.865 Y120.018 E5.5738
G1 X93.784 Y120.937 E5.6257
G1 X93.784 Y121.616 E5.6527
G1 X92.865 Y120.697 E5.7046
G1 X92.865 Y121.376 E5.7317
G1 X93.784 Y122.295 E5.7836
G1 X93.784 Y122.974 E5.8107
G1 X92.865 Y122.055 E5.8626
G1 X92.865 Y122.734 E5.8896
G1 X93.812 Y123.680 E5.9430
G1 X93.828 Y123.889 E5.9514
