; G-Code generated by Simplify3D(R) Version 4.0.0
; Jun 19, 2018 at 9:24:22 PM
; Settings Summary
;   processName,Process1
;   applyToModels,camera_mount
;   profileName,Flyingbear p902 (modified)
;   profileVersion,2017-02-06 00:22:54
;   baseProfile,Default
;   printMaterial,PLA
;   printQuality,Medium
;   printExtruders,
;   extruderName,Extruder 1
;   extruderToolheadNumber,0
;   extruderDiameter,0.4
;   extruderAutoWidth,1
;   extruderWidth,0.48
;   extrusionMultiplier,1
;   extruderUseRetract,1
;   extruderRetractionDistance,1
;   extruderExtraRestartDistance,0
;   extruderRetractionZLift,0
;   extruderRetractionSpeed,3400
;   extruderUseCoasting,0
;   extruderCoastingDistance,0.2
;   extruderUseWipe,0
;   extruderWipeDistance,5
;   primaryExtruder,0
;   layerHeight,0.2
;   topSolidLayers,3
;   bottomSolidLayers,3
;   perimeterOutlines,2
;   printPerimetersInsideOut,1
;   startPointOption,2
;   startPointOriginX,0
;   startPointOriginY,0
;   sequentialIslands,0
;   spiralVaseMode,0
;   firstLayerHeightPercentage,90
;   firstLayerWidthPercentage,100
;   firstLayerUnderspeed,0.5
;   useRaft,0
;   raftExtruder,0
;   raftTopLayers,3
;   raftBaseLayers,1
;   raftOffset,2
;   raftSeparationDistance,0.2
;   raftTopInfill,100
;   aboveRaftSpeedMultiplier,0.3
;   useSkirt,0
;   skirtExtruder,0
;   skirtLayers,1
;   skirtOutlines,2
;   skirtOffset,4
;   usePrimePillar,0
;   primePillarExtruder,999
;   primePillarWidth,12
;   primePillarLocation,7
;   primePillarSpeedMultiplier,1
;   useOozeShield,0
;   oozeShieldExtruder,999
;   oozeShieldOffset,2
;   oozeShieldOutlines,1
;   oozeShieldSidewallShape,1
;   oozeShieldSidewallAngle,30
;   oozeShieldSpeedMultiplier,1
;   infillExtruder,0
;   internalInfillPattern,Rectilinear
;   externalInfillPattern,Rectilinear
;   infillPercentage,15
;   outlineOverlapPercentage,15
;   infillExtrusionWidthPercentage,100
;   minInfillLength,5
;   infillLayerInterval,1
;   internalInfillAngles,45,-45
;   overlapInternalInfillAngles,0
;   externalInfillAngles,45,-45
;   generateSupport,0
;   supportExtruder,0
;   supportInfillPercentage,30
;   supportExtraInflation,0
;   supportBaseLayers,0
;   denseSupportExtruder,0
;   denseSupportLayers,0
;   denseSupportInfillPercentage,70
;   supportLayerInterval,1
;   supportHorizontalPartOffset,0.3
;   supportUpperSeparationLayers,1
;   supportLowerSeparationLayers,1
;   supportType,0
;   supportGridSpacing,4
;   maxOverhangAngle,45
;   supportAngles,0
;   temperatureName,Extruder 1,Heated Bed
;   temperatureNumber,0,0
;   temperatureSetpointCount,1,1
;   temperatureSetpointLayers,1,1
;   temperatureSetpointTemperatures,210,60
;   temperatureStabilizeAtStartup,1,1
;   temperatureHeatedBed,0,1
;   temperatureRelayBetweenLayers,0,0
;   temperatureRelayBetweenLoops,0,0
;   fanLayers,1,2
;   fanSpeeds,0,100
;   blipFanToFullPower,0
;   adjustSpeedForCooling,1
;   minSpeedLayerTime,15
;   minCoolingSpeedSlowdown,20
;   increaseFanForCooling,0
;   minFanLayerTime,45
;   maxCoolingFanSpeed,100
;   increaseFanForBridging,1
;   bridgingFanSpeed,100
;   use5D,1
;   relativeEdistances,0
;   allowEaxisZeroing,1
;   independentExtruderAxes,0
;   includeM10123,0
;   stickySupport,1
;   applyToolheadOffsets,0
;   gcodeXoffset,0
;   gcodeYoffset,0
;   gcodeZoffset,0
;   overrideMachineDefinition,1
;   machineTypeOverride,0
;   strokeXoverride,220
;   strokeYoverride,220
;   strokeZoverride,280
;   originOffsetXoverride,0
;   originOffsetYoverride,0
;   originOffsetZoverride,0
;   homeXdirOverride,-1
;   homeYdirOverride,-1
;   homeZdirOverride,-1
;   flipXoverride,1
;   flipYoverride,-1
;   flipZoverride,1
;   toolheadOffsets,0,0|0,0|0,0|0,0|0,0|0,0
;   overrideFirmwareConfiguration,1
;   firmwareTypeOverride,RepRap (Marlin/Repetier/Sprinter)
;   GPXconfigOverride,r2
;   baudRateOverride,250000
;   overridePrinterModels,0
;   printerModelsOverride
;   startingGcode,G28 ; home all axes,G1 X0 Y0 Z0.2 F3000 ; get ready to prime,G92 E0 ; reset extrusion distance,G1 X200 E20 F600 ; prime nozzle
;   layerChangeGcode,
;   retractionGcode,
;   toolChangeGcode,
;   endingGcode,M104 S0 ; turn off extruder,M140 S0 ; turn off bed,G91 ; use relative coordinates,G1 Z0.6 F5000 ; lift nozzle by 0.6mm,G90 ; use absolute coordinates,G28 X0 ; home X axis,G28 Y0 ; home X axis,M84 ; disable motors,M107 ; turn off fan
;   exportFileFormat,gcode
;   celebration,0
;   celebrationSong,Random Song
;   postProcessing,
;   defaultSpeed,4200
;   outlineUnderspeed,0.9
;   solidInfillUnderspeed,1
;   supportUnderspeed,0.8
;   rapidXYspeed,4200
;   rapidZspeed,1002
;   minBridgingArea,50
;   bridgingExtraInflation,0
;   bridgingExtrusionMultiplier,1
;   bridgingSpeedMultiplier,1
;   useFixedBridgingAngle,0
;   fixedBridgingAngle,0
;   applyBridgingToPerimeters,0
;   filamentDiameters,1.75|1.75|1.75|1.75|1.75|1.75
;   filamentPricesPerKg,46|46|46|46|46|46
;   filamentDensities,1.25|1.25|1.25|1.25|1.25|1.25
;   useMinPrintHeight,0
;   minPrintHeight,0
;   useMaxPrintHeight,0
;   maxPrintHeight,0
;   useDiaphragm,0
;   diaphragmLayerInterval,20
;   robustSlicing,1
;   mergeAllIntoSolid,0
;   onlyRetractWhenCrossingOutline,1
;   retractBetweenLayers,1
;   useRetractionMinTravel,0
;   retractionMinTravel,3
;   retractWhileWiping,0
;   onlyWipeOutlines,1
;   avoidCrossingOutline,0
;   maxMovementDetourFactor,3
;   toolChangeRetractionDistance,12
;   toolChangeExtraRestartDistance,-0.5
;   toolChangeRetractionSpeed,600
;   externalThinWallType,1
;   internalThinWallType,1
;   thinWallAllowedOverlapPercentage,10
;   singleExtrusionMinLength,1
;   singleExtrusionMinPrintingWidthPercentage,50
;   singleExtrusionMaxPrintingWidthPercentage,200
;   singleExtrusionEndpointExtension,0.2
;   horizontalSizeCompensation,0
G90
M82
M106 S0
M140 S60
M190 S60
M104 S210 T0
M109 S210 T0
G28 ; home all axes
G1 X0 Y0 Z0.2 F3000 ; get ready to prime
G92 E0 ; reset extrusion distance
G1 X200 E20 F600 ; prime nozzle
G92 E0
G1 E-1.0000 F3400
G1 Z0.180 F1002
; process Process1
; layer 1, Z = 0.180
T0
; tool H0.200 W0.480
; inner perimeter
G1 X96.221 Y61.244 F4200
G1 E0.0000 F1020
G92 E0
G1 X96.823 Y60.462 E0.0394 F1995
G1 X97.789 Y59.922 E0.0836
G1 X98.911 Y59.741 E0.1289
G1 X121.092 Y59.741 E1.0142
G1 X122.216 Y59.922 E1.0597
G1 X123.179 Y60.462 E1.1037
G1 X123.782 Y61.244 E1.1431
G1 X123.977 Y62.126 E1.1792
G1 X123.977 Y141.346 E4.3410
G1 X125.045 Y141.550 E4.3844
G1 X126.184 Y142.297 E4.4388
G1 X126.932 Y143.436 E4.4932
G1 X127.178 Y144.730 E4.5457
G1 X127.178 Y156.831 E5.0287
G1 X126.931 Y158.125 E5.0813
G1 X126.184 Y159.264 E5.1357
G1 X125.045 Y160.012 E5.1900
G1 X123.751 Y160.259 E5.2426
G1 X96.249 Y160.259 E6.3403
G1 X94.955 Y160.012 E6.3929
G1 X93.816 Y159.265 E6.4472
G1 X93.068 Y158.126 E6.5016
G1 X92.821 Y156.832 E6.5542
G1 X92.822 Y144.731 E7.0372
G1 X93.068 Y143.437 E7.0898
G1 X93.816 Y142.298 E7.1441
G1 X94.955 Y141.550 E7.1985
G1 X96.026 Y141.346 E7.2420
G1 X96.025 Y62.126 E10.4038
G1 X96.221 Y61.244 E10.4399
; outer perimeter
G1 X95.775 Y61.035 F4200
G92 E0
G1 X96.503 Y60.091 E0.0476 F1890
G1 X97.629 Y59.461 E0.0991
G1 X98.873 Y59.261 E0.1494
G1 X121.130 Y59.261 E1.0377
G1 X122.377 Y59.461 E1.0881
G1 X123.499 Y60.091 E1.1395
G1 X124.227 Y61.035 E1.1871
G1 X124.457 Y62.073 E1.2295
G1 X124.457 Y140.949 E4.3776
G1 X125.229 Y141.096 E4.4089
G1 X126.530 Y141.951 E4.4711
G1 X127.385 Y143.252 E4.5332
G1 X127.658 Y144.685 E4.5914
G1 X127.658 Y156.877 E5.0780
G1 X127.385 Y158.309 E5.1362
G1 X126.530 Y159.610 E5.1984
G1 X125.229 Y160.465 E5.2605
G1 X123.796 Y160.739 E5.3187
G1 X96.203 Y160.739 E6.4200
G1 X94.771 Y160.466 E6.4782
G1 X93.470 Y159.611 E6.5404
G1 X92.615 Y158.310 E6.6025
G1 X92.341 Y156.877 E6.6607
G1 X92.342 Y144.685 E7.1473
G1 X92.615 Y143.253 E7.2055
G1 X93.470 Y141.952 E7.2677
G1 X94.771 Y141.097 E7.3298
G1 X95.546 Y140.949 E7.3613
G1 X95.545 Y62.073 E10.5094
G1 X95.775 Y61.035 E10.5518
; inner perimeter
G1 X98.187 Y147.754 F4200
G92 E0
G1 X97.067 Y147.967 E0.0455 F1995
G1 X96.045 Y148.639 E0.0943
G1 X95.373 Y149.661 E0.1431
G1 X95.159 Y150.781 E0.1887
G1 X95.373 Y151.901 E0.2342
G1 X96.045 Y152.924 E0.2830
G1 X97.067 Y153.595 E0.3318
G1 X98.187 Y153.809 E0.3773
G1 X99.307 Y153.595 E0.4228
G1 X100.329 Y152.924 E0.4716
G1 X101.001 Y151.901 E0.5205
G1 X101.214 Y150.781 E0.5660
G1 X101.001 Y149.661 E0.6115
G1 X100.329 Y148.639 E0.6603
G1 X99.307 Y147.967 E0.7091
G1 X98.187 Y147.754 E0.7546
; outer perimeter
G1 X98.187 Y148.242 F4200
G92 E0
G1 X97.251 Y148.421 E0.0380 F1890
G1 X96.391 Y148.986 E0.0791
G1 X95.827 Y149.845 E0.1201
G1 X95.648 Y150.781 E0.1582
G1 X95.827 Y151.718 E0.1962
G1 X96.391 Y152.577 E0.2373
G1 X97.251 Y153.142 E0.2783
G1 X98.187 Y153.320 E0.3163
G1 X99.123 Y153.141 E0.3544
G1 X99.983 Y152.577 E0.3954
G1 X100.547 Y151.718 E0.4365
G1 X100.726 Y150.781 E0.4745
G1 X100.547 Y149.845 E0.5126
G1 X99.983 Y148.985 E0.5536
G1 X99.123 Y148.421 E0.5946
G1 X98.187 Y148.242 E0.6327
; inner perimeter
G1 X118.785 Y150.781 F4200
G92 E0
G1 X118.999 Y151.901 E0.0455 F1995
G1 X119.670 Y152.923 E0.0943
G1 X120.693 Y153.595 E0.1431
G1 X121.813 Y153.808 E0.1887
G1 X122.933 Y153.595 E0.2342
G1 X123.955 Y152.923 E0.2830
G1 X124.627 Y151.901 E0.3318
G1 X124.840 Y150.781 E0.3773
G1 X124.627 Y149.661 E0.4228
G1 X123.955 Y148.638 E0.4716
G1 X122.933 Y147.967 E0.5205
G1 X121.813 Y147.753 E0.5660
G1 X120.693 Y147.967 E0.6115
G1 X119.670 Y148.638 E0.6603
G1 X118.999 Y149.661 E0.7091
G1 X118.785 Y150.781 E0.7546
; outer perimeter
G1 X119.274 Y150.781 F4200
G92 E0
G1 X119.453 Y151.717 E0.0380 F1890
G1 X120.017 Y152.577 E0.0791
G1 X120.876 Y153.141 E0.1201
G1 X121.813 Y153.320 E0.1582
G1 X122.749 Y153.141 E0.1962
G1 X123.609 Y152.576 E0.2373
G1 X124.173 Y151.717 E0.2783
G1 X124.352 Y150.781 E0.3163
G1 X124.173 Y149.844 E0.3544
G1 X123.609 Y148.985 E0.3954
G1 X122.749 Y148.421 E0.4365
G1 X121.813 Y148.242 E0.4745
G1 X120.876 Y148.421 E0.5126
G1 X120.017 Y148.985 E0.5536
G1 X119.453 Y149.844 E0.5946
G1 X119.274 Y150.781 E0.6327
G92 E0
G1 E-1.0000 F3400
; solid layer
G1 X121.599 Y154.183 F4200
G1 E0.0000 F3400
G92 E0
G1 X126.086 Y158.669 E0.2532 F2100
G1 X126.355 Y158.260 E0.2728
G1 X122.238 Y154.143 E0.5052
G1 X122.808 Y154.034 E0.5284
G1 X126.578 Y157.803 E0.7411
G1 X126.686 Y157.233 E0.7643
G1 X123.297 Y153.844 E0.9556
G1 X123.706 Y153.575 E0.9752
G1 X126.770 Y156.638 E1.1481
G1 X126.770 Y155.960 E1.1752
G1 X124.116 Y153.306 E1.3250
G1 X124.250 Y153.218 E1.3314
G1 X124.431 Y152.942 E1.3446
G1 X126.770 Y155.281 E1.4766
G1 X126.770 Y154.602 E1.5037
G1 X124.700 Y152.532 E1.6205
G1 X124.969 Y152.122 E1.6401
G1 X126.770 Y153.923 E1.7417
G1 X126.770 Y153.244 E1.7688
G1 X125.104 Y151.578 E1.8629
G1 X125.212 Y151.008 E1.8861
G1 X126.770 Y152.566 E1.9740
G1 X126.770 Y151.887 E2.0011
G1 X125.159 Y150.276 E2.0920
G1 X125.109 Y142.080 F4200
G92 E0
G1 X126.401 Y143.372 E0.0729 F2100
G1 X126.546 Y143.592 E0.0834
G1 X126.688 Y144.337 E0.1137
G1 X124.144 Y141.793 E0.2573
G1 X101.405 Y149.601 F4200
G92 E0
G1 X111.654 Y159.851 E0.5785 F2100
G1 X110.976 Y159.851 E0.6056
G1 X101.565 Y150.440 E1.1368
G1 X101.630 Y150.781 E1.1507
G1 X101.565 Y151.119 E1.1644
G1 X110.297 Y159.851 E1.6573
G1 X109.618 Y159.851 E1.6844
G1 X101.457 Y151.689 E2.1450
G1 X101.386 Y152.058 E2.1600
G1 X101.291 Y152.203 E2.1669
G1 X108.939 Y159.851 E2.5986
G1 X108.260 Y159.851 E2.6257
G1 X101.022 Y152.612 E3.0343
G1 X100.753 Y153.022 E3.0539
G1 X107.582 Y159.851 E3.4393
G1 X106.903 Y159.851 E3.4664
G1 X100.410 Y153.359 E3.8329
G1 X100.001 Y153.628 E3.8524
G1 X106.224 Y159.851 E4.2037
G1 X105.545 Y159.851 E4.2308
G1 X99.591 Y153.897 E4.5669
G1 X99.463 Y153.981 E4.5730
G1 X99.071 Y154.055 E4.5889
G1 X104.866 Y159.851 E4.9160
G1 X104.188 Y159.851 E4.9431
G1 X98.501 Y154.164 E5.2641
G1 X98.187 Y154.224 E5.2769
G1 X97.810 Y154.152 E5.2922
G1 X103.509 Y159.851 E5.6138
G1 X102.830 Y159.851 E5.6409
G1 X96.971 Y153.992 E5.9716
G1 X95.145 Y159.633 F4200
G92 E0
G1 X93.447 Y157.935 E0.0958 F2100
G1 X93.287 Y157.097 E0.1299
G1 X95.984 Y159.793 E0.2821
G1 X96.287 Y159.851 E0.2945
G1 X96.721 Y159.851 E0.3118
G1 X93.229 Y156.360 E0.5088
G1 X93.229 Y155.681 E0.5359
G1 X97.399 Y159.851 E0.7713
G1 X98.078 Y159.851 E0.7984
G1 X93.229 Y155.002 E1.0721
G1 X93.229 Y154.323 E1.0992
G1 X98.757 Y159.851 E1.4112
G1 X99.436 Y159.851 E1.4383
G1 X93.229 Y153.645 E1.7886
G1 X93.229 Y152.966 E1.8157
G1 X100.115 Y159.851 E2.2043
G1 X100.794 Y159.851 E2.2314
G1 X93.229 Y152.287 E2.6583
G1 X93.229 Y151.608 E2.6854
G1 X101.472 Y159.851 E3.1507
G1 X102.151 Y159.851 E3.1778
G1 X93.229 Y150.929 E3.6814
G1 X93.230 Y150.251 E3.7085
G1 X94.976 Y151.997 E3.8070
G1 X94.816 Y151.158 E3.8411
G1 X93.230 Y149.572 E3.9307
G1 X93.230 Y148.893 E3.9578
G1 X94.804 Y150.467 E4.0466
G1 X94.913 Y149.897 E4.0698
G1 X93.230 Y148.214 E4.1648
G1 X93.230 Y147.535 E4.1919
G1 X95.071 Y149.377 E4.2959
G1 X95.341 Y148.968 E4.3154
G1 X93.230 Y146.856 E4.4346
G1 X93.230 Y146.178 E4.4617
G1 X95.610 Y148.558 E4.5960
G1 X95.750 Y148.344 E4.6062
G1 X95.946 Y148.215 E4.6156
G1 X93.230 Y145.499 E4.7689
G1 X93.230 Y144.820 E4.7960
G1 X96.356 Y147.946 E4.9725
G1 X96.766 Y147.677 E4.9920
G1 X93.330 Y144.242 E5.1859
G1 X93.439 Y143.672 E5.2091
G1 X97.279 Y147.512 E5.4259
G1 X97.849 Y147.403 E5.4490
G1 X93.686 Y143.240 E5.6840
G1 X93.955 Y142.830 E5.7036
G1 X98.528 Y147.403 E5.9617
G1 X99.367 Y147.563 E5.9958
G1 X94.283 Y142.480 E6.2827
G1 X94.693 Y142.210 E6.3023
G1 X112.333 Y159.851 E7.2980
G1 X113.012 Y159.851 E7.3251
G1 X95.103 Y141.941 E8.3360
G1 X95.111 Y141.936 E8.3364
G1 X95.669 Y141.829 E8.3591
G1 X113.691 Y159.851 E9.3763
G1 X114.370 Y159.851 E9.4034
G1 X96.239 Y141.721 E10.4267
G1 X96.434 Y141.684 E10.4346
G1 X96.434 Y141.236 E10.4525
G1 X115.049 Y159.851 E11.5032
G1 X115.727 Y159.851 E11.5303
G1 X96.434 Y140.557 E12.6193
G1 X96.434 Y139.878 E12.6464
G1 X116.406 Y159.851 E13.7737
G1 X117.085 Y159.851 E13.8008
G1 X96.434 Y139.199 E14.9665
G1 X96.434 Y138.521 E14.9936
G1 X117.764 Y159.851 E16.1975
G1 X118.443 Y159.851 E16.2246
G1 X96.434 Y137.842 E17.4669
G1 X96.434 Y137.163 E17.4940
G1 X119.121 Y159.851 E18.7746
G1 X119.800 Y159.851 E18.8017
G1 X96.434 Y136.484 E20.1206
G1 X96.434 Y135.805 E20.1477
G1 X120.479 Y159.851 E21.5049
G1 X121.158 Y159.851 E21.5320
G1 X96.434 Y135.126 E22.9276
G1 X96.434 Y134.448 E22.9547
G1 X121.837 Y159.851 E24.3885
G1 X122.515 Y159.851 E24.4156
G1 X96.434 Y133.769 E25.8878
G1 X96.434 Y133.090 E25.9149
G1 X123.194 Y159.851 E27.4253
G1 X123.712 Y159.851 E27.4460
G1 X123.847 Y159.825 E27.4515
G1 X96.434 Y132.411 E28.9989
G1 X96.434 Y131.732 E29.0260
G1 X124.417 Y159.716 E30.6055
G1 X124.889 Y159.626 E30.6246
G1 X124.960 Y159.580 E30.6280
G1 X96.434 Y131.054 E32.2382
G1 X96.434 Y130.375 E32.2653
G1 X125.369 Y159.311 E33.8985
G1 X125.779 Y159.041 E33.9181
G1 X120.761 Y154.023 E34.2013
G1 X120.537 Y153.980 E34.2105
G1 X119.376 Y153.218 E34.2659
G1 X118.613 Y152.057 E34.3213
G1 X118.571 Y151.833 E34.3304
G1 X96.434 Y129.696 E35.5799
G1 X96.434 Y129.017 E35.6070
G1 X118.411 Y150.994 E36.8475
G1 X118.370 Y150.781 E36.8562
G1 X118.451 Y150.356 E36.8734
G1 X96.434 Y128.338 E38.1162
G1 X96.434 Y127.659 E38.1433
G1 X118.560 Y149.786 E39.3922
G1 X118.613 Y149.504 E39.4036
G1 X118.750 Y149.297 E39.4135
G1 X96.434 Y126.981 E40.6732
G1 X96.434 Y126.302 E40.7003
G1 X119.019 Y148.887 E41.9751
G1 X119.288 Y148.477 E41.9946
G1 X96.434 Y125.623 E43.2847
G1 X96.434 Y124.944 E43.3117
G1 X119.652 Y148.162 E44.6223
G1 X120.062 Y147.893 E44.6419
G1 X96.434 Y124.265 E45.9755
G1 X96.434 Y123.586 E46.0026
G1 X120.471 Y147.624 E47.3594
G1 X120.537 Y147.581 E47.3625
G1 X121.016 Y147.490 E47.3820
G1 X96.434 Y122.908 E48.7695
G1 X96.434 Y122.229 E48.7966
G1 X121.586 Y147.381 E50.2163
G1 X121.813 Y147.338 E50.2256
G1 X122.318 Y147.434 E50.2461
G1 X96.434 Y121.550 E51.7071
G1 X96.434 Y120.871 E51.7342
G1 X123.248 Y147.686 E53.2477
G1 X124.250 Y148.344 E53.2955
G1 X124.908 Y149.346 E53.3434
G1 X126.770 Y151.208 E53.4485
G1 X126.770 Y150.529 E53.4756
G1 X96.434 Y120.192 E55.1879
G1 X96.434 Y119.514 E55.2150
G1 X126.770 Y149.850 E56.9274
G1 X126.770 Y149.171 E56.9545
G1 X96.434 Y118.835 E58.6668
G1 X96.434 Y118.156 E58.6939
