; G-Code generated by Simplify3D(R) Version 4.0.0
; Sep 28, 2019 at 9:13:21 PM
; Settings Summary
;   processName,Process2
;   applyToModels,cap
;   profileName,Default(2) (modified)
;   profileVersion,2019-07-27 15:21:07
;   baseProfile,
;   printMaterial,PLA
;   printQuality,Medium
;   printExtruders,
;   extruderName,Primary Extruder
;   extruderToolheadNumber,0
;   extruderDiameter,0.4
;   extruderAutoWidth,0
;   extruderWidth,0.4
;   extrusionMultiplier,0.9
;   extruderUseRetract,1
;   extruderRetractionDistance,1
;   extruderExtraRestartDistance,0
;   extruderRetractionZLift,0
;   extruderRetractionSpeed,1800
;   extruderUseCoasting,0
;   extruderCoastingDistance,0.2
;   extruderUseWipe,0
;   extruderWipeDistance,5
;   primaryExtruder,0
;   layerHeight,0.2
;   topSolidLayers,3
;   bottomSolidLayers,2
;   perimeterOutlines,2
;   printPerimetersInsideOut,0
;   startPointOption,2
;   startPointOriginX,0
;   startPointOriginY,0
;   sequentialIslands,0
;   spiralVaseMode,0
;   firstLayerHeightPercentage,90
;   firstLayerWidthPercentage,100
;   firstLayerUnderspeed,0.5
;   useRaft,0
;   raftExtruder,0
;   raftTopLayers,3
;   raftBaseLayers,2
;   raftOffset,3
;   raftSeparationDistance,0.14
;   raftTopInfill,100
;   aboveRaftSpeedMultiplier,0.3
;   useSkirt,0
;   skirtExtruder,0
;   skirtLayers,1
;   skirtOutlines,2
;   skirtOffset,4
;   usePrimePillar,0
;   primePillarExtruder,999
;   primePillarWidth,12
;   primePillarLocation,7
;   primePillarSpeedMultiplier,1
;   useOozeShield,0
;   oozeShieldExtruder,999
;   oozeShieldOffset,2
;   oozeShieldOutlines,1
;   oozeShieldSidewallShape,1
;   oozeShieldSidewallAngle,30
;   oozeShieldSpeedMultiplier,1
;   infillExtruder,0
;   internalInfillPattern,Rectilinear
;   externalInfillPattern,Rectilinear
;   infillPercentage,10
;   outlineOverlapPercentage,15
;   infillExtrusionWidthPercentage,100
;   minInfillLength,5
;   infillLayerInterval,1
;   internalInfillAngles,45,-45
;   overlapInternalInfillAngles,0
;   externalInfillAngles,45,-45
;   generateSupport,0
;   supportExtruder,0
;   supportInfillPercentage,30
;   supportExtraInflation,0
;   supportBaseLayers,0
;   denseSupportExtruder,0
;   denseSupportLayers,0
;   denseSupportInfillPercentage,70
;   supportLayerInterval,1
;   supportHorizontalPartOffset,0.3
;   supportUpperSeparationLayers,1
;   supportLowerSeparationLayers,1
;   supportType,0
;   supportGridSpacing,4
;   maxOverhangAngle,45
;   supportAngles,0
;   temperatureName,Primary Extruder,Hot Bed
;   temperatureNumber,0,1
;   temperatureSetpointCount,1,1
;   temperatureSetpointLayers,1,1
;   temperatureSetpointTemperatures,200,60
;   temperatureStabilizeAtStartup,1,0
;   temperatureHeatedBed,0,1
;   temperatureRelayBetweenLayers,0,0
;   temperatureRelayBetweenLoops,0,0
;   fanLayers,1,2
;   fanSpeeds,0,100
;   blipFanToFullPower,0
;   adjustSpeedForCooling,1
;   minSpeedLayerTime,15
;   minCoolingSpeedSlowdown,20
;   increaseFanForCooling,0
;   minFanLayerTime,45
;   maxCoolingFanSpeed,100
;   increaseFanForBridging,0
;   bridgingFanSpeed,100
;   use5D,1
;   relativeEdistances,0
;   allowEaxisZeroing,1
;   independentExtruderAxes,0
;   includeM10123,0
;   stickySupport,1
;   applyToolheadOffsets,0
;   gcodeXoffset,0
;   gcodeYoffset,0
;   gcodeZoffset,0
;   overrideMachineDefinition,0
;   machineTypeOverride,0
;   strokeXoverride,200
;   strokeYoverride,200
;   strokeZoverride,200
;   originOffsetXoverride,0
;   originOffsetYoverride,0
;   originOffsetZoverride,0
;   homeXdirOverride,-1
;   homeYdirOverride,-1
;   homeZdirOverride,-1
;   flipXoverride,1
;   flipYoverride,-1
;   flipZoverride,1
;   toolheadOffsets,0,0|0,0|0,0|0,0|0,0|0,0
;   overrideFirmwareConfiguration,0
;   firmwareTypeOverride,RepRap (Marlin/Repetier/Sprinter)
;   GPXconfigOverride,r2
;   baudRateOverride,115200
;   overridePrinterModels,0
;   printerModelsOverride
;   startingGcode,G28 ; home all axes,G1 X0 Y200 Z0.2 F3000 ; get ready to prime,G92 E0 ; reset extrusion distance,G1 X150 E20 F600 ; prime nozzle
;   layerChangeGcode,
;   retractionGcode,
;   toolChangeGcode,
;   endingGcode,G28 X Z ; home X & Y,M104 S0 ; turn off extruder,M140 S0 ; turn off bed,M84 ; disable motors
;   exportFileFormat,gcode
;   celebration,0
;   celebrationSong,Random Song
;   postProcessing,
;   defaultSpeed,4600
;   outlineUnderspeed,0.5
;   solidInfillUnderspeed,0.8
;   supportUnderspeed,0.8
;   rapidXYspeed,4800
;   rapidZspeed,1000
;   minBridgingArea,50
;   bridgingExtraInflation,0
;   bridgingExtrusionMultiplier,1
;   bridgingSpeedMultiplier,1
;   useFixedBridgingAngle,0
;   fixedBridgingAngle,0
;   applyBridgingToPerimeters,0
;   filamentDiameters,1.75|1.75|1.75|1.75|1.75|1.75
;   filamentPricesPerKg,46|46|46|46|46|46
;   filamentDensities,1.25|1.25|1.25|1.25|1.25|1.25
;   useMinPrintHeight,0
;   minPrintHeight,0
;   useMaxPrintHeight,0
;   maxPrintHeight,0
;   useDiaphragm,0
;   diaphragmLayerInterval,20
;   robustSlicing,1
;   mergeAllIntoSolid,0
;   onlyRetractWhenCrossingOutline,1
;   retractBetweenLayers,1
;   useRetractionMinTravel,0
;   retractionMinTravel,3
;   retractWhileWiping,0
;   onlyWipeOutlines,1
;   avoidCrossingOutline,0
;   maxMovementDetourFactor,3
;   toolChangeRetractionDistance,12
;   toolChangeExtraRestartDistance,-0.5
;   toolChangeRetractionSpeed,600
;   externalThinWallType,1
;   internalThinWallType,1
;   thinWallAllowedOverlapPercentage,10
;   singleExtrusionMinLength,1
;   singleExtrusionMinPrintingWidthPercentage,50
;   singleExtrusionMaxPrintingWidthPercentage,200
;   singleExtrusionEndpointExtension,0.2
;   horizontalSizeCompensation,0
G90
M82
M106 S0
M140 S60
M104 S200 T0
M109 S200 T0
G28 ; home all axes
G1 X0 Y200 Z0.2 F3000 ; get ready to prime
G92 E0 ; reset extrusion distance
G1 X150 E20 F600 ; prime nozzle
G92 E0
G1 E-1.0000 F1800
G1 Z0.180 F1000
; process Process2
; layer 1, Z = 0.180
T0
; tool H0.200 W0.400
; outer perimeter
G1 X104.286 Y96.751 F4800
G1 E0.0000 F540
G92 E0
G1 X104.998 Y96.001 E0.0310 F1150
G1 X105.751 Y95.286 E0.0621
G1 X106.539 Y94.613 E0.0931
G1 X107.362 Y93.982 E0.1241
G1 X108.214 Y93.396 E0.1551
G1 X109.100 Y92.852 E0.1862
G1 X110.009 Y92.359 E0.2171
G1 X110.947 Y91.912 E0.2482
G1 X111.904 Y91.515 E0.2793
G1 X112.881 Y91.169 E0.3103
G1 X113.875 Y90.875 E0.3413
G1 X114.881 Y90.633 E0.3723
G1 X115.903 Y90.444 E0.4034
G1 X116.930 Y90.308 E0.4344
G1 X117.964 Y90.227 E0.4655
G1 X119.000 Y90.200 E0.4965
G1 X120.036 Y90.227 E0.5275
G1 X121.070 Y90.308 E0.5585
G1 X122.097 Y90.444 E0.5896
G1 X123.117 Y90.633 E0.6206
G1 X124.125 Y90.875 E0.6516
G1 X125.116 Y91.169 E0.6826
G1 X126.096 Y91.515 E0.7137
G1 X127.053 Y91.912 E0.7447
G1 X127.989 Y92.358 E0.7757
G1 X128.900 Y92.852 E0.8068
G1 X129.782 Y93.394 E0.8377
G1 X130.638 Y93.982 E0.8688
G1 X131.460 Y94.613 E0.8999
G1 X132.247 Y95.284 E0.9308
G1 X133.001 Y95.999 E0.9619
G1 X133.714 Y96.751 E0.9930
G1 X134.386 Y97.538 E1.0239
G1 X135.018 Y98.362 E1.0550
G1 X135.604 Y99.214 E1.0860
G1 X136.147 Y100.100 E1.1171
G1 X136.642 Y101.011 E1.1481
G1 X137.088 Y101.947 E1.1791
G1 X137.485 Y102.904 E1.2102
G1 X137.831 Y103.882 E1.2412
G1 X138.125 Y104.875 E1.2722
G1 X138.367 Y105.883 E1.3032
G1 X138.556 Y106.903 E1.3343
G1 X138.691 Y107.930 E1.3653
G1 X138.773 Y108.964 E1.3963
G1 X138.800 Y109.998 E1.4273
G1 X138.773 Y111.036 E1.4584
G1 X138.692 Y112.070 E1.4894
G1 X138.556 Y113.097 E1.5205
G1 X138.368 Y114.114 E1.5514
G1 X138.125 Y115.125 E1.5825
G1 X137.832 Y116.116 E1.6135
G1 X137.485 Y117.096 E1.6446
G1 X137.089 Y118.051 E1.6755
G1 X136.642 Y118.989 E1.7066
G1 X136.148 Y119.898 E1.7376
G1 X135.606 Y120.784 E1.7687
G1 X135.020 Y121.636 E1.7997
G1 X134.387 Y122.461 E1.8308
G1 X133.714 Y123.249 E1.8618
G1 X133.002 Y123.999 E1.8927
G1 X132.249 Y124.714 E1.9239
G1 X131.461 Y125.387 E1.9549
G1 X130.638 Y126.018 E1.9859
G1 X129.786 Y126.604 E2.0169
G1 X128.900 Y127.147 E2.0480
G1 X127.991 Y127.641 E2.0789
G1 X127.053 Y128.088 E2.1100
G1 X126.096 Y128.485 E2.1411
G1 X125.121 Y128.830 E2.1720
G1 X124.124 Y129.125 E2.2031
G1 X123.117 Y129.367 E2.2341
G1 X122.097 Y129.556 E2.2652
G1 X121.070 Y129.691 E2.2962
G1 X120.036 Y129.773 E2.3272
G1 X119.002 Y129.800 E2.3582
G1 X117.964 Y129.773 E2.3893
G1 X116.933 Y129.692 E2.4203
G1 X115.903 Y129.556 E2.4514
G1 X114.883 Y129.367 E2.4824
G1 X113.875 Y129.125 E2.5134
G1 X112.884 Y128.831 E2.5444
G1 X111.904 Y128.485 E2.5755
G1 X110.949 Y128.089 E2.6064
G1 X110.011 Y127.642 E2.6375
G1 X109.100 Y127.147 E2.6686
G1 X108.216 Y126.606 E2.6996
G1 X107.364 Y126.020 E2.7306
G1 X106.541 Y125.389 E2.7616
G1 X105.753 Y124.716 E2.7926
G1 X104.999 Y124.001 E2.8237
G1 X104.286 Y123.249 E2.8547
G1 X103.613 Y122.460 E2.8858
G1 X102.982 Y121.638 E2.9168
G1 X102.394 Y120.784 E2.9478
G1 X101.853 Y119.900 E2.9789
G1 X101.358 Y118.989 E3.0099
G1 X100.912 Y118.053 E3.0409
G1 X100.515 Y117.096 E3.0719
G1 X100.169 Y116.118 E3.1030
G1 X99.875 Y115.127 E3.1339
G1 X99.633 Y114.117 E3.1650
G1 X99.444 Y113.097 E3.1961
G1 X99.309 Y112.070 E3.2271
G1 X99.227 Y111.039 E3.2581
G1 X99.200 Y110.000 E3.2892
G1 X99.227 Y108.964 E3.3202
G1 X99.309 Y107.930 E3.3512
G1 X99.444 Y106.905 E3.3822
G1 X99.633 Y105.883 E3.4133
G1 X99.874 Y104.878 E3.4442
G1 X100.169 Y103.881 E3.4753
G1 X100.515 Y102.904 E3.5064
G1 X100.912 Y101.947 E3.5374
G1 X101.357 Y101.013 E3.5684
G1 X101.853 Y100.100 E3.5995
G1 X102.394 Y99.216 E3.6305
G1 X102.980 Y98.364 E3.6614
G1 X103.614 Y97.538 E3.6926
G1 X104.286 Y96.751 E3.7236
; inner perimeter
G1 X104.583 Y97.019 F4800
G92 E0
G1 X105.281 Y96.284 E0.0303 F1725
G1 X106.019 Y95.583 E0.0608
G1 X106.791 Y94.924 E0.0912
G1 X107.597 Y94.305 E0.1216
G1 X108.432 Y93.731 E0.1519
G1 X109.300 Y93.199 E0.1824
G1 X110.191 Y92.716 E0.2128
G1 X111.109 Y92.277 E0.2432
G1 X112.048 Y91.889 E0.2736
G1 X113.005 Y91.550 E0.3040
G1 X113.979 Y91.261 E0.3344
G1 X114.964 Y91.025 E0.3648
G1 X115.965 Y90.839 E0.3952
G1 X116.972 Y90.706 E0.4256
G1 X117.985 Y90.627 E0.4560
G1 X119.000 Y90.600 E0.4864
G1 X120.015 Y90.627 E0.5169
G1 X121.028 Y90.706 E0.5473
G1 X122.035 Y90.839 E0.5777
G1 X123.033 Y91.024 E0.6081
G1 X124.021 Y91.261 E0.6385
G1 X124.993 Y91.549 E0.6688
G1 X125.952 Y91.889 E0.6993
G1 X126.891 Y92.277 E0.7297
G1 X127.807 Y92.715 E0.7601
G1 X128.700 Y93.199 E0.7905
G1 X129.564 Y93.729 E0.8208
G1 X130.403 Y94.305 E0.8513
G1 X131.209 Y94.924 E0.8817
G1 X131.979 Y95.582 E0.9120
G1 X132.718 Y96.282 E0.9425
G1 X133.417 Y97.019 E0.9729
G1 X134.075 Y97.790 E1.0032
G1 X134.695 Y98.597 E1.0337
G1 X135.269 Y99.432 E1.0640
G1 X135.801 Y100.300 E1.0945
G1 X136.285 Y101.193 E1.1249
G1 X136.723 Y102.109 E1.1553
G1 X137.111 Y103.048 E1.1857
G1 X137.450 Y104.005 E1.2161
G1 X137.739 Y104.979 E1.2465
G1 X137.976 Y105.967 E1.2769
G1 X138.161 Y106.965 E1.3073
G1 X138.294 Y107.972 E1.3377
G1 X138.373 Y108.985 E1.3681
G1 X138.400 Y109.998 E1.3985
G1 X138.373 Y111.015 E1.4289
G1 X138.294 Y112.028 E1.4593
G1 X138.161 Y113.035 E1.4897
G1 X137.976 Y114.031 E1.5201
G1 X137.739 Y115.021 E1.5505
G1 X137.451 Y115.993 E1.5809
G1 X137.111 Y116.952 E1.6114
G1 X136.724 Y117.888 E1.6417
G1 X136.285 Y118.807 E1.6722
G1 X135.802 Y119.698 E1.7025
G1 X135.270 Y120.566 E1.7330
G1 X134.696 Y121.401 E1.7633
G1 X134.076 Y122.209 E1.7938
G1 X133.417 Y122.981 E1.8242
G1 X132.719 Y123.716 E1.8545
G1 X131.981 Y124.417 E1.8850
G1 X131.209 Y125.076 E1.9154
G1 X130.403 Y125.695 E1.9458
G1 X129.568 Y126.269 E1.9761
G1 X128.700 Y126.801 E2.0066
G1 X127.809 Y127.284 E2.0369
G1 X126.891 Y127.723 E2.0674
G1 X125.952 Y128.111 E2.0978
G1 X124.997 Y128.449 E2.1281
G1 X124.021 Y128.739 E2.1586
G1 X123.033 Y128.976 E2.1890
G1 X122.035 Y129.161 E2.2194
G1 X121.028 Y129.293 E2.2498
G1 X120.015 Y129.373 E2.2802
G1 X119.002 Y129.400 E2.3105
G1 X117.985 Y129.373 E2.3410
G1 X116.974 Y129.294 E2.3713
G1 X115.965 Y129.161 E2.4018
G1 X114.967 Y128.976 E2.4322
G1 X113.979 Y128.739 E2.4626
G1 X113.007 Y128.451 E2.4930
G1 X112.048 Y128.111 E2.5234
G1 X111.112 Y127.723 E2.5538
G1 X110.193 Y127.285 E2.5842
G1 X109.300 Y126.801 E2.6146
G1 X108.434 Y126.270 E2.6450
G1 X107.599 Y125.696 E2.6754
G1 X106.793 Y125.078 E2.7058
G1 X106.021 Y124.418 E2.7362
G1 X105.282 Y123.718 E2.7667
G1 X104.583 Y122.981 E2.7971
G1 X103.924 Y122.209 E2.8275
G1 X103.305 Y121.403 E2.8579
G1 X102.730 Y120.566 E2.8883
G1 X102.199 Y119.700 E2.9187
G1 X101.715 Y118.807 E2.9491
G1 X101.277 Y117.891 E2.9795
G1 X100.889 Y116.952 E3.0099
G1 X100.550 Y115.995 E3.0403
G1 X100.262 Y115.023 E3.0706
G1 X100.024 Y114.033 E3.1011
G1 X99.839 Y113.035 E3.1315
G1 X99.706 Y112.028 E3.1619
G1 X99.627 Y111.018 E3.1922
G1 X99.600 Y110.000 E3.2227
G1 X99.627 Y108.985 E3.2531
G1 X99.706 Y107.972 E3.2835
G1 X99.839 Y106.968 E3.3138
G1 X100.024 Y105.967 E3.3443
G1 X100.261 Y104.981 E3.3746
G1 X100.550 Y104.005 E3.4051
G1 X100.889 Y103.048 E3.4355
G1 X101.277 Y102.109 E3.4659
G1 X101.714 Y101.195 E3.4962
G1 X102.199 Y100.300 E3.5267
G1 X102.730 Y99.434 E3.5571
G1 X103.304 Y98.599 E3.5874
G1 X103.925 Y97.790 E3.6180
G1 X104.583 Y97.019 E3.6483
; solid layer
G1 X130.090 Y94.503 F4800
G92 E0
G1 X134.497 Y98.910 E0.1866 F1840
G1 X134.984 Y99.618 E0.2123
G1 X135.506 Y100.470 E0.2422
G1 X135.523 Y100.502 E0.2433
G1 X128.498 Y93.476 E0.5407
G1 X127.653 Y93.017 E0.5695
G1 X127.310 Y92.854 E0.5809
G1 X136.146 Y101.690 E0.9549
G1 X136.412 Y102.248 E0.9734
G1 X136.606 Y102.715 E0.9886
G1 X126.284 Y92.394 E1.4255
G1 X125.831 Y92.206 E1.4402
G1 X125.367 Y92.042 E1.4549
G1 X136.958 Y103.634 E1.9456
G1 X137.127 Y104.111 E1.9608
G1 X137.235 Y104.477 E1.9722
G1 X124.524 Y91.765 E2.5103
G1 X123.933 Y91.590 E2.5288
G1 X123.736 Y91.543 E2.5349
G1 X137.458 Y105.265 E3.1158
G1 X137.636 Y106.009 E3.1387
G1 X122.991 Y91.364 E3.7587
G1 X122.963 Y91.357 E3.7595
G1 X122.295 Y91.233 E3.7799
G1 X137.767 Y106.705 E4.4348
G1 X137.825 Y107.018 E4.4444
G1 X137.872 Y107.376 E4.4552
G1 X121.624 Y91.128 E5.1430
G1 X120.992 Y91.045 E5.1621
G1 X120.973 Y91.043 E5.1627
G1 X137.957 Y108.026 E5.8816
G1 X138.005 Y108.640 E5.9000
G1 X120.360 Y90.995 E6.6470
G1 X119.997 Y90.967 E6.6579
G1 X119.759 Y90.960 E6.6650
G1 X138.040 Y109.241 E7.4389
G1 X138.055 Y109.822 E7.4563
G1 X119.178 Y90.945 E8.2554
G1 X119.000 Y90.940 E8.2608
G1 X118.618 Y90.950 E8.2722
G1 X138.050 Y110.382 E9.0948
G1 X138.035 Y110.933 E9.1113
G1 X118.067 Y90.965 E9.9567
G1 X118.003 Y90.967 E9.9586
G1 X117.539 Y91.003 E9.9725
G1 X137.997 Y111.461 E10.8385
G1 X137.956 Y111.985 E10.8543
G1 X117.015 Y91.044 E11.7408
G1 X117.008 Y91.045 E11.7410
G1 X116.515 Y91.110 E11.7559
G1 X137.890 Y112.485 E12.6608
G1 X137.825 Y112.982 E12.6758
G1 X137.824 Y112.985 E12.6759
G1 X116.015 Y91.176 E13.5992
G1 X115.538 Y91.264 E13.6137
G1 X137.736 Y113.462 E14.5534
G1 X137.647 Y113.940 E14.5679
G1 X115.061 Y91.353 E15.5241
G1 X115.035 Y91.357 E15.5249
G1 X114.603 Y91.461 E15.5382
G1 X137.539 Y114.397 E16.5091
G1 X137.429 Y114.853 E16.5232
G1 X114.147 Y91.571 E17.5088
G1 X114.067 Y91.590 E17.5113
G1 X113.707 Y91.697 E17.5225
G1 X137.304 Y115.293 E18.5214
G1 X137.174 Y115.729 E18.5350
G1 X113.271 Y91.826 E19.5469
G1 X113.110 Y91.873 E19.5520
G1 X112.846 Y91.967 E19.5603
G1 X137.033 Y116.154 E20.5842
G1 X136.885 Y116.572 E20.5975
G1 X112.428 Y92.115 E21.6329
G1 X112.170 Y92.206 E21.6411
G1 X112.017 Y92.269 E21.6460
G1 X136.731 Y116.983 E22.6922
G1 X136.565 Y117.383 E22.7052
G1 X111.617 Y92.435 E23.7613
G1 X111.247 Y92.588 E23.7733
G1 X111.218 Y92.602 E23.7742
G1 X136.398 Y117.781 E24.8401
G1 X136.215 Y118.164 E24.8529
G1 X110.836 Y92.785 E25.9273
G1 X110.453 Y92.967 E25.9400
G1 X136.033 Y118.547 E27.0228
G1 X135.982 Y118.653 E27.0264
G1 X135.838 Y118.919 E27.0354
G1 X110.081 Y93.162 E28.1258
G1 X109.715 Y93.361 E28.1382
G1 X135.639 Y119.285 E29.2357
G1 X135.507 Y119.528 E29.2440
G1 X135.435 Y119.646 E29.2481
G1 X109.353 Y93.565 E30.3522
G1 X109.003 Y93.780 E30.3646
G1 X135.220 Y119.997 E31.4744
G1 X135.005 Y120.348 E31.4867
G1 X108.652 Y93.995 E32.6023
G1 X108.618 Y94.017 E32.6035
G1 X108.315 Y94.224 E32.6145
G1 X134.776 Y120.685 E33.7346
G1 X134.545 Y121.020 E33.7468
G1 X107.980 Y94.455 E34.8714
G1 X107.797 Y94.580 E34.8781
G1 X107.652 Y94.692 E34.8835
G1 X134.308 Y121.348 E36.0120
G1 X134.062 Y121.668 E36.0241
