; G-Code generated by Simplify3D(R) Version 4.0.0
; Sep 28, 2019 at 10:10:13 PM
; Settings Summary
;   processName,Process2
;   applyToModels,cap50,cap60
;   profileName,Default(2) (modified)
;   profileVersion,2019-07-27 15:21:07
;   baseProfile,
;   printMaterial,PLA
;   printQuality,Medium
;   printExtruders,
;   extruderName,Primary Extruder
;   extruderToolheadNumber,0
;   extruderDiameter,0.4
;   extruderAutoWidth,0
;   extruderWidth,0.4
;   extrusionMultiplier,0.9
;   extruderUseRetract,1
;   extruderRetractionDistance,1
;   extruderExtraRestartDistance,0
;   extruderRetractionZLift,0
;   extruderRetractionSpeed,1800
;   extruderUseCoasting,0
;   extruderCoastingDistance,0.2
;   extruderUseWipe,0
;   extruderWipeDistance,5
;   primaryExtruder,0
;   layerHeight,0.2
;   topSolidLayers,3
;   bottomSolidLayers,2
;   perimeterOutlines,2
;   printPerimetersInsideOut,0
;   startPointOption,2
;   startPointOriginX,0
;   startPointOriginY,0
;   sequentialIslands,0
;   spiralVaseMode,0
;   firstLayerHeightPercentage,90
;   firstLayerWidthPercentage,100
;   firstLayerUnderspeed,0.5
;   useRaft,0
;   raftExtruder,0
;   raftTopLayers,3
;   raftBaseLayers,2
;   raftOffset,3
;   raftSeparationDistance,0.14
;   raftTopInfill,100
;   aboveRaftSpeedMultiplier,0.3
;   useSkirt,0
;   skirtExtruder,0
;   skirtLayers,1
;   skirtOutlines,2
;   skirtOffset,4
;   usePrimePillar,0
;   primePillarExtruder,999
;   primePillarWidth,12
;   primePillarLocation,7
;   primePillarSpeedMultiplier,1
;   useOozeShield,0
;   oozeShieldExtruder,999
;   oozeShieldOffset,2
;   oozeShieldOutlines,1
;   oozeShieldSidewallShape,1
;   oozeShieldSidewallAngle,30
;   oozeShieldSpeedMultiplier,1
;   infillExtruder,0
;   internalInfillPattern,Rectilinear
;   externalInfillPattern,Rectilinear
;   infillPercentage,10
;   outlineOverlapPercentage,15
;   infillExtrusionWidthPercentage,100
;   minInfillLength,5
;   infillLayerInterval,1
;   internalInfillAngles,45,-45
;   overlapInternalInfillAngles,0
;   externalInfillAngles,45,-45
;   generateSupport,0
;   supportExtruder,0
;   supportInfillPercentage,30
;   supportExtraInflation,0
;   supportBaseLayers,0
;   denseSupportExtruder,0
;   denseSupportLayers,0
;   denseSupportInfillPercentage,70
;   supportLayerInterval,1
;   supportHorizontalPartOffset,0.3
;   supportUpperSeparationLayers,1
;   supportLowerSeparationLayers,1
;   supportType,0
;   supportGridSpacing,4
;   maxOverhangAngle,45
;   supportAngles,0
;   temperatureName,Primary Extruder,Hot Bed
;   temperatureNumber,0,1
;   temperatureSetpointCount,1,1
;   temperatureSetpointLayers,1,1
;   temperatureSetpointTemperatures,200,60
;   temperatureStabilizeAtStartup,1,0
;   temperatureHeatedBed,0,1
;   temperatureRelayBetweenLayers,0,0
;   temperatureRelayBetweenLoops,0,0
;   fanLayers,1,2
;   fanSpeeds,0,100
;   blipFanToFullPower,0
;   adjustSpeedForCooling,1
;   minSpeedLayerTime,15
;   minCoolingSpeedSlowdown,20
;   increaseFanForCooling,0
;   minFanLayerTime,45
;   maxCoolingFanSpeed,100
;   increaseFanForBridging,0
;   bridgingFanSpeed,100
;   use5D,1
;   relativeEdistances,0
;   allowEaxisZeroing,1
;   independentExtruderAxes,0
;   includeM10123,0
;   stickySupport,1
;   applyToolheadOffsets,0
;   gcodeXoffset,0
;   gcodeYoffset,0
;   gcodeZoffset,0
;   overrideMachineDefinition,0
;   machineTypeOverride,0
;   strokeXoverride,200
;   strokeYoverride,200
;   strokeZoverride,200
;   originOffsetXoverride,0
;   originOffsetYoverride,0
;   originOffsetZoverride,0
;   homeXdirOverride,-1
;   homeYdirOverride,-1
;   homeZdirOverride,-1
;   flipXoverride,1
;   flipYoverride,-1
;   flipZoverride,1
;   toolheadOffsets,0,0|0,0|0,0|0,0|0,0|0,0
;   overrideFirmwareConfiguration,0
;   firmwareTypeOverride,RepRap (Marlin/Repetier/Sprinter)
;   GPXconfigOverride,r2
;   baudRateOverride,115200
;   overridePrinterModels,0
;   printerModelsOverride
;   startingGcode,G28 ; home all axes,G1 X0 Y200 Z0.2 F3000 ; get ready to prime,G92 E0 ; reset extrusion distance,G1 X150 E20 F600 ; prime nozzle
;   layerChangeGcode,
;   retractionGcode,
;   toolChangeGcode,
;   endingGcode,G28 X Y ; home X & Y,M104 S0 ; turn off extruder,M140 S0 ; turn off bed,M84 ; disable motors
;   exportFileFormat,gcode
;   celebration,0
;   celebrationSong,Random Song
;   postProcessing,
;   defaultSpeed,4600
;   outlineUnderspeed,0.5
;   solidInfillUnderspeed,0.8
;   supportUnderspeed,0.8
;   rapidXYspeed,4800
;   rapidZspeed,1000
;   minBridgingArea,50
;   bridgingExtraInflation,0
;   bridgingExtrusionMultiplier,1
;   bridgingSpeedMultiplier,1
;   useFixedBridgingAngle,0
;   fixedBridgingAngle,0
;   applyBridgingToPerimeters,0
;   filamentDiameters,1.75|1.75|1.75|1.75|1.75|1.75
;   filamentPricesPerKg,46|46|46|46|46|46
;   filamentDensities,1.25|1.25|1.25|1.25|1.25|1.25
;   useMinPrintHeight,0
;   minPrintHeight,0
;   useMaxPrintHeight,0
;   maxPrintHeight,0
;   useDiaphragm,0
;   diaphragmLayerInterval,20
;   robustSlicing,1
;   mergeAllIntoSolid,0
;   onlyRetractWhenCrossingOutline,1
;   retractBetweenLayers,1
;   useRetractionMinTravel,0
;   retractionMinTravel,3
;   retractWhileWiping,0
;   onlyWipeOutlines,1
;   avoidCrossingOutline,0
;   maxMovementDetourFactor,3
;   toolChangeRetractionDistance,12
;   toolChangeExtraRestartDistance,-0.5
;   toolChangeRetractionSpeed,600
;   externalThinWallType,1
;   internalThinWallType,1
;   thinWallAllowedOverlapPercentage,10
;   singleExtrusionMinLength,1
;   singleExtrusionMinPrintingWidthPercentage,50
;   singleExtrusionMaxPrintingWidthPercentage,200
;   singleExtrusionEndpointExtension,0.2
;   horizontalSizeCompensation,0
G90
M82
M106 S0
M140 S60
M104 S200 T0
M109 S200 T0
G28 ; home all axes
G1 X0 Y200 Z0.2 F3000 ; get ready to prime
G92 E0 ; reset extrusion distance
G1 X150 E20 F600 ; prime nozzle
G92 E0
G1 E-1.0000 F1800
G1 Z0.180 F1000
; process Process2
; layer 1, Z = 0.180
T0
; tool H0.200 W0.400
; outer perimeter
G1 X94.887 Y64.990 F4800
G1 E0.0000 F540
G92 E0
G1 X95.841 Y63.746 E0.0469 F1150
G1 X96.854 Y62.560 E0.0936
G1 X97.924 Y61.433 E0.1401
G1 X99.060 Y60.355 E0.1870
G1 X100.246 Y59.341 E0.2337
G1 X101.484 Y58.391 E0.2804
G1 X102.764 Y57.512 E0.3269
G1 X104.100 Y56.692 E0.3738
G1 X105.465 Y55.951 E0.4203
G1 X106.879 Y55.276 E0.4672
G1 X108.321 Y54.679 E0.5139
G1 X109.791 Y54.159 E0.5606
G1 X111.287 Y53.716 E0.6073
G1 X112.797 Y53.353 E0.6538
G1 X114.338 Y53.067 E0.7007
G1 X115.885 Y52.863 E0.7474
G1 X117.440 Y52.741 E0.7941
G1 X119.000 Y52.700 E0.8408
G1 X120.560 Y52.741 E0.8875
G1 X122.115 Y52.863 E0.9342
G1 X123.662 Y53.067 E0.9809
G1 X125.196 Y53.351 E1.0276
G1 X126.713 Y53.716 E1.0744
G1 X128.202 Y54.157 E1.1208
G1 X129.680 Y54.679 E1.1678
G1 X131.121 Y55.276 E1.2144
G1 X132.529 Y55.948 E1.2612
G1 X133.900 Y56.692 E1.3078
G1 X135.224 Y57.504 E1.3544
G1 X136.516 Y58.391 E1.4013
G1 X137.754 Y59.341 E1.4480
G1 X138.935 Y60.350 E1.4945
G1 X140.072 Y61.428 E1.5414
G1 X141.146 Y62.560 E1.5881
G1 X142.154 Y63.741 E1.6346
G1 X143.109 Y64.984 E1.6815
G1 X143.988 Y66.264 E1.7280
G1 X144.807 Y67.600 E1.7749
G1 X145.552 Y68.971 E1.8216
G1 X146.224 Y70.379 E1.8683
G1 X146.821 Y71.821 E1.9150
G1 X147.341 Y73.291 E1.9617
G1 X147.785 Y74.787 E2.0084
G1 X148.149 Y76.304 E2.0551
G1 X148.433 Y77.838 E2.1018
G1 X148.637 Y79.385 E2.1485
G1 X148.759 Y80.940 E2.1952
G1 X148.800 Y82.493 E2.2417
G1 X148.759 Y84.060 E2.2886
G1 X148.637 Y85.615 E2.3353
G1 X148.433 Y87.162 E2.3820
G1 X148.150 Y88.689 E2.4285
G1 X147.785 Y90.213 E2.4754
G1 X147.343 Y91.702 E2.5219
G1 X146.821 Y93.179 E2.5688
G1 X146.226 Y94.614 E2.6153
G1 X145.552 Y96.029 E2.6622
G1 X144.811 Y97.394 E2.7087
G1 X143.992 Y98.730 E2.7556
G1 X143.113 Y100.010 E2.8021
G1 X142.159 Y101.254 E2.8490
G1 X141.146 Y102.440 E2.8957
G1 X140.077 Y103.567 E2.9422
G1 X138.940 Y104.646 E2.9891
G1 X137.754 Y105.659 E3.0358
G1 X136.516 Y106.609 E3.0825
G1 X135.236 Y107.488 E3.1290
G1 X133.900 Y108.307 E3.1759
G1 X132.535 Y109.049 E3.2224
G1 X131.121 Y109.724 E3.2693
G1 X129.679 Y110.321 E3.3160
G1 X128.215 Y110.839 E3.3625
G1 X126.713 Y111.285 E3.4094
G1 X125.196 Y111.649 E3.4561
G1 X123.662 Y111.933 E3.5028
G1 X122.115 Y112.137 E3.5495
G1 X120.560 Y112.259 E3.5962
G1 X119.007 Y112.300 E3.6427
G1 X117.440 Y112.259 E3.6896
G1 X115.892 Y112.137 E3.7361
G1 X114.338 Y111.933 E3.7830
G1 X112.804 Y111.649 E3.8297
G1 X111.287 Y111.285 E3.8764
G1 X109.798 Y110.843 E3.9229
G1 X108.321 Y110.321 E3.9698
G1 X106.886 Y109.726 E4.0163
G1 X105.471 Y109.052 E4.0632
G1 X104.100 Y108.307 E4.1099
G1 X102.770 Y107.492 E4.1566
G1 X101.490 Y106.613 E4.2031
G1 X100.252 Y105.663 E4.2498
G1 X99.065 Y104.650 E4.2965
G1 X97.928 Y103.572 E4.3435
G1 X96.854 Y102.440 E4.3901
G1 X95.841 Y101.254 E4.4368
G1 X94.891 Y100.016 E4.4836
G1 X94.008 Y98.730 E4.5302
G1 X93.193 Y97.400 E4.5770
G1 X92.448 Y96.029 E4.6237
G1 X91.776 Y94.621 E4.6704
G1 X91.179 Y93.179 E4.7171
G1 X90.659 Y91.709 E4.7638
G1 X90.218 Y90.220 E4.8102
G1 X89.851 Y88.696 E4.8572
G1 X89.567 Y87.162 E4.9039
G1 X89.363 Y85.615 E4.9506
G1 X89.242 Y84.067 E4.9971
G1 X89.200 Y82.500 E5.0440
G1 X89.241 Y80.940 E5.0907
G1 X89.363 Y79.385 E5.1374
G1 X89.566 Y77.845 E5.1839
G1 X89.851 Y76.304 E5.2308
G1 X90.214 Y74.794 E5.2773
G1 X90.659 Y73.291 E5.3242
G1 X91.179 Y71.821 E5.3709
G1 X91.776 Y70.379 E5.4176
G1 X92.451 Y68.965 E5.4645
G1 X93.193 Y67.600 E5.5110
G1 X94.008 Y66.270 E5.5577
G1 X94.887 Y64.990 E5.6042
; inner perimeter
G1 X95.211 Y65.225 F4800
G92 E0
G1 X96.152 Y63.998 E0.0463 F1725
G1 X97.152 Y62.828 E0.0924
G1 X98.206 Y61.716 E0.1382
G1 X99.328 Y60.652 E0.1845
G1 X100.498 Y59.652 E0.2306
G1 X101.719 Y58.715 E0.2767
G1 X102.982 Y57.848 E0.3225
G1 X104.300 Y57.039 E0.3688
G1 X105.647 Y56.308 E0.4147
G1 X107.042 Y55.642 E0.4610
G1 X108.464 Y55.053 E0.5070
G1 X109.915 Y54.539 E0.5531
G1 X111.391 Y54.102 E0.5992
G1 X112.881 Y53.744 E0.6450
G1 X114.401 Y53.462 E0.6913
G1 X115.927 Y53.261 E0.7374
G1 X117.461 Y53.141 E0.7835
G1 X119.000 Y53.100 E0.8296
G1 X120.539 Y53.141 E0.8756
G1 X122.073 Y53.261 E0.9217
G1 X123.599 Y53.462 E0.9678
G1 X125.113 Y53.743 E1.0139
G1 X126.609 Y54.102 E1.0599
G1 X128.078 Y54.537 E1.1058
G1 X129.536 Y55.053 E1.1521
G1 X130.958 Y55.642 E1.1981
G1 X132.347 Y56.304 E1.2442
G1 X133.700 Y57.039 E1.2903
G1 X135.006 Y57.840 E1.3362
G1 X136.281 Y58.715 E1.3825
G1 X137.502 Y59.652 E1.4285
G1 X138.667 Y60.647 E1.4744
G1 X139.789 Y61.711 E1.5207
G1 X140.848 Y62.828 E1.5667
G1 X141.843 Y63.993 E1.6126
G1 X142.785 Y65.220 E1.6589
G1 X143.653 Y66.482 E1.7048
G1 X144.461 Y67.800 E1.7510
G1 X145.195 Y69.153 E1.7971
G1 X145.858 Y70.542 E1.8432
G1 X146.447 Y71.964 E1.8893
G1 X146.961 Y73.415 E1.9353
G1 X147.398 Y74.891 E1.9814
G1 X147.757 Y76.387 E2.0275
G1 X148.038 Y77.901 E2.0736
G1 X148.239 Y79.427 E2.1196
G1 X148.360 Y80.961 E2.1657
G1 X148.400 Y82.493 E2.2116
G1 X148.359 Y84.039 E2.2579
G1 X148.239 Y85.573 E2.3039
G1 X148.038 Y87.099 E2.3500
G1 X147.759 Y88.606 E2.3959
G1 X147.398 Y90.109 E2.4422
G1 X146.963 Y91.578 E2.4880
G1 X146.447 Y93.036 E2.5343
G1 X145.861 Y94.451 E2.5802
G1 X145.195 Y95.847 E2.6265
G1 X144.464 Y97.194 E2.6723
G1 X143.657 Y98.512 E2.7186
G1 X142.789 Y99.775 E2.7645
G1 X141.848 Y101.002 E2.8108
G1 X140.848 Y102.172 E2.8568
G1 X139.794 Y103.284 E2.9027
G1 X138.672 Y104.348 E2.9490
G1 X137.502 Y105.348 E2.9950
G1 X136.281 Y106.285 E3.0411
G1 X135.018 Y107.153 E3.0870
G1 X133.700 Y107.961 E3.1333
G1 X132.353 Y108.692 E3.1791
G1 X130.958 Y109.358 E3.2254
G1 X129.536 Y109.947 E3.2715
G1 X128.092 Y110.459 E3.3174
G1 X126.609 Y110.898 E3.3636
G1 X125.113 Y111.257 E3.4097
G1 X123.599 Y111.538 E3.4558
G1 X122.073 Y111.739 E3.5019
G1 X120.539 Y111.859 E3.5479
G1 X119.007 Y111.900 E3.5938
G1 X117.461 Y111.859 E3.6401
G1 X115.934 Y111.739 E3.6860
G1 X114.401 Y111.538 E3.7322
G1 X112.887 Y111.257 E3.7783
G1 X111.391 Y110.898 E3.8244
G1 X109.922 Y110.463 E3.8702
G1 X108.464 Y109.947 E3.9165
G1 X107.048 Y109.361 E3.9624
G1 X105.653 Y108.695 E4.0087
G1 X104.300 Y107.961 E4.0548
G1 X102.988 Y107.157 E4.1008
G1 X101.725 Y106.289 E4.1467
G1 X100.504 Y105.352 E4.1928
G1 X99.333 Y104.353 E4.2388
G1 X98.211 Y103.289 E4.2851
G1 X97.152 Y102.172 E4.3312
G1 X96.152 Y101.002 E4.3773
G1 X95.215 Y99.781 E4.4234
G1 X94.343 Y98.512 E4.4694
G1 X93.539 Y97.200 E4.5155
G1 X92.805 Y95.847 E4.5616
G1 X92.142 Y94.458 E4.6077
G1 X91.553 Y93.036 E4.6537
G1 X91.039 Y91.585 E4.6998
G1 X90.604 Y90.116 E4.7457
G1 X90.243 Y88.612 E4.7919
G1 X89.962 Y87.099 E4.8380
G1 X89.761 Y85.573 E4.8841
G1 X89.641 Y84.046 E4.9300
G1 X89.600 Y82.500 E4.9762
G1 X89.641 Y80.961 E5.0223
G1 X89.761 Y79.427 E5.0684
G1 X89.961 Y77.908 E5.1143
G1 X90.243 Y76.387 E5.1605
G1 X90.600 Y74.898 E5.2064
G1 X91.039 Y73.415 E5.2527
G1 X91.553 Y71.964 E5.2988
G1 X92.142 Y70.542 E5.3448
G1 X92.808 Y69.147 E5.3911
G1 X93.539 Y67.800 E5.4370
G1 X94.343 Y66.488 E5.4831
G1 X95.211 Y65.225 E5.5289
; solid layer
G1 X98.078 Y102.655 F4800
G92 E0
G1 X98.842 Y103.418 E0.0323 F1840
G1 X99.561 Y104.100 E0.0620
G1 X100.718 Y105.088 E0.1075
G1 X101.925 Y106.014 E0.1531
G1 X102.175 Y106.185 E0.1621
G1 X95.315 Y99.325 E0.4525
G1 X94.628 Y98.327 E0.4888
G1 X94.227 Y97.672 E0.5118
G1 X103.827 Y107.273 E0.9182
G1 X104.470 Y107.666 E0.9407
G1 X105.163 Y108.043 E0.9644
G1 X93.457 Y96.337 E1.4599
G1 X93.108 Y95.693 E1.4818
G1 X92.860 Y95.174 E1.4991
G1 X106.326 Y108.640 E2.0691
G1 X107.187 Y109.050 E2.0977
G1 X107.383 Y109.131 E2.1040
G1 X92.368 Y94.116 E2.7397
G1 X91.969 Y93.151 E2.7710
G1 X108.349 Y109.531 E3.4644
G1 X108.586 Y109.630 E3.4721
G1 X109.247 Y109.863 E3.4931
G1 X91.636 Y92.253 E4.2386
G1 X91.363 Y91.480 E4.2631
G1 X91.335 Y91.386 E4.2661
G1 X110.114 Y110.165 E5.0611
G1 X110.918 Y110.403 E5.0862
G1 X91.097 Y90.582 E5.9253
G1 X90.933 Y90.028 E5.9426
G1 X90.877 Y89.797 E5.9497
G1 X111.704 Y110.624 E6.8314
G1 X112.448 Y110.802 E6.8543
G1 X90.698 Y89.052 E7.7750
G1 X90.575 Y88.542 E7.7907
G1 X90.535 Y88.323 E7.7974
G1 X113.177 Y110.965 E8.7559
G1 X113.871 Y111.094 E8.7771
G1 X90.406 Y87.629 E9.7704
G1 X90.298 Y87.046 E9.7882
G1 X90.284 Y86.941 E9.7913
G1 X114.559 Y111.216 E10.8189
G1 X115.210 Y111.301 E10.8386
G1 X90.199 Y86.290 E11.8974
G1 X90.113 Y85.638 E11.9171
G1 X115.861 Y111.387 E13.0071
G1 X115.970 Y111.401 E13.0104
G1 X116.481 Y111.441 E13.0257
G1 X90.059 Y85.019 E14.1443
G1 X90.010 Y84.405 E14.1627
G1 X117.095 Y111.490 E15.3093
G1 X117.479 Y111.520 E15.3209
G1 X117.697 Y111.525 E15.3274
G1 X89.975 Y83.803 E16.5010
G1 X89.959 Y83.222 E16.5184
G1 X118.278 Y111.541 E17.7172
G1 X118.859 Y111.556 E17.7346
G1 X89.944 Y82.641 E18.9586
G1 X89.940 Y82.500 E18.9628
G1 X89.951 Y82.083 E18.9753
G1 X119.417 Y111.549 E20.2227
G1 X119.969 Y111.534 E20.2392
G1 X89.966 Y81.531 E21.5094
G1 X89.980 Y80.980 E21.5259
G1 X120.520 Y111.520 E22.8187
G1 X121.044 Y111.479 E22.8344
G1 X90.021 Y80.456 E24.1477
G1 X90.063 Y79.931 E24.1635
G1 X121.569 Y111.437 E25.4972
G1 X122.037 Y111.400 E25.5113
G1 X122.091 Y111.393 E25.5129
G1 X90.107 Y79.409 E26.8669
G1 X90.172 Y78.910 E26.8820
G1 X122.590 Y111.328 E28.2543
G1 X123.090 Y111.262 E28.2694
G1 X90.238 Y78.410 E29.6602
G1 X90.297 Y77.961 E29.6737
G1 X90.306 Y77.912 E29.6752
G1 X123.588 Y111.194 E31.0841
G1 X124.065 Y111.106 E31.0987
G1 X90.395 Y77.435 E32.5241
G1 X90.483 Y76.957 E32.5386
G1 X124.543 Y111.017 E33.9804
G1 X125.020 Y110.929 E33.9950
G1 X90.571 Y76.480 E35.4533
G1 X90.575 Y76.458 E35.4540
G1 X90.680 Y76.023 E35.4674
G1 X125.477 Y110.820 E36.9404
G1 X125.933 Y110.711 E36.9545
G1 X90.789 Y75.567 E38.4422
G1 X90.899 Y75.111 E38.4563
G1 X126.389 Y110.601 E39.9587
G1 X126.521 Y110.570 E39.9628
G1 X126.831 Y110.478 E39.9725
G1 X91.023 Y74.669 E41.4884
G1 X91.152 Y74.232 E41.5020
G1 X127.268 Y110.348 E43.0309
G1 X127.704 Y110.219 E43.0445
G1 X91.281 Y73.796 E44.5864
G1 X91.363 Y73.520 E44.5950
G1 X91.417 Y73.366 E44.5999
G1 X128.134 Y110.083 E46.1542
G1 X128.552 Y109.935 E46.1675
G1 X91.565 Y72.948 E47.7333
G1 X91.713 Y72.531 E47.7465
G1 X128.969 Y109.787 E49.3237
G1 X129.387 Y109.639 E49.3370
G1 X91.861 Y72.113 E50.9256
G1 X91.870 Y72.086 E50.9265
G1 X92.025 Y71.712 E50.9386
G1 X129.788 Y109.475 E52.5372
G1 X130.188 Y109.309 E52.5502
G1 X92.191 Y71.312 E54.1587
