; G-Code generated by Simplify3D(R) Version 4.0.0
; Sep 28, 2019 at 10:14:24 PM
; Settings Summary
;   processName,Process2
;   applyToModels,cap60_50
;   profileName,Default(2) (modified)
;   profileVersion,2019-07-27 15:21:07
;   baseProfile,
;   printMaterial,PLA
;   printQuality,Medium
;   printExtruders,
;   extruderName,Primary Extruder
;   extruderToolheadNumber,0
;   extruderDiameter,0.4
;   extruderAutoWidth,0
;   extruderWidth,0.4
;   extrusionMultiplier,0.9
;   extruderUseRetract,1
;   extruderRetractionDistance,1
;   extruderExtraRestartDistance,0
;   extruderRetractionZLift,0
;   extruderRetractionSpeed,1800
;   extruderUseCoasting,0
;   extruderCoastingDistance,0.2
;   extruderUseWipe,0
;   extruderWipeDistance,5
;   primaryExtruder,0
;   layerHeight,0.2
;   topSolidLayers,3
;   bottomSolidLayers,2
;   perimeterOutlines,2
;   printPerimetersInsideOut,0
;   startPointOption,2
;   startPointOriginX,0
;   startPointOriginY,0
;   sequentialIslands,0
;   spiralVaseMode,0
;   firstLayerHeightPercentage,90
;   firstLayerWidthPercentage,100
;   firstLayerUnderspeed,0.5
;   useRaft,0
;   raftExtruder,0
;   raftTopLayers,3
;   raftBaseLayers,2
;   raftOffset,3
;   raftSeparationDistance,0.14
;   raftTopInfill,100
;   aboveRaftSpeedMultiplier,0.3
;   useSkirt,0
;   skirtExtruder,0
;   skirtLayers,1
;   skirtOutlines,2
;   skirtOffset,4
;   usePrimePillar,0
;   primePillarExtruder,999
;   primePillarWidth,12
;   primePillarLocation,7
;   primePillarSpeedMultiplier,1
;   useOozeShield,0
;   oozeShieldExtruder,999
;   oozeShieldOffset,2
;   oozeShieldOutlines,1
;   oozeShieldSidewallShape,1
;   oozeShieldSidewallAngle,30
;   oozeShieldSpeedMultiplier,1
;   infillExtruder,0
;   internalInfillPattern,Rectilinear
;   externalInfillPattern,Rectilinear
;   infillPercentage,10
;   outlineOverlapPercentage,15
;   infillExtrusionWidthPercentage,100
;   minInfillLength,5
;   infillLayerInterval,1
;   internalInfillAngles,45,-45
;   overlapInternalInfillAngles,0
;   externalInfillAngles,45,-45
;   generateSupport,0
;   supportExtruder,0
;   supportInfillPercentage,30
;   supportExtraInflation,0
;   supportBaseLayers,0
;   denseSupportExtruder,0
;   denseSupportLayers,0
;   denseSupportInfillPercentage,70
;   supportLayerInterval,1
;   supportHorizontalPartOffset,0.3
;   supportUpperSeparationLayers,1
;   supportLowerSeparationLayers,1
;   supportType,0
;   supportGridSpacing,4
;   maxOverhangAngle,45
;   supportAngles,0
;   temperatureName,Primary Extruder,Hot Bed
;   temperatureNumber,0,1
;   temperatureSetpointCount,1,1
;   temperatureSetpointLayers,1,1
;   temperatureSetpointTemperatures,200,60
;   temperatureStabilizeAtStartup,1,0
;   temperatureHeatedBed,0,1
;   temperatureRelayBetweenLayers,0,0
;   temperatureRelayBetweenLoops,0,0
;   fanLayers,1,2
;   fanSpeeds,0,100
;   blipFanToFullPower,0
;   adjustSpeedForCooling,1
;   minSpeedLayerTime,15
;   minCoolingSpeedSlowdown,20
;   increaseFanForCooling,0
;   minFanLayerTime,45
;   maxCoolingFanSpeed,100
;   increaseFanForBridging,0
;   bridgingFanSpeed,100
;   use5D,1
;   relativeEdistances,0
;   allowEaxisZeroing,1
;   independentExtruderAxes,0
;   includeM10123,0
;   stickySupport,1
;   applyToolheadOffsets,0
;   gcodeXoffset,0
;   gcodeYoffset,0
;   gcodeZoffset,0
;   overrideMachineDefinition,0
;   machineTypeOverride,0
;   strokeXoverride,200
;   strokeYoverride,200
;   strokeZoverride,200
;   originOffsetXoverride,0
;   originOffsetYoverride,0
;   originOffsetZoverride,0
;   homeXdirOverride,-1
;   homeYdirOverride,-1
;   homeZdirOverride,-1
;   flipXoverride,1
;   flipYoverride,-1
;   flipZoverride,1
;   toolheadOffsets,0,0|0,0|0,0|0,0|0,0|0,0
;   overrideFirmwareConfiguration,0
;   firmwareTypeOverride,RepRap (Marlin/Repetier/Sprinter)
;   GPXconfigOverride,r2
;   baudRateOverride,115200
;   overridePrinterModels,0
;   printerModelsOverride
;   startingGcode,G28 ; home all axes,G1 X0 Y200 Z0.2 F3000 ; get ready to prime,G92 E0 ; reset extrusion distance,G1 X150 E20 F600 ; prime nozzle
;   layerChangeGcode,
;   retractionGcode,
;   toolChangeGcode,
;   endingGcode,G28 X Y ; home X & Y,M104 S0 ; turn off extruder,M140 S0 ; turn off bed,M84 ; disable motors
;   exportFileFormat,gcode
;   celebration,0
;   celebrationSong,Random Song
;   postProcessing,
;   defaultSpeed,4600
;   outlineUnderspeed,0.5
;   solidInfillUnderspeed,0.8
;   supportUnderspeed,0.8
;   rapidXYspeed,4800
;   rapidZspeed,1000
;   minBridgingArea,50
;   bridgingExtraInflation,0
;   bridgingExtrusionMultiplier,1
;   bridgingSpeedMultiplier,1
;   useFixedBridgingAngle,0
;   fixedBridgingAngle,0
;   applyBridgingToPerimeters,0
;   filamentDiameters,1.75|1.75|1.75|1.75|1.75|1.75
;   filamentPricesPerKg,46|46|46|46|46|46
;   filamentDensities,1.25|1.25|1.25|1.25|1.25|1.25
;   useMinPrintHeight,0
;   minPrintHeight,0
;   useMaxPrintHeight,0
;   maxPrintHeight,0
;   useDiaphragm,0
;   diaphragmLayerInterval,20
;   robustSlicing,1
;   mergeAllIntoSolid,0
;   onlyRetractWhenCrossingOutline,1
;   retractBetweenLayers,1
;   useRetractionMinTravel,0
;   retractionMinTravel,3
;   retractWhileWiping,0
;   onlyWipeOutlines,1
;   avoidCrossingOutline,0
;   maxMovementDetourFactor,3
;   toolChangeRetractionDistance,12
;   toolChangeExtraRestartDistance,-0.5
;   toolChangeRetractionSpeed,600
;   externalThinWallType,1
;   internalThinWallType,1
;   thinWallAllowedOverlapPercentage,10
;   singleExtrusionMinLength,1
;   singleExtrusionMinPrintingWidthPercentage,50
;   singleExtrusionMaxPrintingWidthPercentage,200
;   singleExtrusionEndpointExtension,0.2
;   horizontalSizeCompensation,0
G90
M82
M106 S0
M140 S60
M104 S200 T0
M109 S200 T0
G28 ; home all axes
G1 X0 Y200 Z0.2 F3000 ; get ready to prime
G92 E0 ; reset extrusion distance
G1 X150 E20 F600 ; prime nozzle
G92 E0
G1 E-1.0000 F1800
G1 Z0.180 F1000
; process Process2
; layer 1, Z = 0.180
T0
; tool H0.200 W0.400
; outer perimeter
G1 X99.264 Y67.479 F4800
G1 E0.0000 F540
G92 E0
G1 X100.214 Y66.241 E0.0467 F1150
G1 X101.223 Y65.060 E0.0932
G1 X102.302 Y63.924 E0.1401
G1 X103.434 Y62.850 E0.1868
G1 X104.620 Y61.837 E0.2335
G1 X105.852 Y60.891 E0.2800
G1 X107.144 Y60.004 E0.3269
G1 X108.468 Y59.192 E0.3734
G1 X109.846 Y58.445 E0.4203
G1 X111.254 Y57.773 E0.4670
G1 X112.696 Y57.177 E0.5137
G1 X114.166 Y56.657 E0.5604
G1 X115.656 Y56.216 E0.6069
G1 X117.180 Y55.850 E0.6538
G1 X118.714 Y55.566 E0.7005
G1 X120.260 Y55.363 E0.7472
G1 X121.816 Y55.241 E0.7939
G1 X123.375 Y55.200 E0.8406
G1 X124.935 Y55.242 E0.8873
G1 X126.490 Y55.364 E0.9340
G1 X128.037 Y55.568 E0.9807
G1 X129.571 Y55.853 E1.0274
G1 X131.081 Y56.216 E1.0739
G1 X132.584 Y56.661 E1.1208
G1 X134.054 Y57.182 E1.1675
G1 X135.495 Y57.779 E1.2142
G1 X136.903 Y58.451 E1.2609
G1 X138.268 Y59.192 E1.3074
G1 X139.604 Y60.012 E1.3543
G1 X140.890 Y60.896 E1.4010
G1 X142.122 Y61.842 E1.4475
G1 X143.313 Y62.859 E1.4945
G1 X144.445 Y63.933 E1.5411
G1 X145.514 Y65.060 E1.5876
G1 X146.532 Y66.252 E1.6346
G1 X147.477 Y67.484 E1.6810
G1 X148.364 Y68.776 E1.7279
G1 X149.179 Y70.106 E1.7747
G1 X149.923 Y71.477 E1.8214
G1 X150.595 Y72.886 E1.8681
G1 X151.191 Y74.327 E1.9148
G1 X151.712 Y75.798 E1.9615
G1 X152.155 Y77.294 E2.0082
G1 X152.518 Y78.811 E2.0549
G1 X152.802 Y80.345 E2.1016
G1 X153.005 Y81.892 E2.1483
G1 X153.127 Y83.440 E2.1948
G1 X153.168 Y85.007 E2.2417
G1 X153.127 Y86.567 E2.2884
G1 X153.004 Y88.122 E2.3351
G1 X152.801 Y89.662 E2.3816
G1 X152.515 Y91.203 E2.4285
G1 X152.153 Y92.713 E2.4750
G1 X151.707 Y94.215 E2.5219
G1 X151.189 Y95.679 E2.5684
G1 X150.589 Y97.127 E2.6153
G1 X149.920 Y98.529 E2.6618
G1 X149.172 Y99.906 E2.7087
G1 X148.361 Y101.230 E2.7552
G1 X147.473 Y102.522 E2.8021
G1 X146.523 Y103.759 E2.8488
G1 X145.514 Y104.940 E2.8953
G1 X144.435 Y106.076 E2.9422
G1 X143.303 Y107.150 E2.9889
G1 X142.116 Y108.163 E3.0356
G1 X140.884 Y109.109 E3.0821
G1 X139.593 Y109.996 E3.1290
G1 X138.268 Y110.807 E3.1755
G1 X136.891 Y111.555 E3.2224
G1 X135.483 Y112.226 E3.2691
G1 X134.048 Y112.821 E3.3156
G1 X132.570 Y113.343 E3.3625
G1 X131.074 Y113.786 E3.4092
G1 X129.557 Y114.150 E3.4559
G1 X128.023 Y114.434 E3.5026
G1 X126.476 Y114.637 E3.5493
G1 X124.928 Y114.759 E3.5958
G1 X123.361 Y114.800 E3.6427
G1 X121.809 Y114.759 E3.6892
G1 X120.246 Y114.636 E3.7361
G1 X118.700 Y114.432 E3.7828
G1 X117.166 Y114.147 E3.8295
G1 X115.656 Y113.785 E3.8760
G1 X114.153 Y113.339 E3.9229
G1 X112.689 Y112.821 E3.9694
G1 X111.241 Y112.221 E4.0163
G1 X109.833 Y111.549 E4.0630
G1 X108.462 Y110.804 E4.1097
G1 X107.138 Y109.992 E4.1562
G1 X105.852 Y109.109 E4.2029
G1 X104.615 Y108.159 E4.2496
G1 X103.423 Y107.141 E4.2965
G1 X102.292 Y106.067 E4.3432
G1 X101.218 Y104.935 E4.3899
G1 X100.205 Y103.748 E4.4366
G1 X99.256 Y102.510 E4.4833
G1 X98.372 Y101.224 E4.5300
G1 X97.558 Y99.894 E4.5767
G1 X96.813 Y98.523 E4.6234
G1 X96.142 Y97.114 E4.6701
G1 X95.545 Y95.673 E4.7168
G1 X95.027 Y94.209 E4.7633
G1 X94.582 Y92.706 E4.8102
G1 X94.218 Y91.189 E4.8569
G1 X93.934 Y89.655 E4.9036
G1 X93.732 Y88.115 E4.9501
G1 X93.609 Y86.552 E4.9970
G1 X93.569 Y84.993 E5.0437
G1 X93.610 Y83.433 E5.0904
G1 X93.732 Y81.885 E5.1369
G1 X93.937 Y80.331 E5.1838
G1 X94.220 Y78.804 E5.2303
G1 X94.586 Y77.280 E5.2772
G1 X95.027 Y75.791 E5.3237
G1 X95.550 Y74.314 E5.3707
G1 X96.145 Y72.879 E5.4171
G1 X96.820 Y71.465 E5.4641
G1 X97.565 Y70.094 E5.5108
G1 X98.376 Y68.770 E5.5572
G1 X99.264 Y67.479 E5.6042
; inner perimeter
G1 X99.588 Y67.714 F4800
G92 E0
G1 X100.525 Y66.493 E0.0461 F1725
G1 X101.520 Y65.328 E0.0919
G1 X102.585 Y64.207 E0.1382
G1 X103.701 Y63.148 E0.1843
G1 X104.872 Y62.148 E0.2304
G1 X106.088 Y61.215 E0.2762
G1 X107.362 Y60.340 E0.3225
G1 X108.668 Y59.539 E0.3684
G1 X110.027 Y58.801 E0.4147
G1 X111.417 Y58.139 E0.4608
G1 X112.839 Y57.551 E0.5068
G1 X114.290 Y57.037 E0.5529
G1 X115.759 Y56.602 E0.5988
G1 X117.263 Y56.241 E0.6450
G1 X118.776 Y55.961 E0.6911
G1 X120.302 Y55.760 E0.7372
G1 X121.836 Y55.640 E0.7833
G1 X123.375 Y55.600 E0.8293
G1 X124.914 Y55.641 E0.8754
G1 X126.448 Y55.762 E0.9215
G1 X127.974 Y55.964 E0.9676
G1 X129.488 Y56.244 E1.0136
G1 X130.977 Y56.602 E1.0595
G1 X132.460 Y57.042 E1.1058
G1 X133.911 Y57.556 E1.1519
G1 X135.333 Y58.145 E1.1979
G1 X136.722 Y58.808 E1.2440
G1 X138.068 Y59.539 E1.2899
G1 X139.386 Y60.348 E1.3362
G1 X140.655 Y61.219 E1.3822
G1 X141.870 Y62.152 E1.4281
G1 X143.046 Y63.157 E1.4744
G1 X144.162 Y64.216 E1.5205
G1 X145.217 Y65.328 E1.5663
G1 X146.220 Y66.504 E1.6126
G1 X147.153 Y67.719 E1.6585
G1 X148.029 Y68.994 E1.7047
G1 X148.833 Y70.306 E1.7508
G1 X149.567 Y71.659 E1.7969
G1 X150.229 Y73.048 E1.8430
G1 X150.818 Y74.470 E1.8890
G1 X151.331 Y75.922 E1.9351
G1 X151.768 Y77.398 E1.9812
G1 X152.127 Y78.894 E2.0273
G1 X152.407 Y80.408 E2.0733
G1 X152.608 Y81.934 E2.1194
G1 X152.728 Y83.461 E2.1653
G1 X152.768 Y85.007 E2.2116
G1 X152.727 Y86.546 E2.2576
G1 X152.606 Y88.080 E2.3037
G1 X152.406 Y89.599 E2.3496
G1 X152.124 Y91.119 E2.3959
G1 X151.766 Y92.609 E2.4417
G1 X151.327 Y94.092 E2.4880
G1 X150.815 Y95.536 E2.5339
G1 X150.223 Y96.964 E2.5802
G1 X149.564 Y98.347 E2.6260
G1 X148.826 Y99.706 E2.6723
G1 X148.025 Y101.012 E2.7182
G1 X147.149 Y102.286 E2.7645
G1 X146.212 Y103.507 E2.8105
G1 X145.217 Y104.672 E2.8564
G1 X144.152 Y105.793 E2.9027
G1 X143.035 Y106.853 E2.9488
G1 X141.865 Y107.852 E2.9948
G1 X140.649 Y108.785 E3.0407
G1 X139.375 Y109.660 E3.0870
G1 X138.068 Y110.461 E3.1328
G1 X136.709 Y111.198 E3.1791
G1 X135.320 Y111.861 E3.2252
G1 X133.904 Y112.447 E3.2711
G1 X132.447 Y112.963 E3.3173
G1 X130.971 Y113.400 E3.3634
G1 X129.474 Y113.759 E3.4095
G1 X127.961 Y114.039 E3.4556
G1 X126.434 Y114.239 E3.5016
G1 X124.907 Y114.359 E3.5475
G1 X123.361 Y114.400 E3.5938
G1 X121.830 Y114.359 E3.6397
G1 X120.288 Y114.238 E3.6859
G1 X118.762 Y114.037 E3.7320
G1 X117.249 Y113.756 E3.7781
G1 X115.759 Y113.398 E3.8240
G1 X114.277 Y112.959 E3.8702
G1 X112.832 Y112.447 E3.9161
G1 X111.404 Y111.855 E3.9624
G1 X110.015 Y111.192 E4.0085
G1 X108.663 Y110.457 E4.0545
G1 X107.356 Y109.657 E4.1004
G1 X106.088 Y108.785 E4.1465
G1 X104.866 Y107.848 E4.1926
G1 X103.691 Y106.844 E4.2388
G1 X102.575 Y105.784 E4.2849
G1 X101.515 Y104.667 E4.3310
G1 X100.516 Y103.496 E4.3771
G1 X99.580 Y102.275 E4.4231
G1 X98.708 Y101.006 E4.4692
G1 X97.904 Y99.694 E4.5153
G1 X97.170 Y98.341 E4.5613
G1 X96.508 Y96.951 E4.6074
G1 X95.919 Y95.529 E4.6535
G1 X95.407 Y94.085 E4.6994
G1 X94.969 Y92.603 E4.7456
G1 X94.610 Y91.106 E4.7917
G1 X94.330 Y89.592 E4.8378
G1 X94.130 Y88.073 E4.8837
G1 X94.009 Y86.532 E4.9299
G1 X93.969 Y84.993 E4.9760
G1 X94.009 Y83.454 E5.0221
G1 X94.130 Y81.927 E5.0680
G1 X94.332 Y80.394 E5.1142
G1 X94.611 Y78.887 E5.1601
G1 X94.972 Y77.384 E5.2064
G1 X95.407 Y75.915 E5.2523
G1 X95.924 Y74.457 E5.2985
G1 X96.510 Y73.042 E5.3444
G1 X97.176 Y71.647 E5.3907
G1 X97.911 Y70.294 E5.4368
G1 X98.712 Y68.988 E5.4826
G1 X99.588 Y67.714 E5.5289
; solid layer
G1 X105.895 Y108.208 F4800
G92 E0
G1 X100.161 Y102.475 E0.2427 F1840
G1 X99.855 Y102.075 E0.2578
G1 X98.993 Y100.821 E0.3033
G1 X98.867 Y100.615 E0.3106
G1 X107.754 Y109.502 E0.6868
G1 X108.832 Y110.163 E0.7246
G1 X109.156 Y110.339 E0.7357
G1 X98.029 Y99.212 E1.2067
G1 X97.473 Y98.187 E1.2416
G1 X97.385 Y98.001 E1.2478
G1 X110.367 Y110.983 E1.7973
G1 X111.449 Y111.500 E1.8332
G1 X96.869 Y96.920 E2.4504
G1 X96.818 Y96.813 E2.4540
G1 X96.458 Y95.944 E2.4822
G1 X112.425 Y111.910 E3.1581
G1 X112.954 Y112.130 E3.1752
G1 X113.350 Y112.270 E3.1878
G1 X96.099 Y95.018 E3.9181
G1 X95.788 Y94.142 E3.9459
G1 X114.226 Y112.580 E4.7265
G1 X114.382 Y112.635 E4.7314
G1 X115.043 Y112.831 E4.7520
G1 X95.537 Y93.325 E5.5778
G1 X95.300 Y92.522 E5.6029
G1 X115.847 Y113.069 E6.4727
G1 X116.591 Y113.248 E6.4956
G1 X95.120 Y91.777 E7.4045
G1 X94.942 Y91.035 E7.4274
G1 X94.942 Y91.033 E7.4274
G1 X117.335 Y113.426 E8.3754
G1 X118.029 Y113.555 E8.3965
G1 X94.814 Y90.339 E9.3793
G1 X94.685 Y89.645 E9.4005
G1 X118.724 Y113.684 E10.4181
G1 X118.816 Y113.701 E10.4209
G1 X119.381 Y113.775 E10.4380
G1 X94.593 Y88.987 E11.4873
G1 X94.507 Y88.336 E11.5070
G1 X120.033 Y113.861 E12.5876
G1 X120.324 Y113.900 E12.5964
G1 X120.664 Y113.926 E12.6066
G1 X94.442 Y87.704 E13.7166
G1 X94.394 Y87.091 E13.7351
G1 X121.278 Y113.975 E14.8732
G1 X121.848 Y114.020 E14.8903
G1 X121.890 Y114.021 E14.8915
G1 X94.347 Y86.479 E16.0575
G1 X94.332 Y85.898 E16.0749
G1 X122.470 Y114.036 E17.2661
G1 X123.051 Y114.051 E17.2834
G1 X94.317 Y85.317 E18.4999
G1 X94.309 Y84.993 E18.5096
G1 X94.315 Y84.750 E18.5169
G1 X123.619 Y114.053 E19.7574
G1 X124.170 Y114.038 E19.7739
G1 X94.330 Y84.198 E21.0371
G1 X94.344 Y83.647 E21.0536
G1 X124.721 Y114.024 E22.3395
G1 X124.889 Y114.020 E22.3446
G1 X125.254 Y113.991 E22.3555
G1 X94.377 Y83.114 E23.6626
G1 X94.418 Y82.590 E23.6784
G1 X125.778 Y113.950 E25.0059
G1 X126.303 Y113.909 E25.0217
G1 X94.460 Y82.066 E26.3697
G1 X94.468 Y81.963 E26.3728
G1 X94.521 Y81.561 E26.3849
G1 X126.807 Y113.847 E27.7517
G1 X127.307 Y113.782 E27.7668
G1 X94.587 Y81.061 E29.1520
G1 X94.653 Y80.561 E29.1670
G1 X127.807 Y113.716 E30.5706
G1 X127.908 Y113.703 E30.5736
G1 X128.289 Y113.632 E30.5852
G1 X94.736 Y80.079 E32.0056
G1 X94.824 Y79.602 E32.0202
G1 X128.766 Y113.544 E33.4571
G1 X129.244 Y113.456 E33.4716
G1 X94.913 Y79.125 E34.9249
G1 X94.944 Y78.958 E34.9300
G1 X95.015 Y78.661 E34.9391
G1 X129.707 Y113.353 E36.4078
G1 X130.163 Y113.244 E36.4218
G1 X95.125 Y78.205 E37.9051
G1 X95.234 Y77.749 E37.9191
G1 X130.620 Y113.134 E39.4171
G1 X130.883 Y113.071 E39.4252
G1 X131.067 Y113.016 E39.4310
G1 X95.352 Y77.301 E40.9429
G1 X95.481 Y76.864 E40.9566
G1 X131.504 Y112.887 E42.4815
G1 X131.940 Y112.758 E42.4952
G1 X95.610 Y76.428 E44.0331
G1 X95.731 Y76.020 E44.0459
G1 X95.741 Y75.993 E44.0467
G1 X132.375 Y112.627 E45.5976
G1 X132.793 Y112.480 E45.6109
G1 X95.889 Y75.575 E47.1732
G1 X96.037 Y75.157 E47.1864
G1 X133.211 Y112.332 E48.7602
G1 X133.629 Y112.184 E48.7734
G1 X96.185 Y74.740 E50.3586
G1 X96.241 Y74.580 E50.3636
G1 X96.344 Y74.333 E50.3716
G1 X134.036 Y112.025 E51.9673
G1 X134.436 Y111.859 E51.9802
G1 X96.509 Y73.933 E53.5858
G1 X96.675 Y73.533 E53.5987
G1 X134.836 Y111.693 E55.2142
G1 X135.181 Y111.550 E55.2254
