; G-Code generated by Simplify3D(R) Version 4.0.0
; Sep 26, 2018 at 4:40:33 PM
; Settings Summary
;   processName,Process1
;   applyToModels,Castle_main_large_v3_with_top+Support (1)
;   profileName,Flyingbear p902 (modified)
;   profileVersion,2017-02-06 00:22:54
;   baseProfile,Default
;   printMaterial,PLA
;   printQuality,Medium
;   printExtruders,
;   extruderName,Extruder 1
;   extruderToolheadNumber,0
;   extruderDiameter,0.4
;   extruderAutoWidth,1
;   extruderWidth,0.48
;   extrusionMultiplier,1
;   extruderUseRetract,1
;   extruderRetractionDistance,1
;   extruderExtraRestartDistance,0
;   extruderRetractionZLift,0
;   extruderRetractionSpeed,3400
;   extruderUseCoasting,0
;   extruderCoastingDistance,0.2
;   extruderUseWipe,0
;   extruderWipeDistance,5
;   primaryExtruder,0
;   layerHeight,0.3
;   topSolidLayers,3
;   bottomSolidLayers,3
;   perimeterOutlines,2
;   printPerimetersInsideOut,0
;   startPointOption,2
;   startPointOriginX,0
;   startPointOriginY,0
;   sequentialIslands,0
;   spiralVaseMode,0
;   firstLayerHeightPercentage,90
;   firstLayerWidthPercentage,100
;   firstLayerUnderspeed,0.5
;   useRaft,0
;   raftExtruder,0
;   raftTopLayers,3
;   raftBaseLayers,1
;   raftOffset,2
;   raftSeparationDistance,0.2
;   raftTopInfill,100
;   aboveRaftSpeedMultiplier,0.3
;   useSkirt,0
;   skirtExtruder,0
;   skirtLayers,1
;   skirtOutlines,2
;   skirtOffset,4
;   usePrimePillar,0
;   primePillarExtruder,999
;   primePillarWidth,12
;   primePillarLocation,7
;   primePillarSpeedMultiplier,1
;   useOozeShield,0
;   oozeShieldExtruder,999
;   oozeShieldOffset,2
;   oozeShieldOutlines,1
;   oozeShieldSidewallShape,1
;   oozeShieldSidewallAngle,30
;   oozeShieldSpeedMultiplier,1
;   infillExtruder,0
;   internalInfillPattern,Rectilinear
;   externalInfillPattern,Rectilinear
;   infillPercentage,10
;   outlineOverlapPercentage,15
;   infillExtrusionWidthPercentage,100
;   minInfillLength,5
;   infillLayerInterval,1
;   internalInfillAngles,45,-45
;   overlapInternalInfillAngles,0
;   externalInfillAngles,45,-45
;   generateSupport,0
;   supportExtruder,0
;   supportInfillPercentage,15
;   supportExtraInflation,0.5
;   supportBaseLayers,0
;   denseSupportExtruder,0
;   denseSupportLayers,0
;   denseSupportInfillPercentage,70
;   supportLayerInterval,1
;   supportHorizontalPartOffset,0.3
;   supportUpperSeparationLayers,1
;   supportLowerSeparationLayers,1
;   supportType,0
;   supportGridSpacing,1
;   maxOverhangAngle,60
;   supportAngles,0
;   temperatureName,Extruder 1,Heated Bed
;   temperatureNumber,0,0
;   temperatureSetpointCount,1,1
;   temperatureSetpointLayers,1,1
;   temperatureSetpointTemperatures,210,60
;   temperatureStabilizeAtStartup,1,1
;   temperatureHeatedBed,0,1
;   temperatureRelayBetweenLayers,0,0
;   temperatureRelayBetweenLoops,0,0
;   fanLayers,1,2
;   fanSpeeds,0,100
;   blipFanToFullPower,0
;   adjustSpeedForCooling,1
;   minSpeedLayerTime,15
;   minCoolingSpeedSlowdown,20
;   increaseFanForCooling,0
;   minFanLayerTime,45
;   maxCoolingFanSpeed,100
;   increaseFanForBridging,1
;   bridgingFanSpeed,100
;   use5D,1
;   relativeEdistances,0
;   allowEaxisZeroing,1
;   independentExtruderAxes,0
;   includeM10123,0
;   stickySupport,1
;   applyToolheadOffsets,0
;   gcodeXoffset,0
;   gcodeYoffset,0
;   gcodeZoffset,0
;   overrideMachineDefinition,1
;   machineTypeOverride,0
;   strokeXoverride,220
;   strokeYoverride,220
;   strokeZoverride,280
;   originOffsetXoverride,0
;   originOffsetYoverride,0
;   originOffsetZoverride,0
;   homeXdirOverride,-1
;   homeYdirOverride,-1
;   homeZdirOverride,-1
;   flipXoverride,1
;   flipYoverride,-1
;   flipZoverride,1
;   toolheadOffsets,0,0|0,0|0,0|0,0|0,0|0,0
;   overrideFirmwareConfiguration,1
;   firmwareTypeOverride,RepRap (Marlin/Repetier/Sprinter)
;   GPXconfigOverride,r2
;   baudRateOverride,250000
;   overridePrinterModels,0
;   printerModelsOverride
;   startingGcode,G28 ; home all axes,G1 X0 Y5 Z0.2 F3000 ; get ready to prime,G92 E0 ; reset extrusion distance,G1 X200 E20 F600 ; prime nozzle
;   layerChangeGcode,
;   retractionGcode,
;   toolChangeGcode,
;   endingGcode,M104 S0 ; turn off extruder,M140 S0 ; turn off bed,G91 ; use relative coordinates,G1 Z0.6 F5000 ; lift nozzle by 0.6mm,G90 ; use absolute coordinates,G28 X0 ; home X axis,G28 Y0 ; home X axis,M84 ; disable motors,M107 ; turn off fan
;   exportFileFormat,gcode
;   celebration,0
;   celebrationSong,Random Song
;   postProcessing,
;   defaultSpeed,4200
;   outlineUnderspeed,0.9
;   solidInfillUnderspeed,1
;   supportUnderspeed,0.8
;   rapidXYspeed,4200
;   rapidZspeed,1002
;   minBridgingArea,50
;   bridgingExtraInflation,0
;   bridgingExtrusionMultiplier,1
;   bridgingSpeedMultiplier,1
;   useFixedBridgingAngle,0
;   fixedBridgingAngle,0
;   applyBridgingToPerimeters,0
;   filamentDiameters,1.75|1.75|1.75|1.75|1.75|1.75
;   filamentPricesPerKg,46|46|46|46|46|46
;   filamentDensities,1.25|1.25|1.25|1.25|1.25|1.25
;   useMinPrintHeight,0
;   minPrintHeight,0
;   useMaxPrintHeight,0
;   maxPrintHeight,0
;   useDiaphragm,0
;   diaphragmLayerInterval,20
;   robustSlicing,1
;   mergeAllIntoSolid,0
;   onlyRetractWhenCrossingOutline,1
;   retractBetweenLayers,1
;   useRetractionMinTravel,0
;   retractionMinTravel,3
;   retractWhileWiping,0
;   onlyWipeOutlines,1
;   avoidCrossingOutline,0
;   maxMovementDetourFactor,3
;   toolChangeRetractionDistance,12
;   toolChangeExtraRestartDistance,-0.5
;   toolChangeRetractionSpeed,600
;   externalThinWallType,1
;   internalThinWallType,1
;   thinWallAllowedOverlapPercentage,10
;   singleExtrusionMinLength,1
;   singleExtrusionMinPrintingWidthPercentage,50
;   singleExtrusionMaxPrintingWidthPercentage,200
;   singleExtrusionEndpointExtension,0.2
;   horizontalSizeCompensation,0
G90
M82
M106 S0
M140 S60
M190 S60
M104 S210 T0
M109 S210 T0
G28 ; home all axes
G1 X0 Y5 Z0.2 F3000 ; get ready to prime
G92 E0 ; reset extrusion distance
G1 X200 E20 F600 ; prime nozzle
G92 E0
G1 E-1.0000 F3400
G1 Z0.270 F1002
; process Process1
; layer 1, Z = 0.270
T0
; tool H0.300 W0.480
; outer perimeter
G1 X103.996 Y99.348 F4200
G1 E0.0000 F1020
G92 E0
G1 X104.514 Y99.348 E0.0310 F1890
G1 X104.515 Y100.450 E0.0970
G1 X115.485 Y100.450 E0.7537
G1 X115.485 Y99.348 E0.8197
G1 X116.003 Y99.348 E0.8507
G1 X116.006 Y109.861 E1.4800
G1 X116.054 Y109.997 E1.4887
G1 X116.740 Y110.901 E1.5566
G1 X117.269 Y111.828 E1.6205
G1 X117.634 Y112.724 E1.6784
G1 X117.538 Y112.913 E1.6912
G1 X117.728 Y113.010 E1.7039
G1 X117.940 Y113.852 E1.7559
G1 X118.067 Y114.860 E1.8167
G1 X118.068 Y115.859 E1.8765
G1 X117.942 Y116.861 E1.9370
G1 X117.728 Y117.715 E1.9897
G1 X117.538 Y117.812 E2.0025
G1 X117.635 Y118.001 E2.0152
G1 X117.312 Y118.807 E2.0672
G1 X116.821 Y119.698 E2.1280
G1 X116.235 Y120.506 E2.1878
G1 X115.544 Y121.244 E2.2483
G1 X114.869 Y121.808 E2.3010
G1 X114.659 Y121.774 E2.3138
G1 X114.625 Y121.985 E2.3265
G1 X113.891 Y122.447 E2.3785
G1 X112.970 Y122.879 E2.4394
G1 X112.021 Y123.189 E2.4991
G1 X111.029 Y123.379 E2.5596
G1 X110.151 Y123.439 E2.6123
G1 X110.000 Y123.288 E2.6251
G1 X109.848 Y123.440 E2.6379
G1 X109.171 Y123.403 E2.6785
G1 X108.378 Y123.281 E2.7266
G1 X107.582 Y123.079 E2.7757
G1 X106.832 Y122.798 E2.8237
G1 X106.030 Y122.403 E2.8772
G1 X105.375 Y121.986 E2.9237
G1 X105.341 Y121.774 E2.9365
G1 X105.131 Y121.808 E2.9493
G1 X104.464 Y121.252 E3.0012
G1 X103.769 Y120.510 E3.0621
G1 X103.181 Y119.703 E3.1219
G1 X102.693 Y118.818 E3.1824
G1 X102.366 Y118.001 E3.2351
G1 X102.462 Y117.812 E3.2478
G1 X102.272 Y117.715 E3.2606
G1 X102.060 Y116.873 E3.3125
G1 X101.933 Y115.864 E3.3734
G1 X101.932 Y114.866 E3.4332
G1 X102.058 Y113.863 E3.4937
G1 X102.272 Y113.010 E3.5464
G1 X102.462 Y112.913 E3.5591
G1 X102.366 Y112.724 E3.5718
G1 X102.728 Y111.834 E3.6293
G1 X103.255 Y110.909 E3.6931
G1 X103.942 Y110.001 E3.7612
G1 X103.977 Y109.926 E3.7662
G1 X103.996 Y109.819 E3.7727
G1 X103.996 Y99.348 E4.3996
; inner perimeter
G1 X104.476 Y100.930 F4200
G92 E0
G1 X115.523 Y100.930 E0.6614 F1995
G1 X115.526 Y109.943 E1.2010
G1 X115.626 Y110.228 E1.2191
G1 X116.339 Y111.166 E1.2896
G1 X116.836 Y112.038 E1.3497
G1 X117.107 Y112.702 E1.3926
G1 X116.892 Y113.123 E1.4209
G1 X117.316 Y113.339 E1.4493
G1 X117.468 Y113.941 E1.4865
G1 X117.587 Y114.891 E1.5438
G1 X117.588 Y115.829 E1.6000
G1 X117.470 Y116.773 E1.6570
G1 X117.315 Y117.386 E1.6948
G1 X116.892 Y117.602 E1.7233
G1 X117.108 Y118.025 E1.7517
G1 X116.877 Y118.602 E1.7889
G1 X116.415 Y119.440 E1.8462
G1 X115.864 Y120.200 E1.9024
G1 X115.214 Y120.894 E1.9593
G1 X114.729 Y121.300 E1.9972
G1 X114.260 Y121.225 E2.0256
G1 X114.185 Y121.695 E2.0541
G1 X113.660 Y122.025 E2.0912
G1 X112.793 Y122.432 E2.1485
G1 X111.901 Y122.723 E2.2047
G1 X110.967 Y122.902 E2.2617
G1 X110.336 Y122.945 E2.2995
G1 X110.000 Y122.609 E2.3280
G1 X109.660 Y122.949 E2.3567
G1 X109.220 Y122.925 E2.3831
G1 X108.474 Y122.810 E2.4283
G1 X107.725 Y122.621 E2.4746
G1 X107.022 Y122.357 E2.5195
G1 X106.265 Y121.984 E2.5700
G1 X105.815 Y121.697 E2.6020
G1 X105.740 Y121.225 E2.6306
G1 X105.271 Y121.300 E2.6590
G1 X104.794 Y120.902 E2.6962
G1 X104.139 Y120.204 E2.7535
G1 X103.735 Y119.648 E2.7946
G1 X103.856 Y119.412 E2.8105
G1 X107.901 Y119.412 E3.0527
G1 X107.901 Y114.642 E3.3382
G1 X103.131 Y114.642 E3.6238
G1 X103.131 Y117.614 E3.8017
G1 X102.684 Y117.386 E3.8317
G1 X102.532 Y116.784 E3.8689
G1 X102.413 Y115.834 E3.9262
G1 X102.412 Y114.895 E3.9824
G1 X102.530 Y113.952 E4.0393
G1 X102.685 Y113.339 E4.0772
G1 X103.108 Y113.123 E4.1056
G1 X102.893 Y112.702 E4.1339
G1 X103.161 Y112.044 E4.1764
G1 X103.656 Y111.174 E4.2364
G1 X104.356 Y110.249 E4.3058
G1 X104.438 Y110.072 E4.3175
G1 X104.476 Y109.863 E4.3302
G1 X104.476 Y100.930 E4.8650
; outer perimeter
G1 X103.611 Y115.122 F4200
G92 E0
G1 X103.611 Y118.932 E0.2281 F1890
G1 X107.421 Y118.932 E0.4562
G1 X107.421 Y115.122 E0.6843
G1 X103.611 Y115.122 E0.9124
; internal single extrusion
G1 X102.787 Y117.914 F4200
G92 E0
; tool H0.300 W0.512
G1 X102.948 Y118.090 E0.0153 F1890
; tool H0.300 W0.561
G1 X103.016 Y118.165 E0.0223
; tool H0.300 W0.605
G1 X103.059 Y118.249 E0.0294
; tool H0.300 W0.595
G1 X103.077 Y118.343 E0.0366
; tool H0.300 W0.541
G1 X103.114 Y118.531 E0.0495
; tool H0.300 W0.489
G1 X103.129 Y118.611 E0.0544
; tool H0.300 W0.454
G1 X103.148 Y118.686 E0.0588
; tool H0.300 W0.412
G1 X103.171 Y118.775 E0.0635
; tool H0.300 W0.366
G1 X103.194 Y118.864 E0.0677
; tool H0.300 W0.320
G1 X103.217 Y118.953 E0.0714
; tool H0.300 W0.274
G1 X103.240 Y119.042 E0.0746
; tool H0.300 W0.240
G1 X103.263 Y119.131 E0.0773
G1 X103.291 Y119.218 E0.0800
G1 X103.354 Y119.285 E0.0828
; tool H0.300 W0.266
G1 X103.441 Y119.339 E0.0862
; tool H0.300 W0.269
G1 X103.442 Y119.439 E0.0896
; tool H0.300 W0.240
G1 X103.444 Y119.536 E0.0925
G1 X103.449 Y119.596 E0.0943
; tool H0.300 W0.480
; solid layer
G1 X106.915 Y121.849 F4200
G92 E0
G1 X106.128 Y121.062 E0.0667 F2100
G1 X106.080 Y120.758 E0.0851
G1 X105.859 Y120.793 E0.0984
G1 X104.886 Y119.820 E0.1808
G1 X105.565 Y119.820 E0.2214
G1 X108.019 Y122.274 E0.4292
G1 X108.555 Y122.409 E0.4623
G1 X108.884 Y122.460 E0.4822
G1 X106.244 Y119.820 E0.7057
G1 X106.923 Y119.820 E0.7463
G1 X109.567 Y122.465 E0.9702
G1 X109.907 Y122.125 E0.9990
G1 X107.602 Y119.820 E1.1941
G1 X108.280 Y119.820 E1.2348
G1 X110.950 Y122.490 E1.4608
G1 X111.519 Y122.381 E1.4955
G1 X108.309 Y119.170 E1.7673
G1 X108.309 Y118.491 E1.8080
G1 X112.060 Y122.242 E2.1256
G1 X112.572 Y122.075 E2.1578
G1 X108.309 Y117.812 E2.5187
G1 X108.309 Y117.133 E2.5594
G1 X113.041 Y121.865 E2.9600
G1 X113.464 Y121.667 E2.9880
G1 X113.499 Y121.645 E2.9905
G1 X108.309 Y116.455 E3.4299
G1 X108.309 Y115.776 E3.4705
G1 X113.834 Y121.301 E3.9384
G1 X113.920 Y120.759 E3.9713
G1 X113.980 Y120.768 E3.9749
G1 X108.309 Y115.097 E4.4550
G1 X103.373 Y114.234 F4200
G92 E0
G1 X102.979 Y113.840 E0.0334 F2100
G1 X103.035 Y113.618 E0.0471
G1 X103.300 Y113.483 E0.0649
G1 X104.052 Y114.234 E0.1286
G1 X104.731 Y114.234 E0.1692
G1 X103.510 Y113.014 E0.2726
G1 X103.341 Y112.683 E0.2948
G1 X103.491 Y112.316 E0.3185
G1 X105.410 Y114.234 E0.4810
G1 X106.089 Y114.234 E0.5216
G1 X103.728 Y111.873 E0.7215
G1 X103.974 Y111.441 E0.7513
G1 X106.767 Y114.234 E0.9878
G1 X107.446 Y114.234 E1.0285
G1 X104.262 Y111.050 E1.2981
G1 X104.554 Y110.664 E1.3271
G1 X108.125 Y114.234 E1.6294
G1 X108.309 Y114.234 E1.6404
G1 X108.309 Y114.418 E1.6514
G1 X114.690 Y120.800 E2.1917
G1 X114.933 Y120.597 E2.2107
G1 X115.046 Y120.477 E2.2205
G1 X104.810 Y110.240 E3.0872
G1 X104.830 Y110.195 E3.0902
G1 X104.884 Y109.900 E3.1082
G1 X104.884 Y109.636 E3.1240
G1 X115.374 Y120.126 E4.0121
G1 X115.549 Y119.940 E4.0274
G1 X115.682 Y119.755 E4.0410
G1 X104.884 Y108.957 E4.9553
G1 X104.884 Y108.278 E4.9959
G1 X115.968 Y119.362 E5.9344
G1 X116.070 Y119.221 E5.9448
G1 X116.225 Y118.940 E5.9640
G1 X104.884 Y107.599 E6.9242
G1 X104.884 Y106.921 E6.9648
G1 X116.466 Y118.502 E7.9454
G1 X116.508 Y118.427 E7.9506
G1 X116.660 Y118.045 E7.9752
G1 X116.632 Y117.989 E7.9789
G1 X104.884 Y106.242 E8.9736
G1 X104.884 Y105.563 E9.0142
G1 X116.609 Y117.288 E10.0069
G1 X116.965 Y117.107 E10.0308
G1 X116.993 Y116.993 E10.0378
G1 X104.884 Y104.884 E11.0631
G1 X104.884 Y104.205 E11.1037
G1 X117.102 Y116.423 E12.1382
G1 X117.178 Y115.820 E12.1746
G1 X104.884 Y103.527 E13.2154
G1 X104.884 Y102.848 E13.2560
G1 X117.179 Y115.143 E14.2970
G1 X117.179 Y114.916 E14.3106
G1 X117.114 Y114.399 E14.3418
G1 X104.884 Y102.169 E15.3772
G1 X104.884 Y101.490 E15.4179
G1 X116.462 Y113.068 E16.3982
G1 X116.658 Y112.683 E16.4240
G1 X116.591 Y112.519 E16.4347
G1 X105.411 Y101.338 E17.3813
G1 X106.090 Y101.338 E17.4219
G1 X115.538 Y110.786 E18.2219
G1 X115.263 Y110.424 E18.2491
G1 X115.118 Y110.013 E18.2752
G1 X115.118 Y109.687 E18.2947
G1 X106.768 Y101.338 E19.0016
G1 X107.447 Y101.338 E19.0423
G1 X115.118 Y109.008 E19.6917
G1 X115.117 Y108.329 E19.7324
G1 X108.126 Y101.338 E20.3243
G1 X108.805 Y101.338 E20.3649
G1 X115.117 Y107.650 E20.8994
G1 X115.117 Y106.971 E20.9400
G1 X109.484 Y101.338 E21.4170
G1 X110.162 Y101.338 E21.4576
G1 X115.117 Y106.292 E21.8771
G1 X115.117 Y105.613 E21.9177
G1 X110.841 Y101.338 E22.2797
G1 X111.520 Y101.338 E22.3204
G1 X115.116 Y104.934 E22.6248
G1 X115.116 Y104.255 E22.6655
G1 X112.199 Y101.338 E22.9125
G1 X112.878 Y101.338 E22.9531
G1 X115.116 Y103.576 E23.1426
G1 X115.116 Y102.897 E23.1833
G1 X113.557 Y101.338 E23.3153
G1 X114.235 Y101.338 E23.3559
G1 X115.116 Y102.218 E23.4305
G1 X115.115 Y101.539 E23.4711
G1 X114.914 Y101.338 E23.4881
G92 E0
G1 E-1.0000 F3400
; outer perimeter
G1 X114.954 Y99.663 F4200
G1 E0.0000 F3400
G92 E0
G1 X114.200 Y99.664 E0.0451 F1890
G1 X114.200 Y99.067 E0.0808
G1 X114.459 Y98.954 E0.0978
G1 X114.481 Y98.974 E0.0996
G1 X114.954 Y98.768 E0.1304
G1 X114.954 Y99.663 E0.1841
G1 X110.523 Y95.468 F4200
G92 E0
G1 X110.000 Y95.697 E0.0342 F1890
G1 X109.477 Y95.468 E0.0684
G1 X109.243 Y94.870 E0.1068
G1 X110.758 Y94.869 E0.1976
G1 X110.523 Y95.468 E0.2361
G92 E0
G1 E-1.0000 F3400
G1 X105.800 Y99.067 F4200
G1 E0.0000 F3400
G92 E0
G1 X105.800 Y99.670 E0.0361 F1890
G1 X105.046 Y99.670 E0.0812
G1 X105.046 Y98.768 E0.1352
G1 X105.519 Y98.974 E0.1661
G1 X105.541 Y98.954 E0.1679
G1 X105.800 Y99.067 E0.1848
G92 E0
G1 E-1.0000 F3400
; external single extrusion
G1 X106.063 Y98.584 F4200
G1 E0.0000 F3400
G92 E0
; tool H0.300 W0.669
G1 X106.284 Y98.393 E0.0244 F1890
; tool H0.300 W0.666
G1 X106.352 Y98.331 E0.0320
; tool H0.300 W0.651
G1 X106.438 Y98.290 E0.0397
; tool H0.300 W0.483
G1 X106.550 Y98.412 E0.0497
; tool H0.300 W0.284
G1 X106.592 Y98.458 E0.0519
; tool H0.300 W0.240
G1 X106.616 Y98.488 E0.0531
G1 X106.630 Y98.514 E0.0539
G1 X106.638 Y98.536 E0.0546
G1 X106.643 Y98.556 E0.0553
G1 X106.644 Y98.575 E0.0559
G1 X106.644 Y98.666 E0.0586
G1 X106.644 Y99.029 E0.0694
G1 X106.644 Y99.120 E0.0722
G1 X106.644 Y99.348 E0.0882
G92 E0
G1 E-1.0000 F3400
G1 X106.309 Y99.348 F4200
G1 E0.0000 F3400
; tool H0.300 W0.480
G92 E0
; tool H0.300 W0.240
G1 X106.309 Y99.120 E0.0194 F1890
G1 X106.309 Y99.042 E0.0217
G1 X106.309 Y98.964 E0.0241
G1 X106.309 Y98.886 E0.0264
G1 X106.307 Y98.866 E0.0270
