; G-Code generated by Simplify3D(R) Version 4.0.0
; Sep 8, 2018 at 12:00:01 AM
; Settings Summary
;   processName,Process1
;   applyToModels,cendrier_chapeau_V2
;   profileName,Flyingbear p902 (modified)
;   profileVersion,2017-02-06 00:22:54
;   baseProfile,Default
;   printMaterial,PLA
;   printQuality,Medium
;   printExtruders,
;   extruderName,Extruder 1
;   extruderToolheadNumber,0
;   extruderDiameter,0.4
;   extruderAutoWidth,1
;   extruderWidth,0.48
;   extrusionMultiplier,1
;   extruderUseRetract,1
;   extruderRetractionDistance,1
;   extruderExtraRestartDistance,0
;   extruderRetractionZLift,0
;   extruderRetractionSpeed,3400
;   extruderUseCoasting,0
;   extruderCoastingDistance,0.2
;   extruderUseWipe,0
;   extruderWipeDistance,5
;   primaryExtruder,0
;   layerHeight,0.3
;   topSolidLayers,3
;   bottomSolidLayers,3
;   perimeterOutlines,2
;   printPerimetersInsideOut,1
;   startPointOption,2
;   startPointOriginX,0
;   startPointOriginY,0
;   sequentialIslands,0
;   spiralVaseMode,0
;   firstLayerHeightPercentage,90
;   firstLayerWidthPercentage,100
;   firstLayerUnderspeed,0.5
;   useRaft,0
;   raftExtruder,0
;   raftTopLayers,3
;   raftBaseLayers,1
;   raftOffset,2
;   raftSeparationDistance,0.2
;   raftTopInfill,100
;   aboveRaftSpeedMultiplier,0.3
;   useSkirt,0
;   skirtExtruder,0
;   skirtLayers,1
;   skirtOutlines,2
;   skirtOffset,4
;   usePrimePillar,0
;   primePillarExtruder,999
;   primePillarWidth,12
;   primePillarLocation,7
;   primePillarSpeedMultiplier,1
;   useOozeShield,0
;   oozeShieldExtruder,999
;   oozeShieldOffset,2
;   oozeShieldOutlines,1
;   oozeShieldSidewallShape,1
;   oozeShieldSidewallAngle,30
;   oozeShieldSpeedMultiplier,1
;   infillExtruder,0
;   internalInfillPattern,Rectilinear
;   externalInfillPattern,Rectilinear
;   infillPercentage,10
;   outlineOverlapPercentage,15
;   infillExtrusionWidthPercentage,100
;   minInfillLength,5
;   infillLayerInterval,1
;   internalInfillAngles,45,-45
;   overlapInternalInfillAngles,0
;   externalInfillAngles,45,-45
;   generateSupport,1
;   supportExtruder,0
;   supportInfillPercentage,15
;   supportExtraInflation,0.5
;   supportBaseLayers,0
;   denseSupportExtruder,0
;   denseSupportLayers,0
;   denseSupportInfillPercentage,70
;   supportLayerInterval,1
;   supportHorizontalPartOffset,0.3
;   supportUpperSeparationLayers,1
;   supportLowerSeparationLayers,1
;   supportType,0
;   supportGridSpacing,1
;   maxOverhangAngle,60
;   supportAngles,0
;   temperatureName,Extruder 1,Heated Bed
;   temperatureNumber,0,0
;   temperatureSetpointCount,1,1
;   temperatureSetpointLayers,1,1
;   temperatureSetpointTemperatures,210,60
;   temperatureStabilizeAtStartup,1,1
;   temperatureHeatedBed,0,1
;   temperatureRelayBetweenLayers,0,0
;   temperatureRelayBetweenLoops,0,0
;   fanLayers,1,2
;   fanSpeeds,0,100
;   blipFanToFullPower,0
;   adjustSpeedForCooling,1
;   minSpeedLayerTime,15
;   minCoolingSpeedSlowdown,20
;   increaseFanForCooling,0
;   minFanLayerTime,45
;   maxCoolingFanSpeed,100
;   increaseFanForBridging,1
;   bridgingFanSpeed,100
;   use5D,1
;   relativeEdistances,0
;   allowEaxisZeroing,1
;   independentExtruderAxes,0
;   includeM10123,0
;   stickySupport,1
;   applyToolheadOffsets,0
;   gcodeXoffset,0
;   gcodeYoffset,0
;   gcodeZoffset,0
;   overrideMachineDefinition,1
;   machineTypeOverride,0
;   strokeXoverride,220
;   strokeYoverride,220
;   strokeZoverride,280
;   originOffsetXoverride,0
;   originOffsetYoverride,0
;   originOffsetZoverride,0
;   homeXdirOverride,-1
;   homeYdirOverride,-1
;   homeZdirOverride,-1
;   flipXoverride,1
;   flipYoverride,-1
;   flipZoverride,1
;   toolheadOffsets,0,0|0,0|0,0|0,0|0,0|0,0
;   overrideFirmwareConfiguration,1
;   firmwareTypeOverride,RepRap (Marlin/Repetier/Sprinter)
;   GPXconfigOverride,r2
;   baudRateOverride,250000
;   overridePrinterModels,0
;   printerModelsOverride
;   startingGcode,G28 ; home all axes,G1 X0 Y5 Z0.2 F3000 ; get ready to prime,G92 E0 ; reset extrusion distance,G1 X200 E20 F600 ; prime nozzle
;   layerChangeGcode,
;   retractionGcode,
;   toolChangeGcode,
;   endingGcode,M104 S0 ; turn off extruder,M140 S0 ; turn off bed,G91 ; use relative coordinates,G1 Z0.6 F5000 ; lift nozzle by 0.6mm,G90 ; use absolute coordinates,G28 X0 ; home X axis,G28 Y0 ; home X axis,M84 ; disable motors,M107 ; turn off fan
;   exportFileFormat,gcode
;   celebration,0
;   celebrationSong,Random Song
;   postProcessing,
;   defaultSpeed,4200
;   outlineUnderspeed,0.9
;   solidInfillUnderspeed,1
;   supportUnderspeed,0.8
;   rapidXYspeed,4200
;   rapidZspeed,1002
;   minBridgingArea,50
;   bridgingExtraInflation,0
;   bridgingExtrusionMultiplier,1
;   bridgingSpeedMultiplier,1
;   useFixedBridgingAngle,0
;   fixedBridgingAngle,0
;   applyBridgingToPerimeters,0
;   filamentDiameters,1.75|1.75|1.75|1.75|1.75|1.75
;   filamentPricesPerKg,46|46|46|46|46|46
;   filamentDensities,1.25|1.25|1.25|1.25|1.25|1.25
;   useMinPrintHeight,0
;   minPrintHeight,0
;   useMaxPrintHeight,0
;   maxPrintHeight,0
;   useDiaphragm,0
;   diaphragmLayerInterval,20
;   robustSlicing,1
;   mergeAllIntoSolid,0
;   onlyRetractWhenCrossingOutline,1
;   retractBetweenLayers,1
;   useRetractionMinTravel,0
;   retractionMinTravel,3
;   retractWhileWiping,0
;   onlyWipeOutlines,1
;   avoidCrossingOutline,0
;   maxMovementDetourFactor,3
;   toolChangeRetractionDistance,12
;   toolChangeExtraRestartDistance,-0.5
;   toolChangeRetractionSpeed,600
;   externalThinWallType,1
;   internalThinWallType,1
;   thinWallAllowedOverlapPercentage,10
;   singleExtrusionMinLength,1
;   singleExtrusionMinPrintingWidthPercentage,50
;   singleExtrusionMaxPrintingWidthPercentage,200
;   singleExtrusionEndpointExtension,0.2
;   horizontalSizeCompensation,0
G90
M82
M106 S0
M140 S60
M190 S60
M104 S210 T0
M109 S210 T0
G28 ; home all axes
G1 X0 Y5 Z0.2 F3000 ; get ready to prime
G92 E0 ; reset extrusion distance
G1 X200 E20 F600 ; prime nozzle
G92 E0
G1 E-1.0000 F3400
G1 Z0.270 F1002
; process Process1
; layer 1, Z = 0.270
T0
; tool H0.300 W0.480
; inner perimeter
G1 X83.407 Y57.278 F4200
G1 E0.0000 F1020
G92 E0
G1 X85.657 Y54.525 E0.2129 F1995
G1 X88.210 Y52.013 E0.4273
G1 X90.901 Y49.881 E0.6329
G1 X92.649 Y48.773 E0.7568
G1 X93.938 Y47.969 E0.8477
G1 X97.021 Y46.460 E1.0532
G1 X100.256 Y45.281 E1.2594
G1 X100.377 Y45.246 E1.2669
G1 X103.731 Y44.424 E1.4736
G1 X107.130 Y43.963 E1.6790
G1 X110.563 Y43.863 E1.8846
G1 X111.985 Y43.967 E1.9699
G1 X114.137 Y44.141 E2.0992
G1 X117.526 Y44.777 E2.3057
G1 X117.626 Y44.803 E2.3118
G1 X120.940 Y45.808 E2.5191
G1 X124.109 Y47.148 E2.7251
G1 X127.122 Y48.818 E2.9314
G1 X128.519 Y49.795 E3.0334
G1 X130.038 Y50.869 E3.1448
G1 X132.582 Y53.094 E3.3472
G1 X134.205 Y54.842 E3.4900
G1 X134.398 Y55.080 E3.5083
G1 X135.103 Y55.847 E3.5707
G1 X137.098 Y58.556 E3.7721
G1 X138.269 Y60.557 E3.9109
G1 X138.651 Y61.170 E3.9541
G1 X138.978 Y61.819 E3.9976
G1 X140.314 Y64.822 E4.1944
G1 X140.806 Y66.191 E4.2815
G1 X141.521 Y68.655 E4.4351
G1 X142.103 Y71.462 E4.6067
G1 X141.345 Y71.256 E4.6537
G1 X141.016 Y71.232 E4.6734
G1 X140.528 Y71.231 E4.7027
G1 X140.060 Y68.973 E4.8407
G1 X139.353 Y66.558 E4.9914
G1 X138.453 Y64.209 E5.1420
G1 X137.367 Y61.940 E5.2926
G1 X136.101 Y59.765 E5.4432
G1 X134.665 Y57.700 E5.5938
G1 X133.066 Y55.758 E5.7444
G1 X131.316 Y53.950 E5.8951
G1 X129.426 Y52.290 E6.0457
G1 X127.408 Y50.787 E6.1963
G1 X125.276 Y49.452 E6.3469
G1 X123.043 Y48.293 E6.4975
G1 X120.724 Y47.318 E6.6481
G1 X118.333 Y46.534 E6.7988
G1 X115.887 Y45.944 E6.9494
G1 X113.402 Y45.554 E7.1000
G1 X110.894 Y45.365 E7.2506
G1 X108.378 Y45.379 E7.4012
G1 X105.871 Y45.596 E7.5518
G1 X103.391 Y46.014 E7.7024
G1 X100.951 Y46.631 E7.8531
G1 X98.570 Y47.442 E8.0037
G1 X96.262 Y48.443 E8.1543
G1 X94.042 Y49.627 E8.3049
G1 X91.925 Y50.986 E8.4555
G1 X89.924 Y52.511 E8.6062
G1 X88.053 Y54.193 E8.7568
G1 X86.323 Y56.019 E8.9074
G1 X84.746 Y57.980 E9.0580
G1 X83.333 Y60.061 E9.2086
G1 X82.092 Y62.249 E9.3592
G1 X81.031 Y64.531 E9.5099
G1 X80.158 Y66.890 E9.6605
G1 X79.478 Y69.312 E9.8111
G1 X79.039 Y71.556 E9.9479
G1 X78.548 Y71.563 E9.9774
G1 X78.193 Y71.594 E9.9987
G1 X77.475 Y71.783 E10.0431
G1 X77.796 Y70.016 E10.1507
G1 X77.975 Y69.182 E10.2017
G1 X78.102 Y68.705 E10.2312
G1 X78.250 Y68.237 E10.2607
G1 X78.733 Y66.439 E10.3721
G1 X79.948 Y63.270 E10.5753
G1 X80.078 Y62.992 E10.5937
G1 X81.668 Y59.929 E10.8003
G1 X83.407 Y57.279 E10.9901
G1 X76.646 Y72.143 F4200
G92 E0
G1 X76.768 Y72.385 E0.0163 F1995
G1 X76.518 Y72.711 E0.0409
G1 X76.310 Y73.094 E0.0669
G1 X75.986 Y73.013 E0.0869
G1 X75.981 Y72.556 E0.1143
G1 X75.988 Y72.445 E0.1210
G1 X76.001 Y72.388 E0.1245
G1 X76.048 Y72.279 E0.1316
G1 X76.140 Y72.154 E0.1409
G1 X76.646 Y72.143 E0.1712
G1 X76.417 Y80.754 F4200
G92 E0
G1 X76.488 Y80.906 E0.0100 F1995
G1 X76.757 Y81.298 E0.0385
G1 X76.867 Y81.411 E0.0479
G1 X76.755 Y81.674 E0.0651
G1 X76.272 Y81.674 E0.0940
G1 X76.192 Y81.602 E0.1004
G1 X76.162 Y81.565 E0.1033
G1 X76.129 Y81.509 E0.1072
G1 X76.108 Y81.455 E0.1106
G1 X76.091 Y81.378 E0.1153
G1 X76.082 Y81.278 E0.1214
G1 X76.077 Y80.832 E0.1481
G1 X76.417 Y80.754 E0.1690
G1 X77.592 Y82.007 F4200
G92 E0
G1 X78.309 Y82.187 E0.0443 F1995
G1 X78.672 Y82.210 E0.0660
G1 X79.162 Y82.205 E0.0954
G1 X79.653 Y84.439 E0.2323
G1 X80.390 Y86.845 E0.3829
G1 X81.318 Y89.183 E0.5335
G1 X82.431 Y91.439 E0.6841
G1 X83.723 Y93.598 E0.8348
G1 X85.184 Y95.646 E0.9854
G1 X86.806 Y97.569 E1.1360
G1 X88.578 Y99.355 E1.2866
G1 X90.488 Y100.993 E1.4372
G1 X92.523 Y102.471 E1.5879
G1 X94.671 Y103.780 E1.7385
G1 X96.918 Y104.912 E1.8891
G1 X99.249 Y105.859 E2.0397
G1 X101.649 Y106.615 E2.1903
G1 X104.101 Y107.175 E2.3409
G1 X106.591 Y107.536 E2.4915
G1 X109.102 Y107.694 E2.6422
G1 X111.617 Y107.650 E2.7928
G1 X114.121 Y107.403 E2.9434
G1 X116.597 Y106.955 E3.0940
G1 X119.028 Y106.308 E3.2446
G1 X121.399 Y105.468 E3.3952
G1 X123.695 Y104.440 E3.5459
G1 X125.901 Y103.229 E3.6965
G1 X128.002 Y101.845 E3.8471
G1 X129.984 Y100.296 E3.9977
G1 X131.835 Y98.592 E4.1483
G1 X133.542 Y96.744 E4.2990
G1 X135.095 Y94.765 E4.4496
G1 X136.484 Y92.667 E4.6002
G1 X137.698 Y90.464 E4.7508
G1 X138.732 Y88.170 E4.9014
G1 X139.576 Y85.800 E5.0520
G1 X140.227 Y83.370 E5.2027
G1 X140.642 Y81.099 E5.3409
G1 X141.130 Y81.089 E5.3701
G1 X141.466 Y81.056 E5.3903
G1 X142.209 Y80.847 E5.4365
G1 X141.695 Y83.654 E5.6073
G1 X141.040 Y86.124 E5.7604
G1 X139.926 Y89.194 E5.9559
G1 X138.416 Y92.304 E6.1628
G1 X136.494 Y95.376 E6.3798
G1 X134.422 Y98.012 E6.5805
G1 X133.918 Y98.557 E6.6250
G1 X132.289 Y100.225 E6.7645
G1 X131.131 Y101.226 E6.8562
G1 X129.225 Y102.800 E7.0041
G1 X126.351 Y104.698 E7.2104
G1 X123.176 Y106.335 E7.4242
G1 X119.968 Y107.576 E7.6302
G1 X116.650 Y108.470 E7.8359
G1 X113.110 Y109.028 E8.0504
G1 X109.683 Y109.195 E8.2558
G1 X106.097 Y108.983 E8.4709
G1 X102.715 Y108.415 E8.6762
G1 X99.411 Y107.495 E8.8816
G1 X96.073 Y106.166 E9.0967
G1 X93.041 Y104.563 E9.3020
G1 X90.069 Y102.554 E9.5167
G1 X87.445 Y100.340 E9.7223
G1 X85.068 Y97.859 E9.9280
G1 X82.774 Y94.864 E10.1538
G1 X81.084 Y92.090 E10.3483
G1 X79.622 Y89.017 E10.5521
G1 X79.409 Y88.471 E10.5871
G1 X79.023 Y87.366 E10.6572
G1 X78.939 Y87.065 E10.6759
G1 X78.409 Y85.548 E10.7721
G1 X78.230 Y84.891 E10.8129
G1 X78.170 Y84.594 E10.8310
G1 X77.956 Y83.778 E10.8815
G1 X77.592 Y82.007 E10.9898
G92 E0
G1 E-1.0000 F3400
G1 X142.819 Y80.281 F4200
G1 E0.0000 F3400
G92 E0
G1 X143.060 Y79.965 E0.0238 F1995
G1 X143.366 Y79.404 E0.0620
G1 X143.690 Y79.484 E0.0820
G1 X143.696 Y79.989 E0.1123
G1 X143.693 Y80.076 E0.1175
G1 X143.674 Y80.199 E0.1249
G1 X143.637 Y80.311 E0.1320
G1 X143.611 Y80.362 E0.1354
G1 X143.550 Y80.440 E0.1414
G1 X143.468 Y80.506 E0.1476
G1 X143.386 Y80.515 E0.1526
G1 X142.942 Y80.523 E0.1792
G1 X142.819 Y80.281 E0.1954
G1 X143.273 Y72.875 F4200
G92 E0
G1 X143.115 Y72.541 E0.0221 F1995
G1 X142.878 Y72.185 E0.0477
G1 X142.722 Y72.013 E0.0616
G1 X142.835 Y71.757 E0.0784
G1 X143.284 Y71.754 E0.1053
G1 X143.388 Y71.763 E0.1115
G1 X143.468 Y71.838 E0.1181
G1 X143.495 Y71.873 E0.1208
G1 X143.540 Y71.951 E0.1261
G1 X143.563 Y72.006 E0.1297
G1 X143.592 Y72.126 E0.1371
G1 X143.606 Y72.283 E0.1465
G1 X143.612 Y72.797 E0.1773
G1 X143.273 Y72.875 E0.1982
; outer perimeter
G1 X144.086 Y72.259 F4200
G92 E0
G1 X144.176 Y79.995 E0.4632 F1890
G1 X144.171 Y80.121 E0.4707
G1 X144.142 Y80.310 E0.4822
G1 X144.082 Y80.496 E0.4939
G1 X144.017 Y80.623 E0.5024
G1 X143.893 Y80.780 E0.5144
G1 X143.741 Y80.902 E0.5261
G1 X143.659 Y80.944 E0.5316
G1 X143.538 Y80.981 E0.5391
G1 X143.415 Y80.994 E0.5465
G1 X142.668 Y81.008 E0.5913
G1 X142.164 Y83.759 E0.7588
G1 X141.498 Y86.268 E0.9142
G1 X140.369 Y89.381 E1.1124
G1 X138.837 Y92.537 E1.3225
G1 X136.888 Y95.653 E1.5425
G1 X134.788 Y98.324 E1.7459
G1 X134.266 Y98.888 E1.7919
G1 X132.618 Y100.575 E1.9331
G1 X131.441 Y101.593 E2.0262
G1 X129.511 Y103.186 E2.1761
G1 X126.594 Y105.112 E2.3854
G1 X123.373 Y106.774 E2.6023
G1 X120.117 Y108.033 E2.8113
G1 X116.750 Y108.940 E3.0201
G1 X113.159 Y109.506 E3.2377
G1 X109.680 Y109.675 E3.4463
G1 X106.043 Y109.460 E3.6644
G1 X102.610 Y108.885 E3.8728
G1 X99.257 Y107.951 E4.0812
G1 X95.871 Y106.603 E4.2994
G1 X92.793 Y104.975 E4.5078
G1 X89.779 Y102.938 E4.7256
G1 X87.116 Y100.690 E4.9342
G1 X84.703 Y98.172 E5.1430
G1 X82.377 Y95.136 E5.3720
G1 X80.661 Y92.318 E5.5695
G1 X79.181 Y89.207 E5.7757
G1 X78.959 Y88.638 E5.8124
G1 X78.565 Y87.510 E5.8839
G1 X78.481 Y87.209 E5.9026
G1 X77.950 Y85.691 E5.9989
G1 X77.762 Y85.002 E6.0416
G1 X77.702 Y84.703 E6.0599
G1 X77.489 Y83.888 E6.1103
G1 X77.132 Y82.155 E6.2162
G1 X76.253 Y82.154 E6.2689
G1 X76.142 Y82.127 E6.2757
G1 X76.037 Y82.082 E6.2826
G1 X75.935 Y82.017 E6.2898
G1 X75.842 Y81.933 E6.2973
G1 X75.765 Y81.838 E6.3046
G1 X75.695 Y81.718 E6.3130
G1 X75.648 Y81.596 E6.3208
G1 X75.615 Y81.452 E6.3296
G1 X75.602 Y81.301 E6.3387
G1 X75.501 Y72.544 E6.8630
G1 X75.511 Y72.377 E6.8730
G1 X75.542 Y72.238 E6.8815
G1 X75.630 Y72.039 E6.8946
G1 X75.730 Y71.901 E6.9048
G1 X75.814 Y71.823 E6.9116
G1 X75.911 Y71.756 E6.9187
G1 X76.043 Y71.697 E6.9273
G1 X76.142 Y71.673 E6.9334
G1 X77.010 Y71.655 E6.9854
G1 X77.325 Y69.922 E7.0908
G1 X77.508 Y69.070 E7.1430
G1 X77.641 Y68.571 E7.1739
G1 X77.789 Y68.102 E7.2034
G1 X78.276 Y66.290 E7.3157
G1 X79.505 Y63.082 E7.5214
G1 X79.647 Y62.779 E7.5414
G1 X81.253 Y59.686 E7.7501
G1 X83.020 Y56.994 E7.9428
G1 X85.302 Y54.201 E8.1588
G1 X87.892 Y51.652 E8.3763
G1 X90.623 Y49.489 E8.5849
G1 X92.393 Y48.367 E8.7104
G1 X93.705 Y47.548 E8.8029
G1 X96.832 Y46.018 E9.0114
G1 X100.107 Y44.824 E9.2201
G1 X100.253 Y44.782 E9.2292
G1 X103.641 Y43.952 E9.4380
G1 X107.091 Y43.484 E9.6464
G1 X110.573 Y43.382 E9.8550
G1 X112.022 Y43.489 E9.9420
G1 X114.201 Y43.665 E10.0729
G1 X117.632 Y44.309 E10.2819
G1 X117.757 Y44.342 E10.2896
G1 X121.103 Y45.356 E10.4989
G1 X124.319 Y46.716 E10.7080
G1 X127.377 Y48.410 E10.9172
G1 X128.795 Y49.403 E11.0209
G1 X130.336 Y50.492 E11.1338
G1 X132.917 Y52.749 E11.3391
G1 X134.568 Y54.527 E11.4844
G1 X134.762 Y54.766 E11.5028
G1 X135.474 Y55.541 E11.5658
G1 X137.499 Y58.292 E11.7703
G1 X138.680 Y60.309 E11.9103
G1 X139.069 Y60.934 E11.9543
G1 X139.412 Y61.613 E11.9999
G1 X140.760 Y64.643 E12.1984
G1 X141.263 Y66.043 E12.2875
G1 X141.987 Y68.539 E12.4431
G1 X142.555 Y71.278 E12.6105
G1 X143.302 Y71.274 E12.6553
G1 X143.426 Y71.284 E12.6627
G1 X143.530 Y71.312 E12.6692
G1 X143.636 Y71.361 E12.6762
G1 X143.730 Y71.425 E12.6829
G1 X143.823 Y71.513 E12.6906
G1 X143.894 Y71.603 E12.6974
G1 X143.973 Y71.740 E12.7069
G1 X144.021 Y71.858 E12.7146
G1 X144.067 Y72.047 E12.7262
G1 X144.086 Y72.259 E12.7389
G1 X142.696 Y72.778 F4200
G92 E0
G1 X142.499 Y72.481 E0.0213 F1890
G1 X142.275 Y72.235 E0.0412
G1 X142.026 Y72.035 E0.0603
G1 X141.659 Y71.839 E0.0853
G1 X141.264 Y71.732 E0.1098
G1 X140.998 Y71.712 E0.1257
G1 X140.184 Y71.710 E0.1745
G1 X140.096 Y71.515 E0.1873
G1 X139.594 Y69.089 E0.3356
G1 X138.898 Y66.712 E0.4839
G1 X138.012 Y64.399 E0.6322
G1 X136.942 Y62.164 E0.7805
G1 X135.696 Y60.024 E0.9288
G1 X134.282 Y57.990 E1.0771
G1 X132.708 Y56.078 E1.2254
G1 X130.985 Y54.298 E1.3737
G1 X129.124 Y52.663 E1.5220
