; G-Code generated by Simplify3D(R) Version 4.0.0
; Sep 8, 2018 at 12:57:04 AM
; Settings Summary
;   processName,Process1
;   applyToModels,cendrier_base_V2
;   profileName,Flyingbear p902 (modified)
;   profileVersion,2017-02-06 00:22:54
;   baseProfile,Default
;   printMaterial,PLA
;   printQuality,Medium
;   printExtruders,
;   extruderName,Extruder 1
;   extruderToolheadNumber,0
;   extruderDiameter,0.4
;   extruderAutoWidth,1
;   extruderWidth,0.48
;   extrusionMultiplier,1
;   extruderUseRetract,1
;   extruderRetractionDistance,1
;   extruderExtraRestartDistance,0
;   extruderRetractionZLift,0
;   extruderRetractionSpeed,3400
;   extruderUseCoasting,0
;   extruderCoastingDistance,0.2
;   extruderUseWipe,0
;   extruderWipeDistance,5
;   primaryExtruder,0
;   layerHeight,0.3
;   topSolidLayers,3
;   bottomSolidLayers,3
;   perimeterOutlines,2
;   printPerimetersInsideOut,1
;   startPointOption,2
;   startPointOriginX,0
;   startPointOriginY,0
;   sequentialIslands,0
;   spiralVaseMode,0
;   firstLayerHeightPercentage,90
;   firstLayerWidthPercentage,100
;   firstLayerUnderspeed,0.5
;   useRaft,0
;   raftExtruder,0
;   raftTopLayers,3
;   raftBaseLayers,1
;   raftOffset,2
;   raftSeparationDistance,0.2
;   raftTopInfill,100
;   aboveRaftSpeedMultiplier,0.3
;   useSkirt,0
;   skirtExtruder,0
;   skirtLayers,1
;   skirtOutlines,2
;   skirtOffset,4
;   usePrimePillar,0
;   primePillarExtruder,999
;   primePillarWidth,12
;   primePillarLocation,7
;   primePillarSpeedMultiplier,1
;   useOozeShield,0
;   oozeShieldExtruder,999
;   oozeShieldOffset,2
;   oozeShieldOutlines,1
;   oozeShieldSidewallShape,1
;   oozeShieldSidewallAngle,30
;   oozeShieldSpeedMultiplier,1
;   infillExtruder,0
;   internalInfillPattern,Rectilinear
;   externalInfillPattern,Rectilinear
;   infillPercentage,10
;   outlineOverlapPercentage,15
;   infillExtrusionWidthPercentage,100
;   minInfillLength,5
;   infillLayerInterval,1
;   internalInfillAngles,45,-45
;   overlapInternalInfillAngles,0
;   externalInfillAngles,45,-45
;   generateSupport,1
;   supportExtruder,0
;   supportInfillPercentage,15
;   supportExtraInflation,0.5
;   supportBaseLayers,0
;   denseSupportExtruder,0
;   denseSupportLayers,0
;   denseSupportInfillPercentage,70
;   supportLayerInterval,1
;   supportHorizontalPartOffset,0.3
;   supportUpperSeparationLayers,1
;   supportLowerSeparationLayers,1
;   supportType,0
;   supportGridSpacing,1
;   maxOverhangAngle,60
;   supportAngles,0
;   temperatureName,Extruder 1,Heated Bed
;   temperatureNumber,0,0
;   temperatureSetpointCount,1,1
;   temperatureSetpointLayers,1,1
;   temperatureSetpointTemperatures,210,60
;   temperatureStabilizeAtStartup,1,1
;   temperatureHeatedBed,0,1
;   temperatureRelayBetweenLayers,0,0
;   temperatureRelayBetweenLoops,0,0
;   fanLayers,1,2
;   fanSpeeds,0,100
;   blipFanToFullPower,0
;   adjustSpeedForCooling,1
;   minSpeedLayerTime,15
;   minCoolingSpeedSlowdown,20
;   increaseFanForCooling,0
;   minFanLayerTime,45
;   maxCoolingFanSpeed,100
;   increaseFanForBridging,1
;   bridgingFanSpeed,100
;   use5D,1
;   relativeEdistances,0
;   allowEaxisZeroing,1
;   independentExtruderAxes,0
;   includeM10123,0
;   stickySupport,1
;   applyToolheadOffsets,0
;   gcodeXoffset,0
;   gcodeYoffset,0
;   gcodeZoffset,0
;   overrideMachineDefinition,1
;   machineTypeOverride,0
;   strokeXoverride,220
;   strokeYoverride,220
;   strokeZoverride,280
;   originOffsetXoverride,0
;   originOffsetYoverride,0
;   originOffsetZoverride,0
;   homeXdirOverride,-1
;   homeYdirOverride,-1
;   homeZdirOverride,-1
;   flipXoverride,1
;   flipYoverride,-1
;   flipZoverride,1
;   toolheadOffsets,0,0|0,0|0,0|0,0|0,0|0,0
;   overrideFirmwareConfiguration,1
;   firmwareTypeOverride,RepRap (Marlin/Repetier/Sprinter)
;   GPXconfigOverride,r2
;   baudRateOverride,250000
;   overridePrinterModels,0
;   printerModelsOverride
;   startingGcode,G28 ; home all axes,G1 X0 Y5 Z0.2 F3000 ; get ready to prime,G92 E0 ; reset extrusion distance,G1 X200 E20 F600 ; prime nozzle
;   layerChangeGcode,
;   retractionGcode,
;   toolChangeGcode,
;   endingGcode,M104 S0 ; turn off extruder,M140 S0 ; turn off bed,G91 ; use relative coordinates,G1 Z0.6 F5000 ; lift nozzle by 0.6mm,G90 ; use absolute coordinates,G28 X0 ; home X axis,G28 Y0 ; home X axis,M84 ; disable motors,M107 ; turn off fan
;   exportFileFormat,gcode
;   celebration,0
;   celebrationSong,Random Song
;   postProcessing,
;   defaultSpeed,4200
;   outlineUnderspeed,0.9
;   solidInfillUnderspeed,1
;   supportUnderspeed,0.8
;   rapidXYspeed,4200
;   rapidZspeed,1002
;   minBridgingArea,50
;   bridgingExtraInflation,0
;   bridgingExtrusionMultiplier,1
;   bridgingSpeedMultiplier,1
;   useFixedBridgingAngle,0
;   fixedBridgingAngle,0
;   applyBridgingToPerimeters,0
;   filamentDiameters,1.75|1.75|1.75|1.75|1.75|1.75
;   filamentPricesPerKg,46|46|46|46|46|46
;   filamentDensities,1.25|1.25|1.25|1.25|1.25|1.25
;   useMinPrintHeight,0
;   minPrintHeight,0
;   useMaxPrintHeight,0
;   maxPrintHeight,0
;   useDiaphragm,0
;   diaphragmLayerInterval,20
;   robustSlicing,1
;   mergeAllIntoSolid,0
;   onlyRetractWhenCrossingOutline,1
;   retractBetweenLayers,1
;   useRetractionMinTravel,0
;   retractionMinTravel,3
;   retractWhileWiping,0
;   onlyWipeOutlines,1
;   avoidCrossingOutline,0
;   maxMovementDetourFactor,3
;   toolChangeRetractionDistance,12
;   toolChangeExtraRestartDistance,-0.5
;   toolChangeRetractionSpeed,600
;   externalThinWallType,1
;   internalThinWallType,1
;   thinWallAllowedOverlapPercentage,10
;   singleExtrusionMinLength,1
;   singleExtrusionMinPrintingWidthPercentage,50
;   singleExtrusionMaxPrintingWidthPercentage,200
;   singleExtrusionEndpointExtension,0.2
;   horizontalSizeCompensation,0
G90
M82
M106 S0
M140 S60
M190 S60
M104 S210 T0
M109 S210 T0
G28 ; home all axes
G1 X0 Y5 Z0.2 F3000 ; get ready to prime
G92 E0 ; reset extrusion distance
G1 X200 E20 F600 ; prime nozzle
G92 E0
G1 E-1.0000 F3400
G1 Z0.270 F1002
; process Process1
; layer 1, Z = 0.270
T0
; tool H0.300 W0.480
; inner perimeter
G1 X93.395 Y94.168 F4200
G1 E0.0000 F1020
G92 E0
G1 X94.926 Y92.739 E0.1254 F1995
G1 X96.580 Y91.455 E0.2508
G1 X98.344 Y90.326 E0.3761
G1 X100.203 Y89.362 E0.5015
G1 X102.143 Y88.572 E0.6269
G1 X104.146 Y87.961 E0.7523
G1 X106.196 Y87.535 E0.8777
G1 X108.277 Y87.297 E1.0030
G1 X110.371 Y87.250 E1.1284
G1 X112.460 Y87.393 E1.2538
G1 X114.528 Y87.725 E1.3792
G1 X116.557 Y88.244 E1.5046
G1 X118.530 Y88.945 E1.6299
G1 X120.431 Y89.823 E1.7553
G1 X122.245 Y90.870 E1.8807
G1 X123.956 Y92.078 E2.0061
G1 X125.550 Y93.436 E2.1314
G1 X127.014 Y94.934 E2.2568
G1 X128.336 Y96.558 E2.3822
G1 X129.504 Y98.296 E2.5076
G1 X130.510 Y100.133 E2.6330
G1 X131.344 Y102.054 E2.7583
G1 X132.000 Y104.043 E2.8837
G1 X132.473 Y106.083 E3.0091
G1 X132.758 Y108.158 E3.1345
G1 X132.853 Y110.250 E3.2599
G1 X132.758 Y112.342 E3.3852
G1 X132.473 Y114.417 E3.5106
G1 X132.000 Y116.457 E3.6360
G1 X131.344 Y118.446 E3.7614
G1 X130.510 Y120.367 E3.8868
G1 X129.504 Y122.204 E4.0121
G1 X128.336 Y123.942 E4.1375
G1 X127.810 Y124.588 E4.1874
G1 X123.774 Y120.580 E4.5279
G1 X122.007 Y122.359 E4.6781
G1 X121.393 Y123.021 E4.7321
G1 X121.125 Y123.384 E4.7591
G1 X120.945 Y123.807 E4.7866
G1 X120.926 Y124.035 E4.8003
G1 X120.620 Y124.106 E4.8191
G1 X120.206 Y123.421 E4.8670
G1 X118.808 Y124.264 E4.9648
G1 X118.207 Y124.670 E5.0082
G1 X117.943 Y124.908 E5.0295
G1 X117.772 Y125.117 E5.0457
G1 X117.632 Y125.352 E5.0620
G1 X117.543 Y125.580 E5.0767
G1 X117.494 Y125.819 E5.0913
G1 X117.482 Y126.077 E5.1067
G1 X117.511 Y126.331 E5.1220
G1 X117.575 Y126.576 E5.1372
G1 X117.775 Y127.112 E5.1715
G1 X119.470 Y131.121 E5.4320
G1 X118.530 Y131.555 E5.4940
G1 X116.557 Y132.256 E5.6194
G1 X114.528 Y132.775 E5.7448
G1 X113.940 Y132.870 E5.7805
G1 X113.630 Y129.654 E5.9739
G1 X116.135 Y128.992 E6.1290
G1 X115.505 Y126.613 E6.2763
G1 X113.182 Y127.227 E6.4201
G1 X113.021 Y126.925 E6.4406
G1 X113.245 Y126.729 E6.4584
G1 X113.750 Y126.108 E6.5064
G1 X114.149 Y125.398 E6.5551
G1 X114.417 Y124.643 E6.6031
G1 X114.552 Y123.854 E6.6510
G1 X114.553 Y123.051 E6.6991
G1 X114.508 Y122.807 E6.7139
G1 X114.896 Y122.667 E6.7386
G1 X116.245 Y122.030 E6.8279
G1 X117.565 Y121.211 E6.9209
G1 X118.781 Y120.244 E7.0139
G1 X119.841 Y119.184 E7.1037
G1 X120.808 Y117.968 E7.1967
G1 X121.627 Y116.648 E7.2897
G1 X122.264 Y115.299 E7.3790
G1 X122.404 Y114.912 E7.4037
G1 X122.846 Y114.968 E7.4303
G1 X123.643 Y114.935 E7.4781
G1 X124.430 Y114.766 E7.5263
G1 X125.173 Y114.467 E7.5742
G1 X125.856 Y114.047 E7.6222
G1 X126.457 Y113.518 E7.6702
G1 X126.960 Y112.894 E7.7181
G1 X127.351 Y112.195 E7.7661
G1 X127.618 Y111.440 E7.8140
G1 X127.753 Y110.651 E7.8620
G1 X127.753 Y109.854 E7.9096
G1 X127.620 Y109.070 E7.9572
G1 X127.355 Y108.315 E8.0052
G1 X126.968 Y107.619 E8.0528
G1 X126.458 Y106.983 E8.1017
G1 X125.871 Y106.466 E8.1485
G1 X125.177 Y106.034 E8.1974
G1 X124.433 Y105.735 E8.2454
G1 X123.654 Y105.567 E8.2931
G1 X122.853 Y105.532 E8.3411
G1 X122.404 Y105.589 E8.3682
G1 X122.264 Y105.201 E8.3929
G1 X121.627 Y103.852 E8.4822
G1 X120.808 Y102.532 E8.5752
G1 X119.848 Y101.325 E8.6675
G1 X118.781 Y100.256 E8.7579
G1 X117.565 Y99.289 E8.8510
G1 X116.245 Y98.470 E8.9440
G1 X114.896 Y97.833 E9.0333
G1 X114.508 Y97.693 E9.0580
G1 X114.553 Y97.455 E9.0724
G1 X114.552 Y96.649 E9.1207
G1 X114.417 Y95.860 E9.1686
G1 X114.150 Y95.104 E9.2166
G1 X113.759 Y94.405 E9.2645
G1 X113.256 Y93.782 E9.3125
G1 X112.655 Y93.253 E9.3604
G1 X111.973 Y92.833 E9.4084
G1 X111.230 Y92.534 E9.4564
G1 X110.447 Y92.365 E9.5043
G1 X109.647 Y92.332 E9.5523
G1 X108.853 Y92.433 E9.6001
G1 X108.086 Y92.667 E9.6481
G1 X107.375 Y93.025 E9.6958
G1 X106.732 Y93.500 E9.7437
G1 X106.180 Y94.074 E9.7914
G1 X105.725 Y94.746 E9.8399
G1 X105.394 Y95.476 E9.8879
G1 X105.192 Y96.251 E9.9359
G1 X105.124 Y97.049 E9.9838
G1 X105.179 Y97.694 E10.0226
G1 X104.824 Y97.823 E10.0452
G1 X103.449 Y98.470 E10.1361
G1 X102.129 Y99.289 E10.2292
G1 X100.913 Y100.256 E10.3222
G1 X99.846 Y101.325 E10.4126
G1 X98.886 Y102.532 E10.5049
G1 X98.067 Y103.852 E10.5979
G1 X97.430 Y105.201 E10.6873
G1 X97.297 Y105.568 E10.7106
G1 X96.446 Y105.532 E10.7616
G1 X95.652 Y105.634 E10.8096
G1 X94.886 Y105.868 E10.8575
G1 X94.171 Y106.229 E10.9055
G1 X93.527 Y106.705 E10.9534
G1 X92.972 Y107.283 E11.0014
G1 X92.524 Y107.947 E11.0493
G1 X92.194 Y108.677 E11.0973
G1 X92.037 Y109.279 E11.1346
G1 X89.679 Y110.323 E11.2889
G1 X86.864 Y109.756 E11.4608
G1 X86.864 Y109.203 E11.4939
G1 X87.055 Y107.117 E11.6193
G1 X87.434 Y105.058 E11.7447
G1 X87.999 Y103.041 E11.8701
G1 X88.745 Y101.084 E11.9955
G1 X89.666 Y99.203 E12.1208
G1 X90.754 Y97.414 E12.2462
G1 X92.001 Y95.731 E12.3716
G1 X93.395 Y94.168 E12.4970
G92 E0
G1 E-1.0000 F3400
G1 X93.145 Y113.395 F4200
G1 E0.0000 F3400
G92 E0
G1 X93.526 Y113.794 E0.0330 F1995
G1 X94.170 Y114.271 E0.0810
G1 X94.883 Y114.631 E0.1288
G1 X95.646 Y114.865 E0.1766
G1 X96.439 Y114.968 E0.2245
G1 X97.297 Y114.932 E0.2759
G1 X97.430 Y115.299 E0.2993
G1 X98.067 Y116.648 E0.3886
G1 X98.886 Y117.968 E0.4816
G1 X99.853 Y119.184 E0.5746
G1 X100.913 Y120.244 E0.6643
G1 X102.129 Y121.211 E0.7573
G1 X103.449 Y122.030 E0.8504
G1 X104.824 Y122.677 E0.9413
G1 X105.179 Y122.806 E0.9640
G1 X105.125 Y123.445 E1.0024
G1 X105.192 Y124.248 E1.0506
G1 X105.391 Y125.015 E1.0980
G1 X105.724 Y125.753 E1.1465
G1 X106.170 Y126.414 E1.1943
G1 X106.594 Y126.857 E1.2310
G1 X106.456 Y127.130 E1.2493
G1 X105.477 Y127.000 E1.3084
G1 X102.861 Y126.037 E1.4753
G1 X102.057 Y128.223 E1.6148
G1 X101.910 Y128.588 E1.6384
G1 X101.042 Y128.326 E1.6927
G1 X102.453 Y125.902 E1.8606
G1 X99.931 Y124.436 E2.0352
G1 X99.848 Y124.579 E2.0451
G1 X99.571 Y124.551 E2.0618
G1 X99.447 Y124.187 E2.0848
G1 X99.304 Y123.900 E2.1040
G1 X99.103 Y123.618 E2.1247
G1 X98.752 Y123.284 E2.1537
G1 X98.490 Y123.116 E2.1724
G1 X98.431 Y123.090 E2.1762
G1 X96.562 Y121.407 E2.3268
G1 X96.322 Y121.323 E2.3420
G1 X96.310 Y121.100 E2.3554
G1 X96.250 Y120.832 E2.3718
G1 X96.148 Y120.569 E2.3887
G1 X96.006 Y120.320 E2.4059
G1 X95.882 Y120.150 E2.4185
G1 X95.663 Y119.919 E2.4375
G1 X95.636 Y119.899 E2.4395
G1 X94.205 Y117.745 E2.5944
G1 X94.186 Y117.757 E2.5957
G1 X93.948 Y117.602 E2.6127
G1 X94.002 Y117.286 E2.6319
G1 X94.003 Y117.017 E2.6480
G1 X93.959 Y116.734 E2.6651
G1 X93.868 Y116.419 E2.6848
G1 X93.741 Y116.132 E2.7035
G1 X93.609 Y115.923 E2.7184
G1 X92.907 Y113.962 E2.8431
G1 X92.865 Y113.523 E2.8695
G1 X93.145 Y113.395 E2.8879
G1 X90.729 Y113.921 F4200
G92 E0
G1 X90.753 Y114.249 E0.0197 F1995
G1 X87.433 Y115.437 E0.2308
G1 X87.343 Y114.946 E0.2607
G1 X90.028 Y113.782 E0.4359
G1 X90.729 Y113.921 E0.4787
G92 E0
G1 E-1.0000 F3400
G1 X91.358 Y119.179 F4200
G1 E0.0000 F3400
G92 E0
G1 X91.530 Y119.521 E0.0229 F1995
G1 X89.468 Y120.892 E0.1712
G1 X89.038 Y120.013 E0.2297
G1 X91.358 Y119.179 E0.3773
G92 E0
G1 E-1.0000 F3400
G1 X91.903 Y124.087 F4200
G1 E0.0000 F3400
G92 E0
G1 X92.134 Y124.197 E0.0153 F1995
G1 X92.386 Y124.272 E0.0311
G1 X92.667 Y124.302 E0.0480
G1 X93.033 Y124.242 E0.0702
G1 X93.391 Y124.080 E0.0937
G1 X93.758 Y123.856 E0.1194
G1 X94.137 Y123.604 E0.1467
G1 X94.386 Y123.872 E0.1686
G1 X93.873 Y124.540 E0.2190
G1 X93.741 Y124.775 E0.2352
G1 X93.655 Y125.010 E0.2501
G1 X93.610 Y125.408 E0.2741
G1 X93.638 Y125.683 E0.2907
G1 X93.714 Y125.987 E0.3094
G1 X93.837 Y126.276 E0.3283
G1 X93.551 Y126.477 E0.3492
G1 X93.395 Y126.332 E0.3620
G1 X92.001 Y124.769 E0.4874
G1 X91.689 Y124.348 E0.5187
G1 X91.903 Y124.087 E0.5389
G1 X95.595 Y127.849 F4200
G92 E0
G1 X96.055 Y127.961 E0.0283 F1995
G1 X96.377 Y127.989 E0.0477
G1 X96.637 Y127.969 E0.0633
G1 X96.892 Y127.909 E0.0790
G1 X97.251 Y127.722 E0.1032
G1 X97.475 Y127.957 E0.1226
G1 X97.092 Y128.614 E0.1681
G1 X96.760 Y129.185 E0.2077
G1 X95.444 Y128.163 E0.3074
G1 X95.595 Y127.849 E0.3283
G92 E0
G1 E-1.0000 F3400
G1 X104.447 Y130.195 F4200
G1 E0.0000 F3400
G92 E0
G1 X104.817 Y130.280 E0.0228 F1995
G1 X104.757 Y130.893 E0.0596
G1 X104.767 Y131.269 E0.0821
G1 X104.823 Y131.539 E0.0987
G1 X105.006 Y131.912 E0.1235
G1 X105.186 Y132.134 E0.1407
G1 X105.432 Y132.356 E0.1605
G1 X105.637 Y132.488 E0.1750
G1 X105.501 Y132.820 E0.1966
G1 X104.146 Y132.539 E0.2794
G1 X103.641 Y132.385 E0.3110
G1 X104.447 Y130.195 E0.4507
G92 E0
G1 E-1.0000 F3400
G1 X108.010 Y132.839 F4200
G1 E0.0000 F3400
G92 E0
G1 X108.478 Y132.663 E0.0299 F1995
G1 X108.763 Y132.500 E0.0496
G1 X108.956 Y132.343 E0.0645
G1 X109.115 Y132.166 E0.0787
G1 X109.241 Y131.969 E0.0928
G1 X109.420 Y131.571 E0.1189
G1 X109.748 Y131.625 E0.1388
G1 X109.904 Y133.240 E0.2359
G1 X108.277 Y133.203 E0.3333
G1 X108.052 Y133.177 E0.3469
G1 X108.010 Y132.839 E0.3672
G1 X109.685 Y129.693 F4200
G92 E0
G1 X109.767 Y129.048 E0.0389 F1995
G1 X109.767 Y128.676 E0.0612
G1 X109.650 Y128.168 E0.0924
G1 X110.487 Y128.133 E0.1425
G1 X110.628 Y129.602 E0.2309
G1 X109.685 Y129.693 E0.2876
G92 E0
G1 E-1.0000 F3400
G1 X121.623 Y126.103 F4200
G1 E0.0000 F3400
G92 E0
G1 X121.924 Y125.802 E0.0255 F1995
G1 X122.074 Y125.948 E0.0380
G1 X122.358 Y126.160 E0.0593
G1 X122.626 Y126.301 E0.0774
G1 X122.913 Y126.373 E0.0951
G1 X122.948 Y126.495 E0.1027
G1 X123.061 Y126.709 E0.1172
G1 X123.257 Y126.971 E0.1368
G1 X123.689 Y127.378 E0.1723
G1 X124.015 Y127.603 E0.1960
G1 X124.599 Y127.875 E0.2346
G1 X123.915 Y128.457 E0.2884
G1 X121.623 Y126.103 E0.4851
; outer perimeter
G1 X122.615 Y125.753 F4200
G92 E0
G1 X122.799 Y125.850 E0.0124 F1890
G1 X123.089 Y125.922 E0.0304
G1 X123.278 Y125.904 E0.0417
G1 X123.396 Y126.315 E0.0673
G1 X123.468 Y126.451 E0.0766
G1 X123.617 Y126.650 E0.0914
G1 X123.991 Y127.003 E0.1222
G1 X124.254 Y127.184 E0.1414
G1 X124.469 Y127.284 E0.1555
G1 X124.635 Y127.332 E0.1659
G1 X124.812 Y127.352 E0.1765
G1 X125.021 Y127.345 E0.1891
G1 X125.217 Y127.306 E0.2010
G1 X125.418 Y127.233 E0.2138
G1 X125.629 Y127.116 E0.2283
G1 X125.851 Y127.438 E0.2517
G1 X124.251 Y128.802 E0.3776
G1 X122.504 Y130.035 E0.5056
G1 X120.652 Y131.104 E0.6336
G1 X118.711 Y132.000 E0.7616
G1 X116.697 Y132.716 E0.8896
G1 X114.625 Y133.246 E1.0176
G1 X113.511 Y133.425 E1.0851
G1 X112.963 Y127.730 E1.4277
