; G-Code generated by Simplify3D(R) Version 4.0.0
; Oct 21, 2019 at 3:05:53 PM
; Settings Summary
;   processName,Process2
;   applyToModels,Chinese_dragon
;   profileName,Default(2) (modified)
;   profileVersion,2019-07-27 15:21:07
;   baseProfile,
;   printMaterial,PLA
;   printQuality,Medium
;   printExtruders,
;   extruderName,Primary Extruder
;   extruderToolheadNumber,0
;   extruderDiameter,0.4
;   extruderAutoWidth,1
;   extruderWidth,0.48
;   extrusionMultiplier,0.9
;   extruderUseRetract,1
;   extruderRetractionDistance,1
;   extruderExtraRestartDistance,0
;   extruderRetractionZLift,0
;   extruderRetractionSpeed,1800
;   extruderUseCoasting,0
;   extruderCoastingDistance,0.2
;   extruderUseWipe,0
;   extruderWipeDistance,5
;   primaryExtruder,0
;   layerHeight,0.3
;   topSolidLayers,3
;   bottomSolidLayers,2
;   perimeterOutlines,2
;   printPerimetersInsideOut,1
;   startPointOption,2
;   startPointOriginX,0
;   startPointOriginY,0
;   sequentialIslands,0
;   spiralVaseMode,0
;   firstLayerHeightPercentage,90
;   firstLayerWidthPercentage,100
;   firstLayerUnderspeed,0.5
;   useRaft,0
;   raftExtruder,0
;   raftTopLayers,3
;   raftBaseLayers,2
;   raftOffset,3
;   raftSeparationDistance,0.14
;   raftTopInfill,100
;   aboveRaftSpeedMultiplier,0.3
;   useSkirt,0
;   skirtExtruder,0
;   skirtLayers,1
;   skirtOutlines,2
;   skirtOffset,4
;   usePrimePillar,0
;   primePillarExtruder,999
;   primePillarWidth,12
;   primePillarLocation,7
;   primePillarSpeedMultiplier,1
;   useOozeShield,0
;   oozeShieldExtruder,999
;   oozeShieldOffset,2
;   oozeShieldOutlines,1
;   oozeShieldSidewallShape,1
;   oozeShieldSidewallAngle,30
;   oozeShieldSpeedMultiplier,1
;   infillExtruder,0
;   internalInfillPattern,Rectilinear
;   externalInfillPattern,Rectilinear
;   infillPercentage,10
;   outlineOverlapPercentage,15
;   infillExtrusionWidthPercentage,100
;   minInfillLength,5
;   infillLayerInterval,1
;   internalInfillAngles,45,-45
;   overlapInternalInfillAngles,0
;   externalInfillAngles,45,-45
;   generateSupport,0
;   supportExtruder,0
;   supportInfillPercentage,30
;   supportExtraInflation,0
;   supportBaseLayers,0
;   denseSupportExtruder,0
;   denseSupportLayers,0
;   denseSupportInfillPercentage,70
;   supportLayerInterval,1
;   supportHorizontalPartOffset,0.3
;   supportUpperSeparationLayers,1
;   supportLowerSeparationLayers,1
;   supportType,0
;   supportGridSpacing,4
;   maxOverhangAngle,45
;   supportAngles,0
;   temperatureName,Primary Extruder,Hot Bed
;   temperatureNumber,0,1
;   temperatureSetpointCount,1,1
;   temperatureSetpointLayers,1,1
;   temperatureSetpointTemperatures,200,60
;   temperatureStabilizeAtStartup,1,0
;   temperatureHeatedBed,0,1
;   temperatureRelayBetweenLayers,0,0
;   temperatureRelayBetweenLoops,0,0
;   fanLayers,1,2
;   fanSpeeds,0,100
;   blipFanToFullPower,0
;   adjustSpeedForCooling,1
;   minSpeedLayerTime,15
;   minCoolingSpeedSlowdown,20
;   increaseFanForCooling,0
;   minFanLayerTime,45
;   maxCoolingFanSpeed,100
;   increaseFanForBridging,0
;   bridgingFanSpeed,100
;   use5D,1
;   relativeEdistances,0
;   allowEaxisZeroing,1
;   independentExtruderAxes,0
;   includeM10123,0
;   stickySupport,1
;   applyToolheadOffsets,0
;   gcodeXoffset,-9
;   gcodeYoffset,-4
;   gcodeZoffset,0
;   overrideMachineDefinition,0
;   machineTypeOverride,0
;   strokeXoverride,200
;   strokeYoverride,200
;   strokeZoverride,200
;   originOffsetXoverride,0
;   originOffsetYoverride,0
;   originOffsetZoverride,0
;   homeXdirOverride,-1
;   homeYdirOverride,-1
;   homeZdirOverride,-1
;   flipXoverride,1
;   flipYoverride,-1
;   flipZoverride,1
;   toolheadOffsets,0,0|0,0|0,0|0,0|0,0|0,0
;   overrideFirmwareConfiguration,0
;   firmwareTypeOverride,RepRap (Marlin/Repetier/Sprinter)
;   GPXconfigOverride,r2
;   baudRateOverride,115200
;   overridePrinterModels,0
;   printerModelsOverride
;   startingGcode,G28 ; home all axes,G1 X2 Y15 Z0.2 F3000 ; get ready to prime,G92 E0 ; reset extrusion distance,G1 Y150 E20 F600 ; prime nozzle
;   layerChangeGcode,
;   retractionGcode,
;   toolChangeGcode,
;   endingGcode,M104 S0 ; turn off extruder,M140 S0 ; turn off bed,G28 X Y ; home X & Y,M84 ; disable motors
;   exportFileFormat,gcode
;   celebration,0
;   celebrationSong,Random Song
;   postProcessing,
;   defaultSpeed,3000
;   outlineUnderspeed,0.5
;   solidInfillUnderspeed,0.8
;   supportUnderspeed,0.8
;   rapidXYspeed,4800
;   rapidZspeed,1000
;   minBridgingArea,50
;   bridgingExtraInflation,0
;   bridgingExtrusionMultiplier,1
;   bridgingSpeedMultiplier,1
;   useFixedBridgingAngle,0
;   fixedBridgingAngle,0
;   applyBridgingToPerimeters,0
;   filamentDiameters,1.75|1.75|1.75|1.75|1.75|1.75
;   filamentPricesPerKg,46|46|46|46|46|46
;   filamentDensities,1.25|1.25|1.25|1.25|1.25|1.25
;   useMinPrintHeight,0
;   minPrintHeight,0
;   useMaxPrintHeight,0
;   maxPrintHeight,0
;   useDiaphragm,0
;   diaphragmLayerInterval,20
;   robustSlicing,1
;   mergeAllIntoSolid,0
;   onlyRetractWhenCrossingOutline,1
;   retractBetweenLayers,1
;   useRetractionMinTravel,0
;   retractionMinTravel,3
;   retractWhileWiping,0
;   onlyWipeOutlines,1
;   avoidCrossingOutline,0
;   maxMovementDetourFactor,3
;   toolChangeRetractionDistance,12
;   toolChangeExtraRestartDistance,-0.5
;   toolChangeRetractionSpeed,600
;   externalThinWallType,1
;   internalThinWallType,1
;   thinWallAllowedOverlapPercentage,10
;   singleExtrusionMinLength,1
;   singleExtrusionMinPrintingWidthPercentage,50
;   singleExtrusionMaxPrintingWidthPercentage,200
;   singleExtrusionEndpointExtension,0.2
;   horizontalSizeCompensation,0
G90
M82
M106 S0
M140 S60
M104 S200 T0
M109 S200 T0
G28 ; home all axes
G1 X2 Y15 Z0.2 F3000 ; get ready to prime
G92 E0 ; reset extrusion distance
G1 Y150 E20 F600 ; prime nozzle
G92 E0
G1 E-1.0000 F1800
G1 Z0.270 F1000
; process Process2
; layer 1, Z = 0.270
T0
; tool H0.300 W0.480
; inner perimeter
G1 X72.110 Y38.220 F4800
G1 E0.0000 F540
G92 E0
G1 X92.658 Y38.220 E1.1071 F1125
G1 X92.766 Y38.493 E1.1229
G1 X92.728 Y38.528 E1.1257
G1 X93.265 Y40.247 E1.2228
G1 X93.571 Y41.171 E1.2752
G1 X93.612 Y41.780 E1.3081
G1 X93.622 Y42.508 E1.3473
G1 X93.392 Y42.632 E1.3614
G1 X92.570 Y42.083 E1.4147
G1 X91.693 Y42.156 E1.4620
G1 X90.976 Y42.601 E1.5075
G1 X89.559 Y43.674 E1.6033
G1 X89.070 Y44.008 E1.6352
G1 X87.752 Y43.712 E1.7080
G1 X86.255 Y43.462 E1.7898
G1 X85.558 Y43.506 E1.8274
G1 X84.922 Y43.739 E1.8639
G1 X84.381 Y44.165 E1.9010
G1 X83.917 Y44.746 E1.9411
G1 X82.252 Y47.735 E2.1254
G1 X81.642 Y48.574 E2.1813
G1 X81.036 Y49.077 E2.2237
G1 X80.152 Y49.500 E2.2766
G1 X77.783 Y50.562 E2.4164
G1 X76.872 Y51.069 E2.4726
G1 X76.277 Y51.533 E2.5133
G1 X76.006 Y51.983 E2.5416
G1 X75.949 Y52.525 E2.5709
G1 X76.246 Y53.608 E2.6314
G1 X76.694 Y54.592 E2.6897
G1 X77.282 Y55.453 E2.7459
G1 X77.081 Y55.813 E2.7681
G1 X76.786 Y56.067 E2.7891
G1 X75.345 Y56.908 E2.8790
G1 X74.307 Y57.488 E2.9431
G1 X73.523 Y58.133 E2.9978
G1 X73.150 Y59.017 E3.0494
G1 X73.098 Y60.000 E3.1025
G1 X73.301 Y61.092 E3.1624
G1 X73.716 Y62.294 E3.2309
G1 X74.126 Y63.552 E3.3022
G1 X74.270 Y64.393 E3.3481
G1 X74.157 Y65.067 E3.3849
G1 X73.831 Y65.867 E3.4315
G1 X73.396 Y66.549 E3.4751
G1 X72.909 Y66.991 E3.5105
G1 X72.354 Y67.431 E3.5487
G1 X72.110 Y67.313 E3.5633
G1 X72.110 Y38.220 E5.1308
G92 E0
G1 E-1.0000 F1800
G1 X86.971 Y49.199 F4800
G1 E0.0000 F1800
G92 E0
G1 X87.232 Y49.079 E0.0155 F1125
G1 X88.670 Y48.717 E0.0954
G1 X92.531 Y48.210 E0.3052
G1 X93.160 Y47.892 E0.3432
G1 X93.575 Y47.477 E0.3748
G1 X93.849 Y47.605 E0.3911
G1 X93.717 Y49.059 E0.4698
G1 X93.538 Y50.128 E0.5282
G1 X93.281 Y50.796 E0.5668
G1 X93.006 Y50.815 E0.5816
G1 X92.704 Y50.270 E0.6152
G1 X91.917 Y49.999 E0.6600
G1 X91.109 Y49.995 E0.7036
G1 X90.087 Y49.926 E0.7587
G1 X88.780 Y49.722 E0.8301
G1 X87.353 Y49.531 E0.9076
G1 X87.055 Y49.545 E0.9237
G1 X86.971 Y49.199 E0.9429
G92 E0
G1 E-1.0000 F1800
G1 X89.264 Y54.636 F4800
G1 E0.0000 F1800
G92 E0
G1 X90.587 Y56.135 E0.1078 F1125
G1 X90.927 Y56.455 E0.1329
G1 X90.666 Y56.616 E0.1495
G1 X90.350 Y57.005 E0.1765
G1 X90.269 Y57.174 E0.1866
G1 X90.004 Y57.180 E0.2008
G1 X89.911 Y57.007 E0.2114
G1 X88.826 Y57.199 E0.2708
G1 X88.982 Y56.760 E0.2959
G1 X89.092 Y56.121 E0.3308
G1 X89.093 Y55.483 E0.3652
G1 X88.969 Y54.778 E0.4038
G1 X89.264 Y54.636 E0.4214
G92 E0
G1 E-1.0000 F1800
G1 X86.485 Y58.835 F4800
G1 E0.0000 F1800
G92 E0
G1 X86.019 Y59.243 E0.0334 F1125
G1 X85.250 Y60.257 E0.1020
G1 X84.984 Y60.864 E0.1377
G1 X83.387 Y62.731 E0.2700
G1 X82.716 Y63.582 E0.3285
G1 X82.184 Y64.460 E0.3837
G1 X81.829 Y65.322 E0.4340
G1 X81.746 Y65.820 E0.4612
G1 X81.380 Y65.820 E0.4809
G1 X81.229 Y64.908 E0.5307
G1 X81.173 Y63.825 E0.5891
G1 X81.219 Y62.601 E0.6551
G1 X81.370 Y61.256 E0.7281
G1 X81.628 Y59.810 E0.8072
G1 X81.995 Y58.271 E0.8924
G1 X82.547 Y56.194 E1.0082
G1 X83.113 Y56.421 E1.0411
G1 X84.376 Y56.494 E1.1093
G1 X84.527 Y56.550 E1.1179
G1 X84.679 Y56.720 E1.1302
G1 X85.417 Y58.037 E1.2116
G1 X85.872 Y58.597 E1.2505
G1 X86.485 Y58.835 E1.2859
G92 E0
G1 E-1.0000 F1800
G1 X96.282 Y52.729 F4800
G1 E0.0000 F1800
G92 E0
G1 X96.463 Y52.082 E0.0362 F1125
G1 X96.557 Y51.301 E0.0786
G1 X96.533 Y50.513 E0.1211
G1 X96.389 Y49.735 E0.1637
G1 X96.123 Y48.985 E0.2066
G1 X95.748 Y48.312 E0.2481
G1 X94.865 Y47.004 E0.3331
G1 X94.087 Y47.204 E0.3764
G1 X93.914 Y46.971 E0.3921
G1 X94.184 Y46.523 E0.4203
G1 X94.254 Y46.165 E0.4399
G1 X94.501 Y46.089 E0.4538
G1 X95.130 Y46.709 E0.5014
G1 X95.119 Y46.750 E0.5037
G1 X95.147 Y46.727 E0.5057
G1 X95.206 Y46.784 E0.5101
G1 X96.452 Y45.289 E0.6150
G1 X97.034 Y44.245 E0.6794
G1 X97.182 Y43.041 E0.7447
G1 X97.086 Y42.124 E0.7944
G1 X96.833 Y41.214 E0.8453
G1 X96.455 Y40.364 E0.8954
G1 X95.958 Y39.624 E0.9435
G1 X94.813 Y38.640 E1.0248
G1 X94.643 Y38.527 E1.0358
G1 X94.736 Y38.220 E1.0531
G1 X152.890 Y38.220 E4.1865
G1 X152.890 Y65.641 E5.6640
G1 X152.509 Y65.687 E5.6846
G1 X152.442 Y65.412 E5.6999
G1 X152.136 Y64.664 E5.7434
G1 X151.725 Y63.989 E5.7860
G1 X151.217 Y63.396 E5.8281
G1 X150.620 Y62.898 E5.8699
G1 X149.945 Y62.507 E5.9120
G1 X149.203 Y62.234 E5.9546
G1 X148.431 Y62.093 E5.9969
G1 X147.661 Y62.027 E6.0385
G1 X147.083 Y62.111 E6.0700
G1 X146.632 Y62.854 E6.1168
G1 X147.128 Y63.676 E6.1685
G1 X147.837 Y64.522 E6.2281
G1 X148.277 Y65.188 E6.2711
G1 X148.654 Y65.975 E6.3181
G1 X148.915 Y66.690 E6.3591
G1 X149.147 Y67.107 E6.3848
G1 X148.624 Y67.156 E6.4131
G1 X148.095 Y67.407 E6.4447
G1 X147.946 Y67.588 E6.4573
G1 X147.433 Y67.359 E6.4876
G1 X145.565 Y67.143 E6.5889
G1 X145.061 Y67.019 E6.6169
G1 X144.561 Y66.796 E6.6464
G1 X142.057 Y65.315 E6.8031
G1 X141.521 Y65.707 E6.8389
G1 X141.327 Y64.948 E6.8811
G1 X141.018 Y64.188 E6.9253
G1 X140.605 Y63.554 E6.9661
G1 X140.065 Y63.067 E7.0053
G1 X139.404 Y62.779 E7.0441
G1 X138.682 Y62.718 E7.0832
G1 X137.931 Y62.858 E7.1243
G1 X137.112 Y63.228 E7.1728
G1 X136.738 Y63.576 E7.2003
G1 X136.469 Y64.022 E7.2284
G1 X136.344 Y64.617 E7.2611
G1 X135.984 Y64.607 E7.2805
G1 X135.872 Y63.887 E7.3198
G1 X135.485 Y63.028 E7.3706
G1 X135.007 Y62.151 E7.4244
G1 X134.487 Y61.449 E7.4714
G1 X134.243 Y61.404 E7.4848
G1 X134.179 Y60.675 E7.5243
G1 X133.802 Y59.606 E7.5854
G1 X133.429 Y58.814 E7.6325
G1 X132.967 Y58.121 E7.6774
G1 X132.419 Y57.548 E7.7201
G1 X131.790 Y57.108 E7.7615
G1 X131.089 Y56.821 E7.8023
G1 X130.338 Y56.702 E7.8433
G1 X129.562 Y56.757 E7.8852
G1 X129.008 Y56.915 E7.9162
G1 X129.113 Y56.326 E7.9485
G1 X128.716 Y55.597 E7.9932
G1 X128.056 Y54.991 E8.0415
G1 X127.276 Y54.511 E8.0909
G1 X126.434 Y54.232 E8.1386
G1 X125.580 Y54.155 E8.1849
G1 X124.748 Y54.277 E8.2302
G1 X123.975 Y54.591 E8.2751
G1 X123.300 Y55.094 E8.3205
G1 X122.769 Y55.773 E8.3669
G1 X122.506 Y56.412 E8.4042
G1 X122.229 Y56.423 E8.4191
G1 X122.166 Y56.298 E8.4266
G1 X121.612 Y55.446 E8.4814
G1 X121.010 Y54.760 E8.5305
G1 X120.342 Y54.249 E8.5759
G1 X119.599 Y53.944 E8.6191
G1 X119.070 Y53.907 E8.6477
G1 X118.923 Y52.956 E8.6996
G1 X117.895 Y52.029 E8.7742
G1 X116.655 Y51.215 E8.8541
G1 X115.388 Y50.615 E8.9296
G1 X114.080 Y50.227 E9.0031
G1 X112.743 Y50.055 E9.0758
G1 X111.246 Y50.072 E9.1564
G1 X110.667 Y50.257 E9.1892
G1 X110.067 Y50.666 E9.2283
G1 X109.943 Y49.689 E9.2814
G1 X108.927 Y49.447 E9.3377
G1 X107.855 Y49.372 E9.3956
G1 X106.951 Y49.418 E9.4443
G1 X106.098 Y49.583 E9.4911
G1 X105.315 Y49.862 E9.5359
G1 X104.619 Y50.249 E9.5788
G1 X104.026 Y50.743 E9.6204
G1 X103.709 Y51.151 E9.6483
G1 X103.408 Y50.717 E9.6767
G1 X102.801 Y50.521 E9.7111
G1 X101.944 Y50.486 E9.7573
G1 X100.923 Y50.633 E9.8129
G1 X99.875 Y50.911 E9.8713
G1 X98.937 Y51.295 E9.9259
G1 X98.352 Y51.656 E9.9629
G1 X97.857 Y52.094 E9.9986
G1 X97.460 Y52.596 E10.0330
G1 X97.253 Y52.989 E10.0570
G1 X96.282 Y52.729 E10.1111
G92 E0
G1 E-1.0000 F1800
G1 X99.378 Y62.069 F4800
G1 E0.0000 F1800
G92 E0
G1 X99.894 Y61.943 E0.0286 F1125
G1 X100.397 Y61.942 E0.0557
G1 X100.609 Y62.345 E0.0803
G1 X100.798 Y63.154 E0.1250
G1 X100.327 Y63.060 E0.1509
G1 X99.688 Y63.120 E0.1855
G1 X98.706 Y63.415 E0.2407
G1 X98.265 Y63.707 E0.2692
G1 X98.015 Y63.465 E0.2880
G1 X98.301 Y63.005 E0.3171
G1 X98.608 Y62.570 E0.3458
G1 X98.948 Y62.281 E0.3699
G1 X99.378 Y62.069 E0.3957
G92 E0
G1 E-1.0000 F1800
G1 X100.599 Y66.471 F4800
G1 E0.0000 F1800
G92 E0
G1 X101.322 Y66.239 E0.0409 F1125
G1 X101.977 Y65.777 E0.0841
G1 X102.221 Y66.044 E0.1036
G1 X103.091 Y66.565 E0.1583
G1 X103.248 Y66.607 E0.1670
G1 X103.270 Y66.913 E0.1835
G1 X102.424 Y67.280 E0.2332
G1 X101.227 Y67.973 E0.3078
G1 X100.463 Y68.495 E0.3576
G1 X99.934 Y69.067 E0.3996
G1 X99.916 Y69.930 E0.4461
G1 X99.623 Y70.015 E0.4625
G1 X98.352 Y70.649 E0.5390
G1 X97.195 Y71.607 E0.6200
G1 X96.219 Y72.821 E0.7039
G1 X95.484 Y74.211 E0.7887
G1 X95.001 Y75.372 E0.8564
G1 X95.575 Y76.045 E0.9041
G1 X95.986 Y75.945 E0.9269
G1 X96.152 Y76.205 E0.9435
G1 X95.918 Y76.499 E0.9638
G1 X95.444 Y77.690 E1.0328
G1 X95.415 Y78.203 E1.0605
G1 X95.529 Y78.740 E1.0900
G1 X95.982 Y79.714 E1.1479
G1 X96.688 Y80.682 E1.2125
G1 X97.557 Y81.506 E1.2770
G1 X98.376 Y82.026 E1.3293
G1 X98.772 Y82.217 E1.3530
G1 X98.738 Y82.521 E1.3695
G1 X97.693 Y82.762 E1.4273
G1 X97.634 Y83.842 E1.4855
G1 X98.096 Y84.005 E1.5120
G1 X98.041 Y84.360 E1.5313
G1 X97.472 Y84.376 E1.5620
G1 X95.361 Y84.576 E1.6762
G1 X93.549 Y84.892 E1.7753
G1 X92.177 Y85.313 E1.8526
G1 X90.738 Y85.934 E1.9371
G1 X90.931 Y87.051 E1.9982
G1 X93.594 Y87.229 E2.1420
G1 X97.054 Y87.536 E2.3292
G1 X100.427 Y87.951 E2.5123
G1 X103.433 Y88.431 E2.6763
G1 X107.281 Y89.249 E2.8883
G1 X107.000 Y89.651 E2.9147
G1 X106.725 Y90.312 E2.9533
G1 X106.611 Y91.023 E2.9921
G1 X106.700 Y91.755 E3.0318
G1 X107.023 Y92.409 E3.0711
G1 X107.496 Y92.947 E3.1097
G1 X108.025 Y93.358 E3.1458
G1 X108.610 Y93.654 E3.1811
G1 X109.233 Y93.832 E3.2160
G1 X109.875 Y93.888 E3.2508
G1 X110.519 Y93.815 E3.2857
G1 X111.144 Y93.610 E3.3211
G1 X111.885 Y93.177 E3.3673
G1 X111.901 Y93.542 E3.3870
G1 X112.275 Y94.465 E3.4407
G1 X112.986 Y95.238 E3.4973
G1 X113.998 Y95.745 E3.5582
G1 X114.718 Y95.869 E3.5976
G1 X115.775 Y95.810 E3.6546
G1 X115.334 Y96.722 E3.7092
G1 X115.218 Y97.538 E3.7536
G1 X115.358 Y98.353 E3.7982
G1 X115.741 Y99.109 E3.8438
G1 X116.343 Y99.764 E3.8918
G1 X117.186 Y100.319 E3.9461
G1 X117.952 Y100.494 E3.9884
G1 X118.787 Y100.398 E4.0338
G1 X119.572 Y100.101 E4.0790
G1 X120.218 Y99.583 E4.1236
G1 X120.502 Y98.988 E4.1591
G1 X120.781 Y98.994 E4.1741
G1 X120.972 Y99.444 E4.2004
G1 X121.431 Y100.162 E4.2464
G1 X122.064 Y100.665 E4.2900
G1 X122.838 Y100.995 E4.3353
G1 X123.334 Y101.186 E4.3639
G1 X123.473 Y101.274 E4.3728
G1 X123.972 Y103.420 E4.4915
G1 X124.301 Y104.092 E4.5318
G1 X124.752 Y104.556 E4.5666
G1 X125.378 Y104.903 E4.6052
G1 X126.059 Y104.987 E4.6422
G1 X126.719 Y104.773 E4.6796
G1 X127.866 Y104.092 E4.7514
G1 X128.030 Y104.060 E4.7604
G1 X128.207 Y104.128 E4.7707
G1 X128.720 Y104.544 E4.8063
G1 X129.419 Y105.074 E4.8535
G1 X130.217 Y105.377 E4.8995
G1 X131.059 Y105.343 E4.9449
G1 X131.904 Y105.013 E4.9938
G1 X132.559 Y104.522 E5.0379
G1 X133.057 Y103.853 E5.0828
G1 X133.370 Y103.069 E5.1283
G1 X133.478 Y102.226 E5.1741
G1 X133.428 Y101.675 E5.2039
