; G-Code generated by Simplify3D(R) Version 4.0.0
; May 2, 2018 at 7:06:45 PM
; Settings Summary
;   processName,nozzle 0.4
;   applyToModels,copple,copple(2),copple(3),copple(4)
;   profileName,Flying Bear 902 Update 7-2017 (modified)
;   profileVersion,2017-07-10 09:45:20
;   baseProfile,Default
;   printMaterial,PLA
;   printQuality,Medium
;   printExtruders,
;   extruderName,Extruder 1
;   extruderToolheadNumber,0
;   extruderDiameter,0.4
;   extruderAutoWidth,1
;   extruderWidth,0.48
;   extrusionMultiplier,0.9
;   extruderUseRetract,1
;   extruderRetractionDistance,2
;   extruderExtraRestartDistance,0
;   extruderRetractionZLift,0
;   extruderRetractionSpeed,3000
;   extruderUseCoasting,0
;   extruderCoastingDistance,0.2
;   extruderUseWipe,1
;   extruderWipeDistance,5
;   primaryExtruder,0
;   layerHeight,0.2
;   topSolidLayers,4
;   bottomSolidLayers,4
;   perimeterOutlines,3
;   printPerimetersInsideOut,0
;   startPointOption,2
;   startPointOriginX,0
;   startPointOriginY,0
;   sequentialIslands,0
;   spiralVaseMode,0
;   firstLayerHeightPercentage,20
;   firstLayerWidthPercentage,100
;   firstLayerUnderspeed,0.3
;   useRaft,0
;   raftExtruder,0
;   raftTopLayers,2
;   raftBaseLayers,2
;   raftOffset,2
;   raftSeparationDistance,0.3
;   raftTopInfill,100
;   aboveRaftSpeedMultiplier,0.3
;   useSkirt,0
;   skirtExtruder,0
;   skirtLayers,1
;   skirtOutlines,2
;   skirtOffset,4
;   usePrimePillar,0
;   primePillarExtruder,999
;   primePillarWidth,12
;   primePillarLocation,7
;   primePillarSpeedMultiplier,1
;   useOozeShield,0
;   oozeShieldExtruder,999
;   oozeShieldOffset,2
;   oozeShieldOutlines,1
;   oozeShieldSidewallShape,1
;   oozeShieldSidewallAngle,30
;   oozeShieldSpeedMultiplier,1
;   infillExtruder,0
;   internalInfillPattern,Rectilinear
;   externalInfillPattern,Rectilinear
;   infillPercentage,100
;   outlineOverlapPercentage,60
;   infillExtrusionWidthPercentage,100
;   minInfillLength,5
;   infillLayerInterval,1
;   internalInfillAngles,45,-45
;   overlapInternalInfillAngles,0
;   externalInfillAngles,45,-45
;   generateSupport,0
;   supportExtruder,0
;   supportInfillPercentage,30
;   supportExtraInflation,0
;   supportBaseLayers,0
;   denseSupportExtruder,0
;   denseSupportLayers,0
;   denseSupportInfillPercentage,50
;   supportLayerInterval,1
;   supportHorizontalPartOffset,0.3
;   supportUpperSeparationLayers,1
;   supportLowerSeparationLayers,1
;   supportType,0
;   supportGridSpacing,4
;   maxOverhangAngle,70
;   supportAngles,0
;   temperatureName,Extruder 1,Heated Bed
;   temperatureNumber,0,0
;   temperatureSetpointCount,1,1
;   temperatureSetpointLayers,1,1
;   temperatureSetpointTemperatures,210,60
;   temperatureStabilizeAtStartup,1,0
;   temperatureHeatedBed,0,1
;   temperatureRelayBetweenLayers,0,0
;   temperatureRelayBetweenLoops,0,0
;   fanLayers,1
;   fanSpeeds,255
;   blipFanToFullPower,0
;   adjustSpeedForCooling,1
;   minSpeedLayerTime,15
;   minCoolingSpeedSlowdown,20
;   increaseFanForCooling,0
;   minFanLayerTime,45
;   maxCoolingFanSpeed,100
;   increaseFanForBridging,0
;   bridgingFanSpeed,100
;   use5D,1
;   relativeEdistances,0
;   allowEaxisZeroing,1
;   independentExtruderAxes,0
;   includeM10123,0
;   stickySupport,1
;   applyToolheadOffsets,0
;   gcodeXoffset,0
;   gcodeYoffset,0
;   gcodeZoffset,0
;   overrideMachineDefinition,1
;   machineTypeOverride,0
;   strokeXoverride,220
;   strokeYoverride,220
;   strokeZoverride,280
;   originOffsetXoverride,0
;   originOffsetYoverride,0
;   originOffsetZoverride,0
;   homeXdirOverride,-1
;   homeYdirOverride,-1
;   homeZdirOverride,-1
;   flipXoverride,1
;   flipYoverride,-1
;   flipZoverride,1
;   toolheadOffsets,0,0|0,0|0,0|0,0|0,0|0,0
;   overrideFirmwareConfiguration,1
;   firmwareTypeOverride,RepRap (Marlin/Repetier/Sprinter)
;   GPXconfigOverride,r2
;   baudRateOverride,250000
;   overridePrinterModels,0
;   printerModelsOverride
;   startingGcode,G28 ; home all axes,G1 X0 Y20 Z0.2 F3000 ; get ready to prime,G92 E0 ; reset extrusion distance,G1 X200 E20 F600 ; prime nozzle
;   layerChangeGcode,
;   retractionGcode,
;   toolChangeGcode,
;   endingGcode,M104 S0 ; turn off extruder,M140 S0 ; turn off bed,G28 X Y ; home x and y axes,M84 ; disable motors
;   exportFileFormat,gcode
;   celebration,0
;   celebrationSong,Random Song
;   postProcessing,
;   defaultSpeed,4600
;   outlineUnderspeed,0.6
;   solidInfillUnderspeed,0.85
;   supportUnderspeed,0.8
;   rapidXYspeed,5200
;   rapidZspeed,1002
;   minBridgingArea,50
;   bridgingExtraInflation,0
;   bridgingExtrusionMultiplier,1
;   bridgingSpeedMultiplier,1
;   useFixedBridgingAngle,0
;   fixedBridgingAngle,0
;   applyBridgingToPerimeters,0
;   filamentDiameters,1.75|1.75|1.75|1.75|1.75|1.75
;   filamentPricesPerKg,46|46|46|46|46|46
;   filamentDensities,1.25|1.25|1.25|1.25|1.25|1.25
;   useMinPrintHeight,0
;   minPrintHeight,0
;   useMaxPrintHeight,0
;   maxPrintHeight,2.3
;   useDiaphragm,0
;   diaphragmLayerInterval,20
;   robustSlicing,1
;   mergeAllIntoSolid,0
;   onlyRetractWhenCrossingOutline,1
;   retractBetweenLayers,1
;   useRetractionMinTravel,0
;   retractionMinTravel,3
;   retractWhileWiping,0
;   onlyWipeOutlines,1
;   avoidCrossingOutline,0
;   maxMovementDetourFactor,3
;   toolChangeRetractionDistance,12
;   toolChangeExtraRestartDistance,-0.5
;   toolChangeRetractionSpeed,600
;   externalThinWallType,1
;   internalThinWallType,0
;   thinWallAllowedOverlapPercentage,15
;   singleExtrusionMinLength,1
;   singleExtrusionMinPrintingWidthPercentage,50
;   singleExtrusionMaxPrintingWidthPercentage,200
;   singleExtrusionEndpointExtension,0.2
;   horizontalSizeCompensation,0
G90
M82
M106 S650
M140 S60
M104 S210 T0
M109 S210 T0
G28 ; home all axes
G1 X0 Y20 Z0.2 F3000 ; get ready to prime
G92 E0 ; reset extrusion distance
G1 X200 E20 F600 ; prime nozzle
G92 E0
G1 E-2.0000 F3000
G1 Z0.040 F1002
; process nozzle 0.4
; layer 1, Z = 0.040
T0
; tool H0.200 W0.480
; outer perimeter
G1 X106.784 Y87.171 F5200
G1 E0.0000 F900
G92 E0
G1 X107.066 Y87.262 E0.0106 F552
G1 X107.067 Y91.994 E0.1806
G1 X106.785 Y92.085 E0.1913
G1 X106.592 Y91.819 E0.2031
G1 X106.364 Y91.416 E0.2197
G1 X106.184 Y90.990 E0.2363
G1 X106.053 Y90.546 E0.2529
G1 X105.974 Y90.090 E0.2696
G1 X105.948 Y89.629 E0.2862
G1 X105.974 Y89.167 E0.3028
G1 X106.053 Y88.711 E0.3194
G1 X106.183 Y88.267 E0.3360
G1 X106.363 Y87.841 E0.3527
G1 X106.591 Y87.438 E0.3693
G1 X106.784 Y87.171 E0.3811
G1 X107.066 Y87.262 F4600
G1 X107.067 Y91.966 F4600
; inner perimeter
G1 X106.587 Y90.659 F5200
G92 E0
G1 X106.522 Y90.437 E0.0083 F736
G1 X106.452 Y90.036 E0.0230
G1 X106.429 Y89.628 E0.0376
G1 X106.452 Y89.221 E0.0523
G1 X106.521 Y88.819 E0.0669
G1 X106.587 Y88.597 E0.0752
G1 X106.587 Y90.659 E0.1493
G92 E0
G1 E-2.0000 F3000
; external single extrusion
G1 X106.805 Y92.398 F5200
G1 E0.0000 F3000
G92 E0
; tool H0.200 W0.240
G1 X106.910 Y92.425 E0.0019 F552
; tool H0.200 W0.293
G1 X107.015 Y92.453 E0.0043
; tool H0.200 W0.411
G1 X107.120 Y92.481 E0.0077
; tool H0.200 W0.518
G1 X107.206 Y92.503 E0.0111
; tool H0.200 W0.603
G1 X107.280 Y92.518 E0.0145
; tool H0.200 W0.686
G1 X107.372 Y92.537 E0.0193
; tool H0.200 W0.779
G1 X107.465 Y92.555 E0.0248
; tool H0.200 W0.845
G1 X107.539 Y92.594 E0.0301
; tool H0.200 W0.864
G1 X107.601 Y92.648 E0.0354
G1 X107.644 Y92.685 E0.0391
G1 X107.690 Y92.718 E0.0428
G1 X107.961 Y92.901 E0.0639
; tool H0.200 W0.866
G1 X108.008 Y92.933 E0.0676
; tool H0.200 W0.864
G1 X108.057 Y92.961 E0.0713
; tool H0.200 W0.860
G1 X108.129 Y93.000 E0.0765
; tool H0.200 W0.863
G1 X108.348 Y93.111 E0.0924
; tool H0.200 W0.868
G1 X108.398 Y93.137 E0.0960
; tool H0.200 W0.866
G1 X108.450 Y93.160 E0.0997
; tool H0.200 W0.860
G1 X108.526 Y93.192 E0.1050
; tool H0.200 W0.859
G1 X108.602 Y93.220 E0.1103
; tool H0.200 W0.864
G1 X108.756 Y93.277 E0.1208
; tool H0.200 W0.868
G1 X108.809 Y93.297 E0.1245
; tool H0.200 W0.867
G1 X108.863 Y93.313 E0.1282
; tool H0.200 W0.862
G1 X108.942 Y93.336 E0.1335
; tool H0.200 W0.859
G1 X109.021 Y93.357 E0.1387
; tool H0.200 W0.863
G1 X109.180 Y93.395 E0.1493
; tool H0.200 W0.869
G1 X109.235 Y93.408 E0.1530
G1 X109.291 Y93.418 E0.1567
; tool H0.200 W0.864
G1 X109.372 Y93.432 E0.1619
; tool H0.200 W0.859
G1 X109.452 Y93.446 E0.1672
G1 X109.533 Y93.455 E0.1724
; tool H0.200 W0.863
G1 X109.614 Y93.464 E0.1777
; tool H0.200 W0.868
G1 X109.671 Y93.471 E0.1814
G1 X109.728 Y93.473 E0.1851
; tool H0.200 W0.863
G1 X109.891 Y93.482 E0.1957
; tool H0.200 W0.859
G1 X109.973 Y93.485 E0.2009
; tool H0.200 W0.862
G1 X110.054 Y93.484 E0.2062
; tool H0.200 W0.867
G1 X110.111 Y93.483 E0.2099
; tool H0.200 W0.868
G1 X110.168 Y93.479 E0.2136
; tool H0.200 W0.864
G1 X110.331 Y93.468 E0.2241
; tool H0.200 W0.859
G1 X110.412 Y93.463 E0.2294
G1 X110.494 Y93.453 E0.2346
; tool H0.200 W0.866
G1 X110.550 Y93.446 E0.2383
; tool H0.200 W0.867
G1 X110.606 Y93.435 E0.2420
; tool H0.200 W0.863
G1 X110.847 Y93.390 E0.2579
; tool H0.200 W0.860
G1 X110.927 Y93.373 E0.2631
; tool H0.200 W0.863
G1 X110.982 Y93.360 E0.2668
; tool H0.200 W0.866
G1 X111.036 Y93.342 E0.2705
; tool H0.200 W0.863
G1 X111.348 Y93.243 E0.2916
G1 X111.402 Y93.224 E0.2953
G1 X111.453 Y93.200 E0.2990
G1 X111.750 Y93.065 E0.3201
G1 X111.802 Y93.041 E0.3238
G1 X111.852 Y93.013 E0.3274
G1 X112.130 Y92.842 E0.3485
; tool H0.200 W0.866
G1 X112.179 Y92.812 E0.3522
; tool H0.200 W0.864
G1 X112.226 Y92.780 E0.3559
; tool H0.200 W0.860
G1 X112.290 Y92.730 E0.3612
; tool H0.200 W0.863
G1 X112.483 Y92.578 E0.3770
; tool H0.200 W0.868
G1 X112.527 Y92.543 E0.3807
; tool H0.200 W0.866
G1 X112.570 Y92.504 E0.3844
; tool H0.200 W0.860
G1 X112.630 Y92.449 E0.3897
; tool H0.200 W0.859
G1 X112.688 Y92.391 E0.3949
; tool H0.200 W0.864
G1 X112.803 Y92.275 E0.4055
; tool H0.200 W0.868
G1 X112.843 Y92.235 E0.4092
; tool H0.200 W0.867
G1 X112.880 Y92.192 E0.4129
; tool H0.200 W0.862
G1 X112.934 Y92.131 E0.4181
; tool H0.200 W0.859
G1 X112.986 Y92.068 E0.4234
; tool H0.200 W0.863
G1 X113.086 Y91.939 E0.4339
; tool H0.200 W0.869
G1 X113.121 Y91.894 E0.4376
G1 X113.153 Y91.847 E0.4413
; tool H0.200 W0.864
G1 X113.199 Y91.779 E0.4466
; tool H0.200 W0.859
G1 X113.245 Y91.712 E0.4519
G1 X113.288 Y91.642 E0.4571
; tool H0.200 W0.863
G1 X113.330 Y91.572 E0.4624
; tool H0.200 W0.868
G1 X113.359 Y91.523 E0.4661
G1 X113.385 Y91.473 E0.4698
; tool H0.200 W0.863
G1 X113.461 Y91.328 E0.4803
; tool H0.200 W0.859
G1 X113.497 Y91.255 E0.4856
; tool H0.200 W0.862
G1 X113.530 Y91.180 E0.4908
; tool H0.200 W0.867
G1 X113.554 Y91.128 E0.4945
; tool H0.200 W0.868
G1 X113.574 Y91.075 E0.4982
; tool H0.200 W0.864
G1 X113.631 Y90.922 E0.5088
; tool H0.200 W0.859
G1 X113.660 Y90.846 E0.5140
; tool H0.200 W0.860
G1 X113.685 Y90.768 E0.5193
; tool H0.200 W0.866
G1 X113.702 Y90.713 E0.5230
; tool H0.200 W0.867
G1 X113.715 Y90.658 E0.5267
; tool H0.200 W0.863
G1 X113.774 Y90.420 E0.5425
; tool H0.200 W0.860
G1 X113.792 Y90.341 E0.5478
; tool H0.200 W0.864
G1 X113.803 Y90.284 E0.5515
; tool H0.200 W0.866
G1 X113.809 Y90.228 E0.5552
; tool H0.200 W0.863
G1 X113.848 Y89.904 E0.5762
G1 X113.854 Y89.842 E0.5803
; tool H0.200 W0.865
G1 X113.855 Y89.778 E0.5844
; tool H0.200 W0.867
G1 X113.856 Y89.697 E0.5897
; tool H0.200 W0.869
G1 X113.857 Y89.628 E0.5942
G1 X113.856 Y89.558 E0.5987
; tool H0.200 W0.867
G1 X113.855 Y89.476 E0.6040
; tool H0.200 W0.865
G1 X113.854 Y89.412 E0.6082
; tool H0.200 W0.863
G1 X113.848 Y89.349 E0.6122
G1 X113.809 Y89.025 E0.6333
; tool H0.200 W0.866
G1 X113.802 Y88.968 E0.6370
; tool H0.200 W0.864
G1 X113.792 Y88.912 E0.6407
; tool H0.200 W0.860
G1 X113.774 Y88.833 E0.6460
; tool H0.200 W0.863
G1 X113.715 Y88.595 E0.6618
; tool H0.200 W0.867
G1 X113.702 Y88.539 E0.6655
; tool H0.200 W0.866
G1 X113.685 Y88.485 E0.6692
; tool H0.200 W0.860
G1 X113.659 Y88.407 E0.6744
; tool H0.200 W0.859
G1 X113.631 Y88.331 E0.6797
; tool H0.200 W0.864
G1 X113.573 Y88.178 E0.6903
; tool H0.200 W0.868
G1 X113.553 Y88.125 E0.6940
; tool H0.200 W0.867
G1 X113.529 Y88.073 E0.6977
; tool H0.200 W0.862
G1 X113.496 Y87.998 E0.7029
; tool H0.200 W0.859
G1 X113.460 Y87.925 E0.7082
; tool H0.200 W0.863
G1 X113.384 Y87.780 E0.7187
; tool H0.200 W0.869
G1 X113.358 Y87.730 E0.7224
G1 X113.329 Y87.681 E0.7261
; tool H0.200 W0.863
G1 X113.287 Y87.611 E0.7314
; tool H0.200 W0.859
G1 X113.244 Y87.541 E0.7366
G1 X113.198 Y87.474 E0.7419
; tool H0.200 W0.864
G1 X113.152 Y87.406 E0.7472
; tool H0.200 W0.868
G1 X113.120 Y87.359 E0.7509
G1 X113.085 Y87.315 E0.7546
; tool H0.200 W0.863
G1 X112.985 Y87.186 E0.7651
; tool H0.200 W0.859
G1 X112.933 Y87.122 E0.7704
; tool H0.200 W0.862
G1 X112.879 Y87.061 E0.7756
; tool H0.200 W0.867
G1 X112.841 Y87.018 E0.7793
; tool H0.200 W0.868
G1 X112.801 Y86.978 E0.7830
; tool H0.200 W0.864
G1 X112.686 Y86.862 E0.7936
; tool H0.200 W0.859
G1 X112.629 Y86.804 E0.7988
; tool H0.200 W0.860
G1 X112.568 Y86.749 E0.8041
; tool H0.200 W0.866
G1 X112.526 Y86.711 E0.8078
; tool H0.200 W0.867
G1 X112.481 Y86.676 E0.8115
; tool H0.200 W0.863
G1 X112.289 Y86.524 E0.8273
; tool H0.200 W0.860
G1 X112.224 Y86.474 E0.8326
; tool H0.200 W0.864
G1 X112.177 Y86.441 E0.8363
; tool H0.200 W0.866
G1 X112.129 Y86.412 E0.8399
; tool H0.200 W0.863
G1 X111.850 Y86.241 E0.8611
G1 X111.801 Y86.213 E0.8647
G1 X111.749 Y86.189 E0.8684
G1 X111.451 Y86.054 E0.8895
G1 X111.400 Y86.030 E0.8932
G1 X111.346 Y86.011 E0.8969
G1 X111.034 Y85.912 E0.9180
; tool H0.200 W0.866
G1 X110.980 Y85.895 E0.9217
; tool H0.200 W0.863
G1 X110.925 Y85.881 E0.9254
; tool H0.200 W0.860
G1 X110.845 Y85.865 E0.9306
; tool H0.200 W0.863
G1 X110.604 Y85.819 E0.9465
; tool H0.200 W0.867
G1 X110.352 Y85.770 E0.9631
G92 E0
G1 E-2.0000 F3000
G1 X110.254 Y85.772 F5200
G1 E0.0000 F3000
; tool H0.200 W0.480
G92 E0
; tool H0.200 W0.861
G1 X109.940 Y85.771 E0.0522 F552
; tool H0.200 W0.859
G1 X109.826 Y85.776 E0.0595
; tool H0.200 W0.864
G1 X109.739 Y85.781 E0.0651
; tool H0.200 W0.867
G1 X109.652 Y85.787 E0.0708
; tool H0.200 W0.866
G1 X109.566 Y85.796 E0.0764
; tool H0.200 W0.860
G1 X109.452 Y85.809 E0.0837
G1 X109.340 Y85.829 E0.0911
; tool H0.200 W0.866
G1 X109.254 Y85.844 E0.0967
; tool H0.200 W0.867
G1 X109.169 Y85.863 E0.1024
; tool H0.200 W0.864
G1 X109.084 Y85.883 E0.1080
; tool H0.200 W0.859
G1 X108.973 Y85.909 E0.1153
; tool H0.200 W0.861
G1 X108.864 Y85.942 E0.1227
; tool H0.200 W0.866
G1 X108.782 Y85.969 E0.1283
; tool H0.200 W0.865
G1 X108.619 Y86.028 E0.1395
; tool H0.200 W0.860
G1 X108.512 Y86.068 E0.1469
; tool H0.200 W0.862
G1 X108.407 Y86.114 E0.1543
; tool H0.200 W0.866
G1 X108.329 Y86.153 E0.1599
; tool H0.200 W0.864
G1 X108.174 Y86.233 E0.1712
; tool H0.200 W0.860
G1 X108.072 Y86.285 E0.1786
; tool H0.200 W0.862
G1 X107.975 Y86.345 E0.1859
; tool H0.200 W0.864
G1 X107.758 Y86.491 E0.2028
; tool H0.200 W0.862
G1 X107.664 Y86.555 E0.2102
G1 X107.576 Y86.628 E0.2175
; tool H0.200 W0.864
G1 X107.511 Y86.685 E0.2232
; tool H0.200 W0.765
G1 X107.510 Y86.817 E0.2307
; tool H0.200 W0.572
G1 X107.505 Y86.945 E0.2362
; tool H0.200 W0.407
G1 X107.478 Y87.062 E0.2398
; tool H0.200 W0.299
G1 X107.442 Y87.159 E0.2422
; tool H0.200 W0.240
G1 X107.409 Y87.244 E0.2438
G1 X107.376 Y87.330 E0.2454
G1 X107.344 Y87.415 E0.2471
G92 E0
G1 E-2.0000 F3000
; tool H0.200 W0.480
; outer perimeter
G1 X106.784 Y100.752 F5200
G1 E0.0000 F3000
G92 E0
G1 X107.066 Y100.844 E0.0106 F552
G1 X107.067 Y105.575 E0.1806
G1 X106.785 Y105.667 E0.1913
G1 X106.592 Y105.401 E0.2031
G1 X106.364 Y104.998 E0.2197
G1 X106.184 Y104.572 E0.2363
G1 X106.053 Y104.128 E0.2529
G1 X105.974 Y103.672 E0.2696
G1 X105.948 Y103.210 E0.2862
G1 X105.974 Y102.748 E0.3028
G1 X106.053 Y102.292 E0.3194
G1 X106.183 Y101.848 E0.3360
G1 X106.363 Y101.422 E0.3527
G1 X106.591 Y101.019 E0.3693
G1 X106.784 Y100.752 E0.3811
G1 X107.066 Y100.844 F4600
G1 X107.067 Y105.547 F4600
; inner perimeter
G1 X106.587 Y104.241 F5200
G92 E0
G1 X106.522 Y104.019 E0.0083 F736
G1 X106.452 Y103.617 E0.0230
G1 X106.429 Y103.210 E0.0376
G1 X106.452 Y102.803 E0.0523
G1 X106.521 Y102.401 E0.0669
G1 X106.587 Y102.178 E0.0752
G1 X106.587 Y104.241 E0.1493
G92 E0
G1 E-2.0000 F3000
