; G-Code generated by Simplify3D(R) Version 4.0.0
; May 4, 2018 at 1:58:45 PM
; Settings Summary
;   processName,nozzle 0.4
;   applyToModels,copple_final,copple_final(2),copple_final(3),copple_final(4)
;   profileName,Flying Bear 902 Update 7-2017 (modified)
;   profileVersion,2017-07-10 09:45:20
;   baseProfile,Default
;   printMaterial,PLA
;   printQuality,Medium
;   printExtruders,
;   extruderName,Extruder 1
;   extruderToolheadNumber,0
;   extruderDiameter,0.4
;   extruderAutoWidth,1
;   extruderWidth,0.48
;   extrusionMultiplier,0.9
;   extruderUseRetract,1
;   extruderRetractionDistance,2
;   extruderExtraRestartDistance,0
;   extruderRetractionZLift,0
;   extruderRetractionSpeed,3000
;   extruderUseCoasting,0
;   extruderCoastingDistance,0.2
;   extruderUseWipe,1
;   extruderWipeDistance,5
;   primaryExtruder,0
;   layerHeight,0.2
;   topSolidLayers,2
;   bottomSolidLayers,2
;   perimeterOutlines,4
;   printPerimetersInsideOut,0
;   startPointOption,2
;   startPointOriginX,0
;   startPointOriginY,0
;   sequentialIslands,0
;   spiralVaseMode,0
;   firstLayerHeightPercentage,20
;   firstLayerWidthPercentage,115
;   firstLayerUnderspeed,0.3
;   useRaft,0
;   raftExtruder,0
;   raftTopLayers,2
;   raftBaseLayers,2
;   raftOffset,2
;   raftSeparationDistance,0.3
;   raftTopInfill,100
;   aboveRaftSpeedMultiplier,0.3
;   useSkirt,0
;   skirtExtruder,0
;   skirtLayers,1
;   skirtOutlines,2
;   skirtOffset,4
;   usePrimePillar,0
;   primePillarExtruder,999
;   primePillarWidth,12
;   primePillarLocation,7
;   primePillarSpeedMultiplier,1
;   useOozeShield,0
;   oozeShieldExtruder,999
;   oozeShieldOffset,2
;   oozeShieldOutlines,1
;   oozeShieldSidewallShape,1
;   oozeShieldSidewallAngle,30
;   oozeShieldSpeedMultiplier,1
;   infillExtruder,0
;   internalInfillPattern,Rectilinear
;   externalInfillPattern,Concentric
;   infillPercentage,100
;   outlineOverlapPercentage,60
;   infillExtrusionWidthPercentage,100
;   minInfillLength,5
;   infillLayerInterval,1
;   internalInfillAngles,45,-45
;   overlapInternalInfillAngles,0
;   externalInfillAngles,45,-45
;   generateSupport,0
;   supportExtruder,0
;   supportInfillPercentage,30
;   supportExtraInflation,0
;   supportBaseLayers,0
;   denseSupportExtruder,0
;   denseSupportLayers,0
;   denseSupportInfillPercentage,50
;   supportLayerInterval,1
;   supportHorizontalPartOffset,0.3
;   supportUpperSeparationLayers,1
;   supportLowerSeparationLayers,1
;   supportType,0
;   supportGridSpacing,4
;   maxOverhangAngle,70
;   supportAngles,0
;   temperatureName,Extruder 1,Heated Bed
;   temperatureNumber,0,0
;   temperatureSetpointCount,1,1
;   temperatureSetpointLayers,1,1
;   temperatureSetpointTemperatures,210,60
;   temperatureStabilizeAtStartup,1,0
;   temperatureHeatedBed,0,1
;   temperatureRelayBetweenLayers,0,0
;   temperatureRelayBetweenLoops,0,0
;   fanLayers,1
;   fanSpeeds,255
;   blipFanToFullPower,0
;   adjustSpeedForCooling,1
;   minSpeedLayerTime,15
;   minCoolingSpeedSlowdown,20
;   increaseFanForCooling,0
;   minFanLayerTime,45
;   maxCoolingFanSpeed,100
;   increaseFanForBridging,0
;   bridgingFanSpeed,100
;   use5D,1
;   relativeEdistances,0
;   allowEaxisZeroing,1
;   independentExtruderAxes,0
;   includeM10123,0
;   stickySupport,1
;   applyToolheadOffsets,0
;   gcodeXoffset,0
;   gcodeYoffset,0
;   gcodeZoffset,0
;   overrideMachineDefinition,1
;   machineTypeOverride,0
;   strokeXoverride,220
;   strokeYoverride,220
;   strokeZoverride,280
;   originOffsetXoverride,0
;   originOffsetYoverride,0
;   originOffsetZoverride,0
;   homeXdirOverride,-1
;   homeYdirOverride,-1
;   homeZdirOverride,-1
;   flipXoverride,1
;   flipYoverride,-1
;   flipZoverride,1
;   toolheadOffsets,0,0|0,0|0,0|0,0|0,0|0,0
;   overrideFirmwareConfiguration,1
;   firmwareTypeOverride,RepRap (Marlin/Repetier/Sprinter)
;   GPXconfigOverride,r2
;   baudRateOverride,250000
;   overridePrinterModels,0
;   printerModelsOverride
;   startingGcode,G28 ; home all axes,G1 X0 Y20 Z0.2 F3000 ; get ready to prime,G92 E0 ; reset extrusion distance,G1 X200 E20 F600 ; prime nozzle
;   layerChangeGcode,
;   retractionGcode,
;   toolChangeGcode,
;   endingGcode,M104 S0 ; turn off extruder,M140 S0 ; turn off bed,G28 X Y ; home x and y axes,M84 ; disable motors
;   exportFileFormat,gcode
;   celebration,0
;   celebrationSong,Random Song
;   postProcessing,
;   defaultSpeed,4400
;   outlineUnderspeed,0.6
;   solidInfillUnderspeed,0.85
;   supportUnderspeed,0.8
;   rapidXYspeed,5200
;   rapidZspeed,1002
;   minBridgingArea,50
;   bridgingExtraInflation,0
;   bridgingExtrusionMultiplier,1
;   bridgingSpeedMultiplier,1
;   useFixedBridgingAngle,0
;   fixedBridgingAngle,0
;   applyBridgingToPerimeters,0
;   filamentDiameters,1.75|1.75|1.75|1.75|1.75|1.75
;   filamentPricesPerKg,46|46|46|46|46|46
;   filamentDensities,1.25|1.25|1.25|1.25|1.25|1.25
;   useMinPrintHeight,0
;   minPrintHeight,0
;   useMaxPrintHeight,0
;   maxPrintHeight,4.3
;   useDiaphragm,0
;   diaphragmLayerInterval,20
;   robustSlicing,1
;   mergeAllIntoSolid,0
;   onlyRetractWhenCrossingOutline,1
;   retractBetweenLayers,1
;   useRetractionMinTravel,0
;   retractionMinTravel,3
;   retractWhileWiping,0
;   onlyWipeOutlines,1
;   avoidCrossingOutline,0
;   maxMovementDetourFactor,3
;   toolChangeRetractionDistance,12
;   toolChangeExtraRestartDistance,-0.5
;   toolChangeRetractionSpeed,600
;   externalThinWallType,1
;   internalThinWallType,1
;   thinWallAllowedOverlapPercentage,20
;   singleExtrusionMinLength,1
;   singleExtrusionMinPrintingWidthPercentage,50
;   singleExtrusionMaxPrintingWidthPercentage,200
;   singleExtrusionEndpointExtension,0.2
;   horizontalSizeCompensation,0
G90
M82
M106 S650
M140 S60
M104 S210 T0
M109 S210 T0
G28 ; home all axes
G1 X0 Y20 Z0.2 F3000 ; get ready to prime
G92 E0 ; reset extrusion distance
G1 X200 E20 F600 ; prime nozzle
G92 E0
G1 E-2.0000 F3000
G1 Z0.040 F1002
; process nozzle 0.4
; layer 1, Z = 0.040
T0
; tool H0.200 W0.552
; outer perimeter
G1 X106.773 Y86.532 F5200
G1 E0.0000 F900
G92 E0
G1 X107.095 Y86.181 E0.0197 F792
G1 X107.455 Y85.869 E0.0393
G1 X107.847 Y85.601 E0.0590
G1 X108.267 Y85.379 E0.0786
G1 X108.712 Y85.206 E0.0983
G1 X109.172 Y85.085 E0.1180
G1 X109.643 Y85.017 E0.1376
G1 X110.119 Y85.004 E0.1573
G1 X110.593 Y85.044 E0.1770
G1 X111.060 Y85.139 E0.1966
G1 X111.512 Y85.286 E0.2163
G1 X111.945 Y85.484 E0.2359
G1 X112.353 Y85.729 E0.2556
G1 X112.730 Y86.020 E0.2753
G1 X113.071 Y86.352 E0.2949
G1 X113.372 Y86.720 E0.3146
G1 X113.630 Y87.121 E0.3342
G1 X113.840 Y87.548 E0.3539
G1 X114.000 Y87.996 E0.3736
G1 X114.107 Y88.460 E0.3932
G1 X114.162 Y88.933 E0.4129
G1 X114.162 Y89.408 E0.4325
G1 X114.108 Y89.881 E0.4522
G1 X114.000 Y90.345 E0.4719
G1 X113.840 Y90.793 E0.4915
G1 X113.630 Y91.220 E0.5112
G1 X113.372 Y91.621 E0.5309
G1 X113.071 Y91.989 E0.5505
G1 X112.730 Y92.321 E0.5702
G1 X112.353 Y92.611 E0.5898
G1 X111.945 Y92.857 E0.6095
G1 X111.512 Y93.055 E0.6292
G1 X111.060 Y93.202 E0.6488
G1 X110.593 Y93.297 E0.6685
G1 X110.119 Y93.337 E0.6881
G1 X109.643 Y93.324 E0.7078
G1 X109.172 Y93.256 E0.7275
G1 X108.712 Y93.135 E0.7471
G1 X108.268 Y92.962 E0.7668
G1 X107.847 Y92.740 E0.7865
G1 X107.455 Y92.472 E0.8061
G1 X107.095 Y92.160 E0.8258
G1 X106.773 Y91.809 E0.8454
G1 X106.493 Y91.424 E0.8651
G1 X106.259 Y91.010 E0.8848
G1 X106.074 Y90.571 E0.9044
G1 X105.940 Y90.115 E0.9241
G1 X105.859 Y89.646 E0.9437
G1 X105.831 Y89.170 E0.9634
G1 X105.859 Y88.695 E0.9831
G1 X105.940 Y88.226 E1.0027
G1 X106.074 Y87.770 E1.0224
G1 X106.259 Y87.331 E1.0420
G1 X106.493 Y86.917 E1.0617
G1 X106.773 Y86.532 E1.0814
G1 X107.095 Y86.181 F4400
G1 X107.455 Y85.869 F4400
G1 X107.847 Y85.601 F4400
G1 X108.267 Y85.379 F4400
G1 X108.712 Y85.206 F4400
G1 X109.172 Y85.085 F4400
G1 X109.643 Y85.017 F4400
G1 X110.119 Y85.004 F4400
G1 X110.593 Y85.044 F4400
G1 X111.060 Y85.139 F4400
G1 X111.288 Y85.213 F4400
G1 X111.111 Y85.769 F5200
G92 E0
G1 X110.653 Y85.652 E0.0195 F792
G1 X110.184 Y85.597 E0.0390
G1 X109.712 Y85.604 E0.0585
G1 X109.244 Y85.673 E0.0781
G1 X108.790 Y85.803 E0.0976
G1 X108.358 Y85.991 E0.1170
G1 X107.953 Y86.235 E0.1366
G1 X107.584 Y86.530 E0.1561
G1 X107.194 Y86.938 E0.1794
G1 X107.195 Y91.404 E0.3639
G1 X107.586 Y91.812 E0.3872
G1 X107.955 Y92.107 E0.4067
G1 X108.359 Y92.351 E0.4263
G1 X108.792 Y92.539 E0.4458
G1 X109.247 Y92.669 E0.4653
G1 X109.714 Y92.738 E0.4848
G1 X110.186 Y92.744 E0.5043
G1 X110.655 Y92.688 E0.5238
G1 X111.113 Y92.572 E0.5433
G1 X111.551 Y92.395 E0.5628
G1 X111.962 Y92.163 E0.5824
G1 X112.339 Y91.878 E0.6019
G1 X112.676 Y91.547 E0.6214
G1 X112.965 Y91.174 E0.6409
G1 X113.203 Y90.766 E0.6604
G1 X113.386 Y90.330 E0.6799
G1 X113.509 Y89.874 E0.6994
G1 X113.571 Y89.405 E0.7189
G1 X113.571 Y88.933 E0.7385
G1 X113.508 Y88.465 E0.7580
G1 X113.385 Y88.009 E0.7775
G1 X113.202 Y87.573 E0.7970
G1 X112.964 Y87.165 E0.8165
G1 X112.674 Y86.793 E0.8360
G1 X112.338 Y86.461 E0.8555
G1 X111.961 Y86.177 E0.8750
G1 X111.549 Y85.945 E0.8946
G1 X111.111 Y85.769 E0.9141
G1 X110.653 Y85.652 F4400
G1 X110.184 Y85.597 F4400
G1 X109.712 Y85.604 F4400
G1 X109.244 Y85.673 F4400
G1 X108.790 Y85.803 F4400
G1 X108.358 Y85.991 F4400
G1 X107.953 Y86.235 F4400
G1 X107.584 Y86.530 F4400
G1 X107.194 Y86.938 F4400
G1 X107.194 Y87.595 F4400
; internal single extrusion
G1 X106.870 Y86.951 F5200
G92 E0
; tool H0.200 W0.240
G1 X106.841 Y87.040 E0.0017 F792
G1 X106.814 Y87.123 E0.0032
G1 X106.792 Y87.206 E0.0048
; tool H0.200 W0.265
G1 X106.769 Y87.295 E0.0066
; tool H0.200 W0.311
G1 X106.745 Y87.383 E0.0087
; tool H0.200 W0.358
G1 X106.722 Y87.472 E0.0112
; tool H0.200 W0.402
G1 X106.702 Y87.549 E0.0136
; tool H0.200 W0.437
G1 X106.686 Y87.625 E0.0161
; tool H0.200 W0.471
G1 X106.668 Y87.714 E0.0193
; tool H0.200 W0.525
G1 X106.632 Y87.892 E0.0265
; tool H0.200 W0.576
G1 X106.617 Y87.964 E0.0296
; tool H0.200 W0.601
G1 X106.607 Y88.036 E0.0329
; tool H0.200 W0.623
G1 X106.595 Y88.124 E0.0371
; tool H0.200 W0.662
G1 X106.569 Y88.302 E0.0459
; tool H0.200 W0.697
G1 X106.559 Y88.370 E0.0496
; tool H0.200 W0.713
G1 X106.553 Y88.439 E0.0532
; tool H0.200 W0.742
G1 X106.531 Y88.705 E0.0681
; tool H0.200 W0.771
G1 X106.525 Y88.772 E0.0719
; tool H0.200 W0.778
G1 X106.523 Y88.838 E0.0758
; tool H0.200 W0.787
G1 X106.515 Y89.105 E0.0915
; tool H0.200 W0.797
G1 X106.513 Y89.170 E0.0954
G1 X106.515 Y89.236 E0.0994
; tool H0.200 W0.787
G1 X106.523 Y89.503 E0.1151
; tool H0.200 W0.778
G1 X106.525 Y89.569 E0.1189
; tool H0.200 W0.771
G1 X106.531 Y89.636 E0.1228
; tool H0.200 W0.742
G1 X106.554 Y89.902 E0.1376
; tool H0.200 W0.713
G1 X106.559 Y89.971 E0.1413
; tool H0.200 W0.698
G1 X106.569 Y90.039 E0.1449
; tool H0.200 W0.675
G1 X106.582 Y90.128 E0.1494
; tool H0.200 W0.637
G1 X106.608 Y90.305 E0.1580
; tool H0.200 W0.601
G1 X106.618 Y90.377 E0.1612
; tool H0.200 W0.576
G1 X106.632 Y90.449 E0.1644
; tool H0.200 W0.543
G1 X106.650 Y90.538 E0.1681
; tool H0.200 W0.507
G1 X106.668 Y90.627 E0.1715
; tool H0.200 W0.471
G1 X106.686 Y90.715 E0.1747
; tool H0.200 W0.438
G1 X106.702 Y90.792 E0.1773
; tool H0.200 W0.402
G1 X106.722 Y90.869 E0.1797
; tool H0.200 W0.359
G1 X106.746 Y90.957 E0.1821
; tool H0.200 W0.312
G1 X106.769 Y91.046 E0.1843
; tool H0.200 W0.265
G1 X106.792 Y91.135 E0.1861
; tool H0.200 W0.240
G1 X106.814 Y91.218 E0.1876
G1 X106.841 Y91.301 E0.1892
G1 X106.870 Y91.390 E0.1909
G92 E0
G1 E-2.0000 F3000
; tool H0.200 W0.552
; outer perimeter
G1 X108.712 Y99.092 F5200
G1 E0.0000 F3000
G92 E0
G1 X109.172 Y98.971 E0.0197 F792
G1 X109.643 Y98.904 E0.0393
G1 X110.119 Y98.890 E0.0590
G1 X110.593 Y98.931 E0.0786
G1 X111.060 Y99.025 E0.0983
G1 X111.512 Y99.172 E0.1180
G1 X111.945 Y99.370 E0.1376
G1 X112.353 Y99.616 E0.1573
G1 X112.730 Y99.906 E0.1769
G1 X113.071 Y100.238 E0.1966
G1 X113.372 Y100.607 E0.2163
G1 X113.630 Y101.007 E0.2359
G1 X113.840 Y101.434 E0.2556
G1 X114.000 Y101.882 E0.2753
G1 X114.107 Y102.346 E0.2949
G1 X114.162 Y102.819 E0.3146
G1 X114.162 Y103.295 E0.3342
G1 X114.107 Y103.768 E0.3539
G1 X114.000 Y104.231 E0.3736
G1 X113.840 Y104.679 E0.3932
G1 X113.630 Y105.107 E0.4129
G1 X113.372 Y105.507 E0.4325
G1 X113.071 Y105.876 E0.4522
G1 X112.730 Y106.207 E0.4719
G1 X112.353 Y106.498 E0.4915
G1 X111.945 Y106.744 E0.5112
G1 X111.512 Y106.941 E0.5309
G1 X111.060 Y107.088 E0.5505
G1 X110.593 Y107.183 E0.5702
G1 X110.119 Y107.224 E0.5898
G1 X109.643 Y107.210 E0.6095
G1 X109.172 Y107.142 E0.6292
G1 X108.712 Y107.021 E0.6488
G1 X108.268 Y106.849 E0.6685
G1 X107.847 Y106.627 E0.6881
G1 X107.454 Y106.358 E0.7078
G1 X107.095 Y106.046 E0.7275
G1 X106.773 Y105.696 E0.7471
G1 X106.493 Y105.310 E0.7668
G1 X106.259 Y104.896 E0.7864
G1 X106.074 Y104.458 E0.8061
G1 X105.940 Y104.001 E0.8258
G1 X105.859 Y103.532 E0.8454
G1 X105.831 Y103.057 E0.8651
G1 X105.859 Y102.582 E0.8848
G1 X105.940 Y102.113 E0.9044
G1 X106.074 Y101.656 E0.9241
G1 X106.259 Y101.218 E0.9437
G1 X106.493 Y100.803 E0.9634
G1 X106.773 Y100.418 E0.9831
G1 X107.095 Y100.067 E1.0027
G1 X107.455 Y99.756 E1.0224
G1 X107.847 Y99.487 E1.0420
G1 X108.267 Y99.266 E1.0617
G1 X108.712 Y99.092 E1.0814
G1 X109.172 Y98.971 F4400
G1 X109.643 Y98.904 F4400
G1 X110.119 Y98.890 F4400
G1 X110.593 Y98.931 F4400
G1 X111.060 Y99.025 F4400
G1 X111.512 Y99.172 F4400
G1 X111.945 Y99.370 F4400
G1 X112.353 Y99.616 F4400
G1 X112.730 Y99.906 F4400
G1 X113.071 Y100.238 F4400
G1 X113.223 Y100.424 F4400
G1 X112.674 Y100.679 F5200
G92 E0
G1 X112.338 Y100.347 E0.0195 F792
G1 X111.961 Y100.063 E0.0390
G1 X111.549 Y99.831 E0.0585
G1 X111.111 Y99.655 E0.0780
G1 X110.653 Y99.538 E0.0976
G1 X110.184 Y99.483 E0.1171
G1 X109.712 Y99.490 E0.1366
G1 X109.244 Y99.559 E0.1561
G1 X108.790 Y99.689 E0.1756
G1 X108.358 Y99.877 E0.1951
G1 X107.953 Y100.122 E0.2146
G1 X107.584 Y100.417 E0.2341
G1 X107.194 Y100.824 E0.2574
G1 X107.195 Y105.290 E0.4419
G1 X107.586 Y105.698 E0.4653
G1 X107.955 Y105.993 E0.4848
G1 X108.359 Y106.237 E0.5043
G1 X108.792 Y106.425 E0.5238
G1 X109.247 Y106.555 E0.5433
G1 X109.714 Y106.624 E0.5628
G1 X110.186 Y106.630 E0.5824
G1 X110.655 Y106.575 E0.6019
G1 X111.113 Y106.458 E0.6214
G1 X111.551 Y106.282 E0.6409
G1 X111.962 Y106.049 E0.6604
G1 X112.339 Y105.765 E0.6799
G1 X112.676 Y105.433 E0.6994
G1 X112.965 Y105.060 E0.7189
G1 X113.203 Y104.652 E0.7385
G1 X113.386 Y104.216 E0.7580
G1 X113.509 Y103.760 E0.7775
G1 X113.571 Y103.292 E0.7970
G1 X113.571 Y102.820 E0.8165
G1 X113.508 Y102.351 E0.8360
G1 X113.385 Y101.895 E0.8555
G1 X113.202 Y101.460 E0.8750
G1 X112.964 Y101.052 E0.8945
G1 X112.674 Y100.679 E0.9141
G1 X112.338 Y100.347 F4400
G1 X111.961 Y100.063 F4400
G1 X111.549 Y99.831 F4400
G1 X111.111 Y99.655 F4400
G1 X110.653 Y99.538 F4400
G1 X110.184 Y99.483 F4400
G1 X109.712 Y99.490 F4400
G1 X109.244 Y99.559 F4400
G1 X108.790 Y99.689 F4400
G1 X108.358 Y99.877 F4400
G1 X108.121 Y100.020 F4400
; internal single extrusion
G1 X106.870 Y100.838 F5200
G92 E0
; tool H0.200 W0.240
G1 X106.841 Y100.926 E0.0017 F792
G1 X106.814 Y101.009 E0.0032
G1 X106.792 Y101.092 E0.0048
; tool H0.200 W0.265
G1 X106.769 Y101.181 E0.0066
; tool H0.200 W0.311
G1 X106.745 Y101.270 E0.0087
; tool H0.200 W0.358
G1 X106.722 Y101.358 E0.0112
; tool H0.200 W0.402
G1 X106.702 Y101.435 E0.0136
; tool H0.200 W0.437
G1 X106.686 Y101.512 E0.0161
; tool H0.200 W0.471
G1 X106.668 Y101.601 E0.0193
; tool H0.200 W0.525
G1 X106.632 Y101.778 E0.0265
; tool H0.200 W0.576
G1 X106.617 Y101.850 E0.0296
; tool H0.200 W0.601
G1 X106.607 Y101.922 E0.0329
; tool H0.200 W0.623
G1 X106.595 Y102.011 E0.0371
; tool H0.200 W0.662
G1 X106.569 Y102.188 E0.0459
; tool H0.200 W0.697
G1 X106.559 Y102.257 E0.0496
; tool H0.200 W0.713
G1 X106.553 Y102.325 E0.0532
; tool H0.200 W0.742
G1 X106.531 Y102.592 E0.0681
; tool H0.200 W0.771
G1 X106.525 Y102.658 E0.0719
; tool H0.200 W0.778
G1 X106.523 Y102.725 E0.0758
; tool H0.200 W0.787
G1 X106.515 Y102.991 E0.0915
; tool H0.200 W0.797
G1 X106.513 Y103.057 E0.0954
G1 X106.515 Y103.123 E0.0994
; tool H0.200 W0.787
G1 X106.523 Y103.389 E0.1151
; tool H0.200 W0.778
G1 X106.525 Y103.456 E0.1189
; tool H0.200 W0.771
G1 X106.531 Y103.522 E0.1228
; tool H0.200 W0.742
G1 X106.554 Y103.788 E0.1376
