; G-Code generated by Simplify3D(R) Version 4.0.0
; Apr 30, 2018 at 12:44:37 PM
; Settings Summary
;   processName,nozzle 0.4
;   applyToModels,cover
;   profileName,Flying Bear 902 Update 7-2017 (modified)
;   profileVersion,2017-07-10 09:45:20
;   baseProfile,Default
;   printMaterial,PLA
;   printQuality,Medium
;   printExtruders,
;   extruderName,Extruder 1
;   extruderToolheadNumber,0
;   extruderDiameter,0.4
;   extruderAutoWidth,1
;   extruderWidth,0.48
;   extrusionMultiplier,0.9
;   extruderUseRetract,1
;   extruderRetractionDistance,2
;   extruderExtraRestartDistance,0
;   extruderRetractionZLift,0
;   extruderRetractionSpeed,3000
;   extruderUseCoasting,0
;   extruderCoastingDistance,0.2
;   extruderUseWipe,1
;   extruderWipeDistance,5
;   primaryExtruder,0
;   layerHeight,0.2
;   topSolidLayers,4
;   bottomSolidLayers,4
;   perimeterOutlines,3
;   printPerimetersInsideOut,0
;   startPointOption,2
;   startPointOriginX,0
;   startPointOriginY,0
;   sequentialIslands,0
;   spiralVaseMode,0
;   firstLayerHeightPercentage,20
;   firstLayerWidthPercentage,100
;   firstLayerUnderspeed,0.5
;   useRaft,0
;   raftExtruder,0
;   raftTopLayers,2
;   raftBaseLayers,2
;   raftOffset,3
;   raftSeparationDistance,0.5
;   raftTopInfill,100
;   aboveRaftSpeedMultiplier,0.3
;   useSkirt,0
;   skirtExtruder,0
;   skirtLayers,1
;   skirtOutlines,2
;   skirtOffset,4
;   usePrimePillar,0
;   primePillarExtruder,999
;   primePillarWidth,12
;   primePillarLocation,7
;   primePillarSpeedMultiplier,1
;   useOozeShield,0
;   oozeShieldExtruder,999
;   oozeShieldOffset,2
;   oozeShieldOutlines,1
;   oozeShieldSidewallShape,1
;   oozeShieldSidewallAngle,30
;   oozeShieldSpeedMultiplier,1
;   infillExtruder,0
;   internalInfillPattern,Rectilinear
;   externalInfillPattern,Rectilinear
;   infillPercentage,100
;   outlineOverlapPercentage,60
;   infillExtrusionWidthPercentage,100
;   minInfillLength,5
;   infillLayerInterval,1
;   internalInfillAngles,45,-45
;   overlapInternalInfillAngles,0
;   externalInfillAngles,45,-45
;   generateSupport,0
;   supportExtruder,0
;   supportInfillPercentage,30
;   supportExtraInflation,0
;   supportBaseLayers,0
;   denseSupportExtruder,0
;   denseSupportLayers,0
;   denseSupportInfillPercentage,50
;   supportLayerInterval,1
;   supportHorizontalPartOffset,0.3
;   supportUpperSeparationLayers,1
;   supportLowerSeparationLayers,1
;   supportType,0
;   supportGridSpacing,4
;   maxOverhangAngle,70
;   supportAngles,0
;   temperatureName,Extruder 1,Heated Bed
;   temperatureNumber,0,0
;   temperatureSetpointCount,1,2
;   temperatureSetpointLayers,1,1,10
;   temperatureSetpointTemperatures,210,70,60
;   temperatureStabilizeAtStartup,1,0
;   temperatureHeatedBed,0,1
;   temperatureRelayBetweenLayers,0,0
;   temperatureRelayBetweenLoops,0,0
;   fanLayers,1
;   fanSpeeds,255
;   blipFanToFullPower,0
;   adjustSpeedForCooling,1
;   minSpeedLayerTime,15
;   minCoolingSpeedSlowdown,20
;   increaseFanForCooling,0
;   minFanLayerTime,45
;   maxCoolingFanSpeed,100
;   increaseFanForBridging,0
;   bridgingFanSpeed,100
;   use5D,1
;   relativeEdistances,0
;   allowEaxisZeroing,1
;   independentExtruderAxes,0
;   includeM10123,0
;   stickySupport,1
;   applyToolheadOffsets,0
;   gcodeXoffset,0
;   gcodeYoffset,0
;   gcodeZoffset,0
;   overrideMachineDefinition,1
;   machineTypeOverride,0
;   strokeXoverride,220
;   strokeYoverride,220
;   strokeZoverride,280
;   originOffsetXoverride,0
;   originOffsetYoverride,0
;   originOffsetZoverride,0
;   homeXdirOverride,-1
;   homeYdirOverride,-1
;   homeZdirOverride,-1
;   flipXoverride,1
;   flipYoverride,-1
;   flipZoverride,1
;   toolheadOffsets,0,0|0,0|0,0|0,0|0,0|0,0
;   overrideFirmwareConfiguration,1
;   firmwareTypeOverride,RepRap (Marlin/Repetier/Sprinter)
;   GPXconfigOverride,r2
;   baudRateOverride,250000
;   overridePrinterModels,0
;   printerModelsOverride
;   startingGcode,G28 ; home all axes,G1 X0 Y20 Z0.2 F3000 ; get ready to prime,G92 E0 ; reset extrusion distance,G1 X200 E20 F600 ; prime nozzle
;   layerChangeGcode,
;   retractionGcode,
;   toolChangeGcode,
;   endingGcode,M104 S0 ; turn off extruder,M140 S0 ; turn off bed,G28 X Y ; home x and y axes,M84 ; disable motors
;   exportFileFormat,gcode
;   celebration,0
;   celebrationSong,Random Song
;   postProcessing,
;   defaultSpeed,4600
;   outlineUnderspeed,0.6
;   solidInfillUnderspeed,0.85
;   supportUnderspeed,0.8
;   rapidXYspeed,5200
;   rapidZspeed,1002
;   minBridgingArea,50
;   bridgingExtraInflation,0
;   bridgingExtrusionMultiplier,1
;   bridgingSpeedMultiplier,1
;   useFixedBridgingAngle,0
;   fixedBridgingAngle,0
;   applyBridgingToPerimeters,0
;   filamentDiameters,1.75|1.75|1.75|1.75|1.75|1.75
;   filamentPricesPerKg,46|46|46|46|46|46
;   filamentDensities,1.25|1.25|1.25|1.25|1.25|1.25
;   useMinPrintHeight,0
;   minPrintHeight,0
;   useMaxPrintHeight,0
;   maxPrintHeight,0.3
;   useDiaphragm,0
;   diaphragmLayerInterval,20
;   robustSlicing,1
;   mergeAllIntoSolid,0
;   onlyRetractWhenCrossingOutline,1
;   retractBetweenLayers,1
;   useRetractionMinTravel,0
;   retractionMinTravel,3
;   retractWhileWiping,0
;   onlyWipeOutlines,1
;   avoidCrossingOutline,0
;   maxMovementDetourFactor,3
;   toolChangeRetractionDistance,12
;   toolChangeExtraRestartDistance,-0.5
;   toolChangeRetractionSpeed,600
;   externalThinWallType,1
;   internalThinWallType,0
;   thinWallAllowedOverlapPercentage,15
;   singleExtrusionMinLength,1
;   singleExtrusionMinPrintingWidthPercentage,50
;   singleExtrusionMaxPrintingWidthPercentage,200
;   singleExtrusionEndpointExtension,0.2
;   horizontalSizeCompensation,0
G90
M82
M106 S650
M140 S70
M104 S210 T0
M109 S210 T0
G28 ; home all axes
G1 X0 Y20 Z0.2 F3000 ; get ready to prime
G92 E0 ; reset extrusion distance
G1 X200 E20 F600 ; prime nozzle
G92 E0
G1 E-2.0000 F3000
G1 Z0.040 F1002
; process nozzle 0.4
; layer 1, Z = 0.040
T0
; tool H0.200 W0.480
; outer perimeter
G1 X102.344 Y92.660 F5200
G1 E0.0000 F900
G92 E0
G1 X102.963 Y91.980 E0.0330 F1354
G1 X103.642 Y91.360 E0.0660
G1 X104.375 Y90.806 E0.0991
G1 X105.157 Y90.322 E0.1321
G1 X105.980 Y89.912 E0.1651
G1 X106.837 Y89.580 E0.1981
G1 X107.721 Y89.328 E0.2312
G1 X108.625 Y89.159 E0.2642
G1 X109.540 Y89.074 E0.2972
G1 X110.460 Y89.074 E0.3302
G1 X111.375 Y89.159 E0.3633
G1 X112.279 Y89.328 E0.3963
G1 X113.163 Y89.580 E0.4293
G1 X114.020 Y89.912 E0.4623
G1 X114.843 Y90.322 E0.4953
G1 X115.624 Y90.806 E0.5284
G1 X116.358 Y91.360 E0.5614
G1 X117.037 Y91.980 E0.5944
G1 X117.656 Y92.660 E0.6274
G1 X118.210 Y93.394 E0.6605
G1 X118.693 Y94.175 E0.6935
G1 X119.103 Y94.999 E0.7265
G1 X119.434 Y95.856 E0.7595
G1 X119.685 Y96.740 E0.7926
G1 X119.854 Y97.645 E0.8256
G1 X119.915 Y98.273 E0.8483
G1 X118.390 Y98.280 E0.9030
G1 X118.155 Y98.364 E0.9120
G1 X117.960 Y98.522 E0.9210
G1 X117.836 Y98.724 E0.9296
G1 X117.794 Y98.857 E0.9346
G1 X117.780 Y99.088 E0.9429
G1 X117.844 Y99.320 E0.9515
G1 X117.924 Y99.454 E0.9571
G1 X118.090 Y99.619 E0.9655
G1 X118.316 Y99.727 E0.9746
G1 X118.551 Y99.753 E0.9830
G1 X118.646 Y99.739 E0.9865
G1 X119.913 Y99.749 E1.0320
G1 X119.854 Y100.379 E1.0547
G1 X119.685 Y101.283 E1.0877
G1 X119.434 Y102.168 E1.1208
G1 X119.103 Y103.025 E1.1538
G1 X118.693 Y103.848 E1.1868
G1 X118.210 Y104.630 E1.2198
G1 X117.656 Y105.364 E1.2529
G1 X117.037 Y106.043 E1.2859
G1 X116.358 Y106.663 E1.3189
G1 X115.624 Y107.217 E1.3519
G1 X114.843 Y107.702 E1.3849
G1 X114.020 Y108.111 E1.4180
G1 X113.163 Y108.444 E1.4510
G1 X112.279 Y108.695 E1.4840
G1 X111.375 Y108.864 E1.5170
G1 X110.460 Y108.949 E1.5501
G1 X109.540 Y108.949 E1.5831
G1 X108.625 Y108.864 E1.6161
G1 X107.721 Y108.695 E1.6491
G1 X106.837 Y108.444 E1.6822
G1 X105.980 Y108.111 E1.7152
G1 X105.157 Y107.701 E1.7482
G1 X104.375 Y107.217 E1.7812
G1 X103.642 Y106.663 E1.8142
G1 X102.963 Y106.043 E1.8473
G1 X102.344 Y105.364 E1.8803
G1 X101.790 Y104.630 E1.9133
G1 X101.307 Y103.848 E1.9463
G1 X100.897 Y103.025 E1.9794
G1 X100.566 Y102.168 E2.0124
G1 X100.315 Y101.283 E2.0454
G1 X100.147 Y100.381 E2.0784
G1 X100.096 Y99.751 E2.1011
G1 X101.301 Y99.750 E2.1443
G1 X101.589 Y99.707 E2.1548
G1 X101.831 Y99.595 E2.1644
G1 X102.005 Y99.428 E2.1730
G1 X102.122 Y99.193 E2.1825
G1 X102.144 Y98.953 E2.1911
G1 X102.082 Y98.723 E2.1997
G1 X101.953 Y98.535 E2.2079
G1 X101.784 Y98.400 E2.2157
G1 X101.539 Y98.303 E2.2251
G1 X101.172 Y98.272 E2.2384
G1 X100.085 Y98.272 E2.2774
G1 X100.146 Y97.645 E2.3000
G1 X100.315 Y96.740 E2.3331
G1 X100.566 Y95.856 E2.3661
G1 X100.897 Y94.999 E2.3991
G1 X101.307 Y94.175 E2.4321
G1 X101.790 Y93.394 E2.4652
G1 X102.344 Y92.660 E2.4982
G1 X102.963 Y91.980 F4600
G1 X103.642 Y91.360 F4600
G1 X104.375 Y90.806 F4600
G1 X105.157 Y90.322 F4600
G1 X105.980 Y89.912 F4600
G1 X106.356 Y89.766 F4600
; inner perimeter
G1 X106.174 Y90.352 F5200
G92 E0
G1 X106.990 Y90.035 E0.0314 F1806
G1 X107.831 Y89.796 E0.0629
G1 X108.691 Y89.635 E0.0943
G1 X109.563 Y89.554 E0.1257
G1 X110.437 Y89.554 E0.1571
G1 X111.309 Y89.635 E0.1886
G1 X112.169 Y89.796 E0.2200
G1 X113.010 Y90.035 E0.2514
G1 X113.826 Y90.352 E0.2829
G1 X114.609 Y90.742 E0.3143
G1 X115.353 Y91.202 E0.3457
G1 X116.051 Y91.730 E0.3771
G1 X116.697 Y92.320 E0.4086
G1 X117.286 Y92.966 E0.4400
G1 X117.813 Y93.665 E0.4714
G1 X118.274 Y94.409 E0.5028
G1 X118.663 Y95.192 E0.5343
G1 X118.979 Y96.008 E0.5657
G1 X119.218 Y96.850 E0.5971
G1 X119.378 Y97.712 E0.6286
G1 X119.386 Y97.795 E0.6316
G1 X118.306 Y97.800 E0.6704
G1 X117.917 Y97.939 E0.6853
G1 X117.595 Y98.200 E0.7002
G1 X117.503 Y98.349 E0.7064
G1 X117.503 Y98.343 E0.7067
G1 X117.371 Y97.460 E0.7387
G1 X117.136 Y96.599 E0.7708
G1 X116.801 Y95.772 E0.8028
G1 X116.370 Y94.991 E0.8349
G1 X115.849 Y94.265 E0.8670
G1 X115.247 Y93.607 E0.8990
G1 X114.571 Y93.024 E0.9311
G1 X113.831 Y92.526 E0.9631
G1 X113.037 Y92.118 E0.9952
G1 X112.200 Y91.807 E1.0273
G1 X111.332 Y91.598 E1.0593
G1 X110.446 Y91.492 E1.0914
G1 X109.554 Y91.492 E1.1234
G1 X108.668 Y91.598 E1.1555
G1 X107.800 Y91.807 E1.1876
G1 X106.963 Y92.118 E1.2196
G1 X106.169 Y92.526 E1.2517
G1 X105.429 Y93.024 E1.2837
G1 X104.753 Y93.607 E1.3158
G1 X104.151 Y94.265 E1.3478
G1 X103.630 Y94.991 E1.3799
G1 X103.199 Y95.772 E1.4120
G1 X102.864 Y96.599 E1.4440
G1 X102.629 Y97.460 E1.4761
G1 X102.497 Y98.343 E1.5081
G1 X102.493 Y98.474 E1.5128
G1 X102.309 Y98.205 E1.5245
G1 X102.028 Y97.980 E1.5375
G1 X101.649 Y97.831 E1.5521
G1 X101.192 Y97.792 E1.5686
G1 X100.614 Y97.792 E1.5893
G1 X100.622 Y97.712 E1.5922
G1 X100.782 Y96.850 E1.6237
G1 X101.021 Y96.008 E1.6551
G1 X101.337 Y95.192 E1.6866
G1 X101.726 Y94.409 E1.7180
G1 X102.187 Y93.665 E1.7494
G1 X102.714 Y92.966 E1.7808
G1 X103.303 Y92.320 E1.8123
G1 X103.949 Y91.730 E1.8437
G1 X104.647 Y91.203 E1.8751
G1 X105.391 Y90.742 E1.9066
G1 X106.174 Y90.352 E1.9380
G92 E0
G1 E-2.0000 F3000
G1 X102.496 Y99.520 F5200
G1 E0.0000 F3000
G92 E0
G1 X102.550 Y100.124 E0.0218 F1806
G1 X102.734 Y100.997 E0.0538
G1 X103.019 Y101.843 E0.0859
G1 X103.403 Y102.649 E0.1180
G1 X103.880 Y103.403 E0.1500
G1 X104.442 Y104.096 E0.1821
G1 X105.082 Y104.718 E0.2141
G1 X105.792 Y105.260 E0.2462
G1 X106.560 Y105.713 E0.2783
G1 X107.377 Y106.073 E0.3103
G1 X108.231 Y106.334 E0.3424
G1 X109.109 Y106.492 E0.3744
G1 X110.000 Y106.545 E0.4065
G1 X110.891 Y106.492 E0.4386
G1 X111.769 Y106.334 E0.4706
G1 X112.623 Y106.073 E0.5027
G1 X113.440 Y105.713 E0.5347
G1 X114.208 Y105.260 E0.5668
G1 X114.918 Y104.718 E0.5989
G1 X115.558 Y104.096 E0.6309
G1 X116.120 Y103.403 E0.6630
G1 X116.597 Y102.649 E0.6950
G1 X116.981 Y101.843 E0.7271
G1 X117.266 Y100.997 E0.7592
G1 X117.450 Y100.124 E0.7912
G1 X117.491 Y99.666 E0.8077
G1 X117.542 Y99.752 E0.8113
G1 X117.810 Y100.017 E0.8249
G1 X118.183 Y100.195 E0.8397
G1 X118.558 Y100.236 E0.8533
G1 X118.677 Y100.220 E0.8576
G1 X119.386 Y100.225 E0.8831
G1 X119.378 Y100.312 E0.8862
G1 X119.218 Y101.173 E0.9177
G1 X118.979 Y102.015 E0.9491
G1 X118.663 Y102.831 E0.9805
G1 X118.274 Y103.615 E1.0120
G1 X117.813 Y104.359 E1.0434
G1 X117.286 Y105.057 E1.0748
G1 X116.697 Y105.704 E1.1062
G1 X116.051 Y106.294 E1.1377
G1 X115.353 Y106.821 E1.1691
G1 X114.609 Y107.282 E1.2005
G1 X113.826 Y107.672 E1.2320
G1 X113.010 Y107.988 E1.2634
G1 X112.169 Y108.228 E1.2948
G1 X111.309 Y108.389 E1.3262
G1 X110.437 Y108.469 E1.3577
G1 X109.563 Y108.469 E1.3891
G1 X108.691 Y108.389 E1.4205
G1 X107.831 Y108.228 E1.4520
G1 X106.990 Y107.988 E1.4834
G1 X106.174 Y107.672 E1.5148
G1 X105.391 Y107.282 E1.5462
G1 X104.647 Y106.821 E1.5777
G1 X103.949 Y106.294 E1.6091
G1 X103.303 Y105.704 E1.6405
G1 X102.714 Y105.057 E1.6720
G1 X102.187 Y104.359 E1.7034
G1 X101.726 Y103.614 E1.7348
G1 X101.337 Y102.831 E1.7662
G1 X101.021 Y102.015 E1.7977
G1 X100.782 Y101.173 E1.8291
G1 X100.623 Y100.318 E1.8604
G1 X100.616 Y100.231 E1.8635
G1 X101.337 Y100.230 E1.8894
G1 X101.729 Y100.172 E1.9036
G1 X102.106 Y99.996 E1.9185
G1 X102.398 Y99.717 E1.9331
G1 X102.496 Y99.520 E1.9410
G1 X102.140 Y100.510 F5200
G92 E0
G1 X102.270 Y101.124 E0.0226 F1806
G1 X102.574 Y102.023 E0.0567
G1 X102.982 Y102.881 E0.0908
G1 X103.489 Y103.684 E0.1249
G1 X104.087 Y104.421 E0.1590
G1 X104.769 Y105.082 E0.1931
G1 X105.523 Y105.658 E0.2272
G1 X106.341 Y106.141 E0.2613
G1 X107.210 Y106.524 E0.2954
G1 X108.118 Y106.801 E0.3295
G1 X109.052 Y106.969 E0.3636
G1 X110.000 Y107.025 E0.3977
G1 X110.948 Y106.969 E0.4318
G1 X111.882 Y106.801 E0.4659
G1 X112.790 Y106.524 E0.5000
G1 X113.659 Y106.141 E0.5341
G1 X114.477 Y105.658 E0.5682
G1 X115.231 Y105.082 E0.6024
G1 X115.913 Y104.421 E0.6365
G1 X116.511 Y103.684 E0.6706
G1 X117.018 Y102.881 E0.7047
G1 X117.426 Y102.023 E0.7388
G1 X117.730 Y101.124 E0.7729
G1 X117.848 Y100.567 E0.7933
G1 X118.050 Y100.663 E0.8014
G1 X118.565 Y100.720 E0.8200
G1 X118.709 Y100.700 E0.8252
G1 X118.817 Y100.701 E0.8291
G1 X118.750 Y101.064 E0.8424
G1 X118.523 Y101.863 E0.8722
G1 X118.223 Y102.637 E0.9020
G1 X117.854 Y103.381 E0.9319
G1 X117.417 Y104.087 E0.9617
G1 X116.917 Y104.750 E0.9915
G1 X116.357 Y105.364 E1.0214
G1 X115.744 Y105.924 E1.0512
G1 X115.081 Y106.425 E1.0810
G1 X114.375 Y106.862 E1.1109
G1 X113.632 Y107.232 E1.1407
G1 X112.857 Y107.533 E1.1705
G1 X112.059 Y107.760 E1.2004
G1 X111.242 Y107.913 E1.2302
G1 X110.415 Y107.989 E1.2600
G1 X109.585 Y107.989 E1.2899
G1 X108.758 Y107.913 E1.3197
G1 X107.941 Y107.760 E1.3495
G1 X107.143 Y107.533 E1.3794
G1 X106.368 Y107.232 E1.4092
G1 X105.625 Y106.862 E1.4390
G1 X104.919 Y106.425 E1.4689
G1 X104.256 Y105.924 E1.4987
G1 X103.643 Y105.364 E1.5285
G1 X103.083 Y104.750 E1.5584
G1 X102.583 Y104.087 E1.5882
G1 X102.146 Y103.381 E1.6180
G1 X101.777 Y102.637 E1.6479
G1 X101.477 Y101.863 E1.6777
G1 X101.250 Y101.064 E1.7075
G1 X101.184 Y100.710 E1.7205
G1 X101.372 Y100.710 E1.7272
G1 X101.868 Y100.637 E1.7452
G1 X102.140 Y100.510 E1.7560
G1 X102.136 Y97.507 F5200
G92 E0
G1 X101.760 Y97.358 E0.0145 F1806
G1 X101.213 Y97.312 E0.0343
G1 X101.185 Y97.312 E0.0353
G1 X101.250 Y96.960 E0.0481
G1 X101.477 Y96.161 E0.0780
G1 X101.777 Y95.386 E0.1078
G1 X102.146 Y94.643 E0.1376
G1 X102.583 Y93.936 E0.1675
G1 X103.083 Y93.273 E0.1973
G1 X103.643 Y92.659 E0.2271
G1 X104.256 Y92.100 E0.2570
G1 X104.919 Y91.599 E0.2868
G1 X105.625 Y91.161 E0.3166
G1 X106.368 Y90.791 E0.3465
G1 X107.143 Y90.491 E0.3763
G1 X107.941 Y90.264 E0.4061
G1 X108.758 Y90.111 E0.4360
G1 X109.585 Y90.034 E0.4658
G1 X110.415 Y90.034 E0.4956
G1 X111.242 Y90.111 E0.5255
G1 X112.059 Y90.264 E0.5553
G1 X112.857 Y90.491 E0.5851
G1 X113.632 Y90.791 E0.6150
G1 X114.375 Y91.161 E0.6448
G1 X115.081 Y91.599 E0.6746
G1 X115.744 Y92.100 E0.7045
G1 X116.357 Y92.659 E0.7343
G1 X116.917 Y93.273 E0.7641
G1 X117.417 Y93.936 E0.7940
G1 X117.854 Y94.643 E0.8238
G1 X118.223 Y95.386 E0.8536
G1 X118.523 Y96.161 E0.8835
G1 X118.750 Y96.960 E0.9133
G1 X118.816 Y97.318 E0.9264
G1 X118.222 Y97.320 E0.9477
G1 X117.855 Y97.451 E0.9617
G1 X117.842 Y97.361 E0.9650
G1 X117.592 Y96.445 E0.9991
G1 X117.235 Y95.565 E1.0332
G1 X116.776 Y94.734 E1.0673
G1 X116.223 Y93.962 E1.1014
G1 X115.582 Y93.262 E1.1355
G1 X114.863 Y92.642 E1.1696
G1 X114.075 Y92.112 E1.2037
G1 X113.230 Y91.678 E1.2378
G1 X112.340 Y91.347 E1.2719
