; G-Code generated by Simplify3D(R) Version 4.0.0
; Jul 21, 2019 at 1:37:30 AM
; Settings Summary
;   processName,Process1
;   applyToModels,cube
;   profileName,bar (modified)
;   profileVersion,2019-07-15 16:42:33
;   baseProfile,Default (modified)
;   printMaterial,PLA
;   printQuality,Medium
;   printExtruders,
;   extruderName,Primary Extruder
;   extruderToolheadNumber,0
;   extruderDiameter,0.4
;   extruderAutoWidth,0
;   extruderWidth,0.4
;   extrusionMultiplier,0.9
;   extruderUseRetract,1
;   extruderRetractionDistance,1
;   extruderExtraRestartDistance,0
;   extruderRetractionZLift,0
;   extruderRetractionSpeed,1800
;   extruderUseCoasting,0
;   extruderCoastingDistance,0.2
;   extruderUseWipe,0
;   extruderWipeDistance,5
;   primaryExtruder,0
;   layerHeight,0.15
;   topSolidLayers,0
;   bottomSolidLayers,0
;   perimeterOutlines,1
;   printPerimetersInsideOut,1
;   startPointOption,2
;   startPointOriginX,0
;   startPointOriginY,0
;   sequentialIslands,0
;   spiralVaseMode,0
;   firstLayerHeightPercentage,100
;   firstLayerWidthPercentage,100
;   firstLayerUnderspeed,0.5
;   useRaft,0
;   raftExtruder,0
;   raftTopLayers,3
;   raftBaseLayers,2
;   raftOffset,3
;   raftSeparationDistance,0.14
;   raftTopInfill,100
;   aboveRaftSpeedMultiplier,0.3
;   useSkirt,0
;   skirtExtruder,0
;   skirtLayers,1
;   skirtOutlines,2
;   skirtOffset,4
;   usePrimePillar,0
;   primePillarExtruder,999
;   primePillarWidth,12
;   primePillarLocation,7
;   primePillarSpeedMultiplier,1
;   useOozeShield,0
;   oozeShieldExtruder,999
;   oozeShieldOffset,2
;   oozeShieldOutlines,1
;   oozeShieldSidewallShape,1
;   oozeShieldSidewallAngle,30
;   oozeShieldSpeedMultiplier,1
;   infillExtruder,0
;   internalInfillPattern,Rectilinear
;   externalInfillPattern,Rectilinear
;   infillPercentage,0
;   outlineOverlapPercentage,15
;   infillExtrusionWidthPercentage,100
;   minInfillLength,5
;   infillLayerInterval,1
;   internalInfillAngles,45,-45
;   overlapInternalInfillAngles,0
;   externalInfillAngles,45,-45
;   generateSupport,0
;   supportExtruder,0
;   supportInfillPercentage,30
;   supportExtraInflation,0
;   supportBaseLayers,0
;   denseSupportExtruder,0
;   denseSupportLayers,0
;   denseSupportInfillPercentage,70
;   supportLayerInterval,1
;   supportHorizontalPartOffset,0.3
;   supportUpperSeparationLayers,1
;   supportLowerSeparationLayers,1
;   supportType,0
;   supportGridSpacing,4
;   maxOverhangAngle,45
;   supportAngles,0
;   temperatureName,Primary Extruder,Hot Bed
;   temperatureNumber,0,1
;   temperatureSetpointCount,1,1
;   temperatureSetpointLayers,1,1
;   temperatureSetpointTemperatures,210,60
;   temperatureStabilizeAtStartup,1,1
;   temperatureHeatedBed,0,1
;   temperatureRelayBetweenLayers,0,0
;   temperatureRelayBetweenLoops,0,0
;   fanLayers,1,2
;   fanSpeeds,0,100
;   blipFanToFullPower,0
;   adjustSpeedForCooling,1
;   minSpeedLayerTime,15
;   minCoolingSpeedSlowdown,20
;   increaseFanForCooling,0
;   minFanLayerTime,45
;   maxCoolingFanSpeed,100
;   increaseFanForBridging,0
;   bridgingFanSpeed,100
;   use5D,1
;   relativeEdistances,0
;   allowEaxisZeroing,1
;   independentExtruderAxes,0
;   includeM10123,0
;   stickySupport,1
;   applyToolheadOffsets,0
;   gcodeXoffset,0
;   gcodeYoffset,0
;   gcodeZoffset,0
;   overrideMachineDefinition,0
;   machineTypeOverride,0
;   strokeXoverride,200
;   strokeYoverride,200
;   strokeZoverride,200
;   originOffsetXoverride,0
;   originOffsetYoverride,0
;   originOffsetZoverride,0
;   homeXdirOverride,-1
;   homeYdirOverride,-1
;   homeZdirOverride,-1
;   flipXoverride,1
;   flipYoverride,-1
;   flipZoverride,1
;   toolheadOffsets,0,0|0,0|0,0|0,0|0,0|0,0
;   overrideFirmwareConfiguration,0
;   firmwareTypeOverride,RepRap (Marlin/Repetier/Sprinter)
;   GPXconfigOverride,r2
;   baudRateOverride,115200
;   overridePrinterModels,0
;   printerModelsOverride
;   startingGcode,G28 ; home all axes,G1 X0 Y20 Z0.2 F3000 ; get ready to prime,G92 E0 ; reset extrusion distance,G1 X150 E20 F600 ; prime nozzle
;   layerChangeGcode,
;   retractionGcode,
;   toolChangeGcode,
;   endingGcode,M104 S0 ; turn off extruder,M140 S0 ; turn off bed,M84 ; disable motors
;   exportFileFormat,gcode
;   celebration,0
;   celebrationSong,Random Song
;   postProcessing,
;   defaultSpeed,4600
;   outlineUnderspeed,0.5
;   solidInfillUnderspeed,0.8
;   supportUnderspeed,0.8
;   rapidXYspeed,4800
;   rapidZspeed,1000
;   minBridgingArea,50
;   bridgingExtraInflation,0
;   bridgingExtrusionMultiplier,1
;   bridgingSpeedMultiplier,1
;   useFixedBridgingAngle,0
;   fixedBridgingAngle,0
;   applyBridgingToPerimeters,0
;   filamentDiameters,1.75|1.75|1.75|1.75|1.75|1.75
;   filamentPricesPerKg,46|46|46|46|46|46
;   filamentDensities,1.25|1.25|1.25|1.25|1.25|1.25
;   useMinPrintHeight,0
;   minPrintHeight,0
;   useMaxPrintHeight,0
;   maxPrintHeight,0
;   useDiaphragm,0
;   diaphragmLayerInterval,20
;   robustSlicing,1
;   mergeAllIntoSolid,0
;   onlyRetractWhenCrossingOutline,1
;   retractBetweenLayers,1
;   useRetractionMinTravel,0
;   retractionMinTravel,3
;   retractWhileWiping,0
;   onlyWipeOutlines,1
;   avoidCrossingOutline,0
;   maxMovementDetourFactor,3
;   toolChangeRetractionDistance,12
;   toolChangeExtraRestartDistance,-0.5
;   toolChangeRetractionSpeed,600
;   externalThinWallType,1
;   internalThinWallType,1
;   thinWallAllowedOverlapPercentage,10
;   singleExtrusionMinLength,1
;   singleExtrusionMinPrintingWidthPercentage,50
;   singleExtrusionMaxPrintingWidthPercentage,200
;   singleExtrusionEndpointExtension,0.2
;   horizontalSizeCompensation,0
G90
M82
M106 S0
M140 S60
M190 S60
M104 S210 T0
M109 S210 T0
G28 ; home all axes
G1 X0 Y20 Z0.2 F3000 ; get ready to prime
G92 E0 ; reset extrusion distance
G1 X150 E20 F600 ; prime nozzle
G92 E0
G1 E-1.0000 F1800
G1 Z0.150 F1000
; process Process1
; layer 1, Z = 0.150
T0
; tool H0.150 W0.400
; outer perimeter
G1 X87.700 Y87.700 F4800
G1 E0.0000 F540
G92 E0
G1 X112.300 Y87.700 E0.5523 F460
G1 X112.300 Y112.300 E1.1046
G1 X87.700 Y112.300 E1.6569
G1 X87.700 Y87.700 E2.2091
G92 E0
G1 E-1.0000 F1800
; layer 2, Z = 0.300
M106 S255
G1 X87.700 Y87.700 F4800
G1 Z0.300 F1000
G1 E0.0000 F1800
G92 E0
G1 X112.300 Y87.700 E0.5523 F460
G1 X112.300 Y112.300 E1.1046
G1 X87.700 Y112.300 E1.6569
G1 X87.700 Y87.700 E2.2091
G92 E0
G1 E-1.0000 F1800
; layer 3, Z = 0.450
G1 X87.700 Y87.700 F4800
G1 Z0.450 F1000
G1 E0.0000 F1800
G92 E0
G1 X112.300 Y87.700 E0.5523 F460
G1 X112.300 Y112.300 E1.1046
G1 X87.700 Y112.300 E1.6569
G1 X87.700 Y87.700 E2.2091
G92 E0
G1 E-1.0000 F1800
; layer 4, Z = 0.600
G1 X87.700 Y87.700 F4800
G1 Z0.600 F1000
G1 E0.0000 F1800
G92 E0
G1 X112.300 Y87.700 E0.5523 F460
G1 X112.300 Y112.300 E1.1046
G1 X87.700 Y112.300 E1.6569
G1 X87.700 Y87.700 E2.2091
G92 E0
G1 E-1.0000 F1800
; layer 5, Z = 0.750
G1 X87.700 Y87.700 F4800
G1 Z0.750 F1000
G1 E0.0000 F1800
G92 E0
G1 X112.300 Y87.700 E0.5523 F460
G1 X112.300 Y112.300 E1.1046
G1 X87.700 Y112.300 E1.6569
G1 X87.700 Y87.700 E2.2091
G92 E0
G1 E-1.0000 F1800
; layer 6, Z = 0.900
G1 X87.700 Y87.700 F4800
G1 Z0.900 F1000
G1 E0.0000 F1800
G92 E0
G1 X112.300 Y87.700 E0.5523 F460
G1 X112.300 Y112.300 E1.1046
G1 X87.700 Y112.300 E1.6569
G1 X87.700 Y87.700 E2.2091
G92 E0
G1 E-1.0000 F1800
; layer 7, Z = 1.050
G1 X87.700 Y87.700 F4800
G1 Z1.050 F1000
G1 E0.0000 F1800
G92 E0
G1 X112.300 Y87.700 E0.5523 F460
G1 X112.300 Y112.300 E1.1046
G1 X87.700 Y112.300 E1.6569
G1 X87.700 Y87.700 E2.2091
G92 E0
G1 E-1.0000 F1800
; layer 8, Z = 1.200
G1 X87.700 Y87.700 F4800
G1 Z1.200 F1000
G1 E0.0000 F1800
G92 E0
G1 X112.300 Y87.700 E0.5523 F460
G1 X112.300 Y112.300 E1.1046
G1 X87.700 Y112.300 E1.6569
G1 X87.700 Y87.700 E2.2091
G92 E0
G1 E-1.0000 F1800
; layer 9, Z = 1.350
G1 X87.700 Y87.700 F4800
G1 Z1.350 F1000
G1 E0.0000 F1800
G92 E0
G1 X112.300 Y87.700 E0.5523 F460
G1 X112.300 Y112.300 E1.1046
G1 X87.700 Y112.300 E1.6569
G1 X87.700 Y87.700 E2.2091
G92 E0
G1 E-1.0000 F1800
; layer 10, Z = 1.500
G1 X87.700 Y87.700 F4800
G1 Z1.500 F1000
G1 E0.0000 F1800
G92 E0
G1 X112.300 Y87.700 E0.5523 F460
G1 X112.300 Y112.300 E1.1046
G1 X87.700 Y112.300 E1.6569
G1 X87.700 Y87.700 E2.2091
G92 E0
G1 E-1.0000 F1800
; layer 11, Z = 1.650
G1 X87.700 Y87.700 F4800
G1 Z1.650 F1000
G1 E0.0000 F1800
G92 E0
G1 X112.300 Y87.700 E0.5523 F460
G1 X112.300 Y112.300 E1.1046
G1 X87.700 Y112.300 E1.6569
G1 X87.700 Y87.700 E2.2091
G92 E0
G1 E-1.0000 F1800
; layer 12, Z = 1.800
G1 X87.700 Y87.700 F4800
G1 Z1.800 F1000
G1 E0.0000 F1800
G92 E0
G1 X112.300 Y87.700 E0.5523 F460
G1 X112.300 Y112.300 E1.1046
G1 X87.700 Y112.300 E1.6569
G1 X87.700 Y87.700 E2.2091
G92 E0
G1 E-1.0000 F1800
; layer 13, Z = 1.950
G1 X87.700 Y87.700 F4800
G1 Z1.950 F1000
G1 E0.0000 F1800
G92 E0
G1 X112.300 Y87.700 E0.5523 F460
G1 X112.300 Y112.300 E1.1046
G1 X87.700 Y112.300 E1.6569
G1 X87.700 Y87.700 E2.2091
G92 E0
G1 E-1.0000 F1800
; layer 14, Z = 2.100
G1 X87.700 Y87.700 F4800
G1 Z2.100 F1000
G1 E0.0000 F1800
G92 E0
G1 X112.300 Y87.700 E0.5523 F460
G1 X112.300 Y112.300 E1.1046
G1 X87.700 Y112.300 E1.6569
G1 X87.700 Y87.700 E2.2091
G92 E0
G1 E-1.0000 F1800
; layer 15, Z = 2.250
G1 X87.700 Y87.700 F4800
G1 Z2.250 F1000
G1 E0.0000 F1800
G92 E0
G1 X112.300 Y87.700 E0.5523 F460
G1 X112.300 Y112.300 E1.1046
G1 X87.700 Y112.300 E1.6569
G1 X87.700 Y87.700 E2.2091
G92 E0
G1 E-1.0000 F1800
; layer 16, Z = 2.400
G1 X87.700 Y87.700 F4800
G1 Z2.400 F1000
G1 E0.0000 F1800
G92 E0
G1 X112.300 Y87.700 E0.5523 F460
G1 X112.300 Y112.300 E1.1046
G1 X87.700 Y112.300 E1.6569
G1 X87.700 Y87.700 E2.2091
G92 E0
G1 E-1.0000 F1800
; layer 17, Z = 2.550
G1 X87.700 Y87.700 F4800
G1 Z2.550 F1000
G1 E0.0000 F1800
G92 E0
G1 X112.300 Y87.700 E0.5523 F460
G1 X112.300 Y112.300 E1.1046
G1 X87.700 Y112.300 E1.6569
G1 X87.700 Y87.700 E2.2091
G92 E0
G1 E-1.0000 F1800
; layer 18, Z = 2.700
G1 X87.700 Y87.700 F4800
G1 Z2.700 F1000
G1 E0.0000 F1800
G92 E0
G1 X112.300 Y87.700 E0.5523 F460
G1 X112.300 Y112.300 E1.1046
G1 X87.700 Y112.300 E1.6569
G1 X87.700 Y87.700 E2.2091
G92 E0
G1 E-1.0000 F1800
; layer 19, Z = 2.850
G1 X87.700 Y87.700 F4800
G1 Z2.850 F1000
G1 E0.0000 F1800
G92 E0
G1 X112.300 Y87.700 E0.5523 F460
G1 X112.300 Y112.300 E1.1046
G1 X87.700 Y112.300 E1.6569
G1 X87.700 Y87.700 E2.2091
G92 E0
G1 E-1.0000 F1800
; layer 20, Z = 3.000
G1 X87.700 Y87.700 F4800
G1 Z3.000 F1000
G1 E0.0000 F1800
G92 E0
G1 X112.300 Y87.700 E0.5523 F460
G1 X112.300 Y112.300 E1.1046
G1 X87.700 Y112.300 E1.6569
G1 X87.700 Y87.700 E2.2091
G92 E0
G1 E-1.0000 F1800
; layer 21, Z = 3.150
G1 X87.700 Y87.700 F4800
G1 Z3.150 F1000
G1 E0.0000 F1800
G92 E0
G1 X112.300 Y87.700 E0.5523 F460
G1 X112.300 Y112.300 E1.1046
G1 X87.700 Y112.300 E1.6569
G1 X87.700 Y87.700 E2.2091
G92 E0
G1 E-1.0000 F1800
; layer 22, Z = 3.300
G1 X87.700 Y87.700 F4800
G1 Z3.300 F1000
G1 E0.0000 F1800
G92 E0
G1 X112.300 Y87.700 E0.5523 F460
G1 X112.300 Y112.300 E1.1046
G1 X87.700 Y112.300 E1.6569
G1 X87.700 Y87.700 E2.2091
G92 E0
G1 E-1.0000 F1800
; layer 23, Z = 3.450
G1 X87.700 Y87.700 F4800
G1 Z3.450 F1000
G1 E0.0000 F1800
G92 E0
G1 X112.300 Y87.700 E0.5523 F460
G1 X112.300 Y112.300 E1.1046
G1 X87.700 Y112.300 E1.6569
G1 X87.700 Y87.700 E2.2091
G92 E0
G1 E-1.0000 F1800
; layer 24, Z = 3.600
G1 X87.700 Y87.700 F4800
G1 Z3.600 F1000
G1 E0.0000 F1800
G92 E0
G1 X112.300 Y87.700 E0.5523 F460
G1 X112.300 Y112.300 E1.1046
G1 X87.700 Y112.300 E1.6569
G1 X87.700 Y87.700 E2.2091
G92 E0
G1 E-1.0000 F1800
; layer 25, Z = 3.750
G1 X87.700 Y87.700 F4800
G1 Z3.750 F1000
G1 E0.0000 F1800
G92 E0
G1 X112.300 Y87.700 E0.5523 F460
G1 X112.300 Y112.300 E1.1046
G1 X87.700 Y112.300 E1.6569
G1 X87.700 Y87.700 E2.2091
G92 E0
G1 E-1.0000 F1800
; layer 26, Z = 3.900
G1 X87.700 Y87.700 F4800
G1 Z3.900 F1000
G1 E0.0000 F1800
G92 E0
G1 X112.300 Y87.700 E0.5523 F460
G1 X112.300 Y112.300 E1.1046
G1 X87.700 Y112.300 E1.6569
G1 X87.700 Y87.700 E2.2091
G92 E0
G1 E-1.0000 F1800
; layer 27, Z = 4.050
G1 X87.700 Y87.700 F4800
G1 Z4.050 F1000
G1 E0.0000 F1800
G92 E0
G1 X112.300 Y87.700 E0.5523 F460
G1 X112.300 Y112.300 E1.1046
G1 X87.700 Y112.300 E1.6569
G1 X87.700 Y87.700 E2.2091
G92 E0
G1 E-1.0000 F1800
; layer 28, Z = 4.200
G1 X87.700 Y87.700 F4800
G1 Z4.200 F1000
G1 E0.0000 F1800
G92 E0
G1 X112.300 Y87.700 E0.5523 F460
G1 X112.300 Y112.300 E1.1046
G1 X87.700 Y112.300 E1.6569
G1 X87.700 Y87.700 E2.2091
G92 E0
G1 E-1.0000 F1800
; layer 29, Z = 4.350
G1 X87.700 Y87.700 F4800
G1 Z4.350 F1000
G1 E0.0000 F1800
G92 E0
G1 X112.300 Y87.700 E0.5523 F460
G1 X112.300 Y112.300 E1.1046
G1 X87.700 Y112.300 E1.6569
G1 X87.700 Y87.700 E2.2091
G92 E0
G1 E-1.0000 F1800
; layer 30, Z = 4.500
G1 X87.700 Y87.700 F4800
G1 Z4.500 F1000
G1 E0.0000 F1800
G92 E0
G1 X112.300 Y87.700 E0.5523 F460
G1 X112.300 Y112.300 E1.1046
G1 X87.700 Y112.300 E1.6569
G1 X87.700 Y87.700 E2.2091
G92 E0
G1 E-1.0000 F1800
; layer 31, Z = 4.650
G1 X87.700 Y87.700 F4800
G1 Z4.650 F1000
G1 E0.0000 F1800
G92 E0
G1 X112.300 Y87.700 E0.5523 F460
G1 X112.300 Y112.300 E1.1046
G1 X87.700 Y112.300 E1.6569
G1 X87.700 Y87.700 E2.2091
G92 E0
G1 E-1.0000 F1800
; layer 32, Z = 4.800
G1 X87.700 Y87.700 F4800
G1 Z4.800 F1000
G1 E0.0000 F1800
G92 E0
G1 X112.300 Y87.700 E0.5523 F460
G1 X112.300 Y112.300 E1.1046
G1 X87.700 Y112.300 E1.6569
G1 X87.700 Y87.700 E2.2091
G92 E0
G1 E-1.0000 F1800
; layer 33, Z = 4.950
G1 X87.700 Y87.700 F4800
G1 Z4.950 F1000
G1 E0.0000 F1800
G92 E0
G1 X112.300 Y87.700 E0.5523 F460
G1 X112.300 Y112.300 E1.1046
G1 X87.700 Y112.300 E1.6569
G1 X87.700 Y87.700 E2.2091
G92 E0
G1 E-1.0000 F1800
; layer 34, Z = 5.100
G1 X87.700 Y87.700 F4800
G1 Z5.100 F1000
G1 E0.0000 F1800
G92 E0
G1 X112.300 Y87.700 E0.5523 F460
G1 X112.300 Y112.300 E1.1046
G1 X87.700 Y112.300 E1.6569
G1 X87.700 Y87.700 E2.2091
G92 E0
G1 E-1.0000 F1800
; layer 35, Z = 5.250
G1 X87.700 Y87.700 F4800
G1 Z5.250 F1000
G1 E0.0000 F1800
G92 E0
G1 X112.300 Y87.700 E0.5523 F460
G1 X112.300 Y112.300 E1.1046
G1 X87.700 Y112.300 E1.6569
G1 X87.700 Y87.700 E2.2091
G92 E0
G1 E-1.0000 F1800
; layer 36, Z = 5.400
G1 X87.700 Y87.700 F4800
G1 Z5.400 F1000
G1 E0.0000 F1800
G92 E0
G1 X112.300 Y87.700 E0.5523 F460
G1 X112.300 Y112.300 E1.1046
G1 X87.700 Y112.300 E1.6569
G1 X87.700 Y87.700 E2.2091
G92 E0
G1 E-1.0000 F1800
; layer 37, Z = 5.550
G1 X87.700 Y87.700 F4800
G1 Z5.550 F1000
G1 E0.0000 F1800
G92 E0
G1 X112.300 Y87.700 E0.5523 F460
G1 X112.300 Y112.300 E1.1046
G1 X87.700 Y112.300 E1.6569
G1 X87.700 Y87.700 E2.2091
G92 E0
G1 E-1.0000 F1800
; layer 38, Z = 5.700
G1 X87.700 Y87.700 F4800
G1 Z5.700 F1000
G1 E0.0000 F1800
G92 E0
G1 X112.300 Y87.700 E0.5523 F460
G1 X112.300 Y112.300 E1.1046
G1 X87.700 Y112.300 E1.6569
G1 X87.700 Y87.700 E2.2091
G92 E0
G1 E-1.0000 F1800
; layer 39, Z = 5.850
G1 X87.700 Y87.700 F4800
G1 Z5.850 F1000
G1 E0.0000 F1800
G92 E0
G1 X112.300 Y87.700 E0.5523 F460
G1 X112.300 Y112.300 E1.1046
G1 X87.700 Y112.300 E1.6569
G1 X87.700 Y87.700 E2.2091
G92 E0
G1 E-1.0000 F1800
; layer 40, Z = 6.000
G1 X87.700 Y87.700 F4800
G1 Z6.000 F1000
G1 E0.0000 F1800
G92 E0
G1 X112.300 Y87.700 E0.5523 F460
G1 X112.300 Y112.300 E1.1046
G1 X87.700 Y112.300 E1.6569
G1 X87.700 Y87.700 E2.2091
G92 E0
G1 E-1.0000 F1800
; layer 41, Z = 6.150
G1 X87.700 Y87.700 F4800
G1 Z6.150 F1000
G1 E0.0000 F1800
G92 E0
G1 X112.300 Y87.700 E0.5523 F460
G1 X112.300 Y112.300 E1.1046
G1 X87.700 Y112.300 E1.6569
G1 X87.700 Y87.700 E2.2091
G92 E0
G1 E-1.0000 F1800
; layer 42, Z = 6.300
G1 X87.700 Y87.700 F4800
G1 Z6.300 F1000
G1 E0.0000 F1800
G92 E0
G1 X112.300 Y87.700 E0.5523 F460
G1 X112.300 Y112.300 E1.1046
G1 X87.700 Y112.300 E1.6569
G1 X87.700 Y87.700 E2.2091
G92 E0
G1 E-1.0000 F1800
; layer 43, Z = 6.450
G1 X87.700 Y87.700 F4800
G1 Z6.450 F1000
G1 E0.0000 F1800
G92 E0
G1 X112.300 Y87.700 E0.5523 F460
G1 X112.300 Y112.300 E1.1046
G1 X87.700 Y112.300 E1.6569
G1 X87.700 Y87.700 E2.2091
G92 E0
G1 E-1.0000 F1800
; layer 44, Z = 6.600
G1 X87.700 Y87.700 F4800
G1 Z6.600 F1000
G1 E0.0000 F1800
G92 E0
G1 X112.300 Y87.700 E0.5523 F460
G1 X112.300 Y112.300 E1.1046
G1 X87.700 Y112.300 E1.6569
G1 X87.700 Y87.700 E2.2091
G92 E0
G1 E-1.0000 F1800
; layer 45, Z = 6.750
G1 X87.700 Y87.700 F4800
G1 Z6.750 F1000
