; G-Code generated by Simplify3D(R) Version 4.0.0
; May 3, 2018 at 7:36:56 PM
; Settings Summary
;   processName,nozzle 0.4
;   applyToModels,d20-whole-nums
;   profileName,Flying Bear 902 Update 7-2017 (modified)
;   profileVersion,2017-07-10 09:45:20
;   baseProfile,Default
;   printMaterial,PLA
;   printQuality,Medium
;   printExtruders,
;   extruderName,Extruder 1
;   extruderToolheadNumber,0
;   extruderDiameter,0.4
;   extruderAutoWidth,1
;   extruderWidth,0.48
;   extrusionMultiplier,0.9
;   extruderUseRetract,1
;   extruderRetractionDistance,2
;   extruderExtraRestartDistance,0
;   extruderRetractionZLift,0
;   extruderRetractionSpeed,3000
;   extruderUseCoasting,0
;   extruderCoastingDistance,0.2
;   extruderUseWipe,1
;   extruderWipeDistance,5
;   primaryExtruder,0
;   layerHeight,0.15
;   topSolidLayers,4
;   bottomSolidLayers,4
;   perimeterOutlines,3
;   printPerimetersInsideOut,0
;   startPointOption,2
;   startPointOriginX,0
;   startPointOriginY,0
;   sequentialIslands,0
;   spiralVaseMode,0
;   firstLayerHeightPercentage,20
;   firstLayerWidthPercentage,100
;   firstLayerUnderspeed,0.3
;   useRaft,0
;   raftExtruder,0
;   raftTopLayers,2
;   raftBaseLayers,2
;   raftOffset,2
;   raftSeparationDistance,0.3
;   raftTopInfill,100
;   aboveRaftSpeedMultiplier,0.3
;   useSkirt,0
;   skirtExtruder,0
;   skirtLayers,1
;   skirtOutlines,2
;   skirtOffset,4
;   usePrimePillar,0
;   primePillarExtruder,999
;   primePillarWidth,12
;   primePillarLocation,7
;   primePillarSpeedMultiplier,1
;   useOozeShield,0
;   oozeShieldExtruder,999
;   oozeShieldOffset,2
;   oozeShieldOutlines,1
;   oozeShieldSidewallShape,1
;   oozeShieldSidewallAngle,30
;   oozeShieldSpeedMultiplier,1
;   infillExtruder,0
;   internalInfillPattern,Rectilinear
;   externalInfillPattern,Rectilinear
;   infillPercentage,100
;   outlineOverlapPercentage,60
;   infillExtrusionWidthPercentage,100
;   minInfillLength,5
;   infillLayerInterval,1
;   internalInfillAngles,45,-45
;   overlapInternalInfillAngles,0
;   externalInfillAngles,45,-45
;   generateSupport,0
;   supportExtruder,0
;   supportInfillPercentage,30
;   supportExtraInflation,0
;   supportBaseLayers,0
;   denseSupportExtruder,0
;   denseSupportLayers,0
;   denseSupportInfillPercentage,50
;   supportLayerInterval,1
;   supportHorizontalPartOffset,0.3
;   supportUpperSeparationLayers,1
;   supportLowerSeparationLayers,1
;   supportType,0
;   supportGridSpacing,4
;   maxOverhangAngle,70
;   supportAngles,0
;   temperatureName,Extruder 1,Heated Bed
;   temperatureNumber,0,0
;   temperatureSetpointCount,1,1
;   temperatureSetpointLayers,1,1
;   temperatureSetpointTemperatures,210,60
;   temperatureStabilizeAtStartup,1,0
;   temperatureHeatedBed,0,1
;   temperatureRelayBetweenLayers,0,0
;   temperatureRelayBetweenLoops,0,0
;   fanLayers,1
;   fanSpeeds,255
;   blipFanToFullPower,0
;   adjustSpeedForCooling,1
;   minSpeedLayerTime,15
;   minCoolingSpeedSlowdown,20
;   increaseFanForCooling,0
;   minFanLayerTime,45
;   maxCoolingFanSpeed,100
;   increaseFanForBridging,0
;   bridgingFanSpeed,100
;   use5D,1
;   relativeEdistances,0
;   allowEaxisZeroing,1
;   independentExtruderAxes,0
;   includeM10123,0
;   stickySupport,1
;   applyToolheadOffsets,0
;   gcodeXoffset,0
;   gcodeYoffset,0
;   gcodeZoffset,0
;   overrideMachineDefinition,1
;   machineTypeOverride,0
;   strokeXoverride,220
;   strokeYoverride,220
;   strokeZoverride,280
;   originOffsetXoverride,0
;   originOffsetYoverride,0
;   originOffsetZoverride,0
;   homeXdirOverride,-1
;   homeYdirOverride,-1
;   homeZdirOverride,-1
;   flipXoverride,1
;   flipYoverride,-1
;   flipZoverride,1
;   toolheadOffsets,0,0|0,0|0,0|0,0|0,0|0,0
;   overrideFirmwareConfiguration,1
;   firmwareTypeOverride,RepRap (Marlin/Repetier/Sprinter)
;   GPXconfigOverride,r2
;   baudRateOverride,250000
;   overridePrinterModels,0
;   printerModelsOverride
;   startingGcode,G28 ; home all axes,G1 X0 Y20 Z0.2 F3000 ; get ready to prime,G92 E0 ; reset extrusion distance,G1 X200 E20 F600 ; prime nozzle
;   layerChangeGcode,
;   retractionGcode,
;   toolChangeGcode,
;   endingGcode,M104 S0 ; turn off extruder,M140 S0 ; turn off bed,G28 X Y ; home x and y axes,M84 ; disable motors
;   exportFileFormat,gcode
;   celebration,0
;   celebrationSong,Random Song
;   postProcessing,
;   defaultSpeed,4600
;   outlineUnderspeed,0.6
;   solidInfillUnderspeed,0.85
;   supportUnderspeed,0.8
;   rapidXYspeed,5200
;   rapidZspeed,1002
;   minBridgingArea,50
;   bridgingExtraInflation,0
;   bridgingExtrusionMultiplier,1
;   bridgingSpeedMultiplier,1
;   useFixedBridgingAngle,0
;   fixedBridgingAngle,0
;   applyBridgingToPerimeters,0
;   filamentDiameters,1.75|1.75|1.75|1.75|1.75|1.75
;   filamentPricesPerKg,46|46|46|46|46|46
;   filamentDensities,1.25|1.25|1.25|1.25|1.25|1.25
;   useMinPrintHeight,0
;   minPrintHeight,0
;   useMaxPrintHeight,0
;   maxPrintHeight,2.3
;   useDiaphragm,0
;   diaphragmLayerInterval,20
;   robustSlicing,1
;   mergeAllIntoSolid,0
;   onlyRetractWhenCrossingOutline,1
;   retractBetweenLayers,1
;   useRetractionMinTravel,0
;   retractionMinTravel,3
;   retractWhileWiping,0
;   onlyWipeOutlines,1
;   avoidCrossingOutline,0
;   maxMovementDetourFactor,3
;   toolChangeRetractionDistance,12
;   toolChangeExtraRestartDistance,-0.5
;   toolChangeRetractionSpeed,600
;   externalThinWallType,1
;   internalThinWallType,0
;   thinWallAllowedOverlapPercentage,15
;   singleExtrusionMinLength,1
;   singleExtrusionMinPrintingWidthPercentage,50
;   singleExtrusionMaxPrintingWidthPercentage,200
;   singleExtrusionEndpointExtension,0.2
;   horizontalSizeCompensation,0
G90
M82
M106 S650
M140 S60
M104 S210 T0
M109 S210 T0
G28 ; home all axes
G1 X0 Y20 Z0.2 F3000 ; get ready to prime
G92 E0 ; reset extrusion distance
G1 X200 E20 F600 ; prime nozzle
G92 E0
G1 E-2.0000 F3000
G1 Z0.030 F1002
; process nozzle 0.4
; layer 1, Z = 0.030
T0
; tool H0.150 W0.480
; outer perimeter
G1 X117.863 Y99.639 F5200
G1 E0.0000 F900
G92 E0
G1 X120.293 Y101.587 E0.0839 F552
G1 X124.759 Y105.217 E0.2390
G1 X127.158 Y107.194 E0.3227
G1 X124.973 Y108.032 E0.3857
G1 X118.025 Y110.637 E0.5856
G1 X115.829 Y111.443 E0.6487
G1 X116.335 Y108.379 E0.7323
G1 X117.314 Y102.703 E0.8875
G1 X117.863 Y99.639 E0.9714
G1 X120.293 Y101.587 F4600
G1 X121.756 Y102.776 F4600
; inner perimeter
G1 X119.991 Y101.960 F5200
G92 E0
G1 X124.456 Y105.590 E0.1550 F736
G1 X126.217 Y107.041 E0.2165
G1 X124.804 Y107.583 E0.2573
G1 X117.858 Y110.187 E0.4571
G1 X116.436 Y110.708 E0.4979
G1 X116.809 Y108.456 E0.5594
G1 X117.786 Y102.788 E0.7144
G1 X118.193 Y100.519 E0.7765
G1 X119.991 Y101.960 E0.8386
G1 X119.690 Y102.334 F5200
G92 E0
G1 X120.138 Y102.698 E0.0155 F736
G1 X120.047 Y102.662 E0.0182
G1 X119.506 Y102.653 E0.0327
G1 X118.875 Y102.886 E0.0509
G1 X118.436 Y103.362 E0.0683
G1 X118.205 Y104.097 E0.0891
G1 X118.166 Y104.178 E0.0915
G1 X118.087 Y104.297 E0.0953
G1 X117.995 Y104.403 E0.0991
G1 X118.259 Y102.869 E0.1410
G1 X118.523 Y101.398 E0.1813
G1 X119.690 Y102.334 E0.2216
G1 X121.089 Y103.471 F5200
G92 E0
G1 X124.152 Y105.961 E0.1064 F736
G1 X125.276 Y106.887 E0.1456
G1 X124.634 Y107.134 E0.1641
G1 X122.307 Y108.006 E0.2311
G1 X122.458 Y107.593 E0.2429
G1 X122.423 Y107.024 E0.2583
G1 X122.312 Y106.665 E0.2684
G1 X121.188 Y103.667 E0.3546
G1 X121.089 Y103.471 E0.3606
G92 E0
G1 E-2.0000 F3000
G1 X119.131 Y107.112 F5200
G1 E0.0000 F3000
G92 E0
G1 X119.424 Y107.892 E0.0225 F736
G1 X119.636 Y108.307 E0.0350
G1 X120.110 Y108.732 E0.0521
G1 X120.246 Y108.779 E0.0560
G1 X117.690 Y109.738 E0.1296
G1 X117.044 Y109.974 E0.1481
G1 X117.282 Y108.538 E0.1873
G1 X117.639 Y106.466 E0.2440
G1 X117.766 Y106.673 E0.2505
G1 X118.234 Y107.011 E0.2660
G1 X118.799 Y107.161 E0.2818
G1 X119.131 Y107.112 E0.2908
; outer perimeter
G1 X119.081 Y106.148 F5200
G92 E0
G1 X119.350 Y105.923 E0.0095 F552
G1 X119.607 Y105.647 E0.0196
G1 X120.303 Y107.504 E0.0731
G1 X120.409 Y107.711 E0.0793
G1 X120.607 Y107.889 E0.0865
G1 X120.742 Y107.936 E0.0903
G1 X120.875 Y107.959 E0.0940
G1 X121.126 Y107.913 E0.1009
G1 X121.341 Y107.728 E0.1085
G1 X121.430 Y107.610 E0.1125
G1 X121.487 Y107.452 E0.1170
G1 X121.472 Y107.198 E0.1239
G1 X121.403 Y106.976 E0.1301
G1 X120.308 Y104.054 E0.2142
G1 X120.211 Y103.862 E0.2200
G1 X120.032 Y103.690 E0.2267
G1 X119.855 Y103.619 E0.2318
G1 X119.670 Y103.616 E0.2368
G1 X119.425 Y103.706 E0.2439
G1 X119.288 Y103.855 E0.2493
G1 X119.101 Y104.448 E0.2661
G1 X119.004 Y104.652 E0.2721
G1 X118.852 Y104.880 E0.2795
G1 X118.397 Y105.403 E0.2982
G1 X118.333 Y105.619 E0.3043
G1 X118.375 Y105.831 E0.3101
G1 X118.484 Y106.007 E0.3157
G1 X118.653 Y106.129 E0.3213
G1 X118.853 Y106.182 E0.3269
G1 X119.081 Y106.148 E0.3331
G1 X119.350 Y105.923 F4600
G1 X119.607 Y105.647 F4600
G1 X120.303 Y107.504 F4600
G1 X120.409 Y107.711 F4600
G1 X120.607 Y107.889 F4600
G1 X120.742 Y107.936 F4600
G1 X120.875 Y107.959 F4600
G1 X121.126 Y107.913 F4600
G1 X121.341 Y107.728 F4600
G1 X121.430 Y107.610 F4600
G1 X121.487 Y107.452 F4600
G1 X121.472 Y107.198 F4600
G1 X121.403 Y106.976 F4600
G1 X121.344 Y106.817 F4600
; inner perimeter
G1 X121.858 Y106.820 F5200
G92 E0
G1 X120.748 Y103.861 E0.0852 F736
G1 X120.603 Y103.574 E0.0938
G1 X120.298 Y103.279 E0.1052
G1 X119.951 Y103.140 E0.1153
G1 X119.588 Y103.134 E0.1251
G1 X119.150 Y103.296 E0.1377
G1 X118.862 Y103.609 E0.1491
G1 X118.653 Y104.273 E0.1679
G1 X118.585 Y104.415 E0.1721
G1 X118.470 Y104.588 E0.1777
G1 X117.966 Y105.167 E0.1984
G1 X117.839 Y105.596 E0.2105
G1 X117.921 Y106.009 E0.2218
G1 X118.125 Y106.340 E0.2323
G1 X118.443 Y106.570 E0.2429
G1 X118.826 Y106.672 E0.2535
G1 X119.286 Y106.603 E0.2661
G1 X119.413 Y106.496 E0.2705
G1 X119.863 Y107.698 E0.3051
G1 X120.022 Y108.009 E0.3145
G1 X120.358 Y108.310 E0.3267
G1 X120.621 Y108.402 E0.3342
G1 X120.877 Y108.447 E0.3412
G1 X121.341 Y108.362 E0.3539
G1 X121.693 Y108.058 E0.3664
G1 X121.857 Y107.841 E0.3737
G1 X121.973 Y107.522 E0.3828
G1 X121.948 Y107.111 E0.3940
G1 X121.858 Y106.820 E0.4021
; solid layer
G1 X122.620 Y107.099 F5200
G92 E0
G1 X123.046 Y107.524 E0.0162 F782
G1 X123.539 Y107.339 E0.0304
G1 X122.308 Y106.108 E0.0773
G1 X121.901 Y105.022 E0.1086
G1 X124.033 Y107.154 E0.1898
G1 X124.527 Y106.969 E0.2040
G1 X122.091 Y104.533 E0.2968
G1 X118.515 Y102.993 F5200
G92 E0
G1 X118.445 Y102.923 E0.0027 F782
G1 X118.448 Y102.903 E0.0032
G1 X118.548 Y102.348 E0.0184
G1 X118.880 Y102.679 E0.0311
G1 X119.375 Y102.496 E0.0453
G1 X118.651 Y101.772 E0.0729
G92 E0
G1 E-2.0000 F3000
G1 X118.803 Y107.355 F5200
G1 E0.0000 F3000
G92 E0
G1 X119.145 Y107.697 E0.0130 F782
G1 X119.248 Y107.970 E0.0209
G1 X119.481 Y108.426 E0.0347
G1 X119.823 Y108.733 E0.0471
G1 X119.590 Y108.820 E0.0538
G1 X117.746 Y106.976 E0.1240
G1 X117.646 Y107.555 E0.1399
G1 X119.096 Y109.005 E0.1951
G1 X118.603 Y109.190 E0.2093
G1 X117.547 Y108.134 E0.2495
G1 X117.472 Y108.567 E0.2614
G1 X117.448 Y108.714 E0.2654
G1 X118.109 Y109.376 E0.2906
G1 X117.626 Y109.557 E0.3045
G1 X117.615 Y109.561 E0.3048
G1 X117.351 Y109.297 E0.3148
G92 E0
G1 E-2.0000 F3000
; layer 2, Z = 0.180
; outer perimeter
G1 X115.586 Y111.033 F5200
G1 Z0.180 F1002
G1 E0.0000 F3000
G92 E0
G1 X117.085 Y102.383 E0.2365 F588
G1 X117.494 Y100.013 E0.3013
G1 X117.517 Y99.874 E0.3051
G1 X117.599 Y99.708 E0.3101
G1 X117.701 Y99.598 E0.3141
G1 X117.788 Y99.541 E0.3169
G1 X117.932 Y99.502 E0.3210
G1 X118.009 Y99.501 E0.3230
G1 X118.139 Y99.523 E0.3266
G1 X118.198 Y99.544 E0.3283
G1 X118.299 Y99.600 E0.3314
G1 X127.095 Y106.751 E0.6368
G1 X127.207 Y106.889 E0.6416
G1 X127.252 Y106.989 E0.6445
G1 X127.283 Y107.160 E0.6492
G1 X127.276 Y107.235 E0.6512
G1 X127.252 Y107.313 E0.6535
G1 X127.203 Y107.404 E0.6562
G1 X127.118 Y107.500 E0.6597
G1 X127.021 Y107.566 E0.6628
G1 X126.866 Y107.630 E0.6674
G1 X119.841 Y110.252 E0.8694
G1 X116.332 Y111.581 E0.9705
G1 X116.218 Y111.622 E0.9737
G1 X116.061 Y111.645 E0.9780
G1 X115.942 Y111.630 E0.9812
G1 X115.862 Y111.602 E0.9835
G1 X115.785 Y111.558 E0.9859
G1 X115.678 Y111.446 E0.9901
G1 X115.605 Y111.300 E0.9945
G1 X115.594 Y111.260 E0.9956
G1 X115.579 Y111.150 E0.9986
G1 X115.586 Y111.033 E1.0017
G1 X116.440 Y106.106 F4600
; inner perimeter
G1 X117.558 Y102.465 F5200
G92 E0
G1 X117.967 Y100.092 E0.0649 F784
G1 X117.979 Y100.022 E0.0668
G1 X117.997 Y99.986 E0.0679
G1 X118.009 Y99.988 E0.0682
G1 X118.029 Y99.999 E0.0688
G1 X126.754 Y107.093 E0.3718
G1 X126.791 Y107.138 E0.3733
G1 X126.792 Y107.142 E0.3734
G1 X126.691 Y107.183 E0.3764
G1 X119.672 Y109.803 E0.5782
G1 X116.167 Y111.131 E0.6792
G1 X116.102 Y111.154 E0.6811
G1 X116.071 Y111.158 E0.6819
G1 X116.062 Y111.140 E0.6824
G1 X116.061 Y111.133 E0.6826
G1 X116.064 Y111.089 E0.6838
G1 X117.558 Y102.465 E0.9196
G1 X118.031 Y102.546 F5200
G92 E0
G1 X118.323 Y100.856 E0.0462 F784
G1 X125.857 Y106.982 E0.3078
G1 X122.012 Y108.417 E0.4184
G1 X122.045 Y108.388 E0.4196
G1 X122.283 Y108.073 E0.4302
G1 X122.458 Y107.593 E0.4440
G1 X122.423 Y107.024 E0.4593
G1 X122.311 Y106.661 E0.4696
G1 X121.188 Y103.667 E0.5557
G1 X120.994 Y103.285 E0.5672
G1 X120.564 Y102.868 E0.5834
G1 X120.047 Y102.662 E0.5984
G1 X119.506 Y102.653 E0.6130
G1 X118.875 Y102.886 E0.6311
G1 X118.436 Y103.362 E0.6485
G1 X118.205 Y104.097 E0.6693
G1 X118.166 Y104.178 E0.6717
G1 X118.087 Y104.297 E0.6755
G1 X117.639 Y104.812 E0.6939
G1 X118.031 Y102.546 E0.7559
G1 X117.432 Y106.007 F5200
G92 E0
G1 X117.467 Y106.187 E0.0049 F784
G1 X117.766 Y106.673 E0.0203
G1 X118.234 Y107.011 E0.0359
G1 X118.799 Y107.161 E0.0516
G1 X119.131 Y107.112 E0.0607
G1 X119.424 Y107.892 E0.0831
G1 X119.636 Y108.307 E0.0957
G1 X120.110 Y108.732 E0.1128
G1 X120.500 Y108.868 E0.1239
G1 X120.707 Y108.904 E0.1296
G1 X119.503 Y109.354 E0.1642
G1 X116.665 Y110.429 E0.2460
G1 X117.432 Y106.007 E0.3669
; outer perimeter
G1 X118.375 Y105.831 F5200
G92 E0
G1 X118.484 Y106.007 E0.0056 F588
G1 X118.653 Y106.129 E0.0112
G1 X118.853 Y106.182 E0.0168
G1 X119.081 Y106.148 E0.0230
G1 X119.350 Y105.923 E0.0324
G1 X119.607 Y105.647 E0.0426
G1 X120.303 Y107.504 E0.0960
G1 X120.409 Y107.711 E0.1023
G1 X120.607 Y107.889 E0.1095
G1 X120.742 Y107.936 E0.1133
G1 X120.875 Y107.959 E0.1170
G1 X121.126 Y107.913 E0.1238
G1 X121.341 Y107.728 E0.1315
G1 X121.430 Y107.610 E0.1355
G1 X121.487 Y107.452 E0.1400
G1 X121.472 Y107.198 E0.1469
G1 X121.402 Y106.972 E0.1532
G1 X120.308 Y104.054 E0.2372
G1 X120.211 Y103.862 E0.2430
G1 X120.032 Y103.690 E0.2497
G1 X119.855 Y103.619 E0.2548
G1 X119.670 Y103.616 E0.2598
G1 X119.425 Y103.706 E0.2668
G1 X119.288 Y103.855 E0.2723
G1 X119.101 Y104.448 E0.2890
G1 X119.004 Y104.652 E0.2951
G1 X118.852 Y104.880 E0.3025
G1 X118.397 Y105.403 E0.3212
G1 X118.333 Y105.619 E0.3272
G1 X118.375 Y105.831 E0.3331
G1 X118.484 Y106.007 F4600
G1 X118.653 Y106.129 F4600
G1 X118.853 Y106.182 F4600
G1 X119.081 Y106.148 F4600
G1 X119.350 Y105.923 F4600
G1 X119.607 Y105.647 F4600
G1 X120.303 Y107.504 F4600
G1 X120.409 Y107.711 F4600
G1 X120.607 Y107.889 F4600
G1 X120.742 Y107.936 F4600
G1 X120.875 Y107.959 F4600
G1 X121.126 Y107.913 F4600
G1 X121.341 Y107.728 F4600
G1 X121.413 Y107.633 F4600
; inner perimeter
G1 X121.857 Y107.841 F5200
G92 E0
G1 X121.973 Y107.522 E0.0091 F784
G1 X121.948 Y107.111 E0.0202
G1 X121.856 Y106.816 E0.0285
G1 X120.748 Y103.861 E0.1136
G1 X120.603 Y103.574 E0.1223
G1 X120.298 Y103.279 E0.1337
G1 X119.951 Y103.140 E0.1438
G1 X119.588 Y103.134 E0.1535
G1 X119.150 Y103.296 E0.1661
G1 X118.862 Y103.609 E0.1776
G1 X118.653 Y104.273 E0.1963
G1 X118.585 Y104.415 E0.2006
G1 X118.470 Y104.588 E0.2062
G1 X117.966 Y105.167 E0.2269
G1 X117.839 Y105.596 E0.2389
G1 X117.921 Y106.009 E0.2502
G1 X118.125 Y106.340 E0.2607
G1 X118.443 Y106.570 E0.2713
G1 X118.826 Y106.672 E0.2820
G1 X119.286 Y106.603 E0.2945
G1 X119.413 Y106.496 E0.2990
G1 X119.863 Y107.698 E0.3335
G1 X120.022 Y108.009 E0.3429
G1 X120.358 Y108.310 E0.3551
G1 X120.621 Y108.402 E0.3626
G1 X120.877 Y108.447 E0.3696
G1 X121.341 Y108.362 E0.3823
G1 X121.693 Y108.058 E0.3948
G1 X121.857 Y107.841 E0.4021
; solid layer
G1 X119.781 Y108.695 F5200
G92 E0
G1 X119.219 Y109.256 E0.0214 F833
G1 X118.127 Y109.670 E0.0529
G1 X119.444 Y108.353 E0.1030
