; G-Code generated by Simplify3D(R) Version 4.0.0
; Jan 2, 2021 at 11:21:37 AM
; Settings Summary
;   processName,Process1
;   applyToModels,DickDuck2.1
;   profileName,new profile (modified)
;   profileVersion,2020-09-07 14:01:24
;   baseProfile,Default (modified)
;   printMaterial,PLA
;   printQuality,Medium
;   printExtruders,
;   extruderName,Primary Extruder
;   extruderToolheadNumber,0
;   extruderDiameter,0.4
;   extruderAutoWidth,0
;   extruderWidth,0.4
;   extrusionMultiplier,0.9
;   extruderUseRetract,1
;   extruderRetractionDistance,1
;   extruderExtraRestartDistance,0
;   extruderRetractionZLift,0
;   extruderRetractionSpeed,1800
;   extruderUseCoasting,0
;   extruderCoastingDistance,0.2
;   extruderUseWipe,0
;   extruderWipeDistance,5
;   primaryExtruder,0
;   layerHeight,0.15
;   topSolidLayers,3
;   bottomSolidLayers,3
;   perimeterOutlines,2
;   printPerimetersInsideOut,1
;   startPointOption,2
;   startPointOriginX,0
;   startPointOriginY,0
;   sequentialIslands,0
;   spiralVaseMode,0
;   firstLayerHeightPercentage,90
;   firstLayerWidthPercentage,103
;   firstLayerUnderspeed,0.5
;   useRaft,1
;   raftExtruder,0
;   raftTopLayers,2
;   raftBaseLayers,2
;   raftOffset,1.4
;   raftSeparationDistance,0.14
;   raftTopInfill,100
;   aboveRaftSpeedMultiplier,0.3
;   useSkirt,0
;   skirtExtruder,0
;   skirtLayers,1
;   skirtOutlines,2
;   skirtOffset,4
;   usePrimePillar,0
;   primePillarExtruder,999
;   primePillarWidth,12
;   primePillarLocation,7
;   primePillarSpeedMultiplier,1
;   useOozeShield,0
;   oozeShieldExtruder,999
;   oozeShieldOffset,2
;   oozeShieldOutlines,1
;   oozeShieldSidewallShape,1
;   oozeShieldSidewallAngle,30
;   oozeShieldSpeedMultiplier,1
;   infillExtruder,0
;   internalInfillPattern,Rectilinear
;   externalInfillPattern,Rectilinear
;   infillPercentage,12
;   outlineOverlapPercentage,15
;   infillExtrusionWidthPercentage,100
;   minInfillLength,5
;   infillLayerInterval,1
;   internalInfillAngles,45,-45
;   overlapInternalInfillAngles,0
;   externalInfillAngles,45,-45
;   generateSupport,1
;   supportExtruder,0
;   supportInfillPercentage,30
;   supportExtraInflation,0
;   supportBaseLayers,0
;   denseSupportExtruder,0
;   denseSupportLayers,0
;   denseSupportInfillPercentage,70
;   supportLayerInterval,1
;   supportHorizontalPartOffset,0.3
;   supportUpperSeparationLayers,1
;   supportLowerSeparationLayers,1
;   supportType,0
;   supportGridSpacing,4
;   maxOverhangAngle,45
;   supportAngles,0
;   temperatureName,Primary Extruder,Hot Bed
;   temperatureNumber,0,1
;   temperatureSetpointCount,1,1
;   temperatureSetpointLayers,1,1
;   temperatureSetpointTemperatures,210,60
;   temperatureStabilizeAtStartup,1,0
;   temperatureHeatedBed,0,1
;   temperatureRelayBetweenLayers,0,0
;   temperatureRelayBetweenLoops,0,0
;   fanLayers,1,2
;   fanSpeeds,0,100
;   blipFanToFullPower,0
;   adjustSpeedForCooling,1
;   minSpeedLayerTime,15
;   minCoolingSpeedSlowdown,20
;   increaseFanForCooling,0
;   minFanLayerTime,45
;   maxCoolingFanSpeed,100
;   increaseFanForBridging,0
;   bridgingFanSpeed,100
;   use5D,1
;   relativeEdistances,0
;   allowEaxisZeroing,1
;   independentExtruderAxes,0
;   includeM10123,0
;   stickySupport,1
;   applyToolheadOffsets,0
;   gcodeXoffset,-0.03
;   gcodeYoffset,-0.03
;   gcodeZoffset,0
;   overrideMachineDefinition,0
;   machineTypeOverride,0
;   strokeXoverride,200
;   strokeYoverride,200
;   strokeZoverride,200
;   originOffsetXoverride,0
;   originOffsetYoverride,0
;   originOffsetZoverride,0
;   homeXdirOverride,-1
;   homeYdirOverride,-1
;   homeZdirOverride,-1
;   flipXoverride,1
;   flipYoverride,-1
;   flipZoverride,1
;   toolheadOffsets,0,0|0,0|0,0|0,0|0,0|0,0
;   overrideFirmwareConfiguration,0
;   firmwareTypeOverride,RepRap (Marlin/Repetier/Sprinter)
;   GPXconfigOverride,r2
;   baudRateOverride,115200
;   overridePrinterModels,0
;   printerModelsOverride
;   startingGcode,G28 ; home all axes,G1 X3 Y5 Z0.2 F3000 ; get ready to prime,G92 E0 ; reset extrusion distance,G1 Y150 E20 F600 ; prime nozzle
;   layerChangeGcode,
;   retractionGcode,
;   toolChangeGcode,
;   endingGcode,M104 S0 ; turn off extruder,M140 S0 ; turn off bedG1 X0 Y0; home,M84 ; disable motors,M107 ; fan off,G28 X Y; Home,M18; Disable steppers
;   exportFileFormat,gcode
;   celebration,0
;   celebrationSong,Random Song
;   postProcessing,
;   defaultSpeed,4600
;   outlineUnderspeed,0.5
;   solidInfillUnderspeed,0.8
;   supportUnderspeed,0.8
;   rapidXYspeed,4800
;   rapidZspeed,1000
;   minBridgingArea,50
;   bridgingExtraInflation,0
;   bridgingExtrusionMultiplier,1
;   bridgingSpeedMultiplier,1
;   useFixedBridgingAngle,0
;   fixedBridgingAngle,0
;   applyBridgingToPerimeters,0
;   filamentDiameters,1.75|1.75|1.75|1.75|1.75|1.75
;   filamentPricesPerKg,46|46|46|46|46|46
;   filamentDensities,1.25|1.25|1.25|1.25|1.25|1.25
;   useMinPrintHeight,0
;   minPrintHeight,0
;   useMaxPrintHeight,0
;   maxPrintHeight,0
;   useDiaphragm,0
;   diaphragmLayerInterval,20
;   robustSlicing,1
;   mergeAllIntoSolid,0
;   onlyRetractWhenCrossingOutline,1
;   retractBetweenLayers,1
;   useRetractionMinTravel,0
;   retractionMinTravel,3
;   retractWhileWiping,0
;   onlyWipeOutlines,1
;   avoidCrossingOutline,0
;   maxMovementDetourFactor,3
;   toolChangeRetractionDistance,12
;   toolChangeExtraRestartDistance,-0.5
;   toolChangeRetractionSpeed,600
;   externalThinWallType,1
;   internalThinWallType,2
;   thinWallAllowedOverlapPercentage,10
;   singleExtrusionMinLength,1
;   singleExtrusionMinPrintingWidthPercentage,50
;   singleExtrusionMaxPrintingWidthPercentage,200
;   singleExtrusionEndpointExtension,0.2
;   horizontalSizeCompensation,0
G90
M82
M106 S0
M140 S60
M104 S210 T0
M109 S210 T0
G28 ; home all axes
G1 X3 Y5 Z0.2 F3000 ; get ready to prime
G92 E0 ; reset extrusion distance
G1 Y150 E20 F600 ; prime nozzle
G92 E0
G1 E-1.0000 F1800
G1 Z0.450 F1000
; process Process1
; layer 1, Z = 0.450
T0
; tool H0.500 W0.824
; raft
G1 X106.750 Y100.336 F4800
G1 E0.0000 F540
G92 E0
G1 X107.336 Y99.750 E0.1277 F575
G1 X112.604 Y99.750 E0.9399
G1 X113.190 Y100.336 E1.0676
G1 X113.190 Y102.744 E1.4388
G1 X113.978 Y102.683 E1.5607
G1 X114.047 Y102.682 E1.5713
G1 X114.750 Y102.726 E1.6799
G1 X114.750 Y100.336 E2.0483
G1 X115.336 Y99.750 E2.1760
G1 X120.604 Y99.750 E2.9882
G1 X121.190 Y100.336 E3.1159
G1 X121.190 Y105.604 E3.9281
G1 X120.604 Y106.190 E4.0558
G1 X119.672 Y106.190 E4.1995
G1 X120.330 Y107.370 E4.4078
G1 X120.358 Y107.431 E4.4181
G1 X120.946 Y108.927 E4.6659
G1 X120.957 Y108.956 E4.6707
G1 X121.178 Y109.641 E4.7816
G1 X121.185 Y109.667 E4.7859
G1 X121.276 Y110.014 E4.8412
G1 X121.281 Y110.035 E4.8444
G1 X121.460 Y110.851 E4.9733
G1 X121.466 Y110.884 E4.9783
G1 X121.598 Y111.750 E5.1134
G1 X124.604 Y111.750 E5.5769
G1 X125.190 Y112.336 E5.7046
G1 X125.190 Y117.604 E6.5168
G1 X124.604 Y118.190 E6.6445
G1 X121.389 Y118.190 E7.1402
G1 X121.038 Y119.775 E7.3904
G1 X121.024 Y119.826 E7.3986
G1 X120.598 Y121.095 E7.6051
G1 X120.592 Y121.112 E7.6078
G1 X120.268 Y121.976 E7.7499
G1 X120.250 Y122.019 E7.7572
G1 X119.789 Y122.965 E7.9194
G1 X119.764 Y123.011 E7.9274
G1 X119.560 Y123.339 E7.9870
G1 X119.789 Y123.750 E8.0595
G1 X120.604 Y123.750 E8.1852
G1 X121.190 Y124.336 E8.3129
G1 X121.190 Y133.604 E9.7418
G1 X120.604 Y134.190 E9.8695
G1 X107.336 Y134.190 E11.9149
G1 X106.750 Y133.604 E12.0426
G1 X106.750 Y124.336 E13.4715
G1 X107.336 Y123.750 E13.5992
G1 X108.164 Y123.750 E13.7269
G1 X108.391 Y123.328 E13.8007
G1 X108.243 Y123.105 E13.8419
G1 X108.215 Y123.057 E13.8505
G1 X107.686 Y122.025 E14.0293
G1 X107.667 Y121.983 E14.0364
G1 X107.343 Y121.178 E14.1703
G1 X107.332 Y121.149 E14.1750
G1 X106.875 Y119.767 E14.3994
G1 X106.860 Y119.712 E14.4081
G1 X106.542 Y118.190 E14.6479
G1 X103.336 Y118.190 E15.1422
G1 X102.750 Y117.604 E15.2699
G1 X102.750 Y112.336 E16.0820
G1 X103.336 Y111.750 E16.2098
G1 X106.333 Y111.750 E16.6717
G1 X106.422 Y111.197 E16.7581
G1 X106.423 Y111.192 E16.7589
G1 X106.529 Y110.565 E16.8569
G1 X106.538 Y110.524 E16.8634
G1 X106.821 Y109.423 E17.0387
G1 X106.831 Y109.391 E17.0438
G1 X107.046 Y108.739 E17.1497
G1 X107.056 Y108.710 E17.1543
G1 X107.547 Y107.473 E17.3595
G1 X107.572 Y107.418 E17.3689
G1 X108.242 Y106.190 E17.5845
G1 X107.336 Y106.190 E17.7242
G1 X106.750 Y105.604 E17.8519
G1 X106.750 Y100.336 E18.6641
G92 E0
G1 E-1.0000 F1800
G1 X107.550 Y100.684 F4800
G1 E0.0000 F1800
G92 E0
G1 X112.390 Y100.684 E0.7461 F575
G1 X112.390 Y102.970 E1.0985
G1 X107.550 Y102.970 E1.8446
G1 X107.550 Y105.256 E2.1970
G1 X120.390 Y105.256 E4.1764
G1 X120.390 Y105.273 E4.1791
G1 X120.273 Y105.390 E4.2046
G1 X118.310 Y105.390 E4.5071
G1 X119.509 Y107.541 E4.8868
G1 X108.416 Y107.541 E6.5969
G1 X108.286 Y107.779 E6.6387
G1 X108.281 Y107.790 E6.6406
G1 X107.804 Y108.995 E6.8403
G1 X107.802 Y109.000 E6.8412
G1 X107.595 Y109.628 E6.9432
G1 X107.593 Y109.635 E6.9442
G1 X107.543 Y109.827 E6.9748
G1 X120.397 Y109.827 E8.9564
G1 X120.413 Y109.876 E8.9643
G1 X120.414 Y109.881 E8.9651
G1 X120.501 Y110.210 E9.0175
G1 X120.502 Y110.214 E9.0181
G1 X120.676 Y111.010 E9.1438
G1 X120.677 Y111.017 E9.1448
G1 X120.844 Y112.113 E9.3158
G1 X107.084 Y112.113 E11.4369
G1 X107.014 Y112.550 E11.5052
G1 X103.667 Y112.550 E12.0211
G1 X103.550 Y112.667 E12.0466
G1 X103.550 Y114.399 E12.3135
G1 X124.390 Y114.399 E15.5262
G1 X124.390 Y116.684 E15.8786
G1 X103.550 Y116.684 E19.0913
G1 X103.550 Y117.273 E19.1820
G1 X103.667 Y117.390 E19.2076
G1 X107.192 Y117.390 E19.7510
G1 X107.522 Y118.970 E19.9999
G1 X120.397 Y118.970 E21.9846
G1 X120.262 Y119.581 E22.0811
G1 X120.259 Y119.591 E22.0827
G1 X119.842 Y120.834 E22.2848
G1 X119.840 Y120.838 E22.2854
G1 X119.684 Y121.256 E22.3542
G1 X108.237 Y121.256 E24.1189
G1 X108.403 Y121.668 E24.1874
G1 X108.406 Y121.676 E24.1888
G1 X108.917 Y122.673 E24.3614
G1 X108.922 Y122.682 E24.3631
G1 X109.322 Y123.285 E24.4746
G1 X109.184 Y123.541 E24.5194
G1 X118.758 Y123.541 E25.9953
G1 X119.318 Y124.550 E26.1732
G1 X120.273 Y124.550 E26.3203
G1 X120.390 Y124.667 E26.3459
G1 X120.390 Y125.827 E26.5247
G1 X107.550 Y125.827 E28.5041
G1 X107.550 Y128.113 E28.8565
G1 X120.390 Y128.113 E30.8359
G1 X120.390 Y130.399 E31.1883
G1 X107.550 Y130.399 E33.1677
G1 X107.550 Y132.684 E33.5201
G1 X120.390 Y132.684 E35.4995
G92 E0
G1 E-1.0000 F1800
G1 X115.550 Y102.970 F4800
G1 E0.0000 F1800
G92 E0
G1 X120.390 Y102.970 E0.7461 F575
G1 X120.390 Y100.684 E1.0985
G1 X115.550 Y100.684 E1.8446
G92 E0
G1 E-1.0000 F1800
; layer 2, Z = 0.950
M106 S255
; tool H0.500 W0.800
G1 X114.750 Y100.336 F4800
G1 Z0.950 F1000
G1 E0.0000 F1800
G92 E0
G1 X115.336 Y99.750 E0.1240 F1150
G1 X120.604 Y99.750 E0.9125
G1 X121.190 Y100.336 E1.0365
G1 X121.190 Y105.604 E1.8250
G1 X120.604 Y106.190 E1.9490
G1 X119.672 Y106.190 E2.0886
G1 X120.330 Y107.370 E2.2908
G1 X120.358 Y107.431 E2.3008
G1 X120.946 Y108.927 E2.5414
G1 X120.957 Y108.956 E2.5460
G1 X121.178 Y109.641 E2.6537
G1 X121.185 Y109.667 E2.6579
G1 X121.276 Y110.014 E2.7116
G1 X121.281 Y110.035 E2.7147
G1 X121.460 Y110.851 E2.8398
G1 X121.466 Y110.884 E2.8447
G1 X121.598 Y111.750 E2.9759
G1 X124.604 Y111.750 E3.4259
G1 X125.190 Y112.336 E3.5499
G1 X125.190 Y117.604 E4.3384
G1 X124.604 Y118.190 E4.4624
G1 X121.389 Y118.190 E4.9436
G1 X121.038 Y119.775 E5.1865
G1 X121.024 Y119.826 E5.1945
G1 X120.598 Y121.095 E5.3949
G1 X120.592 Y121.112 E5.3976
G1 X120.268 Y121.976 E5.5356
G1 X120.250 Y122.019 E5.5427
G1 X119.789 Y122.965 E5.7001
G1 X119.764 Y123.011 E5.7079
G1 X119.560 Y123.339 E5.7657
G1 X119.789 Y123.750 E5.8362
G1 X120.604 Y123.750 E5.9582
G1 X121.190 Y124.336 E6.0822
G1 X121.190 Y133.604 E7.4694
G1 X120.604 Y134.190 E7.5934
G1 X107.336 Y134.190 E9.5793
G1 X106.750 Y133.604 E9.7033
G1 X106.750 Y124.336 E11.0905
G1 X107.336 Y123.750 E11.2145
G1 X108.164 Y123.750 E11.3385
G1 X108.391 Y123.328 E11.4101
G1 X108.243 Y123.105 E11.4501
G1 X108.215 Y123.057 E11.4585
G1 X107.686 Y122.025 E11.6321
G1 X107.667 Y121.983 E11.6389
G1 X107.343 Y121.178 E11.7689
G1 X107.332 Y121.149 E11.7735
G1 X106.875 Y119.767 E11.9913
G1 X106.860 Y119.712 E11.9999
G1 X106.542 Y118.190 E12.2326
G1 X103.336 Y118.190 E12.7125
G1 X102.750 Y117.604 E12.8365
G1 X102.750 Y112.336 E13.6250
G1 X103.336 Y111.750 E13.7490
G1 X106.333 Y111.750 E14.1975
G1 X106.422 Y111.197 E14.2813
G1 X106.423 Y111.192 E14.2822
G1 X106.529 Y110.565 E14.3773
G1 X106.538 Y110.524 E14.3836
G1 X106.821 Y109.423 E14.5538
G1 X106.831 Y109.391 E14.5588
G1 X107.046 Y108.739 E14.6616
G1 X107.056 Y108.710 E14.6660
G1 X107.547 Y107.473 E14.8653
G1 X107.572 Y107.418 E14.8744
G1 X108.242 Y106.190 E15.0837
G1 X107.336 Y106.190 E15.2193
G1 X106.750 Y105.604 E15.3433
G1 X106.750 Y100.336 E16.1318
G1 X107.336 Y99.750 E16.2558
G1 X112.604 Y99.750 E17.0443
G1 X113.190 Y100.336 E17.1683
G1 X113.190 Y102.744 E17.5287
G1 X113.978 Y102.683 E17.6471
G1 X114.047 Y102.682 E17.6574
G1 X114.750 Y102.726 E17.7628
G1 X114.750 Y100.336 E18.1205
G92 E0
G1 E-1.0000 F1800
G1 X115.550 Y100.684 F4800
G1 E0.0000 F1800
G92 E0
G1 X120.390 Y100.684 E0.7244 F1150
G1 X120.390 Y102.970 E1.0665
G1 X115.550 Y102.970 E1.7909
G92 E0
G1 E-1.0000 F1800
G1 X107.550 Y100.684 F4800
G1 E0.0000 F1800
G92 E0
G1 X112.390 Y100.684 E0.7244 F1150
G1 X112.390 Y102.970 E1.0665
G1 X107.550 Y102.970 E1.7909
G1 X107.550 Y105.256 E2.1330
G1 X120.390 Y105.256 E4.0548
G1 X120.390 Y105.273 E4.0574
G1 X120.273 Y105.390 E4.0821
G1 X118.310 Y105.390 E4.3759
G1 X119.509 Y107.541 E4.7445
G1 X108.416 Y107.541 E6.4048
G1 X108.286 Y107.779 E6.4453
G1 X108.281 Y107.790 E6.4472
G1 X107.804 Y108.995 E6.6411
G1 X107.802 Y109.000 E6.6420
G1 X107.595 Y109.628 E6.7410
G1 X107.593 Y109.635 E6.7420
G1 X107.543 Y109.827 E6.7717
G1 X120.397 Y109.827 E8.6955
G1 X120.413 Y109.876 E8.7032
G1 X120.414 Y109.881 E8.7040
G1 X120.501 Y110.210 E8.7549
G1 X120.502 Y110.214 E8.7555
G1 X120.676 Y111.010 E8.8775
G1 X120.677 Y111.017 E8.8785
G1 X120.844 Y112.113 E9.0444
G1 X107.084 Y112.113 E11.1038
G1 X107.014 Y112.550 E11.1701
G1 X103.667 Y112.550 E11.6709
G1 X103.550 Y112.667 E11.6957
G1 X103.550 Y114.399 E11.9549
G1 X124.390 Y114.399 E15.0740
G1 X124.390 Y116.684 E15.4161
G1 X103.550 Y116.684 E18.5353
G1 X103.550 Y117.273 E18.6233
G1 X103.667 Y117.390 E18.6481
G1 X107.192 Y117.390 E19.1757
G1 X107.522 Y118.970 E19.4173
G1 X120.397 Y118.970 E21.3443
G1 X120.262 Y119.581 E21.4380
G1 X120.259 Y119.591 E21.4396
G1 X119.842 Y120.834 E21.6357
G1 X119.840 Y120.838 E21.6363
G1 X119.684 Y121.256 E21.7031
G1 X108.237 Y121.256 E23.4164
G1 X108.403 Y121.668 E23.4829
G1 X108.406 Y121.676 E23.4843
G1 X108.917 Y122.673 E23.6519
G1 X108.922 Y122.682 E23.6535
G1 X109.322 Y123.285 E23.7618
G1 X109.184 Y123.541 E23.8053
G1 X118.758 Y123.541 E25.2381
G1 X119.318 Y124.550 E25.4108
G1 X120.273 Y124.550 E25.5537
G1 X120.390 Y124.667 E25.5785
G1 X120.390 Y125.827 E25.7521
G1 X107.550 Y125.827 E27.6739
G1 X107.550 Y128.113 E28.0160
G1 X120.390 Y128.113 E29.9378
G1 X120.390 Y130.399 E30.2799
G1 X107.550 Y130.399 E32.2017
G1 X107.550 Y132.684 E32.5438
G1 X120.390 Y132.684 E34.4655
G92 E0
G1 E-1.0000 F1800
; layer 3, Z = 1.172
; tool H0.222 W0.400
G1 X121.390 Y124.693 F4800
G1 Z1.172 F1000
G1 E0.0000 F1800
G92 E0
G1 X120.247 Y123.550 E0.0538 F3450
G92 E0
G1 E-1.0000 F1800
G1 X124.652 Y111.550 F4800
G1 E0.0000 F1800
G92 E0
G1 X125.390 Y112.288 E0.0347 F3450
G1 X125.390 Y112.854 E0.0535
G1 X124.086 Y111.550 E0.1149
G1 X123.521 Y111.550 E0.1337
G1 X125.390 Y113.419 E0.2216
G1 X125.390 Y113.985 E0.2404
G1 X122.955 Y111.550 E0.3550
G1 X122.389 Y111.550 E0.3738
G1 X125.390 Y114.551 E0.5149
G1 X125.390 Y115.116 E0.5337
G1 X121.824 Y111.550 E0.7015
G1 X121.770 Y111.550 E0.7033
G1 X121.760 Y111.487 E0.7054
G1 X109.824 Y99.550 E1.2669
G1 X110.389 Y99.550 E1.2857
G1 X121.658 Y110.818 E1.8157
G92 E0
G1 E-1.0000 F1800
G1 X120.572 Y99.550 F4800
G1 E0.0000 F1800
G92 E0
G1 X121.390 Y100.368 E0.0385 F3450
G1 X121.390 Y100.934 E0.0573
G1 X120.006 Y99.550 E0.1224
G1 X119.440 Y99.550 E0.1412
G1 X121.390 Y101.500 E0.2330
G1 X121.390 Y102.066 E0.2518
G1 X118.874 Y99.550 E0.3701
G1 X118.309 Y99.550 E0.3889
G1 X121.390 Y102.631 E0.5338
G1 X121.390 Y103.197 E0.5527
