; G-Code generated by Simplify3D(R) Version 4.0.0
; Sep 7, 2020 at 2:24:30 PM
; Settings Summary
;   processName,Process2
;   applyToModels,dud
;   profileName,bar (modified)
;   profileVersion,2020-09-07 14:20:51
;   baseProfile,Default (modified)
;   printMaterial,PLA
;   printQuality,Medium
;   printExtruders,
;   extruderName,Primary Extruder
;   extruderToolheadNumber,0
;   extruderDiameter,0.4
;   extruderAutoWidth,0
;   extruderWidth,0.4
;   extrusionMultiplier,0.9
;   extruderUseRetract,1
;   extruderRetractionDistance,1
;   extruderExtraRestartDistance,0
;   extruderRetractionZLift,0
;   extruderRetractionSpeed,1800
;   extruderUseCoasting,0
;   extruderCoastingDistance,0.2
;   extruderUseWipe,0
;   extruderWipeDistance,5
;   primaryExtruder,0
;   layerHeight,0.3
;   topSolidLayers,3
;   bottomSolidLayers,3
;   perimeterOutlines,2
;   printPerimetersInsideOut,1
;   startPointOption,2
;   startPointOriginX,0
;   startPointOriginY,0
;   sequentialIslands,0
;   spiralVaseMode,0
;   firstLayerHeightPercentage,100
;   firstLayerWidthPercentage,100
;   firstLayerUnderspeed,0.5
;   useRaft,0
;   raftExtruder,0
;   raftTopLayers,3
;   raftBaseLayers,2
;   raftOffset,3
;   raftSeparationDistance,0.14
;   raftTopInfill,100
;   aboveRaftSpeedMultiplier,0.3
;   useSkirt,0
;   skirtExtruder,0
;   skirtLayers,1
;   skirtOutlines,2
;   skirtOffset,4
;   usePrimePillar,0
;   primePillarExtruder,999
;   primePillarWidth,12
;   primePillarLocation,7
;   primePillarSpeedMultiplier,1
;   useOozeShield,0
;   oozeShieldExtruder,999
;   oozeShieldOffset,2
;   oozeShieldOutlines,1
;   oozeShieldSidewallShape,1
;   oozeShieldSidewallAngle,30
;   oozeShieldSpeedMultiplier,1
;   infillExtruder,0
;   internalInfillPattern,Rectilinear
;   externalInfillPattern,Rectilinear
;   infillPercentage,25
;   outlineOverlapPercentage,15
;   infillExtrusionWidthPercentage,100
;   minInfillLength,5
;   infillLayerInterval,1
;   internalInfillAngles,45,-45
;   overlapInternalInfillAngles,0
;   externalInfillAngles,45,-45
;   generateSupport,0
;   supportExtruder,0
;   supportInfillPercentage,30
;   supportExtraInflation,0
;   supportBaseLayers,0
;   denseSupportExtruder,0
;   denseSupportLayers,0
;   denseSupportInfillPercentage,70
;   supportLayerInterval,1
;   supportHorizontalPartOffset,0.3
;   supportUpperSeparationLayers,1
;   supportLowerSeparationLayers,1
;   supportType,1
;   supportGridSpacing,4
;   maxOverhangAngle,45
;   supportAngles,0
;   temperatureName,Primary Extruder,Hot Bed
;   temperatureNumber,0,1
;   temperatureSetpointCount,1,1
;   temperatureSetpointLayers,1,1
;   temperatureSetpointTemperatures,210,60
;   temperatureStabilizeAtStartup,1,0
;   temperatureHeatedBed,0,1
;   temperatureRelayBetweenLayers,0,0
;   temperatureRelayBetweenLoops,0,0
;   fanLayers,1,2
;   fanSpeeds,0,100
;   blipFanToFullPower,0
;   adjustSpeedForCooling,1
;   minSpeedLayerTime,15
;   minCoolingSpeedSlowdown,20
;   increaseFanForCooling,0
;   minFanLayerTime,45
;   maxCoolingFanSpeed,100
;   increaseFanForBridging,0
;   bridgingFanSpeed,100
;   use5D,1
;   relativeEdistances,0
;   allowEaxisZeroing,1
;   independentExtruderAxes,0
;   includeM10123,0
;   stickySupport,1
;   applyToolheadOffsets,0
;   gcodeXoffset,0
;   gcodeYoffset,0
;   gcodeZoffset,0
;   overrideMachineDefinition,0
;   machineTypeOverride,0
;   strokeXoverride,200
;   strokeYoverride,200
;   strokeZoverride,200
;   originOffsetXoverride,0
;   originOffsetYoverride,0
;   originOffsetZoverride,0
;   homeXdirOverride,-1
;   homeYdirOverride,-1
;   homeZdirOverride,-1
;   flipXoverride,1
;   flipYoverride,-1
;   flipZoverride,1
;   toolheadOffsets,0,0|0,0|0,0|0,0|0,0|0,0
;   overrideFirmwareConfiguration,0
;   firmwareTypeOverride,RepRap (Marlin/Repetier/Sprinter)
;   GPXconfigOverride,r2
;   baudRateOverride,115200
;   overridePrinterModels,0
;   printerModelsOverride
;   startingGcode,G28 ; home all axes,G1 X0 Y5 Z0.2 F3000 ; get ready to prime,G92 E0 ; reset extrusion distance,G1 Y150 E20 F600 ; prime nozzle
;   layerChangeGcode,
;   retractionGcode,
;   toolChangeGcode,
;   endingGcode,M104 S0 ; turn off extruder,M140 S0 ; turn off bed,M84 ; disable motors,G1 X0 Y0; home,M107 ; fan off
;   exportFileFormat,gcode
;   celebration,0
;   celebrationSong,Random Song
;   postProcessing,
;   defaultSpeed,4600
;   outlineUnderspeed,0.5
;   solidInfillUnderspeed,0.8
;   supportUnderspeed,0.8
;   rapidXYspeed,4800
;   rapidZspeed,1000
;   minBridgingArea,50
;   bridgingExtraInflation,0
;   bridgingExtrusionMultiplier,1
;   bridgingSpeedMultiplier,1
;   useFixedBridgingAngle,0
;   fixedBridgingAngle,0
;   applyBridgingToPerimeters,0
;   filamentDiameters,1.75|1.75|1.75|1.75|1.75|1.75
;   filamentPricesPerKg,46|46|46|46|46|46
;   filamentDensities,1.25|1.25|1.25|1.25|1.25|1.25
;   useMinPrintHeight,0
;   minPrintHeight,0
;   useMaxPrintHeight,0
;   maxPrintHeight,0
;   useDiaphragm,0
;   diaphragmLayerInterval,20
;   robustSlicing,1
;   mergeAllIntoSolid,0
;   onlyRetractWhenCrossingOutline,1
;   retractBetweenLayers,1
;   useRetractionMinTravel,0
;   retractionMinTravel,3
;   retractWhileWiping,0
;   onlyWipeOutlines,1
;   avoidCrossingOutline,0
;   maxMovementDetourFactor,3
;   toolChangeRetractionDistance,12
;   toolChangeExtraRestartDistance,-0.5
;   toolChangeRetractionSpeed,600
;   externalThinWallType,1
;   internalThinWallType,1
;   thinWallAllowedOverlapPercentage,10
;   singleExtrusionMinLength,1
;   singleExtrusionMinPrintingWidthPercentage,50
;   singleExtrusionMaxPrintingWidthPercentage,200
;   singleExtrusionEndpointExtension,0.2
;   horizontalSizeCompensation,0
G90
M82
M106 S0
M140 S60
M104 S210 T0
M109 S210 T0
G28 ; home all axes
G1 X0 Y5 Z0.2 F3000 ; get ready to prime
G92 E0 ; reset extrusion distance
G1 Y150 E20 F600 ; prime nozzle
G92 E0
G1 E-1.0000 F1800
G1 Z0.300 F1000
; process Process2
; layer 1, Z = 0.300
T0
; tool H0.300 W0.400
; inner perimeter
G1 X35.600 Y58.100 F4800
G1 E0.0000 F540
G92 E0
G1 X164.400 Y58.100 E5.7833 F1725
G1 X164.400 Y141.900 E9.5460
G1 X35.600 Y141.900 E15.3293
G1 X35.600 Y58.100 E19.0920
; outer perimeter
G1 X35.200 Y57.700 F4800
G92 E0
G1 X164.800 Y57.700 E5.8192 F1150
G1 X164.800 Y142.300 E9.6178
G1 X35.200 Y142.300 E15.4370
G1 X35.200 Y57.700 E19.2357
; inner perimeter
G1 X63.400 Y73.400 F4800
G92 E0
G1 X63.400 Y126.600 E2.3887 F1725
G1 X136.600 Y126.600 E5.6755
G1 X136.600 Y73.400 E8.0643
G1 X63.400 Y73.400 E11.3510
; outer perimeter
G1 X63.800 Y73.800 F4800
G92 E0
G1 X63.800 Y126.200 E2.3528 F1150
G1 X136.200 Y126.200 E5.6037
G1 X136.200 Y73.800 E7.9565
G1 X63.800 Y73.800 E11.2073
; inner perimeter
G1 X58.567 Y97.972 F4800
G92 E0
G1 X58.226 Y97.908 E0.0156 F1725
G1 X57.794 Y97.908 E0.0350
G1 X57.364 Y98.000 E0.0547
G1 X56.970 Y98.175 E0.0740
G1 X56.684 Y98.371 E0.0896
G1 X56.379 Y98.676 E0.1090
G1 X56.140 Y99.044 E0.1287
G1 X55.982 Y99.455 E0.1485
G1 X55.913 Y99.890 E0.1682
G1 X55.936 Y100.329 E0.1880
G1 X56.048 Y100.746 E0.2074
G1 X56.187 Y101.038 E0.2219
G1 X56.260 Y101.157 E0.2282
G1 X56.456 Y101.413 E0.2426
G1 X56.777 Y101.702 E0.2620
G1 X57.158 Y101.921 E0.2818
G1 X57.576 Y102.057 E0.3015
G1 X58.014 Y102.103 E0.3212
G1 X58.451 Y102.057 E0.3410
G1 X58.861 Y101.924 E0.3604
G1 X59.165 Y101.759 E0.3759
G1 X59.501 Y101.487 E0.3953
G1 X59.772 Y101.153 E0.4146
G1 X59.937 Y100.848 E0.4302
G1 X60.068 Y100.445 E0.4492
G1 X60.113 Y100.105 E0.4646
G1 X60.097 Y99.721 E0.4819
G1 X60.012 Y99.347 E0.4991
G1 X59.835 Y98.948 E0.5187
G1 X59.577 Y98.594 E0.5384
G1 X59.256 Y98.304 E0.5578
G1 X58.961 Y98.123 E0.5733
G1 X58.566 Y97.972 E0.5923
; outer perimeter
G1 X58.457 Y98.358 F4800
G92 E0
G1 X58.189 Y98.308 E0.0123 F1150
G1 X57.836 Y98.308 E0.0281
G1 X57.488 Y98.382 E0.0441
G1 X57.166 Y98.525 E0.0599
G1 X56.941 Y98.680 E0.0722
G1 X56.692 Y98.929 E0.0880
G1 X56.498 Y99.226 E0.1039
G1 X56.370 Y99.560 E0.1199
G1 X56.315 Y99.911 E0.1359
G1 X56.333 Y100.266 E0.1519
G1 X56.425 Y100.607 E0.1677
G1 X56.539 Y100.847 E0.1796
G1 X56.590 Y100.930 E0.1841
G1 X56.751 Y101.140 E0.1959
G1 X57.014 Y101.376 E0.2118
G1 X57.322 Y101.554 E0.2277
G1 X57.660 Y101.664 E0.2437
G1 X58.014 Y101.701 E0.2597
G1 X58.367 Y101.664 E0.2756
G1 X58.703 Y101.555 E0.2915
G1 X58.942 Y101.425 E0.3037
G1 X59.216 Y101.203 E0.3196
G1 X59.438 Y100.929 E0.3354
G1 X59.568 Y100.689 E0.3476
G1 X59.677 Y100.356 E0.3634
G1 X59.712 Y100.087 E0.3755
G1 X59.699 Y99.774 E0.3896
G1 X59.631 Y99.473 E0.4035
G1 X59.487 Y99.149 E0.4194
G1 X59.278 Y98.863 E0.4353
G1 X59.015 Y98.626 E0.4512
G1 X58.783 Y98.483 E0.4634
G1 X58.457 Y98.358 E0.4791
; inner perimeter
G1 X42.092 Y99.780 F4800
G92 E0
G1 X42.002 Y99.358 E0.0194 F1725
G1 X41.870 Y99.038 E0.0349
G1 X41.635 Y98.676 E0.0543
G1 X41.324 Y98.366 E0.0740
G1 X40.962 Y98.130 E0.0934
G1 X40.642 Y97.998 E0.1089
G1 X40.220 Y97.908 E0.1283
G1 X39.780 Y97.908 E0.1481
G1 X39.358 Y97.998 E0.1675
G1 X39.038 Y98.130 E0.1830
G1 X38.683 Y98.361 E0.2020
G1 X38.432 Y98.599 E0.2175
G1 X38.183 Y98.942 E0.2366
G1 X38.034 Y99.254 E0.2521
G1 X37.923 Y99.671 E0.2715
G1 X37.901 Y100.086 E0.2902
G1 X37.913 Y100.235 E0.2969
G1 X37.971 Y100.552 E0.3113
G1 X38.126 Y100.955 E0.3307
G1 X38.365 Y101.324 E0.3504
G1 X38.676 Y101.635 E0.3702
G1 X39.045 Y101.874 E0.3899
G1 X39.448 Y102.029 E0.4093
G1 X39.788 Y102.092 E0.4248
G1 X40.212 Y102.092 E0.4439
G1 X40.552 Y102.029 E0.4594
G1 X40.955 Y101.874 E0.4788
G1 X41.324 Y101.635 E0.4985
G1 X41.635 Y101.324 E0.5183
G1 X41.874 Y100.956 E0.5380
G1 X42.029 Y100.553 E0.5573
G1 X42.092 Y100.212 E0.5729
G1 X42.092 Y99.780 E0.5923
; outer perimeter
G1 X41.692 Y99.822 F4800
G92 E0
G1 X41.618 Y99.477 E0.0158 F1150
G1 X41.514 Y99.226 E0.0281
G1 X41.322 Y98.929 E0.0439
G1 X41.071 Y98.679 E0.0598
G1 X40.775 Y98.486 E0.0757
G1 X40.523 Y98.382 E0.0880
G1 X40.178 Y98.308 E0.1038
G1 X39.822 Y98.308 E0.1198
G1 X39.477 Y98.382 E0.1356
G1 X39.225 Y98.486 E0.1478
G1 X38.932 Y98.677 E0.1636
G1 X38.734 Y98.864 E0.1758
G1 X38.528 Y99.147 E0.1915
G1 X38.411 Y99.393 E0.2037
G1 X38.320 Y99.734 E0.2196
G1 X38.302 Y100.081 E0.2352
G1 X38.310 Y100.183 E0.2398
G1 X38.358 Y100.443 E0.2517
G1 X38.484 Y100.772 E0.2675
G1 X38.678 Y101.071 E0.2835
G1 X38.929 Y101.322 E0.2994
G1 X39.228 Y101.516 E0.3154
G1 X39.557 Y101.642 E0.3313
G1 X39.825 Y101.692 E0.3435
G1 X40.175 Y101.692 E0.3592
G1 X40.443 Y101.642 E0.3714
G1 X40.772 Y101.516 E0.3873
G1 X41.071 Y101.322 E0.4032
G1 X41.322 Y101.071 E0.4192
G1 X41.515 Y100.773 E0.4351
G1 X41.642 Y100.444 E0.4510
G1 X41.692 Y100.175 E0.4632
G1 X41.692 Y99.822 E0.4791
G92 E0
G1 E-1.0000 F1800
; inner perimeter
G1 X139.911 Y99.899 F4800
G1 E0.0000 F1800
G92 E0
G1 X139.934 Y100.330 E0.0194 F1725
G1 X140.048 Y100.755 E0.0391
G1 X140.244 Y101.140 E0.0585
G1 X140.455 Y101.414 E0.0740
G1 X140.775 Y101.702 E0.0934
G1 X141.156 Y101.922 E0.1131
G1 X141.575 Y102.058 E0.1329
G1 X142.003 Y102.102 E0.1522
G1 X142.349 Y102.075 E0.1678
G1 X142.766 Y101.963 E0.1872
G1 X143.157 Y101.764 E0.2069
G1 X143.492 Y101.492 E0.2263
G1 X143.717 Y101.229 E0.2418
G1 X143.932 Y100.855 E0.2612
G1 X144.068 Y100.437 E0.2809
G1 X144.114 Y100.000 E0.3007
G1 X144.069 Y99.571 E0.3201
G1 X143.978 Y99.262 E0.3345
G1 X143.921 Y99.124 E0.3412
G1 X143.717 Y98.771 E0.3595
G1 X143.492 Y98.508 E0.3751
G1 X143.157 Y98.236 E0.3944
G1 X142.765 Y98.036 E0.4142
G1 X142.348 Y97.925 E0.4336
G1 X142.003 Y97.898 E0.4491
G1 X141.574 Y97.943 E0.4685
G1 X141.156 Y98.078 E0.4882
G1 X140.781 Y98.294 E0.5076
G1 X140.525 Y98.514 E0.5228
G1 X140.305 Y98.771 E0.5379
G1 X140.089 Y99.146 E0.5574
G1 X139.956 Y99.557 E0.5768
G1 X139.911 Y99.899 E0.5923
; outer perimeter
G1 X140.312 Y99.915 F4800
G92 E0
G1 X140.331 Y100.267 E0.0158 F1150
G1 X140.423 Y100.611 E0.0318
G1 X140.584 Y100.925 E0.0477
G1 X140.750 Y101.141 E0.0599
G1 X141.011 Y101.376 E0.0757
G1 X141.319 Y101.554 E0.0916
G1 X141.658 Y101.664 E0.1077
G1 X142.008 Y101.701 E0.1235
G1 X142.281 Y101.679 E0.1357
G1 X142.622 Y101.588 E0.1516
G1 X142.937 Y101.427 E0.1675
G1 X143.212 Y101.204 E0.1834
G1 X143.388 Y100.998 E0.1956
G1 X143.565 Y100.692 E0.2114
G1 X143.675 Y100.354 E0.2274
G1 X143.712 Y100.000 E0.2434
G1 X143.675 Y99.649 E0.2592
G1 X143.600 Y99.396 E0.2711
G1 X143.561 Y99.301 E0.2757
G1 X143.389 Y99.002 E0.2911
G1 X143.212 Y98.796 E0.3034
G1 X142.937 Y98.573 E0.3192
G1 X142.621 Y98.412 E0.3352
G1 X142.280 Y98.321 E0.3510
G1 X142.008 Y98.299 E0.3633
G1 X141.657 Y98.336 E0.3791
G1 X141.319 Y98.446 E0.3951
G1 X141.013 Y98.622 E0.4109
G1 X140.808 Y98.797 E0.4230
G1 X140.633 Y99.002 E0.4351
G1 X140.457 Y99.309 E0.4510
G1 X140.348 Y99.645 E0.4669
G1 X140.312 Y99.915 E0.4791
G92 E0
G1 E-1.0000 F1800
; inner perimeter
G1 X157.900 Y99.890 F4800
G1 E0.0000 F1800
G92 E0
G1 X157.923 Y100.329 E0.0197 F1725
G1 X158.036 Y100.754 E0.0395
G1 X158.232 Y101.138 E0.0589
G1 X158.443 Y101.413 E0.0744
G1 X158.764 Y101.702 E0.0938
G1 X159.145 Y101.921 E0.1135
G1 X159.555 Y102.055 E0.1329
G1 X159.898 Y102.100 E0.1484
G1 X160.321 Y102.078 E0.1675
G1 X160.634 Y102.003 E0.1819
G1 X160.767 Y101.955 E0.1883
G1 X161.058 Y101.817 E0.2027
G1 X161.407 Y101.563 E0.2221
G1 X161.702 Y101.236 E0.2419
G1 X161.921 Y100.856 E0.2616
G1 X162.055 Y100.445 E0.2810
G1 X162.100 Y100.102 E0.2965
G1 X162.077 Y99.671 E0.3159
G1 X161.964 Y99.246 E0.3356
G1 X161.764 Y98.855 E0.3554
G1 X161.492 Y98.519 E0.3748
G1 X161.229 Y98.294 E0.3903
G1 X160.855 Y98.079 E0.4097
G1 X160.437 Y97.943 E0.4294
G1 X160.008 Y97.898 E0.4488
G1 X159.663 Y97.925 E0.4643
G1 X159.246 Y98.036 E0.4837
G1 X158.854 Y98.236 E0.5035
G1 X158.519 Y98.508 E0.5228
G1 X158.294 Y98.771 E0.5384
G1 X158.082 Y99.138 E0.5574
G1 X157.967 Y99.463 E0.5729
G1 X157.900 Y99.890 E0.5923
; outer perimeter
G1 X158.301 Y99.911 F4800
G92 E0
G1 X158.320 Y100.266 E0.0160 F1150
G1 X158.412 Y100.610 E0.0319
G1 X158.572 Y100.924 E0.0478
G1 X158.738 Y101.140 E0.0600
G1 X159.000 Y101.376 E0.0759
G1 X159.308 Y101.554 E0.0918
G1 X159.644 Y101.663 E0.1077
G1 X159.914 Y101.699 E0.1199
G1 X160.263 Y101.680 E0.1356
G1 X160.520 Y101.619 E0.1475
G1 X160.614 Y101.585 E0.1520
G1 X160.853 Y101.472 E0.1638
G1 X161.138 Y101.264 E0.1797
G1 X161.376 Y101.000 E0.1956
G1 X161.554 Y100.692 E0.2116
G1 X161.663 Y100.356 E0.2275
G1 X161.699 Y100.086 E0.2397
G1 X161.680 Y99.734 E0.2555
G1 X161.588 Y99.390 E0.2715
G1 X161.427 Y99.074 E0.2875
G1 X161.205 Y98.799 E0.3033
G1 X160.998 Y98.622 E0.3155
G1 X160.692 Y98.446 E0.3314
G1 X160.354 Y98.336 E0.3473
G1 X160.003 Y98.299 E0.3632
G1 X159.731 Y98.321 E0.3754
G1 X159.390 Y98.412 E0.3913
G1 X159.073 Y98.573 E0.4072
G1 X158.799 Y98.795 E0.4231
G1 X158.622 Y99.002 E0.4353
G1 X158.447 Y99.306 E0.4510
G1 X158.356 Y99.562 E0.4632
G1 X158.301 Y99.911 E0.4791
G92 E0
G1 E-1.0000 F1800
; solid layer
G1 X159.529 Y102.394 F4800
G1 E0.0000 F1800
G92 E0
G1 X164.060 Y106.926 E0.2877 F1840
G1 X164.060 Y106.360 E0.3131
G1 X160.128 Y102.428 E0.5628
G1 X160.370 Y102.416 E0.5737
G1 X160.621 Y102.355 E0.5853
G1 X164.060 Y105.794 E0.8036
G1 X164.060 Y105.229 E0.8290
G1 X161.036 Y102.204 E1.0211
G1 X161.233 Y102.110 E1.0309
G1 X161.392 Y101.995 E1.0397
G1 X164.060 Y104.663 E1.2092
G1 X164.060 Y104.097 E1.2346
G1 X161.704 Y101.742 E1.3841
G1 X161.972 Y101.444 E1.4021
G1 X164.060 Y103.532 E1.5347
G1 X164.060 Y102.966 E1.5601
G1 X162.181 Y101.087 E1.6794
G1 X162.234 Y100.994 E1.6842
G1 X162.337 Y100.677 E1.6992
G1 X164.060 Y102.400 E1.8086
G1 X164.060 Y101.835 E1.8340
G1 X162.430 Y100.204 E1.9376
G1 X162.441 Y100.116 E1.9416
G1 X162.415 Y99.624 E1.9637
G1 X164.060 Y101.269 E2.0681
G1 X164.060 Y100.703 E2.0935
G1 X162.077 Y98.721 E2.2194
G92 E0
G1 E-1.0000 F1800
G1 X144.224 Y98.969 F4800
G1 E0.0000 F1800
G92 E0
G1 X164.060 Y118.805 E1.2596 F1840
G1 X164.060 Y119.371 E1.2850
G1 X144.429 Y99.740 E2.5316
G1 X144.456 Y100.000 E2.5433
G1 X144.424 Y100.301 E2.5569
G1 X164.060 Y119.937 E3.8038
G1 X164.060 Y120.502 E3.8292
G1 X144.320 Y100.762 E5.0827
G1 X144.245 Y100.995 E5.0936
G1 X144.150 Y101.158 E5.1021
G1 X164.060 Y121.068 E6.3664
G1 X164.060 Y121.634 E6.3918
G1 X143.930 Y101.503 E7.6700
G1 X143.730 Y101.737 E7.6838
G1 X143.657 Y101.796 E7.6881
G1 X164.060 Y122.199 E8.9837
G1 X164.060 Y122.765 E9.0091
G1 X143.344 Y102.049 E10.3245
