; G-Code generated by Simplify3D(R) Version 4.0.0
; Sep 7, 2020 at 6:58:18 PM
; Settings Summary
;   processName,Process2
;   applyToModels,dudV2(2)
;   profileName,bar (modified)
;   profileVersion,2020-09-07 14:20:51
;   baseProfile,Default (modified)
;   printMaterial,PLA
;   printQuality,Medium
;   printExtruders,
;   extruderName,Primary Extruder
;   extruderToolheadNumber,0
;   extruderDiameter,0.4
;   extruderAutoWidth,0
;   extruderWidth,0.4
;   extrusionMultiplier,0.9
;   extruderUseRetract,1
;   extruderRetractionDistance,1
;   extruderExtraRestartDistance,0
;   extruderRetractionZLift,0
;   extruderRetractionSpeed,1800
;   extruderUseCoasting,0
;   extruderCoastingDistance,0.2
;   extruderUseWipe,0
;   extruderWipeDistance,5
;   primaryExtruder,0
;   layerHeight,0.3
;   topSolidLayers,3
;   bottomSolidLayers,3
;   perimeterOutlines,2
;   printPerimetersInsideOut,1
;   startPointOption,2
;   startPointOriginX,0
;   startPointOriginY,0
;   sequentialIslands,0
;   spiralVaseMode,0
;   firstLayerHeightPercentage,100
;   firstLayerWidthPercentage,100
;   firstLayerUnderspeed,0.5
;   useRaft,0
;   raftExtruder,0
;   raftTopLayers,3
;   raftBaseLayers,2
;   raftOffset,3
;   raftSeparationDistance,0.14
;   raftTopInfill,100
;   aboveRaftSpeedMultiplier,0.3
;   useSkirt,0
;   skirtExtruder,0
;   skirtLayers,1
;   skirtOutlines,2
;   skirtOffset,4
;   usePrimePillar,0
;   primePillarExtruder,999
;   primePillarWidth,12
;   primePillarLocation,7
;   primePillarSpeedMultiplier,1
;   useOozeShield,0
;   oozeShieldExtruder,999
;   oozeShieldOffset,2
;   oozeShieldOutlines,1
;   oozeShieldSidewallShape,1
;   oozeShieldSidewallAngle,30
;   oozeShieldSpeedMultiplier,1
;   infillExtruder,0
;   internalInfillPattern,Rectilinear
;   externalInfillPattern,Rectilinear
;   infillPercentage,15
;   outlineOverlapPercentage,15
;   infillExtrusionWidthPercentage,100
;   minInfillLength,5
;   infillLayerInterval,1
;   internalInfillAngles,45,-45
;   overlapInternalInfillAngles,0
;   externalInfillAngles,45,-45
;   generateSupport,0
;   supportExtruder,0
;   supportInfillPercentage,30
;   supportExtraInflation,0
;   supportBaseLayers,0
;   denseSupportExtruder,0
;   denseSupportLayers,0
;   denseSupportInfillPercentage,70
;   supportLayerInterval,1
;   supportHorizontalPartOffset,0.3
;   supportUpperSeparationLayers,1
;   supportLowerSeparationLayers,1
;   supportType,1
;   supportGridSpacing,4
;   maxOverhangAngle,45
;   supportAngles,0
;   temperatureName,Primary Extruder,Hot Bed
;   temperatureNumber,0,1
;   temperatureSetpointCount,1,1
;   temperatureSetpointLayers,1,1
;   temperatureSetpointTemperatures,210,60
;   temperatureStabilizeAtStartup,1,0
;   temperatureHeatedBed,0,1
;   temperatureRelayBetweenLayers,0,0
;   temperatureRelayBetweenLoops,0,0
;   fanLayers,1,2
;   fanSpeeds,0,100
;   blipFanToFullPower,0
;   adjustSpeedForCooling,1
;   minSpeedLayerTime,15
;   minCoolingSpeedSlowdown,20
;   increaseFanForCooling,0
;   minFanLayerTime,45
;   maxCoolingFanSpeed,100
;   increaseFanForBridging,0
;   bridgingFanSpeed,100
;   use5D,1
;   relativeEdistances,0
;   allowEaxisZeroing,1
;   independentExtruderAxes,0
;   includeM10123,0
;   stickySupport,1
;   applyToolheadOffsets,0
;   gcodeXoffset,0
;   gcodeYoffset,0
;   gcodeZoffset,0
;   overrideMachineDefinition,0
;   machineTypeOverride,0
;   strokeXoverride,200
;   strokeYoverride,200
;   strokeZoverride,200
;   originOffsetXoverride,0
;   originOffsetYoverride,0
;   originOffsetZoverride,0
;   homeXdirOverride,-1
;   homeYdirOverride,-1
;   homeZdirOverride,-1
;   flipXoverride,1
;   flipYoverride,-1
;   flipZoverride,1
;   toolheadOffsets,0,0|0,0|0,0|0,0|0,0|0,0
;   overrideFirmwareConfiguration,0
;   firmwareTypeOverride,RepRap (Marlin/Repetier/Sprinter)
;   GPXconfigOverride,r2
;   baudRateOverride,115200
;   overridePrinterModels,0
;   printerModelsOverride
;   startingGcode,G28 ; home all axes,G1 X0 Y5 Z0.2 F3000 ; get ready to prime,G92 E0 ; reset extrusion distance,G1 Y150 E20 F600 ; prime nozzle
;   layerChangeGcode,
;   retractionGcode,
;   toolChangeGcode,
;   endingGcode,M104 S0 ; turn off extruder,M140 S0 ; turn off bed,M84 ; disable motors,G1 X0 Y0; home,M107 ; fan off
;   exportFileFormat,gcode
;   celebration,0
;   celebrationSong,Random Song
;   postProcessing,
;   defaultSpeed,4600
;   outlineUnderspeed,0.5
;   solidInfillUnderspeed,0.8
;   supportUnderspeed,0.8
;   rapidXYspeed,4800
;   rapidZspeed,1000
;   minBridgingArea,50
;   bridgingExtraInflation,0
;   bridgingExtrusionMultiplier,1
;   bridgingSpeedMultiplier,1
;   useFixedBridgingAngle,0
;   fixedBridgingAngle,0
;   applyBridgingToPerimeters,0
;   filamentDiameters,1.75|1.75|1.75|1.75|1.75|1.75
;   filamentPricesPerKg,46|46|46|46|46|46
;   filamentDensities,1.25|1.25|1.25|1.25|1.25|1.25
;   useMinPrintHeight,0
;   minPrintHeight,0
;   useMaxPrintHeight,0
;   maxPrintHeight,0
;   useDiaphragm,0
;   diaphragmLayerInterval,20
;   robustSlicing,1
;   mergeAllIntoSolid,0
;   onlyRetractWhenCrossingOutline,1
;   retractBetweenLayers,1
;   useRetractionMinTravel,0
;   retractionMinTravel,3
;   retractWhileWiping,0
;   onlyWipeOutlines,1
;   avoidCrossingOutline,0
;   maxMovementDetourFactor,3
;   toolChangeRetractionDistance,12
;   toolChangeExtraRestartDistance,-0.5
;   toolChangeRetractionSpeed,600
;   externalThinWallType,1
;   internalThinWallType,1
;   thinWallAllowedOverlapPercentage,10
;   singleExtrusionMinLength,1
;   singleExtrusionMinPrintingWidthPercentage,50
;   singleExtrusionMaxPrintingWidthPercentage,200
;   singleExtrusionEndpointExtension,0.2
;   horizontalSizeCompensation,0
G90
M82
M106 S0
M140 S60
M104 S210 T0
M109 S210 T0
G28 ; home all axes
G1 X0 Y5 Z0.2 F3000 ; get ready to prime
G92 E0 ; reset extrusion distance
G1 Y150 E20 F600 ; prime nozzle
G92 E0
G1 E-1.0000 F1800
G1 Z0.300 F1000
; process Process2
; layer 1, Z = 0.300
T0
; tool H0.300 W0.400
; inner perimeter
G1 X48.100 Y62.600 F4800
G1 E0.0000 F540
G92 E0
G1 X169.900 Y62.600 E5.4690 F1725
G1 X169.900 Y143.400 E9.0970
G1 X48.100 Y143.400 E14.5659
G1 X48.100 Y62.600 E18.1940
; outer perimeter
G1 X47.700 Y62.200 F4800
G92 E0
G1 X170.300 Y62.200 E5.5049 F1150
G1 X170.300 Y143.800 E9.1688
G1 X47.700 Y143.800 E14.6737
G1 X47.700 Y62.200 E18.3376
; inner perimeter
G1 X72.400 Y73.900 F4800
G92 E0
G1 X72.400 Y127.100 E2.3887 F1725
G1 X145.600 Y127.100 E5.6755
G1 X145.600 Y73.900 E8.0643
G1 X72.400 Y73.900 E11.3510
; outer perimeter
G1 X72.800 Y74.300 F4800
G92 E0
G1 X72.800 Y126.700 E2.3528 F1150
G1 X145.200 Y126.700 E5.6037
G1 X145.200 Y74.300 E7.9565
G1 X72.800 Y74.300 E11.2073
; inner perimeter
G1 X68.220 Y100.908 F4800
G92 E0
G1 X67.780 Y100.908 E0.0197 F1725
G1 X67.358 Y100.998 E0.0391
G1 X67.038 Y101.130 E0.0546
G1 X66.683 Y101.361 E0.0737
G1 X66.431 Y101.600 E0.0893
G1 X66.182 Y101.944 E0.1083
G1 X66.034 Y102.255 E0.1238
G1 X65.923 Y102.671 E0.1431
G1 X65.900 Y103.110 E0.1629
G1 X65.967 Y103.537 E0.1823
G1 X66.083 Y103.864 E0.1979
G1 X66.299 Y104.238 E0.2173
G1 X66.593 Y104.563 E0.2369
G1 X66.950 Y104.822 E0.2567
G1 X67.350 Y105.000 E0.2764
G1 X67.773 Y105.090 E0.2958
G1 X68.120 Y105.099 E0.3114
G1 X68.546 Y105.031 E0.3308
G1 X68.948 Y104.877 E0.3501
G1 X69.243 Y104.695 E0.3657
G1 X69.545 Y104.423 E0.3839
G1 X69.647 Y104.304 E0.3910
G1 X69.874 Y103.955 E0.4097
G1 X70.032 Y103.544 E0.4294
G1 X70.099 Y103.118 E0.4488
G1 X70.090 Y102.772 E0.4643
G1 X70.002 Y102.358 E0.4834
G1 X69.869 Y102.037 E0.4989
G1 X69.634 Y101.676 E0.5183
G1 X69.324 Y101.365 E0.5380
G1 X68.962 Y101.130 E0.5574
G1 X68.642 Y100.998 E0.5729
G1 X68.220 Y100.908 E0.5923
; outer perimeter
G1 X68.178 Y101.308 F4800
G92 E0
G1 X67.822 Y101.308 E0.0160 F1150
G1 X67.477 Y101.382 E0.0318
G1 X67.225 Y101.486 E0.0440
G1 X66.932 Y101.677 E0.0598
G1 X66.733 Y101.865 E0.0721
G1 X66.528 Y102.149 E0.0878
G1 X66.411 Y102.394 E0.1000
G1 X66.320 Y102.734 E0.1158
G1 X66.301 Y103.089 E0.1318
G1 X66.356 Y103.438 E0.1476
G1 X66.448 Y103.696 E0.1599
G1 X66.625 Y104.001 E0.1757
G1 X66.862 Y104.264 E0.1916
G1 X67.151 Y104.474 E0.2077
G1 X67.474 Y104.618 E0.2236
G1 X67.820 Y104.691 E0.2394
G1 X68.093 Y104.698 E0.2517
G1 X68.442 Y104.643 E0.2676
G1 X68.770 Y104.517 E0.2833
G1 X69.003 Y104.374 E0.2956
G1 X69.258 Y104.144 E0.3111
G1 X69.326 Y104.064 E0.3158
G1 X69.516 Y103.772 E0.3314
G1 X69.643 Y103.440 E0.3473
G1 X69.698 Y103.092 E0.3632
G1 X69.691 Y102.820 E0.3754
G1 X69.618 Y102.477 E0.3911
G1 X69.514 Y102.224 E0.4034
G1 X69.322 Y101.929 E0.4192
G1 X69.071 Y101.678 E0.4352
G1 X68.774 Y101.486 E0.4510
G1 X68.523 Y101.382 E0.4632
G1 X68.178 Y101.308 E0.4791
; inner perimeter
G1 X55.592 Y102.780 F4800
G92 E0
G1 X55.502 Y102.358 E0.0194 F1725
G1 X55.370 Y102.038 E0.0349
G1 X55.135 Y101.676 E0.0543
G1 X54.825 Y101.367 E0.0740
G1 X54.462 Y101.130 E0.0934
G1 X54.142 Y100.998 E0.1089
G1 X53.720 Y100.908 E0.1283
G1 X53.280 Y100.908 E0.1481
G1 X52.858 Y100.998 E0.1675
G1 X52.538 Y101.130 E0.1830
G1 X52.183 Y101.361 E0.2020
G1 X51.938 Y101.594 E0.2172
G1 X51.732 Y101.862 E0.2323
G1 X51.536 Y102.246 E0.2517
G1 X51.423 Y102.671 E0.2715
G1 X51.401 Y103.086 E0.2901
G1 X51.413 Y103.243 E0.2972
G1 X51.498 Y103.642 E0.3155
G1 X51.630 Y103.962 E0.3311
G1 X51.865 Y104.324 E0.3504
G1 X52.176 Y104.635 E0.3702
G1 X52.545 Y104.874 E0.3899
G1 X52.956 Y105.032 E0.4097
G1 X53.382 Y105.099 E0.4291
G1 X53.728 Y105.090 E0.4446
G1 X54.150 Y105.000 E0.4640
G1 X54.544 Y104.825 E0.4834
G1 X54.829 Y104.629 E0.4989
G1 X55.135 Y104.324 E0.5183
G1 X55.373 Y103.956 E0.5379
G1 X55.528 Y103.553 E0.5573
G1 X55.592 Y103.212 E0.5729
G1 X55.592 Y102.780 E0.5923
; outer perimeter
G1 X55.192 Y102.822 F4800
G92 E0
G1 X55.118 Y102.477 E0.0158 F1150
G1 X55.014 Y102.225 E0.0281
G1 X54.822 Y101.930 E0.0439
G1 X54.572 Y101.679 E0.0598
G1 X54.275 Y101.486 E0.0757
G1 X54.023 Y101.382 E0.0880
G1 X53.678 Y101.308 E0.1038
G1 X53.322 Y101.308 E0.1198
G1 X52.977 Y101.382 E0.1356
G1 X52.725 Y101.486 E0.1478
G1 X52.432 Y101.677 E0.1636
G1 X52.236 Y101.862 E0.1757
G1 X52.072 Y102.076 E0.1878
G1 X51.912 Y102.390 E0.2036
G1 X51.820 Y102.734 E0.2196
G1 X51.802 Y103.081 E0.2352
G1 X51.810 Y103.186 E0.2399
G1 X51.882 Y103.523 E0.2554
G1 X51.986 Y103.774 E0.2676
G1 X52.178 Y104.071 E0.2835
G1 X52.429 Y104.322 E0.2994
G1 X52.728 Y104.516 E0.3154
G1 X53.060 Y104.643 E0.3314
G1 X53.408 Y104.698 E0.3472
G1 X53.680 Y104.691 E0.3594
G1 X54.026 Y104.618 E0.3753
G1 X54.348 Y104.474 E0.3911
G1 X54.572 Y104.320 E0.4034
G1 X54.822 Y104.071 E0.4192
G1 X55.015 Y103.774 E0.4351
G1 X55.142 Y103.444 E0.4510
G1 X55.192 Y103.175 E0.4632
G1 X55.192 Y102.822 E0.4791
G92 E0
G1 E-1.0000 F1800
; inner perimeter
G1 X147.900 Y103.110 F4800
G1 E0.0000 F1800
G92 E0
G1 X147.968 Y103.544 E0.0197 F1725
G1 X148.123 Y103.947 E0.0391
G1 X148.304 Y104.242 E0.0547
G1 X148.593 Y104.563 E0.0740
G1 X148.948 Y104.822 E0.0938
G1 X149.350 Y105.000 E0.1135
G1 X149.772 Y105.090 E0.1329
G1 X150.118 Y105.099 E0.1484
G1 X150.536 Y105.033 E0.1675
G1 X150.862 Y104.918 E0.1830
G1 X151.236 Y104.702 E0.2024
G1 X151.562 Y104.409 E0.2220
G1 X151.821 Y104.052 E0.2419
G1 X152.000 Y103.650 E0.2616
G1 X152.092 Y103.220 E0.2813
G1 X152.092 Y102.788 E0.3007
G1 X152.029 Y102.448 E0.3163
G1 X151.874 Y102.045 E0.3356
G1 X151.639 Y101.683 E0.3550
G1 X151.401 Y101.432 E0.3705
G1 X151.059 Y101.184 E0.3895
G1 X150.746 Y101.034 E0.4051
G1 X150.337 Y100.925 E0.4241
G1 X149.992 Y100.898 E0.4396
G1 X149.563 Y100.943 E0.4590
G1 X149.145 Y101.078 E0.4788
G1 X148.772 Y101.294 E0.4981
G1 X148.508 Y101.519 E0.5137
G1 X148.250 Y101.837 E0.5321
G1 X148.173 Y101.963 E0.5387
G1 X148.034 Y102.254 E0.5532
G1 X147.923 Y102.671 E0.5726
G1 X147.900 Y103.110 E0.5923
; outer perimeter
G1 X148.301 Y103.089 F4800
G92 E0
G1 X148.357 Y103.440 E0.0160 F1150
G1 X148.483 Y103.770 E0.0318
G1 X148.626 Y104.002 E0.0440
G1 X148.862 Y104.264 E0.0599
G1 X149.149 Y104.473 E0.0759
G1 X149.474 Y104.618 E0.0918
G1 X149.820 Y104.691 E0.1077
G1 X150.092 Y104.698 E0.1199
G1 X150.438 Y104.644 E0.1356
G1 X150.694 Y104.553 E0.1478
G1 X151.000 Y104.376 E0.1637
G1 X151.263 Y104.139 E0.1796
G1 X151.473 Y103.851 E0.1956
G1 X151.618 Y103.526 E0.2116
G1 X151.692 Y103.178 E0.2276
G1 X151.692 Y102.825 E0.2434
G1 X151.642 Y102.557 E0.2556
G1 X151.516 Y102.228 E0.2715
G1 X151.323 Y101.932 E0.2873
G1 X151.136 Y101.734 E0.2995
G1 X150.854 Y101.529 E0.3152
G1 X150.607 Y101.411 E0.3275
G1 X150.269 Y101.321 E0.3432
G1 X149.997 Y101.299 E0.3554
G1 X149.646 Y101.336 E0.3713
G1 X149.308 Y101.446 E0.3873
G1 X149.004 Y101.622 E0.4031
G1 X148.795 Y101.799 E0.4153
G1 X148.578 Y102.069 E0.4309
G1 X148.525 Y102.154 E0.4354
G1 X148.411 Y102.393 E0.4473
G1 X148.320 Y102.734 E0.4631
G1 X148.301 Y103.089 E0.4791
G92 E0
G1 E-1.0000 F1800
; inner perimeter
G1 X162.449 Y103.118 F4800
G1 E0.0000 F1800
G92 E0
G1 X162.517 Y103.544 E0.0194 F1725
G1 X162.672 Y103.948 E0.0388
G1 X162.841 Y104.223 E0.0533
G1 X162.931 Y104.340 E0.0599
G1 X163.225 Y104.635 E0.0786
G1 X163.594 Y104.874 E0.0984
G1 X163.997 Y105.029 E0.1177
G1 X164.329 Y105.090 E0.1329
G1 X164.666 Y105.099 E0.1481
G1 X165.093 Y105.032 E0.1675
G1 X165.503 Y104.874 E0.1872
G1 X165.872 Y104.635 E0.2069
G1 X166.183 Y104.324 E0.2267
G1 X166.417 Y103.963 E0.2460
G1 X166.550 Y103.642 E0.2616
G1 X166.640 Y103.220 E0.2810
G1 X166.640 Y102.788 E0.3004
G1 X166.577 Y102.448 E0.3159
G1 X166.422 Y102.045 E0.3353
G1 X166.183 Y101.676 E0.3550
G1 X165.873 Y101.366 E0.3747
G1 X165.510 Y101.130 E0.3941
G1 X165.191 Y100.998 E0.4097
G1 X164.768 Y100.908 E0.4291
G1 X164.329 Y100.908 E0.4488
G1 X163.906 Y100.998 E0.4682
G1 X163.587 Y101.130 E0.4837
G1 X163.225 Y101.365 E0.5031
G1 X162.914 Y101.676 E0.5228
G1 X162.680 Y102.037 E0.5421
G1 X162.546 Y102.358 E0.5577
G1 X162.458 Y102.772 E0.5768
G1 X162.449 Y103.118 E0.5923
; outer perimeter
G1 X162.850 Y103.092 F4800
G92 E0
G1 X162.905 Y103.440 E0.0158 F1150
G1 X163.032 Y103.770 E0.0317
G1 X163.171 Y103.996 E0.0436
G1 X163.232 Y104.076 E0.0481
G1 X163.478 Y104.322 E0.0638
G1 X163.776 Y104.516 E0.0797
G1 X164.106 Y104.642 E0.0956
G1 X164.371 Y104.691 E0.1077
G1 X164.640 Y104.698 E0.1198
G1 X164.989 Y104.643 E0.1356
G1 X165.321 Y104.516 E0.1516
G1 X165.619 Y104.322 E0.1676
G1 X165.870 Y104.071 E0.1835
G1 X166.062 Y103.776 E0.1993
G1 X166.167 Y103.523 E0.2116
G1 X166.240 Y103.178 E0.2275
G1 X166.240 Y102.825 E0.2433
G1 X166.191 Y102.557 E0.2555
G1 X166.064 Y102.228 E0.2714
G1 X165.870 Y101.930 E0.2873
G1 X165.620 Y101.679 E0.3032
G1 X165.323 Y101.486 E0.3192
G1 X165.071 Y101.382 E0.3314
G1 X164.726 Y101.308 E0.3472
G1 X164.371 Y101.308 E0.3632
G1 X164.025 Y101.382 E0.3790
G1 X163.774 Y101.486 E0.3913
G1 X163.478 Y101.678 E0.4071
G1 X163.226 Y101.929 E0.4231
G1 X163.035 Y102.224 E0.4388
G1 X162.930 Y102.477 E0.4511
G1 X162.857 Y102.820 E0.4669
G1 X162.850 Y103.092 E0.4791
G92 E0
G1 E-1.0000 F1800
; solid layer
G1 X164.612 Y105.438 F4800
G1 E0.0000 F1800
G92 E0
G1 X169.560 Y110.386 E0.3142 F1840
G1 X169.560 Y109.820 E0.3396
G1 X165.113 Y105.373 E0.6220
G1 X165.181 Y105.362 E0.6251
G1 X165.533 Y105.227 E0.6420
G1 X169.560 Y109.254 E0.8977
G1 X169.560 Y108.689 E0.9231
G1 X165.896 Y105.024 E1.1558
G1 X166.087 Y104.900 E1.1660
G1 X166.212 Y104.775 E1.1740
G1 X169.560 Y108.123 E1.3865
G1 X169.560 Y107.557 E1.4119
G1 X166.485 Y104.482 E1.6072
G1 X166.708 Y104.140 E1.6256
G1 X169.560 Y106.991 E1.8067
G1 X169.560 Y106.426 E1.8321
G1 X166.877 Y103.742 E2.0024
G1 X166.976 Y103.276 E2.0239
G1 X169.560 Y105.860 E2.1880
G1 X169.560 Y105.294 E2.2134
G1 X166.971 Y102.705 E2.3778
G92 E0
G1 E-1.0000 F1800
G1 X152.432 Y102.874 F4800
G1 E0.0000 F1800
G92 E0
G1 X169.560 Y120.002 E1.0876 F1840
G1 X169.560 Y120.568 E1.1130
G1 X152.400 Y103.407 E2.2027
G1 X152.325 Y103.756 E2.2187
G1 X152.281 Y103.855 E2.2236
G1 X169.560 Y121.134 E3.3208
G1 X169.560 Y121.699 E3.3462
G1 X152.103 Y104.242 E4.4547
G1 X151.865 Y104.570 E4.4729
G1 X169.560 Y122.265 E5.5965
G1 X169.560 Y122.831 E5.6219
G1 X151.579 Y104.850 E6.7637
G1 X151.437 Y104.978 E6.7723
G1 X151.250 Y105.086 E6.7820
G1 X169.560 Y123.396 E7.9447
G1 X169.560 Y123.962 E7.9701
G1 X150.873 Y105.275 E9.1567
G1 X150.621 Y105.364 E9.1687
G1 X150.427 Y105.394 E9.1775
