; G-Code generated by Simplify3D(R) Version 4.0.0
; Jan 5, 2021 at 11:28:40 PM
; Settings Summary
;   processName,Process1
;   applyToModels,Ender_5_BraceV1
;   profileName,new profile (modified)
;   profileVersion,2020-09-07 14:01:24
;   baseProfile,Default (modified)
;   printMaterial,PLA
;   printQuality,Medium
;   printExtruders,
;   extruderName,Primary Extruder
;   extruderToolheadNumber,0
;   extruderDiameter,0.4
;   extruderAutoWidth,0
;   extruderWidth,0.4
;   extrusionMultiplier,0.9
;   extruderUseRetract,1
;   extruderRetractionDistance,1
;   extruderExtraRestartDistance,0
;   extruderRetractionZLift,0
;   extruderRetractionSpeed,1800
;   extruderUseCoasting,0
;   extruderCoastingDistance,0.2
;   extruderUseWipe,0
;   extruderWipeDistance,5
;   primaryExtruder,0
;   layerHeight,0.3
;   topSolidLayers,3
;   bottomSolidLayers,2
;   perimeterOutlines,3
;   printPerimetersInsideOut,1
;   startPointOption,2
;   startPointOriginX,0
;   startPointOriginY,0
;   sequentialIslands,0
;   spiralVaseMode,0
;   firstLayerHeightPercentage,90
;   firstLayerWidthPercentage,103
;   firstLayerUnderspeed,0.5
;   useRaft,0
;   raftExtruder,0
;   raftTopLayers,2
;   raftBaseLayers,2
;   raftOffset,1.4
;   raftSeparationDistance,0.14
;   raftTopInfill,100
;   aboveRaftSpeedMultiplier,0.3
;   useSkirt,0
;   skirtExtruder,0
;   skirtLayers,1
;   skirtOutlines,2
;   skirtOffset,4
;   usePrimePillar,0
;   primePillarExtruder,999
;   primePillarWidth,12
;   primePillarLocation,7
;   primePillarSpeedMultiplier,1
;   useOozeShield,0
;   oozeShieldExtruder,999
;   oozeShieldOffset,2
;   oozeShieldOutlines,1
;   oozeShieldSidewallShape,1
;   oozeShieldSidewallAngle,30
;   oozeShieldSpeedMultiplier,1
;   infillExtruder,0
;   internalInfillPattern,Rectilinear
;   externalInfillPattern,Rectilinear
;   infillPercentage,13
;   outlineOverlapPercentage,15
;   infillExtrusionWidthPercentage,100
;   minInfillLength,5
;   infillLayerInterval,1
;   internalInfillAngles,45,-45
;   overlapInternalInfillAngles,0
;   externalInfillAngles,45,-45
;   generateSupport,1
;   supportExtruder,0
;   supportInfillPercentage,30
;   supportExtraInflation,0
;   supportBaseLayers,0
;   denseSupportExtruder,0
;   denseSupportLayers,0
;   denseSupportInfillPercentage,70
;   supportLayerInterval,1
;   supportHorizontalPartOffset,0.2
;   supportUpperSeparationLayers,1
;   supportLowerSeparationLayers,1
;   supportType,0
;   supportGridSpacing,4
;   maxOverhangAngle,45
;   supportAngles,0
;   temperatureName,Primary Extruder,Hot Bed
;   temperatureNumber,0,1
;   temperatureSetpointCount,1,1
;   temperatureSetpointLayers,1,1
;   temperatureSetpointTemperatures,210,60
;   temperatureStabilizeAtStartup,1,0
;   temperatureHeatedBed,0,1
;   temperatureRelayBetweenLayers,0,0
;   temperatureRelayBetweenLoops,0,0
;   fanLayers,1,2
;   fanSpeeds,0,100
;   blipFanToFullPower,0
;   adjustSpeedForCooling,1
;   minSpeedLayerTime,15
;   minCoolingSpeedSlowdown,20
;   increaseFanForCooling,0
;   minFanLayerTime,45
;   maxCoolingFanSpeed,100
;   increaseFanForBridging,0
;   bridgingFanSpeed,100
;   use5D,1
;   relativeEdistances,0
;   allowEaxisZeroing,1
;   independentExtruderAxes,0
;   includeM10123,0
;   stickySupport,1
;   applyToolheadOffsets,0
;   gcodeXoffset,-0.03
;   gcodeYoffset,-0.03
;   gcodeZoffset,0
;   overrideMachineDefinition,0
;   machineTypeOverride,0
;   strokeXoverride,200
;   strokeYoverride,200
;   strokeZoverride,200
;   originOffsetXoverride,0
;   originOffsetYoverride,0
;   originOffsetZoverride,0
;   homeXdirOverride,-1
;   homeYdirOverride,-1
;   homeZdirOverride,-1
;   flipXoverride,1
;   flipYoverride,-1
;   flipZoverride,1
;   toolheadOffsets,0,0|0,0|0,0|0,0|0,0|0,0
;   overrideFirmwareConfiguration,0
;   firmwareTypeOverride,RepRap (Marlin/Repetier/Sprinter)
;   GPXconfigOverride,r2
;   baudRateOverride,115200
;   overridePrinterModels,0
;   printerModelsOverride
;   startingGcode,G28 ; home all axes,G1 X3 Y5 Z0.2 F3000 ; get ready to prime,G92 E0 ; reset extrusion distance,G1 Y150 E20 F600 ; prime nozzle
;   layerChangeGcode,
;   retractionGcode,
;   toolChangeGcode,
;   endingGcode,M104 S0 ; turn off extruder,M140 S0 ; turn off bedG1 X0 Y0; home,M84 ; disable motors,M107 ; fan off,G28 X Y; Home,M18; Disable steppers
;   exportFileFormat,gcode
;   celebration,0
;   celebrationSong,Random Song
;   postProcessing,
;   defaultSpeed,4600
;   outlineUnderspeed,0.5
;   solidInfillUnderspeed,0.8
;   supportUnderspeed,0.8
;   rapidXYspeed,4800
;   rapidZspeed,1000
;   minBridgingArea,50
;   bridgingExtraInflation,0
;   bridgingExtrusionMultiplier,1
;   bridgingSpeedMultiplier,1
;   useFixedBridgingAngle,0
;   fixedBridgingAngle,0
;   applyBridgingToPerimeters,0
;   filamentDiameters,1.75|1.75|1.75|1.75|1.75|1.75
;   filamentPricesPerKg,46|46|46|46|46|46
;   filamentDensities,1.25|1.25|1.25|1.25|1.25|1.25
;   useMinPrintHeight,0
;   minPrintHeight,0
;   useMaxPrintHeight,0
;   maxPrintHeight,0
;   useDiaphragm,0
;   diaphragmLayerInterval,20
;   robustSlicing,1
;   mergeAllIntoSolid,0
;   onlyRetractWhenCrossingOutline,1
;   retractBetweenLayers,1
;   useRetractionMinTravel,0
;   retractionMinTravel,3
;   retractWhileWiping,0
;   onlyWipeOutlines,1
;   avoidCrossingOutline,0
;   maxMovementDetourFactor,3
;   toolChangeRetractionDistance,12
;   toolChangeExtraRestartDistance,-0.5
;   toolChangeRetractionSpeed,600
;   externalThinWallType,1
;   internalThinWallType,1
;   thinWallAllowedOverlapPercentage,8
;   singleExtrusionMinLength,1
;   singleExtrusionMinPrintingWidthPercentage,50
;   singleExtrusionMaxPrintingWidthPercentage,200
;   singleExtrusionEndpointExtension,0.2
;   horizontalSizeCompensation,0
G90
M82
M106 S0
M140 S60
M104 S210 T0
M109 S210 T0
G28 ; home all axes
G1 X3 Y5 Z0.2 F3000 ; get ready to prime
G92 E0 ; reset extrusion distance
G1 Y150 E20 F600 ; prime nozzle
G92 E0
G1 E-1.0000 F1800
G1 Z0.270 F1000
; process Process1
; layer 1, Z = 0.270
T0
; tool H0.300 W0.412
; inner perimeter
G1 X112.216 Y101.671 F4800
G1 E0.0000 F540
G92 E0
G1 X116.175 Y101.671 E0.1831 F1725
G1 X116.169 Y114.608 E0.7814
G1 X112.221 Y114.608 E0.9640
G1 X112.216 Y101.671 E1.5624
G1 X111.804 Y101.259 F4800
G92 E0
G1 X116.587 Y101.259 E0.2212 F1725
G1 X116.581 Y115.020 E0.8577
G1 X111.809 Y115.020 E1.0784
G1 X111.804 Y101.259 E1.7148
; outer perimeter
G1 X111.391 Y100.847 F4800
G92 E0
G1 X116.999 Y100.847 E0.2594 F1150
G1 X116.993 Y115.432 E0.9339
G1 X111.397 Y115.432 E1.1927
G1 X111.391 Y100.847 E1.8672
; solid layer
G1 X115.667 Y102.022 F4800
G92 E0
G1 X115.825 Y102.180 E0.0103 F1840
G1 X115.824 Y102.762 E0.0373
G1 X115.084 Y102.022 E0.0857
G1 X114.501 Y102.022 E0.1127
G1 X115.824 Y103.344 E0.1992
G1 X115.824 Y103.927 E0.2261
G1 X113.919 Y102.022 E0.3507
G1 X113.336 Y102.022 E0.3777
G1 X115.824 Y104.509 E0.5404
G1 X115.823 Y105.092 E0.5673
G1 X112.753 Y102.022 E0.7681
G1 X112.566 Y102.022 E0.7768
G1 X112.566 Y102.417 E0.7951
G1 X115.823 Y105.674 E1.0081
G1 X115.823 Y106.256 E1.0350
G1 X112.566 Y103.000 E1.2480
G1 X112.567 Y103.583 E1.2750
G1 X115.823 Y106.839 E1.4879
G1 X115.822 Y107.421 E1.5148
G1 X112.567 Y104.166 E1.7278
G1 X112.567 Y104.749 E1.7547
G1 X115.822 Y108.004 E1.9676
G1 X115.822 Y108.586 E1.9945
G1 X112.567 Y105.332 E2.2074
G1 X112.568 Y105.914 E2.2344
G1 X115.822 Y109.168 E2.4472
G1 X115.821 Y109.751 E2.4741
G1 X112.568 Y106.497 E2.6869
G1 X112.568 Y107.080 E2.7139
G1 X115.821 Y110.333 E2.9266
G1 X115.821 Y110.916 E2.9536
G1 X112.568 Y107.663 E3.1663
G1 X112.568 Y108.246 E3.1933
G1 X115.821 Y111.498 E3.4060
G1 X115.820 Y112.081 E3.4329
G1 X112.569 Y108.829 E3.6456
G1 X112.569 Y109.412 E3.6726
G1 X115.820 Y112.663 E3.8852
G1 X115.820 Y113.245 E3.9121
G1 X112.569 Y109.995 E4.1247
G1 X112.569 Y110.577 E4.1517
G1 X115.820 Y113.828 E4.3643
G1 X115.819 Y114.258 E4.3842
G1 X115.667 Y114.258 E4.3912
G1 X112.570 Y111.160 E4.5938
G1 X112.570 Y111.743 E4.6208
G1 X115.085 Y114.258 E4.7853
G1 X114.502 Y114.258 E4.8122
G1 X112.570 Y112.326 E4.9386
G1 X112.570 Y112.909 E4.9656
G1 X113.919 Y114.258 E5.0538
G1 X113.337 Y114.258 E5.0808
G1 X112.570 Y113.492 E5.1309
G1 X112.571 Y114.075 E5.1578
G1 X112.754 Y114.258 E5.1698
G92 E0
G1 E-1.0000 F1800
; inner perimeter
G1 X112.221 Y125.673 F4800
G1 E0.0000 F1800
G92 E0
G1 X116.169 Y125.673 E0.1826 F1725
G1 X116.169 Y136.269 E0.6726
G1 X112.221 Y136.269 E0.8552
G1 X112.221 Y125.673 E1.3452
G1 X111.809 Y125.261 F4800
G92 E0
G1 X116.581 Y125.261 E0.2207 F1725
G1 X116.581 Y136.681 E0.7488
G1 X111.809 Y136.681 E0.9695
G1 X111.809 Y125.261 E1.4976
; outer perimeter
G1 X111.397 Y124.849 F4800
G92 E0
G1 X116.993 Y124.849 E0.2588 F1150
G1 X116.993 Y137.093 E0.8250
G1 X111.397 Y137.093 E1.0838
G1 X111.397 Y124.849 E1.6501
; solid layer
G1 X115.780 Y126.024 F4800
G92 E0
G1 X115.819 Y126.063 E0.0026 F1840
G1 X115.819 Y126.645 E0.0295
G1 X115.197 Y126.024 E0.0702
G1 X114.614 Y126.024 E0.0971
G1 X115.819 Y127.228 E0.1759
G1 X115.819 Y127.811 E0.2028
G1 X114.032 Y126.024 E0.3197
G1 X113.449 Y126.024 E0.3467
G1 X115.819 Y128.393 E0.5017
G1 X115.819 Y128.976 E0.5286
G1 X112.866 Y126.024 E0.7217
G1 X112.571 Y126.024 E0.7354
G1 X112.571 Y126.311 E0.7487
G1 X115.819 Y129.559 E0.9611
G1 X115.819 Y130.141 E0.9880
G1 X112.571 Y126.894 E1.2004
G1 X112.571 Y127.476 E1.2274
G1 X115.819 Y130.724 E1.4398
G1 X115.819 Y131.307 E1.4667
G1 X112.571 Y128.059 E1.6791
G1 X112.571 Y128.642 E1.7061
G1 X115.819 Y131.889 E1.9185
G1 X115.819 Y132.472 E1.9454
G1 X112.571 Y129.224 E2.1578
G1 X112.571 Y129.807 E2.1848
G1 X115.819 Y133.055 E2.3972
G1 X115.819 Y133.637 E2.4242
G1 X112.571 Y130.390 E2.6366
G1 X112.571 Y130.972 E2.6635
G1 X115.819 Y134.220 E2.8759
G1 X115.819 Y134.803 E2.9029
G1 X112.571 Y131.555 E3.1153
G1 X112.571 Y132.138 E3.1422
G1 X115.819 Y135.385 E3.3546
G1 X115.819 Y135.918 E3.3793
G1 X115.769 Y135.918 E3.3816
G1 X112.571 Y132.720 E3.5907
G1 X112.571 Y133.303 E3.6177
G1 X115.187 Y135.918 E3.7888
G1 X114.604 Y135.918 E3.8157
G1 X112.571 Y133.886 E3.9487
G1 X112.571 Y134.468 E3.9756
G1 X114.021 Y135.918 E4.0705
G1 X113.439 Y135.918 E4.0974
G1 X112.571 Y135.051 E4.1542
G1 X112.571 Y135.634 E4.1811
G1 X112.856 Y135.918 E4.1997
G92 E0
G1 E-1.0000 F1800
; support
G1 X109.990 Y136.303 F4800
G1 E0.0000 F1800
G92 E0
G1 X101.950 Y136.303 E0.3718 F1840
G1 X101.950 Y134.970 E0.4335
G1 X109.990 Y134.970 E0.8053
G1 X109.990 Y133.637 E0.8670
G1 X101.950 Y133.637 E1.2388
G1 X101.950 Y132.303 E1.3005
G1 X109.990 Y132.303 E1.6723
G1 X109.990 Y130.970 E1.7340
G1 X101.950 Y130.970 E2.1058
G1 X101.950 Y129.637 E2.1675
G1 X109.990 Y129.637 E2.5393
G1 X109.990 Y128.303 E2.6010
G1 X101.950 Y128.303 E2.9728
G1 X101.950 Y126.970 E3.0345
G1 X109.990 Y126.970 E3.4063
G1 X109.990 Y125.637 E3.4680
G1 X101.950 Y125.637 E3.8398
G1 X101.950 Y124.303 E3.9015
G1 X110.506 Y124.303 E4.2972
G1 X110.506 Y124.243 E4.3000
G1 X117.884 Y124.243 E4.6412
G1 X117.884 Y124.303 E4.6440
G1 X125.990 Y124.303 E5.0189
G1 X125.990 Y122.970 E5.0805
G1 X101.950 Y122.970 E6.1923
G1 X101.950 Y121.637 E6.2540
G1 X125.990 Y121.637 E7.3658
G1 X125.990 Y120.303 E7.4275
G1 X117.950 Y120.303 E7.7993
G1 X117.950 Y120.950 E7.8292
G1 X109.990 Y120.950 E8.1973
G1 X109.990 Y120.303 E8.2272
G1 X101.950 Y120.303 E8.5991
G1 X101.950 Y118.970 E8.6607
G1 X109.990 Y118.970 E9.0326
G1 X109.990 Y117.637 E9.0942
G1 X101.950 Y117.637 E9.4661
G1 X101.950 Y116.303 E9.5277
G1 X109.990 Y116.303 E9.8996
G1 X109.990 Y114.970 E9.9612
G1 X101.950 Y114.970 E10.3331
G1 X101.950 Y113.637 E10.3947
G1 X109.990 Y113.637 E10.7666
G1 X109.990 Y112.303 E10.8282
G1 X101.950 Y112.303 E11.2001
G1 X101.950 Y110.970 E11.2617
G1 X109.990 Y110.970 E11.6336
G1 X109.990 Y109.637 E11.6952
G1 X101.950 Y109.637 E12.0671
G1 X101.950 Y108.303 E12.1287
G1 X109.990 Y108.303 E12.5006
G1 X109.990 Y106.970 E12.5622
G1 X101.950 Y106.970 E12.9341
G1 X101.950 Y105.637 E12.9957
G1 X109.990 Y105.637 E13.3676
G1 X109.990 Y104.303 E13.4292
G1 X101.950 Y104.303 E13.8011
G1 X101.950 Y102.970 E13.8627
G1 X109.990 Y102.970 E14.2346
G1 X109.990 Y101.637 E14.2962
G1 X101.950 Y101.637 E14.6681
G92 E0
G1 E-1.0000 F1800
G1 X117.950 Y101.637 F4800
G1 E0.0000 F1800
G92 E0
G1 X125.990 Y101.637 E0.3718 F1840
G1 X125.990 Y102.970 E0.4335
G1 X117.950 Y102.970 E0.8053
G1 X117.950 Y104.303 E0.8670
G1 X125.990 Y104.303 E1.2388
G1 X125.990 Y105.637 E1.3005
G1 X117.950 Y105.637 E1.6723
G1 X117.950 Y106.970 E1.7340
G1 X125.990 Y106.970 E2.1058
G1 X125.990 Y108.303 E2.1675
G1 X117.950 Y108.303 E2.5393
G1 X117.950 Y109.637 E2.6010
G1 X125.990 Y109.637 E2.9728
G1 X125.990 Y110.970 E3.0345
G1 X117.950 Y110.970 E3.4063
G1 X117.950 Y112.303 E3.4680
G1 X125.990 Y112.303 E3.8398
G1 X125.990 Y113.637 E3.9015
G1 X117.950 Y113.637 E4.2733
G1 X117.950 Y114.970 E4.3350
G1 X125.990 Y114.970 E4.7068
G1 X125.990 Y116.303 E4.7685
G1 X117.950 Y116.303 E5.1403
G1 X117.950 Y117.637 E5.2020
G1 X125.990 Y117.637 E5.5738
G1 X125.990 Y118.970 E5.6355
G1 X117.950 Y118.970 E6.0073
G92 E0
G1 E-1.0000 F1800
G1 X117.950 Y125.637 F4800
G1 E0.0000 F1800
G92 E0
G1 X125.990 Y125.637 E0.3718 F1840
G1 X125.990 Y126.970 E0.4335
G1 X117.950 Y126.970 E0.8053
G1 X117.950 Y128.303 E0.8670
G1 X125.990 Y128.303 E1.2388
G1 X125.990 Y129.637 E1.3005
G1 X117.950 Y129.637 E1.6723
G1 X117.950 Y130.970 E1.7340
G1 X125.990 Y130.970 E2.1058
G1 X125.990 Y132.303 E2.1675
G1 X117.950 Y132.303 E2.5393
G1 X117.950 Y133.637 E2.6010
G1 X125.990 Y133.637 E2.9728
G1 X125.990 Y134.970 E3.0345
G1 X117.950 Y134.970 E3.4063
G1 X117.950 Y136.303 E3.4680
G1 X125.990 Y136.303 E3.8398
G92 E0
G1 E-1.0000 F1800
; layer 2, Z = 0.570
M106 S255
; tool H0.300 W0.400
; inner perimeter
G1 X116.484 Y136.299 F4800
G1 Z0.570 F1000
G1 E0.0000 F1800
G92 E0
G1 X111.906 Y136.299 E0.2056 F3450
G1 X111.906 Y125.643 E0.6840
G1 X116.484 Y125.643 E0.8895
G1 X116.484 Y136.299 E1.3680
G1 X116.884 Y136.699 F4800
G92 E0
G1 X111.506 Y136.699 E0.2415 F3450
G1 X111.506 Y125.243 E0.7558
G1 X116.884 Y125.243 E0.9973
G1 X116.884 Y136.699 E1.5117
; outer perimeter
G1 X117.284 Y137.099 F4800
G92 E0
G1 X111.106 Y137.099 E0.2774 F2300
G1 X111.106 Y124.843 E0.8277
G1 X117.284 Y124.843 E1.1051
G1 X117.284 Y137.099 E1.6553
; solid layer
G1 X115.649 Y135.959 F4800
G92 E0
G1 X116.144 Y135.464 E0.0314 F3680
G1 X116.144 Y134.898 E0.0568
G1 X115.083 Y135.959 E0.1242
G1 X114.518 Y135.959 E0.1496
G1 X116.144 Y134.332 E0.2529
G1 X116.144 Y133.767 E0.2783
G1 X113.952 Y135.959 E0.4174
G1 X113.386 Y135.959 E0.4428
G1 X116.144 Y133.201 E0.6180
G1 X116.144 Y132.635 E0.6434
G1 X112.821 Y135.959 E0.8544
G1 X112.255 Y135.959 E0.8798
G1 X116.144 Y132.070 E1.1267
G1 X116.144 Y131.504 E1.1521
G1 X112.246 Y135.402 E1.3997
G1 X112.246 Y134.836 E1.4251
G1 X116.144 Y130.938 E1.6726
G1 X116.144 Y130.372 E1.6980
G1 X112.246 Y134.270 E1.9455
G1 X112.246 Y133.705 E1.9709
G1 X116.144 Y129.807 E2.2184
G1 X116.144 Y129.241 E2.2438
G1 X112.246 Y133.139 E2.4914
G1 X112.246 Y132.573 E2.5168
G1 X116.144 Y128.675 E2.7643
G1 X116.144 Y128.110 E2.7897
G1 X112.246 Y132.008 E3.0372
G1 X112.246 Y131.442 E3.0626
G1 X116.144 Y127.544 E3.3101
G1 X116.144 Y126.978 E3.3355
G1 X112.246 Y130.876 E3.5831
G1 X112.246 Y130.311 E3.6085
G1 X116.144 Y126.413 E3.8560
G1 X116.144 Y125.983 E3.8753
G1 X116.008 Y125.983 E3.8814
G1 X112.246 Y129.745 E4.1202
G1 X112.246 Y129.179 E4.1456
G1 X115.442 Y125.983 E4.3486
G1 X114.876 Y125.983 E4.3740
G1 X112.246 Y128.614 E4.5410
G1 X112.246 Y128.048 E4.5664
G1 X114.311 Y125.983 E4.6975
G1 X113.745 Y125.983 E4.7229
G1 X112.246 Y127.482 E4.8181
G1 X112.246 Y126.917 E4.8435
G1 X113.179 Y125.983 E4.9027
G1 X112.614 Y125.983 E4.9281
G1 X112.246 Y126.351 E4.9515
G92 E0
G1 E-1.0000 F1800
; inner perimeter
G1 X111.906 Y114.638 F4800
G1 E0.0000 F1800
G92 E0
G1 X111.902 Y101.641 E0.5836 F3450
G1 X116.489 Y101.641 E0.7896
G1 X116.484 Y114.638 E1.3731
G1 X111.906 Y114.638 E1.5787
G1 X111.506 Y115.038 F4800
G92 E0
G1 X111.501 Y101.241 E0.6195 F3450
G1 X116.889 Y101.241 E0.8614
G1 X116.884 Y115.038 E1.4809
G1 X111.506 Y115.038 E1.7224
; outer perimeter
G1 X111.106 Y115.438 F4800
G92 E0
G1 X111.101 Y101.148 E0.6417 F2300
G1 X111.404 Y100.841 E0.6610
G1 X116.987 Y100.841 E0.9117
