; G-Code generated by Simplify3D(R) Version 4.0.0
; Jan 6, 2021 at 8:45:44 AM
; Settings Summary
;   processName,Process1
;   applyToModels,Ender_5_BraceV2
;   profileName,new profile (modified)
;   profileVersion,2020-09-07 14:01:24
;   baseProfile,Default (modified)
;   printMaterial,PLA
;   printQuality,Medium
;   printExtruders,
;   extruderName,Primary Extruder
;   extruderToolheadNumber,0
;   extruderDiameter,0.4
;   extruderAutoWidth,0
;   extruderWidth,0.4
;   extrusionMultiplier,0.9
;   extruderUseRetract,1
;   extruderRetractionDistance,1
;   extruderExtraRestartDistance,0
;   extruderRetractionZLift,0
;   extruderRetractionSpeed,1800
;   extruderUseCoasting,0
;   extruderCoastingDistance,0.2
;   extruderUseWipe,0
;   extruderWipeDistance,5
;   primaryExtruder,0
;   layerHeight,0.3
;   topSolidLayers,3
;   bottomSolidLayers,2
;   perimeterOutlines,3
;   printPerimetersInsideOut,1
;   startPointOption,2
;   startPointOriginX,0
;   startPointOriginY,0
;   sequentialIslands,0
;   spiralVaseMode,0
;   firstLayerHeightPercentage,90
;   firstLayerWidthPercentage,103
;   firstLayerUnderspeed,0.5
;   useRaft,0
;   raftExtruder,0
;   raftTopLayers,2
;   raftBaseLayers,2
;   raftOffset,1.4
;   raftSeparationDistance,0.14
;   raftTopInfill,100
;   aboveRaftSpeedMultiplier,0.3
;   useSkirt,0
;   skirtExtruder,0
;   skirtLayers,1
;   skirtOutlines,2
;   skirtOffset,4
;   usePrimePillar,0
;   primePillarExtruder,999
;   primePillarWidth,12
;   primePillarLocation,7
;   primePillarSpeedMultiplier,1
;   useOozeShield,0
;   oozeShieldExtruder,999
;   oozeShieldOffset,2
;   oozeShieldOutlines,1
;   oozeShieldSidewallShape,1
;   oozeShieldSidewallAngle,30
;   oozeShieldSpeedMultiplier,1
;   infillExtruder,0
;   internalInfillPattern,Rectilinear
;   externalInfillPattern,Rectilinear
;   infillPercentage,13
;   outlineOverlapPercentage,15
;   infillExtrusionWidthPercentage,100
;   minInfillLength,5
;   infillLayerInterval,1
;   internalInfillAngles,45,-45
;   overlapInternalInfillAngles,0
;   externalInfillAngles,45,-45
;   generateSupport,1
;   supportExtruder,0
;   supportInfillPercentage,30
;   supportExtraInflation,0
;   supportBaseLayers,0
;   denseSupportExtruder,0
;   denseSupportLayers,0
;   denseSupportInfillPercentage,70
;   supportLayerInterval,1
;   supportHorizontalPartOffset,0.2
;   supportUpperSeparationLayers,1
;   supportLowerSeparationLayers,1
;   supportType,0
;   supportGridSpacing,4
;   maxOverhangAngle,45
;   supportAngles,0
;   temperatureName,Primary Extruder,Hot Bed
;   temperatureNumber,0,1
;   temperatureSetpointCount,1,1
;   temperatureSetpointLayers,1,1
;   temperatureSetpointTemperatures,210,60
;   temperatureStabilizeAtStartup,1,0
;   temperatureHeatedBed,0,1
;   temperatureRelayBetweenLayers,0,0
;   temperatureRelayBetweenLoops,0,0
;   fanLayers,1,2
;   fanSpeeds,0,100
;   blipFanToFullPower,0
;   adjustSpeedForCooling,1
;   minSpeedLayerTime,15
;   minCoolingSpeedSlowdown,20
;   increaseFanForCooling,0
;   minFanLayerTime,45
;   maxCoolingFanSpeed,100
;   increaseFanForBridging,0
;   bridgingFanSpeed,100
;   use5D,1
;   relativeEdistances,0
;   allowEaxisZeroing,1
;   independentExtruderAxes,0
;   includeM10123,0
;   stickySupport,1
;   applyToolheadOffsets,0
;   gcodeXoffset,-0.03
;   gcodeYoffset,-0.03
;   gcodeZoffset,0
;   overrideMachineDefinition,0
;   machineTypeOverride,0
;   strokeXoverride,200
;   strokeYoverride,200
;   strokeZoverride,200
;   originOffsetXoverride,0
;   originOffsetYoverride,0
;   originOffsetZoverride,0
;   homeXdirOverride,-1
;   homeYdirOverride,-1
;   homeZdirOverride,-1
;   flipXoverride,1
;   flipYoverride,-1
;   flipZoverride,1
;   toolheadOffsets,0,0|0,0|0,0|0,0|0,0|0,0
;   overrideFirmwareConfiguration,0
;   firmwareTypeOverride,RepRap (Marlin/Repetier/Sprinter)
;   GPXconfigOverride,r2
;   baudRateOverride,115200
;   overridePrinterModels,0
;   printerModelsOverride
;   startingGcode,G28 ; home all axes,G1 X3 Y5 Z0.2 F3000 ; get ready to prime,G92 E0 ; reset extrusion distance,G1 Y150 E20 F600 ; prime nozzle
;   layerChangeGcode,
;   retractionGcode,
;   toolChangeGcode,
;   endingGcode,M104 S0 ; turn off extruder,M140 S0 ; turn off bedG1 X0 Y0; home,M84 ; disable motors,M107 ; fan off,G28 X Y; Home,M18; Disable steppers
;   exportFileFormat,gcode
;   celebration,0
;   celebrationSong,Random Song
;   postProcessing,
;   defaultSpeed,4600
;   outlineUnderspeed,0.5
;   solidInfillUnderspeed,0.8
;   supportUnderspeed,0.8
;   rapidXYspeed,4800
;   rapidZspeed,1000
;   minBridgingArea,50
;   bridgingExtraInflation,0
;   bridgingExtrusionMultiplier,1
;   bridgingSpeedMultiplier,1
;   useFixedBridgingAngle,0
;   fixedBridgingAngle,0
;   applyBridgingToPerimeters,0
;   filamentDiameters,1.75|1.75|1.75|1.75|1.75|1.75
;   filamentPricesPerKg,46|46|46|46|46|46
;   filamentDensities,1.25|1.25|1.25|1.25|1.25|1.25
;   useMinPrintHeight,0
;   minPrintHeight,0
;   useMaxPrintHeight,0
;   maxPrintHeight,0
;   useDiaphragm,0
;   diaphragmLayerInterval,20
;   robustSlicing,1
;   mergeAllIntoSolid,0
;   onlyRetractWhenCrossingOutline,1
;   retractBetweenLayers,1
;   useRetractionMinTravel,0
;   retractionMinTravel,3
;   retractWhileWiping,0
;   onlyWipeOutlines,1
;   avoidCrossingOutline,0
;   maxMovementDetourFactor,3
;   toolChangeRetractionDistance,12
;   toolChangeExtraRestartDistance,-0.5
;   toolChangeRetractionSpeed,600
;   externalThinWallType,1
;   internalThinWallType,1
;   thinWallAllowedOverlapPercentage,8
;   singleExtrusionMinLength,1
;   singleExtrusionMinPrintingWidthPercentage,50
;   singleExtrusionMaxPrintingWidthPercentage,200
;   singleExtrusionEndpointExtension,0.2
;   horizontalSizeCompensation,0
G90
M82
M106 S0
M140 S60
M104 S210 T0
M109 S210 T0
G28 ; home all axes
G1 X3 Y5 Z0.2 F3000 ; get ready to prime
G92 E0 ; reset extrusion distance
G1 Y150 E20 F600 ; prime nozzle
G92 E0
G1 E-1.0000 F1800
G1 Z0.270 F1000
; process Process1
; layer 1, Z = 0.270
T0
; tool H0.300 W0.412
; inner perimeter
G1 X112.140 Y101.671 F4800
G1 E0.0000 F540
G92 E0
G1 X116.099 Y101.671 E0.1831 F1725
G1 X116.093 Y114.608 E0.7814
G1 X112.144 Y114.608 E0.9641
G1 X112.140 Y101.671 E1.5624
G1 X111.727 Y101.259 F4800
G92 E0
G1 X116.511 Y101.259 E0.2212 F1725
G1 X116.505 Y115.020 E0.8577
G1 X111.733 Y115.020 E1.0784
G1 X111.727 Y101.259 E1.7148
; outer perimeter
G1 X111.315 Y100.847 F4800
G92 E0
G1 X116.923 Y100.847 E0.2594 F1150
G1 X116.917 Y115.432 E0.9339
G1 X111.321 Y115.432 E1.1927
G1 X111.315 Y100.847 E1.8672
; solid layer
G1 X115.667 Y102.022 F4800
G92 E0
G1 X115.749 Y102.104 E0.0054 F1840
G1 X115.748 Y102.686 E0.0323
G1 X115.084 Y102.022 E0.0758
G1 X114.501 Y102.022 E0.1027
G1 X115.748 Y103.268 E0.1843
G1 X115.748 Y103.851 E0.2112
G1 X113.919 Y102.022 E0.3308
G1 X113.336 Y102.022 E0.3578
G1 X115.748 Y104.433 E0.5155
G1 X115.747 Y105.016 E0.5425
G1 X112.753 Y102.022 E0.7383
G1 X112.490 Y102.022 E0.7505
G1 X112.490 Y102.341 E0.7652
G1 X115.747 Y105.598 E0.9783
G1 X115.747 Y106.180 E1.0052
G1 X112.490 Y102.924 E1.2182
G1 X112.490 Y103.507 E1.2452
G1 X115.747 Y106.763 E1.4581
G1 X115.746 Y107.345 E1.4851
G1 X112.491 Y104.090 E1.6980
G1 X112.491 Y104.672 E1.7249
G1 X115.746 Y107.928 E1.9378
G1 X115.746 Y108.510 E1.9648
G1 X112.491 Y105.255 E2.1777
G1 X112.491 Y105.838 E2.2046
G1 X115.746 Y109.092 E2.4175
G1 X115.745 Y109.675 E2.4444
G1 X112.492 Y106.421 E2.6572
G1 X112.492 Y107.004 E2.6842
G1 X115.745 Y110.257 E2.8969
G1 X115.745 Y110.840 E2.9239
G1 X112.492 Y107.587 E3.1366
G1 X112.492 Y108.170 E3.1636
G1 X115.744 Y111.422 E3.3763
G1 X115.744 Y112.004 E3.4032
G1 X112.492 Y108.753 E3.6159
G1 X112.493 Y109.335 E3.6429
G1 X115.744 Y112.587 E3.8555
G1 X115.744 Y113.169 E3.8824
G1 X112.493 Y109.918 E4.0951
G1 X112.493 Y110.501 E4.1220
G1 X115.743 Y113.752 E4.3346
G1 X115.743 Y114.258 E4.3580
G1 X115.667 Y114.258 E4.3615
G1 X112.493 Y111.084 E4.5692
G1 X112.494 Y111.667 E4.5961
G1 X115.085 Y114.258 E4.7656
G1 X114.502 Y114.258 E4.7925
G1 X112.494 Y112.250 E4.9239
G1 X112.494 Y112.833 E4.9508
G1 X113.919 Y114.258 E5.0441
G1 X113.337 Y114.258 E5.0710
G1 X112.494 Y113.416 E5.1261
G1 X112.494 Y113.998 E5.1531
G1 X112.754 Y114.258 E5.1701
G92 E0
G1 E-1.0000 F1800
; inner perimeter
G1 X112.145 Y125.673 F4800
G1 E0.0000 F1800
G92 E0
G1 X116.093 Y125.673 E0.1826 F1725
G1 X116.093 Y136.269 E0.6726
G1 X112.145 Y136.269 E0.8552
G1 X112.145 Y125.673 E1.3452
G1 X111.733 Y125.261 F4800
G92 E0
G1 X116.505 Y125.261 E0.2207 F1725
G1 X116.505 Y136.681 E0.7488
G1 X111.733 Y136.681 E0.9695
G1 X111.733 Y125.261 E1.4976
; outer perimeter
G1 X111.321 Y124.849 F4800
G92 E0
G1 X116.917 Y124.849 E0.2588 F1150
G1 X116.917 Y137.093 E0.8250
G1 X111.321 Y137.093 E1.0838
G1 X111.321 Y124.849 E1.6501
; solid layer
G1 X115.197 Y126.024 F4800
G92 E0
G1 X115.743 Y126.569 E0.0357 F1840
G1 X115.743 Y127.152 E0.0626
G1 X114.614 Y126.024 E0.1364
G1 X114.032 Y126.024 E0.1634
G1 X115.743 Y127.734 E0.2753
G1 X115.743 Y128.317 E0.3022
G1 X113.449 Y126.024 E0.4522
G1 X112.866 Y126.024 E0.4792
G1 X115.743 Y128.900 E0.6673
G1 X115.743 Y129.482 E0.6942
G1 X112.495 Y126.235 E0.9066
G1 X112.495 Y126.817 E0.9336
G1 X115.743 Y130.065 E1.1460
G1 X115.743 Y130.648 E1.1729
G1 X112.495 Y127.400 E1.3853
G1 X112.495 Y127.983 E1.4123
G1 X115.743 Y131.230 E1.6247
G1 X115.743 Y131.813 E1.6517
G1 X112.495 Y128.565 E1.8641
G1 X112.495 Y129.148 E1.8910
G1 X115.743 Y132.396 E2.1034
G1 X115.743 Y132.978 E2.1304
G1 X112.495 Y129.731 E2.3428
G1 X112.495 Y130.313 E2.3697
G1 X115.743 Y133.561 E2.5821
G1 X115.743 Y134.144 E2.6091
G1 X112.495 Y130.896 E2.8215
G1 X112.495 Y131.479 E2.8484
G1 X115.743 Y134.726 E3.0608
G1 X115.743 Y135.309 E3.0878
G1 X112.495 Y132.061 E3.3002
G1 X112.495 Y132.644 E3.3271
G1 X115.743 Y135.892 E3.5395
G1 X115.743 Y135.918 E3.5408
G1 X115.187 Y135.918 E3.5665
G1 X112.495 Y133.227 E3.7425
G1 X112.495 Y133.809 E3.7695
G1 X114.604 Y135.918 E3.9074
G1 X114.021 Y135.918 E3.9344
G1 X112.495 Y134.392 E4.0342
G1 X112.495 Y134.975 E4.0612
G1 X113.439 Y135.918 E4.1229
G1 X112.856 Y135.918 E4.1498
G1 X112.495 Y135.557 E4.1734
G92 E0
G1 E-1.0000 F1800
; support
G1 X109.990 Y136.303 F4800
G1 E0.0000 F1800
G92 E0
G1 X101.950 Y136.303 E0.3718 F1840
G1 X101.950 Y134.970 E0.4335
G1 X109.990 Y134.970 E0.8053
G1 X109.990 Y133.637 E0.8670
G1 X101.950 Y133.637 E1.2388
G1 X101.950 Y132.303 E1.3005
G1 X109.990 Y132.303 E1.6723
G1 X109.990 Y130.970 E1.7340
G1 X101.950 Y130.970 E2.1058
G1 X101.950 Y129.637 E2.1675
G1 X109.990 Y129.637 E2.5393
G1 X109.990 Y128.303 E2.6010
G1 X101.950 Y128.303 E2.9728
G1 X101.950 Y126.970 E3.0345
G1 X109.990 Y126.970 E3.4063
G1 X109.990 Y125.637 E3.4680
G1 X101.950 Y125.637 E3.8398
G1 X101.950 Y124.303 E3.9015
G1 X110.430 Y124.303 E4.2937
G1 X110.430 Y124.243 E4.2964
G1 X117.808 Y124.243 E4.6377
G1 X117.808 Y124.303 E4.6404
G1 X125.990 Y124.303 E5.0189
G1 X125.990 Y122.970 E5.0805
G1 X101.950 Y122.970 E6.1923
G1 X101.950 Y121.637 E6.2540
G1 X125.990 Y121.637 E7.3658
G1 X125.990 Y120.303 E7.4275
G1 X117.950 Y120.303 E7.7993
G1 X117.950 Y120.950 E7.8292
G1 X109.990 Y120.950 E8.1973
G1 X109.990 Y120.303 E8.2272
G1 X101.950 Y120.303 E8.5991
G1 X101.950 Y118.970 E8.6607
G1 X109.990 Y118.970 E9.0326
G1 X109.990 Y117.637 E9.0942
G1 X101.950 Y117.637 E9.4661
G1 X101.950 Y116.303 E9.5277
G1 X109.990 Y116.303 E9.8996
G1 X109.990 Y114.970 E9.9612
G1 X101.950 Y114.970 E10.3331
G1 X101.950 Y113.637 E10.3947
G1 X109.990 Y113.637 E10.7666
G1 X109.990 Y112.303 E10.8282
G1 X101.950 Y112.303 E11.2001
G1 X101.950 Y110.970 E11.2617
G1 X109.990 Y110.970 E11.6336
G1 X109.990 Y109.637 E11.6952
G1 X101.950 Y109.637 E12.0671
G1 X101.950 Y108.303 E12.1287
G1 X109.990 Y108.303 E12.5006
G1 X109.990 Y106.970 E12.5622
G1 X101.950 Y106.970 E12.9341
G1 X101.950 Y105.637 E12.9957
G1 X109.990 Y105.637 E13.3676
G1 X109.990 Y104.303 E13.4292
G1 X101.950 Y104.303 E13.8011
G1 X101.950 Y102.970 E13.8627
G1 X109.990 Y102.970 E14.2346
G1 X109.990 Y101.637 E14.2962
G1 X101.950 Y101.637 E14.6681
G92 E0
G1 E-1.0000 F1800
G1 X117.950 Y101.637 F4800
G1 E0.0000 F1800
G92 E0
G1 X125.990 Y101.637 E0.3718 F1840
G1 X125.990 Y102.970 E0.4335
G1 X117.950 Y102.970 E0.8053
G1 X117.950 Y104.303 E0.8670
G1 X125.990 Y104.303 E1.2388
G1 X125.990 Y105.637 E1.3005
G1 X117.950 Y105.637 E1.6723
G1 X117.950 Y106.970 E1.7340
G1 X125.990 Y106.970 E2.1058
G1 X125.990 Y108.303 E2.1675
G1 X117.950 Y108.303 E2.5393
G1 X117.950 Y109.637 E2.6010
G1 X125.990 Y109.637 E2.9728
G1 X125.990 Y110.970 E3.0345
G1 X117.950 Y110.970 E3.4063
G1 X117.950 Y112.303 E3.4680
G1 X125.990 Y112.303 E3.8398
G1 X125.990 Y113.637 E3.9015
G1 X117.950 Y113.637 E4.2733
G1 X117.950 Y114.970 E4.3350
G1 X125.990 Y114.970 E4.7068
G1 X125.990 Y116.303 E4.7685
G1 X117.950 Y116.303 E5.1403
G1 X117.950 Y117.637 E5.2020
G1 X125.990 Y117.637 E5.5738
G1 X125.990 Y118.970 E5.6355
G1 X117.950 Y118.970 E6.0073
G92 E0
G1 E-1.0000 F1800
G1 X117.950 Y125.637 F4800
G1 E0.0000 F1800
G92 E0
G1 X125.990 Y125.637 E0.3718 F1840
G1 X125.990 Y126.970 E0.4335
G1 X117.950 Y126.970 E0.8053
G1 X117.950 Y128.303 E0.8670
G1 X125.990 Y128.303 E1.2388
G1 X125.990 Y129.637 E1.3005
G1 X117.950 Y129.637 E1.6723
G1 X117.950 Y130.970 E1.7340
G1 X125.990 Y130.970 E2.1058
G1 X125.990 Y132.303 E2.1675
G1 X117.950 Y132.303 E2.5393
G1 X117.950 Y133.637 E2.6010
G1 X125.990 Y133.637 E2.9728
G1 X125.990 Y134.970 E3.0345
G1 X117.950 Y134.970 E3.4063
G1 X117.950 Y136.303 E3.4680
G1 X125.990 Y136.303 E3.8398
G92 E0
G1 E-1.0000 F1800
; layer 2, Z = 0.570
M106 S255
; tool H0.300 W0.400
; inner perimeter
G1 X116.408 Y136.299 F4800
G1 Z0.570 F1000
G1 E0.0000 F1800
G92 E0
G1 X111.830 Y136.299 E0.2056 F3450
G1 X111.830 Y125.643 E0.6840
G1 X116.408 Y125.643 E0.8895
G1 X116.408 Y136.299 E1.3680
G1 X116.808 Y136.699 F4800
G92 E0
G1 X111.430 Y136.699 E0.2415 F3450
G1 X111.430 Y125.243 E0.7558
G1 X116.808 Y125.243 E0.9973
G1 X116.808 Y136.699 E1.5117
; outer perimeter
G1 X117.208 Y137.099 F4800
G92 E0
G1 X111.030 Y137.099 E0.2774 F2300
G1 X111.030 Y124.843 E0.8277
G1 X117.208 Y124.843 E1.1051
G1 X117.208 Y137.099 E1.6553
; solid layer
G1 X115.649 Y135.959 F4800
G92 E0
G1 X116.068 Y135.540 E0.0266 F3680
G1 X116.068 Y134.974 E0.0520
G1 X115.083 Y135.959 E0.1145
G1 X114.518 Y135.959 E0.1399
G1 X116.068 Y134.408 E0.2383
G1 X116.068 Y133.843 E0.2637
G1 X113.952 Y135.959 E0.3981
G1 X113.386 Y135.959 E0.4235
G1 X116.068 Y133.277 E0.5938
G1 X116.068 Y132.711 E0.6192
G1 X112.821 Y135.959 E0.8254
G1 X112.255 Y135.959 E0.8508
G1 X116.068 Y132.146 E1.0929
G1 X116.068 Y131.580 E1.1183
G1 X112.170 Y135.478 E1.3658
G1 X112.170 Y134.912 E1.3912
G1 X116.068 Y131.014 E1.6387
G1 X116.068 Y130.449 E1.6641
G1 X112.170 Y134.347 E1.9116
G1 X112.170 Y133.781 E1.9370
G1 X116.068 Y129.883 E2.1846
G1 X116.068 Y129.317 E2.2100
G1 X112.170 Y133.215 E2.4575
G1 X112.170 Y132.650 E2.4829
G1 X116.068 Y128.752 E2.7304
G1 X116.068 Y128.186 E2.7558
G1 X112.170 Y132.084 E3.0033
G1 X112.170 Y131.518 E3.0287
G1 X116.068 Y127.620 E3.2762
G1 X116.068 Y127.055 E3.3016
G1 X112.170 Y130.953 E3.5492
G1 X112.170 Y130.387 E3.5746
G1 X116.068 Y126.489 E3.8221
G1 X116.068 Y125.983 E3.8448
G1 X116.008 Y125.983 E3.8475
G1 X112.170 Y129.821 E4.0912
G1 X112.170 Y129.256 E4.1166
G1 X115.442 Y125.983 E4.3244
G1 X114.876 Y125.983 E4.3498
G1 X112.170 Y128.690 E4.5216
G1 X112.170 Y128.124 E4.5470
G1 X114.311 Y125.983 E4.6830
G1 X113.745 Y125.983 E4.7084
G1 X112.170 Y127.558 E4.8084
G1 X112.170 Y126.993 E4.8338
G1 X113.179 Y125.983 E4.8979
G1 X112.613 Y125.983 E4.9233
G1 X112.170 Y126.427 E4.9515
G92 E0
G1 E-1.0000 F1800
; inner perimeter
G1 X111.829 Y114.638 F4800
G1 E0.0000 F1800
G92 E0
G1 X111.825 Y101.641 E0.5836 F3450
G1 X116.414 Y101.641 E0.7896
G1 X116.408 Y114.638 E1.3732
G1 X111.829 Y114.638 E1.5788
G1 X111.430 Y115.038 F4800
G92 E0
G1 X111.425 Y101.241 E0.6195 F3450
G1 X116.814 Y101.241 E0.8615
G1 X116.808 Y115.038 E1.4810
G1 X111.430 Y115.038 E1.7225
; outer perimeter
G1 X111.030 Y115.438 F4800
G92 E0
G1 X111.025 Y101.148 E0.6417 F2300
G1 X111.328 Y100.841 E0.6610
G1 X116.911 Y100.841 E0.9117
G1 X117.214 Y101.149 E0.9311
G1 X117.208 Y115.438 E1.5727
G1 X111.030 Y115.438 E1.8501
; solid layer
