; G-Code generated by Simplify3D(R) Version 4.0.0
; Jan 26, 2021 at 2:26:33 PM
; Settings Summary
;   processName,Process1
;   applyToModels,Fidgit3
;   profileName,def (modified)
;   profileVersion,2020-09-07 14:01:24
;   baseProfile,Default (modified)
;   printMaterial,PLA
;   printQuality,Medium
;   printExtruders,
;   extruderName,Primary Extruder
;   extruderToolheadNumber,0
;   extruderDiameter,0.4
;   extruderAutoWidth,0
;   extruderWidth,0.4
;   extrusionMultiplier,0.9
;   extruderUseRetract,1
;   extruderRetractionDistance,1
;   extruderExtraRestartDistance,0
;   extruderRetractionZLift,0
;   extruderRetractionSpeed,1800
;   extruderUseCoasting,0
;   extruderCoastingDistance,0.2
;   extruderUseWipe,0
;   extruderWipeDistance,5
;   primaryExtruder,0
;   layerHeight,0.3
;   topSolidLayers,3
;   bottomSolidLayers,2
;   perimeterOutlines,2
;   printPerimetersInsideOut,1
;   startPointOption,2
;   startPointOriginX,0
;   startPointOriginY,0
;   sequentialIslands,0
;   spiralVaseMode,0
;   firstLayerHeightPercentage,90
;   firstLayerWidthPercentage,103
;   firstLayerUnderspeed,0.3
;   useRaft,0
;   raftExtruder,0
;   raftTopLayers,2
;   raftBaseLayers,2
;   raftOffset,1.4
;   raftSeparationDistance,0.14
;   raftTopInfill,100
;   aboveRaftSpeedMultiplier,0.3
;   useSkirt,0
;   skirtExtruder,0
;   skirtLayers,1
;   skirtOutlines,2
;   skirtOffset,4
;   usePrimePillar,0
;   primePillarExtruder,999
;   primePillarWidth,12
;   primePillarLocation,7
;   primePillarSpeedMultiplier,1
;   useOozeShield,0
;   oozeShieldExtruder,999
;   oozeShieldOffset,2
;   oozeShieldOutlines,1
;   oozeShieldSidewallShape,1
;   oozeShieldSidewallAngle,30
;   oozeShieldSpeedMultiplier,1
;   infillExtruder,0
;   internalInfillPattern,Rectilinear
;   externalInfillPattern,Rectilinear
;   infillPercentage,100
;   outlineOverlapPercentage,15
;   infillExtrusionWidthPercentage,100
;   minInfillLength,5
;   infillLayerInterval,1
;   internalInfillAngles,45,-45
;   overlapInternalInfillAngles,0
;   externalInfillAngles,45,-45
;   generateSupport,0
;   supportExtruder,0
;   supportInfillPercentage,30
;   supportExtraInflation,0
;   supportBaseLayers,0
;   denseSupportExtruder,0
;   denseSupportLayers,0
;   denseSupportInfillPercentage,70
;   supportLayerInterval,1
;   supportHorizontalPartOffset,0.2
;   supportUpperSeparationLayers,1
;   supportLowerSeparationLayers,1
;   supportType,0
;   supportGridSpacing,4
;   maxOverhangAngle,45
;   supportAngles,0
;   temperatureName,Primary Extruder,Hot Bed
;   temperatureNumber,0,1
;   temperatureSetpointCount,1,1
;   temperatureSetpointLayers,1,1
;   temperatureSetpointTemperatures,210,60
;   temperatureStabilizeAtStartup,1,0
;   temperatureHeatedBed,0,1
;   temperatureRelayBetweenLayers,0,0
;   temperatureRelayBetweenLoops,0,0
;   fanLayers,1,2
;   fanSpeeds,0,100
;   blipFanToFullPower,0
;   adjustSpeedForCooling,1
;   minSpeedLayerTime,15
;   minCoolingSpeedSlowdown,20
;   increaseFanForCooling,0
;   minFanLayerTime,45
;   maxCoolingFanSpeed,100
;   increaseFanForBridging,0
;   bridgingFanSpeed,100
;   use5D,1
;   relativeEdistances,0
;   allowEaxisZeroing,1
;   independentExtruderAxes,0
;   includeM10123,0
;   stickySupport,1
;   applyToolheadOffsets,0
;   gcodeXoffset,-0.09
;   gcodeYoffset,-0.03
;   gcodeZoffset,0
;   overrideMachineDefinition,0
;   machineTypeOverride,0
;   strokeXoverride,200
;   strokeYoverride,200
;   strokeZoverride,200
;   originOffsetXoverride,0
;   originOffsetYoverride,0
;   originOffsetZoverride,0
;   homeXdirOverride,-1
;   homeYdirOverride,-1
;   homeZdirOverride,-1
;   flipXoverride,1
;   flipYoverride,-1
;   flipZoverride,1
;   toolheadOffsets,0,0|0,0|0,0|0,0|0,0|0,0
;   overrideFirmwareConfiguration,0
;   firmwareTypeOverride,RepRap (Marlin/Repetier/Sprinter)
;   GPXconfigOverride,r2
;   baudRateOverride,115200
;   overridePrinterModels,0
;   printerModelsOverride
;   startingGcode,G28 ; home all axes,G1 X3 Y3 Z0.2 F3000 ; get ready to prime,G92 E0 ; reset extrusion distance,G1 Y150 E20 F600 ; prime nozzle
;   layerChangeGcode,
;   retractionGcode,
;   toolChangeGcode,
;   endingGcode,M104 S0 ; turn off extruder,M140 S0 ; turn off bedG1 X0 Y0; home,M84 ; disable motors,M107 ; fan off,G28 X Y; Home,M18; Disable steppers
;   exportFileFormat,gcode
;   celebration,0
;   celebrationSong,Random Song
;   postProcessing,
;   defaultSpeed,4600
;   outlineUnderspeed,0.5
;   solidInfillUnderspeed,0.8
;   supportUnderspeed,0.8
;   rapidXYspeed,4600
;   rapidZspeed,1000
;   minBridgingArea,50
;   bridgingExtraInflation,0
;   bridgingExtrusionMultiplier,1
;   bridgingSpeedMultiplier,1
;   useFixedBridgingAngle,0
;   fixedBridgingAngle,0
;   applyBridgingToPerimeters,0
;   filamentDiameters,1.75|1.75|1.75|1.75|1.75|1.75
;   filamentPricesPerKg,46|46|46|46|46|46
;   filamentDensities,1.25|1.25|1.25|1.25|1.25|1.25
;   useMinPrintHeight,0
;   minPrintHeight,0
;   useMaxPrintHeight,0
;   maxPrintHeight,0.6
;   useDiaphragm,0
;   diaphragmLayerInterval,20
;   robustSlicing,1
;   mergeAllIntoSolid,0
;   onlyRetractWhenCrossingOutline,1
;   retractBetweenLayers,1
;   useRetractionMinTravel,0
;   retractionMinTravel,3
;   retractWhileWiping,0
;   onlyWipeOutlines,1
;   avoidCrossingOutline,0
;   maxMovementDetourFactor,3
;   toolChangeRetractionDistance,12
;   toolChangeExtraRestartDistance,-0.5
;   toolChangeRetractionSpeed,600
;   externalThinWallType,1
;   internalThinWallType,2
;   thinWallAllowedOverlapPercentage,8
;   singleExtrusionMinLength,1
;   singleExtrusionMinPrintingWidthPercentage,50
;   singleExtrusionMaxPrintingWidthPercentage,200
;   singleExtrusionEndpointExtension,0.2
;   horizontalSizeCompensation,0
G90
M82
M106 S0
M140 S60
M104 S210 T0
M109 S210 T0
G28 ; home all axes
G1 X3 Y3 Z0.2 F3000 ; get ready to prime
G92 E0 ; reset extrusion distance
G1 Y150 E20 F600 ; prime nozzle
G92 E0
G1 E-1.0000 F1800
G1 Z0.270 F1000
; process Process1
; layer 1, Z = 0.270
T0
; tool H0.300 W0.412
; outer perimeter
G1 X108.134 Y103.401 F4600
G1 E0.0000 F540
G92 E0
G1 X108.806 Y102.694 E0.0451 F690
G1 X109.524 Y102.034 E0.0902
G1 X109.897 Y101.724 E0.1126
G1 X110.281 Y101.428 E0.1351
G1 X111.081 Y100.870 E0.1802
G1 X111.917 Y100.369 E0.2253
G1 X112.346 Y100.140 E0.2477
G1 X112.781 Y99.927 E0.2701
G1 X113.677 Y99.542 E0.3152
G1 X114.597 Y99.219 E0.3603
G1 X115.061 Y99.082 E0.3827
G1 X116.010 Y98.853 E0.4279
G1 X116.486 Y98.764 E0.4502
G1 X117.454 Y98.632 E0.4954
G1 X117.935 Y98.592 E0.5177
G1 X118.910 Y98.559 E0.5629
G1 X119.885 Y98.592 E0.6080
G1 X120.368 Y98.633 E0.6304
G1 X120.850 Y98.690 E0.6528
G1 X121.811 Y98.854 E0.6979
G1 X122.759 Y99.082 E0.7430
G1 X123.222 Y99.219 E0.7654
G1 X124.144 Y99.543 E0.8106
G1 X124.593 Y99.727 E0.8330
G1 X125.036 Y99.925 E0.8554
G1 X125.905 Y100.370 E0.9006
G1 X126.324 Y100.612 E0.9230
G1 X127.144 Y101.143 E0.9681
G1 X127.536 Y101.425 E0.9905
G1 X128.299 Y102.036 E1.0357
G1 X128.660 Y102.357 E1.0580
G1 X129.356 Y103.042 E1.1032
G1 X129.683 Y103.398 E1.1256
G1 X130.306 Y104.149 E1.1707
G1 X130.876 Y104.938 E1.2157
G1 X131.391 Y105.766 E1.2608
G1 X131.626 Y106.188 E1.2831
G1 X132.056 Y107.066 E1.3283
G1 X132.248 Y107.511 E1.3508
G1 X132.424 Y107.963 E1.3732
G1 X132.732 Y108.890 E1.4184
G1 X132.861 Y109.356 E1.4407
G1 X133.073 Y110.308 E1.4858
G1 X133.221 Y111.272 E1.5309
G1 X133.270 Y111.753 E1.5533
G1 X133.319 Y112.728 E1.5985
G1 X133.319 Y113.212 E1.6208
G1 X133.270 Y114.187 E1.6660
G1 X133.221 Y114.668 E1.6883
G1 X133.073 Y115.632 E1.7335
G1 X132.861 Y116.584 E1.7786
G1 X132.732 Y117.050 E1.8009
G1 X132.424 Y117.977 E1.8461
G1 X132.248 Y118.429 E1.8685
G1 X132.056 Y118.874 E1.8910
G1 X131.626 Y119.752 E1.9361
G1 X131.391 Y120.174 E1.9585
G1 X130.876 Y121.002 E2.0036
G1 X130.306 Y121.791 E2.0486
G1 X129.683 Y122.542 E2.0937
G1 X129.356 Y122.898 E2.1161
G1 X128.660 Y123.583 E2.1612
G1 X128.299 Y123.903 E2.1836
G1 X127.536 Y124.515 E2.2288
G1 X127.144 Y124.797 E2.2511
G1 X126.324 Y125.328 E2.2963
G1 X125.905 Y125.570 E2.3187
G1 X125.036 Y126.015 E2.3638
G1 X124.593 Y126.213 E2.3863
G1 X124.144 Y126.397 E2.4087
G1 X123.222 Y126.721 E2.4539
G1 X122.759 Y126.858 E2.4763
G1 X121.811 Y127.086 E2.5214
G1 X120.850 Y127.250 E2.5665
G1 X120.368 Y127.307 E2.5889
G1 X119.885 Y127.348 E2.6113
G1 X118.910 Y127.381 E2.6564
G1 X117.935 Y127.348 E2.7015
G1 X117.454 Y127.308 E2.7239
G1 X116.486 Y127.176 E2.7691
G1 X116.010 Y127.087 E2.7914
G1 X115.061 Y126.858 E2.8366
G1 X114.597 Y126.721 E2.8589
G1 X113.677 Y126.398 E2.9041
G1 X112.781 Y126.013 E2.9492
G1 X112.346 Y125.800 E2.9716
G1 X111.918 Y125.571 E2.9940
G1 X111.081 Y125.070 E3.0391
G1 X110.281 Y124.512 E3.0842
G1 X109.897 Y124.215 E3.1067
G1 X109.524 Y123.906 E3.1291
G1 X108.806 Y123.246 E3.1742
G1 X108.134 Y122.539 E3.2193
G1 X107.818 Y122.171 E3.2417
G1 X107.515 Y121.793 E3.2642
G1 X106.943 Y121.000 E3.3093
G1 X106.681 Y120.595 E3.3317
G1 X106.193 Y119.750 E3.3768
G1 X105.764 Y118.874 E3.4219
G1 X105.573 Y118.430 E3.4443
G1 X105.234 Y117.514 E3.4894
G1 X105.089 Y117.053 E3.5118
G1 X104.844 Y116.107 E3.5570
G1 X104.747 Y115.634 E3.5793
G1 X104.599 Y114.670 E3.6244
G1 X104.517 Y113.698 E3.6695
G1 X104.501 Y113.215 E3.6919
G1 X104.517 Y112.238 E3.7371
G1 X104.550 Y111.754 E3.7595
G1 X104.599 Y111.272 E3.7819
G1 X104.747 Y110.306 E3.8271
G1 X104.844 Y109.833 E3.8495
G1 X105.089 Y108.887 E3.8946
G1 X105.234 Y108.424 E3.9171
G1 X105.573 Y107.510 E3.9622
G1 X105.764 Y107.065 E3.9845
G1 X106.193 Y106.190 E4.0296
G1 X106.681 Y105.345 E4.0747
G1 X106.943 Y104.940 E4.0971
G1 X107.515 Y104.147 E4.1423
G1 X107.818 Y103.769 E4.1647
G1 X108.134 Y103.401 E4.1871
G1 X108.576 Y103.958 F4600
G92 E0
G1 X108.272 Y104.318 E0.0218 F690
G1 X107.709 Y105.061 E0.0650
G1 X107.444 Y105.451 E0.0868
G1 X106.959 Y106.248 E0.1299
G1 X106.736 Y106.662 E0.1516
G1 X106.527 Y107.083 E0.1734
G1 X106.155 Y107.938 E0.2165
G1 X105.990 Y108.380 E0.2383
G1 X105.707 Y109.269 E0.2815
G1 X105.588 Y109.725 E0.3033
G1 X105.398 Y110.640 E0.3465
G1 X105.270 Y111.566 E0.3897
G1 X105.230 Y112.034 E0.4114
G1 X105.206 Y112.504 E0.4332
G1 X105.206 Y113.438 E0.4764
G1 X105.270 Y114.371 E0.5196
G1 X105.326 Y114.837 E0.5413
G1 X105.398 Y115.301 E0.5631
G1 X105.588 Y116.215 E0.6062
G1 X105.707 Y116.671 E0.6280
G1 X105.990 Y117.560 E0.6712
G1 X106.155 Y118.002 E0.6930
G1 X106.527 Y118.859 E0.7362
G1 X106.957 Y119.689 E0.7794
G1 X107.195 Y120.096 E0.8012
G1 X107.707 Y120.876 E0.8444
G1 X107.985 Y121.256 E0.8662
G1 X108.574 Y121.980 E0.9093
G1 X108.889 Y122.329 E0.9311
G1 X109.215 Y122.667 E0.9528
G1 X109.897 Y123.303 E0.9959
G1 X110.258 Y123.607 E1.0177
G1 X111.003 Y124.172 E1.0610
G1 X111.786 Y124.685 E1.1043
G1 X112.600 Y125.143 E1.1475
G1 X113.023 Y125.353 E1.1693
G1 X113.878 Y125.725 E1.2124
G1 X114.320 Y125.890 E1.2343
G1 X115.209 Y126.173 E1.2774
G1 X115.665 Y126.292 E1.2992
G1 X116.578 Y126.482 E1.3423
G1 X117.044 Y126.554 E1.3642
G1 X117.973 Y126.649 E1.4073
G1 X118.442 Y126.673 E1.4290
G1 X118.912 Y126.681 E1.4508
G1 X119.844 Y126.650 E1.4939
G1 X120.314 Y126.609 E1.5157
G1 X121.239 Y126.482 E1.5589
G1 X122.156 Y126.292 E1.6023
G1 X123.056 Y126.040 E1.6455
G1 X123.503 Y125.889 E1.6673
G1 X124.371 Y125.547 E1.7104
G1 X124.800 Y125.352 E1.7322
G1 X125.628 Y124.923 E1.7754
G1 X126.036 Y124.684 E1.7972
G1 X126.816 Y124.173 E1.8403
G1 X127.195 Y123.895 E1.8621
G1 X127.564 Y123.605 E1.8838
G1 X128.269 Y122.991 E1.9270
G1 X128.929 Y122.330 E1.9702
G1 X129.245 Y121.980 E1.9920
G1 X129.834 Y121.256 E2.0352
G1 X130.111 Y120.877 E2.0569
G1 X130.376 Y120.489 E2.0787
G1 X130.862 Y119.690 E2.1219
G1 X131.292 Y118.860 E2.1651
G1 X131.487 Y118.431 E2.1869
G1 X131.829 Y117.563 E2.2301
G1 X131.979 Y117.116 E2.2519
G1 X132.232 Y116.216 E2.2951
G1 X132.422 Y115.301 E2.3383
G1 X132.494 Y114.835 E2.3601
G1 X132.590 Y113.907 E2.4033
G1 X132.614 Y113.436 E2.4251
G1 X132.614 Y112.504 E2.4682
G1 X132.590 Y112.033 E2.4900
G1 X132.494 Y111.105 E2.5332
G1 X132.422 Y110.639 E2.5550
G1 X132.232 Y109.724 E2.5982
G1 X131.979 Y108.824 E2.6414
G1 X131.829 Y108.377 E2.6632
G1 X131.487 Y107.509 E2.7064
G1 X131.293 Y107.081 E2.7281
G1 X131.083 Y106.660 E2.7498
G1 X130.626 Y105.847 E2.7930
G1 X130.374 Y105.449 E2.8148
G1 X129.835 Y104.685 E2.8580
G1 X129.245 Y103.960 E2.9012
G1 X128.929 Y103.610 E2.9230
G1 X128.269 Y102.949 E2.9663
G1 X127.564 Y102.335 E3.0095
G1 X127.195 Y102.045 E3.0312
G1 X126.816 Y101.767 E3.0529
G1 X126.035 Y101.256 E3.0961
G1 X125.629 Y101.017 E3.1179
G1 X124.798 Y100.587 E3.1611
G1 X123.941 Y100.215 E3.2043
G1 X123.502 Y100.050 E3.2261
G1 X123.056 Y99.900 E3.2478
G1 X122.156 Y99.648 E3.2910
G1 X121.239 Y99.458 E3.3343
G1 X120.314 Y99.331 E3.3775
G1 X119.844 Y99.290 E3.3994
G1 X118.912 Y99.259 E3.4425
G1 X118.442 Y99.267 E3.4642
G1 X117.973 Y99.291 E3.4860
G1 X117.043 Y99.386 E3.5292
G1 X116.120 Y99.545 E3.5725
G1 X115.212 Y99.766 E3.6157
G1 X114.760 Y99.901 E3.6375
G1 X113.881 Y100.214 E3.6807
G1 X113.445 Y100.394 E3.7025
G1 X112.602 Y100.796 E3.7457
G1 X111.787 Y101.254 E3.7889
G1 X111.390 Y101.505 E3.8107
G1 X111.001 Y101.769 E3.8324
G1 X110.258 Y102.333 E3.8755
G1 X109.897 Y102.637 E3.8973
G1 X109.214 Y103.274 E3.9406
G1 X108.576 Y103.958 E3.9838
G92 E0
G1 E-1.0000 F1800
G1 X109.439 Y105.088 F4600
G1 E0.0000 F1800
G92 E0
G1 X110.040 Y104.416 E0.0417 F690
G1 X110.356 Y104.101 E0.0624
G1 X111.029 Y103.497 E0.1042
G1 X111.377 Y103.218 E0.1248
G1 X112.112 Y102.692 E0.1666
G1 X112.489 Y102.453 E0.1872
G1 X113.278 Y102.010 E0.2290
G1 X113.678 Y101.814 E0.2497
G1 X114.508 Y101.461 E0.2914
G1 X115.360 Y101.170 E0.3330
G1 X116.232 Y100.942 E0.3747
G1 X116.670 Y100.853 E0.3954
G1 X117.564 Y100.721 E0.4372
G1 X118.010 Y100.681 E0.4579
G1 X118.459 Y100.656 E0.4787
G1 X119.359 Y100.656 E0.5203
G1 X120.259 Y100.722 E0.5620
G1 X120.702 Y100.779 E0.5827
G1 X121.591 Y100.943 E0.6245
G1 X122.025 Y101.048 E0.6451
G1 X122.889 Y101.308 E0.6869
G1 X123.729 Y101.629 E0.7285
G1 X124.546 Y102.012 E0.7702
G1 X124.940 Y102.224 E0.7909
G1 X125.328 Y102.451 E0.8117
G1 X126.080 Y102.948 E0.8534
G1 X126.793 Y103.500 E0.8951
G1 X127.131 Y103.792 E0.9157
G1 X127.781 Y104.417 E0.9574
G1 X128.383 Y105.089 E0.9992
G1 X128.663 Y105.439 E1.0199
G1 X128.930 Y105.799 E1.0406
G1 X129.428 Y106.551 E1.0823
G1 X129.869 Y107.336 E1.1240
G1 X130.251 Y108.152 E1.1657
G1 X130.419 Y108.568 E1.1864
G1 X130.572 Y108.990 E1.2071
G1 X130.832 Y109.853 E1.2488
G1 X131.027 Y110.734 E1.2906
G1 X131.101 Y111.174 E1.3112
G1 X131.199 Y112.072 E1.3530
G1 X131.224 Y112.518 E1.3736
G1 X131.224 Y113.420 E1.4154
G1 X131.158 Y114.318 E1.4570
G1 X131.027 Y115.210 E1.4987
G1 X130.937 Y115.649 E1.5194
G1 X130.832 Y116.085 E1.5401
G1 X130.572 Y116.949 E1.5819
G1 X130.251 Y117.789 E1.6235
G1 X129.868 Y118.606 E1.6652
G1 X129.656 Y119.001 E1.6859
G1 X129.429 Y119.387 E1.7067
G1 X128.931 Y120.140 E1.7484
G1 X128.381 Y120.852 E1.7900
G1 X127.780 Y121.524 E1.8317
G1 X127.464 Y121.840 E1.8524
G1 X126.792 Y122.441 E1.8941
G1 X126.078 Y122.993 E1.9358
G1 X125.710 Y123.246 E1.9564
G1 X124.939 Y123.716 E1.9982
G1 X124.546 Y123.928 E2.0189
G1 X123.729 Y124.311 E2.0606
G1 X122.889 Y124.632 E2.1022
G1 X122.027 Y124.891 E2.1438
G1 X121.146 Y125.088 E2.1856
G1 X120.706 Y125.161 E2.2062
G1 X119.807 Y125.259 E2.2480
G1 X119.360 Y125.284 E2.2687
G1 X118.912 Y125.292 E2.2894
G1 X118.008 Y125.259 E2.3313
G1 X117.564 Y125.219 E2.3519
G1 X116.672 Y125.087 E2.3936
G1 X115.793 Y124.891 E2.4352
G1 X114.929 Y124.632 E2.4770
G1 X114.510 Y124.480 E2.4976
G1 X113.680 Y124.127 E2.5393
G1 X112.878 Y123.715 E2.5810
G1 X112.491 Y123.488 E2.6017
G1 X112.112 Y123.248 E2.6225
G1 X111.377 Y122.722 E2.6643
G1 X111.029 Y122.443 E2.6849
G1 X110.358 Y121.841 E2.7266
G1 X109.731 Y121.191 E2.7683
G1 X109.440 Y120.854 E2.7890
G1 X108.888 Y120.140 E2.8307
G1 X108.392 Y119.389 E2.8723
G1 X107.951 Y118.603 E2.9140
G1 X107.754 Y118.202 E2.9347
G1 X107.400 Y117.370 E2.9765
G1 X107.248 Y116.950 E2.9971
G1 X106.988 Y116.085 E3.0389
G1 X106.883 Y115.651 E3.0596
G1 X106.719 Y114.764 E3.1013
G1 X106.620 Y113.867 E3.1430
G1 X106.596 Y113.422 E3.1636
G1 X106.596 Y112.518 E3.2054
G1 X106.621 Y112.071 E3.2262
G1 X106.662 Y111.622 E3.2470
G1 X106.719 Y111.178 E3.2677
