; G-Code generated by Simplify3D(R) Version 4.0.0
; Oct 20, 2020 at 1:59:54 PM
; Settings Summary
;   processName,Process1
;   applyToModels,filament_guide_remix
;   profileName,new profile (modified)
;   profileVersion,2020-09-07 14:01:24
;   baseProfile,Default (modified)
;   printMaterial,PLA
;   printQuality,Medium
;   printExtruders,
;   extruderName,Primary Extruder
;   extruderToolheadNumber,0
;   extruderDiameter,0.4
;   extruderAutoWidth,0
;   extruderWidth,0.4
;   extrusionMultiplier,0.9
;   extruderUseRetract,1
;   extruderRetractionDistance,1
;   extruderExtraRestartDistance,0
;   extruderRetractionZLift,0
;   extruderRetractionSpeed,1800
;   extruderUseCoasting,0
;   extruderCoastingDistance,0.2
;   extruderUseWipe,0
;   extruderWipeDistance,5
;   primaryExtruder,0
;   layerHeight,0.3
;   topSolidLayers,3
;   bottomSolidLayers,3
;   perimeterOutlines,2
;   printPerimetersInsideOut,1
;   startPointOption,2
;   startPointOriginX,0
;   startPointOriginY,0
;   sequentialIslands,0
;   spiralVaseMode,0
;   firstLayerHeightPercentage,100
;   firstLayerWidthPercentage,100
;   firstLayerUnderspeed,0.5
;   useRaft,0
;   raftExtruder,0
;   raftTopLayers,3
;   raftBaseLayers,2
;   raftOffset,3
;   raftSeparationDistance,0.14
;   raftTopInfill,100
;   aboveRaftSpeedMultiplier,0.3
;   useSkirt,0
;   skirtExtruder,0
;   skirtLayers,1
;   skirtOutlines,2
;   skirtOffset,4
;   usePrimePillar,0
;   primePillarExtruder,999
;   primePillarWidth,12
;   primePillarLocation,7
;   primePillarSpeedMultiplier,1
;   useOozeShield,0
;   oozeShieldExtruder,999
;   oozeShieldOffset,2
;   oozeShieldOutlines,1
;   oozeShieldSidewallShape,1
;   oozeShieldSidewallAngle,30
;   oozeShieldSpeedMultiplier,1
;   infillExtruder,0
;   internalInfillPattern,Rectilinear
;   externalInfillPattern,Rectilinear
;   infillPercentage,15
;   outlineOverlapPercentage,15
;   infillExtrusionWidthPercentage,100
;   minInfillLength,5
;   infillLayerInterval,1
;   internalInfillAngles,45,-45
;   overlapInternalInfillAngles,0
;   externalInfillAngles,45,-45
;   generateSupport,0
;   supportExtruder,0
;   supportInfillPercentage,30
;   supportExtraInflation,0
;   supportBaseLayers,0
;   denseSupportExtruder,0
;   denseSupportLayers,0
;   denseSupportInfillPercentage,70
;   supportLayerInterval,1
;   supportHorizontalPartOffset,0.3
;   supportUpperSeparationLayers,1
;   supportLowerSeparationLayers,1
;   supportType,1
;   supportGridSpacing,4
;   maxOverhangAngle,45
;   supportAngles,0
;   temperatureName,Primary Extruder,Hot Bed
;   temperatureNumber,0,1
;   temperatureSetpointCount,1,1
;   temperatureSetpointLayers,1,1
;   temperatureSetpointTemperatures,210,60
;   temperatureStabilizeAtStartup,1,0
;   temperatureHeatedBed,0,1
;   temperatureRelayBetweenLayers,0,0
;   temperatureRelayBetweenLoops,0,0
;   fanLayers,1,2
;   fanSpeeds,0,100
;   blipFanToFullPower,0
;   adjustSpeedForCooling,1
;   minSpeedLayerTime,15
;   minCoolingSpeedSlowdown,20
;   increaseFanForCooling,0
;   minFanLayerTime,45
;   maxCoolingFanSpeed,100
;   increaseFanForBridging,0
;   bridgingFanSpeed,100
;   use5D,1
;   relativeEdistances,0
;   allowEaxisZeroing,1
;   independentExtruderAxes,0
;   includeM10123,0
;   stickySupport,1
;   applyToolheadOffsets,0
;   gcodeXoffset,0
;   gcodeYoffset,0
;   gcodeZoffset,0
;   overrideMachineDefinition,0
;   machineTypeOverride,0
;   strokeXoverride,200
;   strokeYoverride,200
;   strokeZoverride,200
;   originOffsetXoverride,0
;   originOffsetYoverride,0
;   originOffsetZoverride,0
;   homeXdirOverride,-1
;   homeYdirOverride,-1
;   homeZdirOverride,-1
;   flipXoverride,1
;   flipYoverride,-1
;   flipZoverride,1
;   toolheadOffsets,0,0|0,0|0,0|0,0|0,0|0,0
;   overrideFirmwareConfiguration,0
;   firmwareTypeOverride,RepRap (Marlin/Repetier/Sprinter)
;   GPXconfigOverride,r2
;   baudRateOverride,115200
;   overridePrinterModels,0
;   printerModelsOverride
;   startingGcode,G28 ; home all axes,G1 X0 Y5 Z0.2 F3000 ; get ready to prime,G92 E0 ; reset extrusion distance,G1 Y150 E20 F600 ; prime nozzle
;   layerChangeGcode,
;   retractionGcode,
;   toolChangeGcode,
;   endingGcode,M104 S0 ; turn off extruder,M140 S0 ; turn off bed,M84 ; disable motors,G1 X0 Y0; home,M107 ; fan off
;   exportFileFormat,gcode
;   celebration,0
;   celebrationSong,Random Song
;   postProcessing,
;   defaultSpeed,4600
;   outlineUnderspeed,0.5
;   solidInfillUnderspeed,0.8
;   supportUnderspeed,0.8
;   rapidXYspeed,4800
;   rapidZspeed,1000
;   minBridgingArea,50
;   bridgingExtraInflation,0
;   bridgingExtrusionMultiplier,1
;   bridgingSpeedMultiplier,1
;   useFixedBridgingAngle,0
;   fixedBridgingAngle,0
;   applyBridgingToPerimeters,0
;   filamentDiameters,1.75|1.75|1.75|1.75|1.75|1.75
;   filamentPricesPerKg,46|46|46|46|46|46
;   filamentDensities,1.25|1.25|1.25|1.25|1.25|1.25
;   useMinPrintHeight,0
;   minPrintHeight,0
;   useMaxPrintHeight,0
;   maxPrintHeight,0
;   useDiaphragm,0
;   diaphragmLayerInterval,20
;   robustSlicing,1
;   mergeAllIntoSolid,0
;   onlyRetractWhenCrossingOutline,1
;   retractBetweenLayers,1
;   useRetractionMinTravel,0
;   retractionMinTravel,3
;   retractWhileWiping,0
;   onlyWipeOutlines,1
;   avoidCrossingOutline,0
;   maxMovementDetourFactor,3
;   toolChangeRetractionDistance,12
;   toolChangeExtraRestartDistance,-0.5
;   toolChangeRetractionSpeed,600
;   externalThinWallType,1
;   internalThinWallType,1
;   thinWallAllowedOverlapPercentage,10
;   singleExtrusionMinLength,1
;   singleExtrusionMinPrintingWidthPercentage,50
;   singleExtrusionMaxPrintingWidthPercentage,200
;   singleExtrusionEndpointExtension,0.2
;   horizontalSizeCompensation,0
G90
M82
M106 S0
M140 S60
M104 S210 T0
M109 S210 T0
G28 ; home all axes
G1 X0 Y5 Z0.2 F3000 ; get ready to prime
G92 E0 ; reset extrusion distance
G1 Y150 E20 F600 ; prime nozzle
G92 E0
G1 E-1.0000 F1800
G1 Z0.300 F1000
; process Process1
; layer 1, Z = 0.300
T0
; tool H0.300 W0.400
; inner perimeter
G1 X34.121 Y72.499 F4800
G1 E0.0000 F540
G92 E0
G1 X37.921 Y72.499 E0.1706 F1725
G1 X37.921 Y80.601 E0.5344
G1 X150.879 Y80.601 E5.6064
G1 X150.879 Y82.599 E5.6961
G1 X154.079 Y82.599 E5.8398
G1 X154.079 Y80.601 E5.9295
G1 X165.879 Y80.601 E6.4593
G1 X165.879 Y87.337 E6.7617
G1 X146.462 Y87.337 E7.6336
G1 X145.061 Y87.415 E7.6966
G1 X143.661 Y87.653 E7.7603
G1 X142.296 Y88.047 E7.8242
G1 X140.984 Y88.590 E7.8879
G1 X139.743 Y89.278 E7.9516
G1 X138.583 Y90.098 E8.0154
G1 X137.523 Y91.045 E8.0792
G1 X136.576 Y92.105 E8.1430
G1 X135.756 Y93.263 E8.2067
G1 X135.070 Y94.504 E8.2704
G1 X134.527 Y95.816 E8.3342
G1 X134.133 Y97.181 E8.3980
G1 X133.893 Y98.583 E8.4618
G1 X133.816 Y100.001 E8.5256
G1 X133.893 Y101.419 E8.5894
G1 X134.133 Y102.819 E8.6531
G1 X134.527 Y104.183 E8.7169
G1 X135.070 Y105.493 E8.7806
G1 X135.756 Y106.737 E8.8444
G1 X136.577 Y107.895 E8.9081
G1 X137.523 Y108.955 E8.9719
G1 X138.583 Y109.901 E9.0357
G1 X139.743 Y110.724 E9.0995
G1 X140.984 Y111.410 E9.1632
G1 X142.296 Y111.953 E9.2270
G1 X143.661 Y112.347 E9.2908
G1 X145.061 Y112.585 E9.3545
G1 X146.462 Y112.663 E9.4175
G1 X160.897 Y112.663 E10.0657
G1 X160.897 Y119.399 E10.3681
G1 X154.079 Y119.399 E10.6743
G1 X154.079 Y117.401 E10.7640
G1 X150.879 Y117.401 E10.9077
G1 X150.879 Y119.399 E10.9974
G1 X37.921 Y119.399 E16.0693
G1 X37.921 Y127.501 E16.4331
G1 X34.121 Y127.501 E16.6037
G1 X34.121 Y72.499 E19.0734
; outer perimeter
G1 X33.721 Y72.099 F4800
G92 E0
G1 X38.321 Y72.099 E0.2065 F1150
G1 X38.321 Y80.201 E0.5703
G1 X151.279 Y80.201 E5.6423
G1 X151.279 Y82.199 E5.7320
G1 X153.679 Y82.199 E5.8398
G1 X153.679 Y80.201 E5.9295
G1 X166.279 Y80.201 E6.4952
G1 X166.279 Y87.737 E6.8336
G1 X146.473 Y87.737 E7.7229
G1 X145.106 Y87.814 E7.7844
G1 X143.751 Y88.043 E7.8461
G1 X142.428 Y88.425 E7.9079
G1 X141.158 Y88.951 E7.9696
G1 X139.956 Y89.618 E8.0314
G1 X138.832 Y90.412 E8.0931
G1 X137.806 Y91.328 E8.1549
G1 X136.890 Y92.354 E8.2167
G1 X136.096 Y93.476 E8.2784
G1 X135.431 Y94.678 E8.3401
G1 X134.905 Y95.948 E8.4018
G1 X134.523 Y97.270 E8.4636
G1 X134.292 Y98.628 E8.5254
G1 X134.216 Y100.001 E8.5872
G1 X134.292 Y101.374 E8.6489
G1 X134.523 Y102.730 E8.7107
G1 X134.905 Y104.050 E8.7724
G1 X135.431 Y105.320 E8.8341
G1 X136.095 Y106.524 E8.8958
G1 X136.890 Y107.646 E8.9576
G1 X137.806 Y108.672 E9.0193
G1 X138.832 Y109.588 E9.0811
G1 X139.956 Y110.384 E9.1429
G1 X141.158 Y111.049 E9.2046
G1 X142.428 Y111.575 E9.2663
G1 X143.751 Y111.957 E9.3281
G1 X145.106 Y112.186 E9.3899
G1 X146.473 Y112.263 E9.4514
G1 X161.297 Y112.263 E10.1170
G1 X161.297 Y119.799 E10.4553
G1 X153.679 Y119.799 E10.7974
G1 X153.679 Y117.801 E10.8871
G1 X151.279 Y117.801 E10.9949
G1 X151.279 Y119.799 E11.0846
G1 X38.321 Y119.799 E16.1565
G1 X38.321 Y127.901 E16.5203
G1 X33.721 Y127.901 E16.7268
G1 X33.721 Y72.099 E19.2324
; inner perimeter
G1 X37.921 Y89.401 F4800
G92 E0
G1 X37.921 Y110.599 E0.9518 F1725
G1 X43.518 Y110.599 E1.2031
G1 X46.223 Y110.244 E1.3256
G1 X48.782 Y109.185 E1.4500
G1 X50.979 Y107.499 E1.5743
G1 X52.663 Y105.304 E1.6986
G1 X53.724 Y102.744 E1.8230
G1 X54.084 Y100.001 E1.9472
G1 X53.724 Y97.256 E2.0715
G1 X52.663 Y94.698 E2.1958
G1 X50.979 Y92.501 E2.3201
G1 X48.782 Y90.817 E2.4444
G1 X46.224 Y89.756 E2.5688
G1 X43.518 Y89.401 E2.6913
G1 X37.921 Y89.401 E2.9426
; outer perimeter
G1 X38.321 Y89.801 F4800
G92 E0
G1 X38.321 Y110.199 E0.9159 F1150
G1 X43.492 Y110.199 E1.1481
G1 X46.119 Y109.854 E1.2671
G1 X48.580 Y108.836 E1.3866
G1 X50.694 Y107.214 E1.5063
G1 X52.314 Y105.102 E1.6258
G1 X53.334 Y102.639 E1.7455
G1 X53.681 Y100.001 E1.8649
G1 X53.334 Y97.361 E1.9845
G1 X52.314 Y94.900 E2.1041
G1 X50.694 Y92.786 E2.2237
G1 X48.580 Y91.166 E2.3433
G1 X46.119 Y90.146 E2.4629
G1 X43.492 Y89.801 E2.5819
G1 X38.321 Y89.801 E2.8140
G92 E0
G1 E-1.0000 F1800
; inner perimeter
G1 X58.234 Y97.256 F4800
G1 E0.0000 F1800
G92 E0
G1 X57.874 Y100.001 E0.1243 F1725
G1 X58.234 Y102.744 E0.2485
G1 X59.295 Y105.304 E0.3729
G1 X60.979 Y107.499 E0.4972
G1 X63.176 Y109.185 E0.6215
G1 X65.735 Y110.244 E0.7458
G1 X68.479 Y110.604 E0.8701
G1 X71.223 Y110.244 E0.9944
G1 X73.782 Y109.185 E1.1187
G1 X75.977 Y107.499 E1.2430
G1 X77.663 Y105.304 E1.3673
G1 X78.724 Y102.744 E1.4917
G1 X79.084 Y100.001 E1.6159
G1 X78.724 Y97.256 E1.7402
G1 X77.663 Y94.698 E1.8646
G1 X75.977 Y92.501 E1.9889
G1 X73.782 Y90.817 E2.1132
G1 X71.224 Y89.756 E2.2375
G1 X68.479 Y89.396 E2.3618
G1 X65.734 Y89.756 E2.4861
G1 X63.176 Y90.817 E2.6104
G1 X60.979 Y92.501 E2.7347
G1 X59.295 Y94.698 E2.8590
G1 X58.234 Y97.256 E2.9834
; outer perimeter
G1 X58.624 Y97.361 F4800
G92 E0
G1 X58.277 Y100.001 E0.1196 F1150
G1 X58.624 Y102.639 E0.2390
G1 X59.644 Y105.102 E0.3587
G1 X61.264 Y107.214 E0.4782
G1 X63.378 Y108.836 E0.5979
G1 X65.839 Y109.854 E0.7175
G1 X68.479 Y110.201 E0.8370
G1 X71.119 Y109.854 E0.9566
G1 X73.580 Y108.836 E1.0762
G1 X75.692 Y107.214 E1.1957
G1 X77.314 Y105.102 E1.3153
G1 X78.334 Y102.639 E1.4350
G1 X78.681 Y100.001 E1.5544
G1 X78.334 Y97.361 E1.6740
G1 X77.314 Y94.900 E1.7936
G1 X75.692 Y92.786 E1.9133
G1 X73.580 Y91.166 E2.0328
G1 X71.119 Y90.146 E2.1524
G1 X68.479 Y89.799 E2.2719
G1 X65.839 Y90.146 E2.3915
G1 X63.378 Y91.166 E2.5111
G1 X61.264 Y92.786 E2.6307
G1 X59.644 Y94.900 E2.7503
G1 X58.624 Y97.361 E2.8699
G92 E0
G1 E-1.0000 F1800
; inner perimeter
G1 X82.874 Y100.001 F4800
G1 E0.0000 F1800
G92 E0
G1 X83.234 Y102.744 E0.1242 F1725
G1 X84.295 Y105.304 E0.2486
G1 X85.981 Y107.499 E0.3729
G1 X88.176 Y109.185 E0.4972
G1 X90.735 Y110.244 E0.6215
G1 X93.479 Y110.604 E0.7458
G1 X96.223 Y110.244 E0.8701
G1 X98.782 Y109.185 E0.9944
G1 X100.979 Y107.499 E1.1188
G1 X102.663 Y105.304 E1.2430
G1 X103.724 Y102.744 E1.3674
G1 X104.084 Y100.001 E1.4916
G1 X103.724 Y97.256 E1.6159
G1 X102.663 Y94.698 E1.7403
G1 X100.979 Y92.501 E1.8646
G1 X98.782 Y90.817 E1.9889
G1 X96.224 Y89.756 E2.1132
G1 X93.479 Y89.396 E2.2375
G1 X90.734 Y89.756 E2.3618
G1 X88.176 Y90.817 E2.4861
G1 X85.981 Y92.501 E2.6104
G1 X84.295 Y94.698 E2.7347
G1 X83.234 Y97.256 E2.8591
G1 X82.874 Y100.001 E2.9834
; outer perimeter
G1 X83.277 Y100.001 F4800
G92 E0
G1 X83.624 Y102.639 E0.1195 F1150
G1 X84.644 Y105.102 E0.2392
G1 X86.266 Y107.214 E0.3587
G1 X88.378 Y108.836 E0.4783
G1 X90.839 Y109.854 E0.5979
G1 X93.479 Y110.201 E0.7174
G1 X96.119 Y109.854 E0.8370
G1 X98.580 Y108.836 E0.9566
G1 X100.694 Y107.214 E1.0762
G1 X102.314 Y105.102 E1.1957
G1 X103.334 Y102.639 E1.3154
G1 X103.681 Y100.001 E1.4349
G1 X103.334 Y97.361 E1.5544
G1 X102.314 Y94.900 E1.6741
G1 X100.694 Y92.786 E1.7936
G1 X98.580 Y91.166 E1.9132
G1 X96.119 Y90.146 E2.0328
G1 X93.479 Y89.799 E2.1524
G1 X90.839 Y90.146 E2.2720
G1 X88.378 Y91.166 E2.3916
G1 X86.266 Y92.786 E2.5111
G1 X84.644 Y94.900 E2.6307
G1 X83.624 Y97.361 E2.7503
G1 X83.277 Y100.001 E2.8699
G92 E0
G1 E-1.0000 F1800
; inner perimeter
G1 X107.874 Y100.001 F4800
G1 E0.0000 F1800
G92 E0
G1 X108.236 Y102.744 E0.1242 F1725
G1 X109.295 Y105.303 E0.2486
G1 X110.503 Y106.879 E0.3377
G1 X110.981 Y107.499 E0.3729
G1 X113.176 Y109.185 E0.4972
G1 X115.735 Y110.244 E0.6215
G1 X118.479 Y110.604 E0.7458
G1 X121.223 Y110.244 E0.8701
G1 X123.782 Y109.185 E0.9944
G1 X125.979 Y107.499 E1.1187
G1 X127.663 Y105.304 E1.2430
G1 X128.724 Y102.744 E1.3674
G1 X129.084 Y100.001 E1.4916
G1 X128.724 Y97.256 E1.6159
G1 X127.663 Y94.698 E1.7402
G1 X125.979 Y92.501 E1.8645
G1 X123.782 Y90.817 E1.9889
G1 X121.224 Y89.756 E2.1132
G1 X118.479 Y89.396 E2.2375
G1 X115.734 Y89.756 E2.3618
G1 X113.176 Y90.817 E2.4861
G1 X110.981 Y92.501 E2.6104
G1 X109.295 Y94.698 E2.7347
G1 X108.236 Y97.256 E2.8590
G1 X107.874 Y100.001 E2.9833
; outer perimeter
G1 X108.277 Y100.001 F4800
G92 E0
G1 X108.626 Y102.639 E0.1195 F1150
G1 X109.644 Y105.102 E0.2391
G1 X110.820 Y106.635 E0.3259
G1 X111.266 Y107.214 E0.3587
G1 X113.378 Y108.836 E0.4783
G1 X115.839 Y109.854 E0.5978
G1 X118.479 Y110.201 E0.7174
G1 X121.119 Y109.854 E0.8370
G1 X123.580 Y108.836 E0.9565
G1 X125.694 Y107.214 E1.0762
G1 X127.314 Y105.102 E1.1957
G1 X128.334 Y102.639 E1.3154
G1 X128.681 Y100.001 E1.4349
G1 X128.334 Y97.361 E1.5544
G1 X127.314 Y94.900 E1.6740
G1 X125.694 Y92.786 E1.7936
G1 X123.580 Y91.166 E1.9132
G1 X121.119 Y90.146 E2.0328
G1 X118.479 Y89.799 E2.1524
G1 X115.839 Y90.146 E2.2719
G1 X113.378 Y91.166 E2.3915
G1 X111.266 Y92.786 E2.5110
G1 X109.644 Y94.900 E2.6307
G1 X108.626 Y97.361 E2.7503
G1 X108.277 Y100.001 E2.8698
; solid layer
G1 X104.176 Y101.913 F4800
G92 E0
G1 X121.322 Y119.059 E1.0888 F1840
G1 X120.756 Y119.059 E1.1142
G1 X104.110 Y102.413 E2.1712
G1 X104.055 Y102.832 E2.1902
G1 X104.028 Y102.897 E2.1933
G1 X120.190 Y119.059 E3.2196
G1 X119.625 Y119.059 E3.2450
G1 X103.862 Y103.297 E4.2459
G1 X103.697 Y103.697 E4.2654
G1 X119.059 Y119.059 E5.2409
G1 X118.493 Y119.059 E5.2663
G1 X103.531 Y104.097 E6.2164
G1 X103.365 Y104.497 E6.2358
G1 X117.928 Y119.059 E7.1605
G1 X117.362 Y119.059 E7.1859
G1 X103.200 Y104.897 E8.0852
G1 X103.034 Y105.297 E8.1047
G1 X116.796 Y119.059 E8.9786
G1 X116.231 Y119.059 E9.0040
G1 X102.824 Y105.652 E9.8553
G1 X102.578 Y105.973 E9.8734
G1 X115.665 Y119.059 E10.7044
G1 X115.099 Y119.059 E10.7298
G1 X102.333 Y106.293 E11.5404
G1 X102.087 Y106.613 E11.5586
G1 X114.534 Y119.059 E12.3489
G1 X113.968 Y119.059 E12.3743
G1 X101.842 Y106.933 E13.1443
G1 X101.596 Y107.253 E13.1624
G1 X113.402 Y119.059 E13.9121
G1 X112.836 Y119.059 E13.9375
G1 X101.351 Y107.573 E14.6669
G1 X101.222 Y107.741 E14.6764
G1 X101.070 Y107.858 E14.6850
G1 X112.271 Y119.059 E15.3962
G1 X111.705 Y119.059 E15.4216
G1 X100.750 Y108.103 E16.1173
G1 X100.430 Y108.349 E16.1354
G1 X111.139 Y119.059 E16.8155
G1 X110.574 Y119.059 E16.8409
G1 X100.109 Y108.595 E17.5054
G1 X99.789 Y108.840 E17.5235
G1 X110.008 Y119.059 E18.1724
G1 X109.442 Y119.059 E18.1978
G1 X99.469 Y109.086 E18.8311
G1 X99.149 Y109.332 E18.8492
G1 X108.877 Y119.059 E19.4669
G1 X108.311 Y119.059 E19.4923
G1 X98.798 Y109.546 E20.0963
G1 X98.398 Y109.712 E20.1158
G1 X107.745 Y119.059 E20.7093
G1 X107.180 Y119.059 E20.7347
G1 X97.998 Y109.877 E21.3178
G1 X97.598 Y110.043 E21.3372
G1 X106.614 Y119.059 E21.9097
G1 X106.048 Y119.059 E21.9351
G1 X97.198 Y110.208 E22.4971
G1 X96.798 Y110.374 E22.5166
