; G-Code generated by Simplify3D(R) Version 4.0.0
; May 27, 2018 at 8:09:47 PM
; Settings Summary
;   processName,nozzle 0.4
;   applyToModels,FlexiTapir
;   profileName,Flying Bear 902 Update 7-2017 (modified)
;   profileVersion,2017-07-10 09:45:20
;   baseProfile,Default
;   printMaterial,PLA
;   printQuality,Medium
;   printExtruders,
;   extruderName,Extruder 1
;   extruderToolheadNumber,0
;   extruderDiameter,0.4
;   extruderAutoWidth,1
;   extruderWidth,0.48
;   extrusionMultiplier,0.9
;   extruderUseRetract,1
;   extruderRetractionDistance,3
;   extruderExtraRestartDistance,0
;   extruderRetractionZLift,0
;   extruderRetractionSpeed,3000
;   extruderUseCoasting,0
;   extruderCoastingDistance,0.2
;   extruderUseWipe,1
;   extruderWipeDistance,5
;   primaryExtruder,0
;   layerHeight,0.2
;   topSolidLayers,3
;   bottomSolidLayers,2
;   perimeterOutlines,3
;   printPerimetersInsideOut,0
;   startPointOption,2
;   startPointOriginX,0
;   startPointOriginY,0
;   sequentialIslands,0
;   spiralVaseMode,0
;   firstLayerHeightPercentage,20
;   firstLayerWidthPercentage,115
;   firstLayerUnderspeed,0.3
;   useRaft,0
;   raftExtruder,0
;   raftTopLayers,2
;   raftBaseLayers,2
;   raftOffset,2
;   raftSeparationDistance,0.3
;   raftTopInfill,100
;   aboveRaftSpeedMultiplier,0.3
;   useSkirt,0
;   skirtExtruder,0
;   skirtLayers,1
;   skirtOutlines,2
;   skirtOffset,4
;   usePrimePillar,0
;   primePillarExtruder,999
;   primePillarWidth,12
;   primePillarLocation,7
;   primePillarSpeedMultiplier,1
;   useOozeShield,0
;   oozeShieldExtruder,999
;   oozeShieldOffset,2
;   oozeShieldOutlines,1
;   oozeShieldSidewallShape,1
;   oozeShieldSidewallAngle,30
;   oozeShieldSpeedMultiplier,1
;   infillExtruder,0
;   internalInfillPattern,Rectilinear
;   externalInfillPattern,Concentric
;   infillPercentage,15
;   outlineOverlapPercentage,60
;   infillExtrusionWidthPercentage,100
;   minInfillLength,5
;   infillLayerInterval,1
;   internalInfillAngles,45,-45
;   overlapInternalInfillAngles,0
;   externalInfillAngles,45,-45
;   generateSupport,1
;   supportExtruder,0
;   supportInfillPercentage,30
;   supportExtraInflation,0
;   supportBaseLayers,0
;   denseSupportExtruder,0
;   denseSupportLayers,0
;   denseSupportInfillPercentage,50
;   supportLayerInterval,1
;   supportHorizontalPartOffset,0.3
;   supportUpperSeparationLayers,1
;   supportLowerSeparationLayers,1
;   supportType,0
;   supportGridSpacing,4
;   maxOverhangAngle,60
;   supportAngles,0
;   temperatureName,Extruder 1,Heated Bed
;   temperatureNumber,0,0
;   temperatureSetpointCount,1,1
;   temperatureSetpointLayers,1,1
;   temperatureSetpointTemperatures,210,60
;   temperatureStabilizeAtStartup,1,0
;   temperatureHeatedBed,0,1
;   temperatureRelayBetweenLayers,0,0
;   temperatureRelayBetweenLoops,0,0
;   fanLayers,1
;   fanSpeeds,255
;   blipFanToFullPower,0
;   adjustSpeedForCooling,1
;   minSpeedLayerTime,15
;   minCoolingSpeedSlowdown,20
;   increaseFanForCooling,0
;   minFanLayerTime,45
;   maxCoolingFanSpeed,100
;   increaseFanForBridging,0
;   bridgingFanSpeed,100
;   use5D,1
;   relativeEdistances,0
;   allowEaxisZeroing,1
;   independentExtruderAxes,0
;   includeM10123,0
;   stickySupport,1
;   applyToolheadOffsets,0
;   gcodeXoffset,0
;   gcodeYoffset,0
;   gcodeZoffset,0
;   overrideMachineDefinition,1
;   machineTypeOverride,0
;   strokeXoverride,220
;   strokeYoverride,220
;   strokeZoverride,280
;   originOffsetXoverride,0
;   originOffsetYoverride,0
;   originOffsetZoverride,0
;   homeXdirOverride,-1
;   homeYdirOverride,-1
;   homeZdirOverride,-1
;   flipXoverride,1
;   flipYoverride,-1
;   flipZoverride,1
;   toolheadOffsets,0,0|0,0|0,0|0,0|0,0|0,0
;   overrideFirmwareConfiguration,1
;   firmwareTypeOverride,RepRap (Marlin/Repetier/Sprinter)
;   GPXconfigOverride,r2
;   baudRateOverride,250000
;   overridePrinterModels,0
;   printerModelsOverride
;   startingGcode,G28 ; home all axes,G1 X0 Y20 Z0.2 F3000 ; get ready to prime,G92 E0 ; reset extrusion distance,G1 X200 E20 F600 ; prime nozzle
;   layerChangeGcode,
;   retractionGcode,
;   toolChangeGcode,
;   endingGcode,M104 S0 ; turn off extruder,M140 S0 ; turn off bed,G28 X Y ; home x and y axes,M84 ; disable motors
;   exportFileFormat,gcode
;   celebration,0
;   celebrationSong,Random Song
;   postProcessing,
;   defaultSpeed,4400
;   outlineUnderspeed,0.6
;   solidInfillUnderspeed,0.85
;   supportUnderspeed,0.8
;   rapidXYspeed,4600
;   rapidZspeed,1002
;   minBridgingArea,50
;   bridgingExtraInflation,0
;   bridgingExtrusionMultiplier,1
;   bridgingSpeedMultiplier,1
;   useFixedBridgingAngle,0
;   fixedBridgingAngle,0
;   applyBridgingToPerimeters,0
;   filamentDiameters,1.75|1.75|1.75|1.75|1.75|1.75
;   filamentPricesPerKg,46|46|46|46|46|46
;   filamentDensities,1.25|1.25|1.25|1.25|1.25|1.25
;   useMinPrintHeight,0
;   minPrintHeight,0
;   useMaxPrintHeight,0
;   maxPrintHeight,4.3
;   useDiaphragm,0
;   diaphragmLayerInterval,20
;   robustSlicing,1
;   mergeAllIntoSolid,0
;   onlyRetractWhenCrossingOutline,1
;   retractBetweenLayers,1
;   useRetractionMinTravel,0
;   retractionMinTravel,3
;   retractWhileWiping,0
;   onlyWipeOutlines,1
;   avoidCrossingOutline,0
;   maxMovementDetourFactor,3
;   toolChangeRetractionDistance,12
;   toolChangeExtraRestartDistance,-0.5
;   toolChangeRetractionSpeed,600
;   externalThinWallType,1
;   internalThinWallType,1
;   thinWallAllowedOverlapPercentage,20
;   singleExtrusionMinLength,1
;   singleExtrusionMinPrintingWidthPercentage,50
;   singleExtrusionMaxPrintingWidthPercentage,200
;   singleExtrusionEndpointExtension,0.2
;   horizontalSizeCompensation,0
G90
M82
M106 S650
M140 S60
M104 S210 T0
M109 S210 T0
G28 ; home all axes
G1 X0 Y20 Z0.2 F3000 ; get ready to prime
G92 E0 ; reset extrusion distance
G1 X200 E20 F600 ; prime nozzle
G92 E0
G1 E-3.0000 F3000
G1 Z0.040 F1002
; process nozzle 0.4
; layer 1, Z = 0.040
T0
; tool H0.200 W0.552
; outer perimeter
G1 X75.124 Y86.673 F4600
G1 E0.0000 F900
G92 E0
G1 X75.255 Y86.571 E0.0069 F792
G1 X75.407 Y86.503 E0.0137
G1 X75.570 Y86.470 E0.0206
G1 X81.390 Y86.667 E0.2612
G1 X81.557 Y86.691 E0.2681
G1 X81.705 Y86.746 E0.2747
G1 X81.786 Y86.794 E0.2785
G1 X81.906 Y86.898 E0.2851
G1 X81.999 Y87.020 E0.2914
G1 X82.065 Y87.165 E0.2980
G1 X82.089 Y87.255 E0.3018
G1 X82.101 Y87.418 E0.3086
G1 X82.092 Y87.511 E0.3125
G1 X82.047 Y87.668 E0.3192
G1 X82.005 Y87.752 E0.3231
G1 X81.903 Y87.891 E0.3302
G1 X80.685 Y89.214 E0.4045
G1 X79.947 Y90.091 E0.4518
G1 X79.427 Y90.795 E0.4880
G1 X78.967 Y91.530 E0.5238
G1 X78.702 Y92.040 E0.5475
G1 X78.479 Y92.558 E0.5708
G1 X78.302 Y93.081 E0.5937
G1 X78.230 Y93.354 E0.6053
G1 X78.127 Y93.883 E0.6276
G1 X78.094 Y94.156 E0.6389
G1 X78.075 Y94.429 E0.6503
G1 X78.075 Y94.962 E0.6723
G1 X78.095 Y95.238 E0.6837
G1 X78.171 Y95.771 E0.7060
G1 X78.297 Y96.303 E0.7285
G1 X78.469 Y96.830 E0.7514
G1 X78.803 Y97.596 E0.7860
G1 X79.075 Y98.100 E0.8096
G1 X79.379 Y98.590 E0.8334
G1 X79.712 Y99.068 E0.8575
G1 X80.068 Y99.532 E0.8817
G1 X80.445 Y99.984 E0.9060
G1 X81.034 Y100.631 E0.9421
G1 X81.440 Y101.045 E0.9661
G1 X82.054 Y101.633 E1.0012
G1 X83.157 Y102.603 E1.0619
G1 X83.150 Y110.471 E1.3869
G1 X77.657 Y110.471 E1.6138
G1 X77.657 Y116.023 E1.8431
G1 X83.157 Y116.023 E2.0703
G1 X83.156 Y128.038 E2.5667
G1 X82.932 Y128.165 E2.5773
G1 X82.670 Y128.008 E2.5899
G1 X81.785 Y127.432 E2.6335
G1 X80.632 Y126.626 E2.6916
G1 X79.514 Y125.795 E2.7492
G1 X75.489 Y122.637 E2.9605
G1 X72.381 Y120.287 E3.1215
G1 X71.765 Y119.767 E3.1547
G1 X71.484 Y119.500 E3.1708
G1 X71.215 Y119.218 E3.1869
G1 X70.961 Y118.917 E3.2032
G1 X70.720 Y118.594 E3.2198
G1 X70.377 Y118.050 E3.2464
G1 X70.060 Y117.433 E3.2750
G1 X69.769 Y116.734 E3.3063
G1 X69.504 Y115.952 E3.3404
G1 X69.343 Y115.391 E3.3645
G1 X69.196 Y114.802 E3.3896
G1 X69.004 Y113.882 E3.4284
G1 X68.806 Y112.636 E3.4805
G1 X68.770 Y112.339 E3.4929
G1 X68.672 Y111.190 E3.5405
G1 X68.657 Y110.687 E3.5613
G1 X68.666 Y110.243 E3.5797
G1 X68.698 Y109.872 E3.5950
G1 X68.764 Y109.515 E3.6100
G1 X69.016 Y109.435 E3.6210
G1 X69.222 Y109.637 E3.6329
G1 X69.417 Y109.861 E3.6451
G1 X70.160 Y110.787 E3.6942
G1 X70.379 Y111.020 E3.7074
G1 X70.599 Y111.207 E3.7193
G1 X70.783 Y111.316 E3.7281
G1 X70.984 Y111.379 E3.7368
G1 X71.199 Y111.377 E3.7457
G1 X71.395 Y111.304 E3.7544
G1 X71.520 Y111.217 E3.7607
G1 X71.667 Y111.067 E3.7694
G1 X71.872 Y110.760 E3.7846
G1 X72.029 Y110.459 E3.7986
G1 X72.533 Y109.390 E3.8474
G1 X72.729 Y109.016 E3.8649
G1 X73.061 Y108.463 E3.8915
G1 X73.304 Y108.125 E3.9087
G1 X73.708 Y107.658 E3.9342
G1 X74.141 Y107.252 E3.9588
G1 X74.591 Y106.897 E3.9824
G1 X75.317 Y106.374 E4.0194
G1 X75.699 Y106.062 E4.0398
G1 X75.917 Y105.831 E4.0529
G1 X76.019 Y105.695 E4.0599
G1 X76.168 Y105.425 E4.0726
G1 X76.245 Y105.188 E4.0829
G1 X76.288 Y104.862 E4.0965
G1 X76.269 Y104.512 E4.1110
G1 X76.192 Y104.140 E4.1267
G1 X76.029 Y103.650 E4.1480
G1 X75.849 Y103.229 E4.1669
G1 X75.518 Y102.563 E4.1977
G1 X74.174 Y100.144 E4.3120
G1 X73.694 Y99.185 E4.3563
G1 X73.410 Y98.508 E4.3866
G1 X73.269 Y98.088 E4.4049
G1 X73.128 Y97.493 E4.4302
G1 X73.086 Y97.135 E4.4451
G1 X73.082 Y96.798 E4.4590
G1 X73.113 Y96.482 E4.4721
G1 X73.178 Y96.183 E4.4848
G1 X73.274 Y95.894 E4.4973
G1 X73.396 Y95.612 E4.5100
G1 X73.541 Y95.334 E4.5229
G1 X74.357 Y94.006 E4.5874
G1 X74.710 Y93.337 E4.6186
G1 X74.868 Y92.968 E4.6352
G1 X75.007 Y92.581 E4.6522
G1 X75.124 Y92.171 E4.6698
G1 X75.216 Y91.737 E4.6881
G1 X75.282 Y91.280 E4.7072
G1 X75.321 Y90.795 E4.7273
G1 X75.323 Y90.027 E4.7590
G1 X75.259 Y89.199 E4.7933
G1 X75.177 Y88.611 E4.8178
G1 X75.066 Y87.999 E4.8435
G1 X74.910 Y87.281 E4.8739
G1 X74.909 Y87.104 E4.8812
G1 X74.921 Y87.037 E4.8840
G1 X74.981 Y86.866 E4.8915
G1 X75.014 Y86.807 E4.8943
G1 X75.124 Y86.673 E4.9015
G1 X75.255 Y86.571 F4400
G1 X75.407 Y86.503 F4400
G1 X75.570 Y86.470 F4400
G1 X80.069 Y86.623 F4400
; inner perimeter
G1 X81.420 Y87.220 F4600
G92 E0
G1 X81.529 Y87.482 E0.0117 F1056
G1 X80.271 Y88.849 E0.0885
G1 X79.514 Y89.749 E0.1370
G1 X78.971 Y90.485 E0.1748
G1 X78.488 Y91.256 E0.2124
G1 X78.203 Y91.802 E0.2379
G1 X77.963 Y92.360 E0.2629
G1 X77.773 Y92.922 E0.2875
G1 X77.691 Y93.230 E0.3006
G1 X77.582 Y93.798 E0.3245
G1 X77.545 Y94.103 E0.3372
G1 X77.523 Y94.409 E0.3499
G1 X77.523 Y94.982 E0.3735
G1 X77.546 Y95.297 E0.3866
G1 X77.628 Y95.874 E0.4107
G1 X77.765 Y96.452 E0.4352
G1 X77.952 Y97.026 E0.4602
G1 X78.306 Y97.838 E0.4968
G1 X78.598 Y98.377 E0.5220
G1 X78.918 Y98.893 E0.5471
G1 X79.266 Y99.393 E0.5723
G1 X79.637 Y99.877 E0.5975
G1 X80.029 Y100.347 E0.6228
G1 X80.633 Y101.010 E0.6598
G1 X81.052 Y101.437 E0.6845
G1 X81.681 Y102.040 E0.7205
G1 X82.605 Y102.852 E0.7713
G1 X82.599 Y109.919 E1.0633
G1 X77.105 Y109.919 E1.2902
G1 X77.105 Y116.575 E1.5652
G1 X82.605 Y116.575 E1.7923
G1 X82.604 Y127.031 E2.2243
G1 X82.373 Y127.156 E2.2351
G1 X82.094 Y126.975 E2.2489
G1 X80.955 Y126.178 E2.3063
G1 X79.849 Y125.356 E2.3632
G1 X75.826 Y122.199 E2.5744
G1 X72.726 Y119.855 E2.7350
G1 X72.134 Y119.356 E2.7670
G1 X71.874 Y119.110 E2.7818
G1 X71.627 Y118.849 E2.7966
G1 X71.393 Y118.573 E2.8116
G1 X71.175 Y118.281 E2.8266
G1 X70.857 Y117.776 E2.8513
G1 X70.561 Y117.201 E2.8780
G1 X70.286 Y116.539 E2.9076
G1 X70.031 Y115.787 E2.9404
G1 X69.877 Y115.248 E2.9636
G1 X69.735 Y114.679 E2.9878
G1 X69.547 Y113.782 E3.0256
G1 X69.353 Y112.559 E3.0768
G1 X69.319 Y112.282 E3.0883
G1 X69.223 Y111.158 E3.1349
G1 X69.218 Y110.976 E3.1424
G1 X69.516 Y110.866 E3.1556
G1 X69.743 Y111.149 E3.1705
G1 X69.998 Y111.420 E3.1859
G1 X70.278 Y111.658 E3.2011
G1 X70.556 Y111.823 E3.2145
G1 X70.901 Y111.932 E3.2294
G1 X71.301 Y111.928 E3.2459
G1 X71.653 Y111.797 E3.2614
G1 X71.878 Y111.640 E3.2728
G1 X72.098 Y111.416 E3.2857
G1 X72.347 Y111.042 E3.3043
G1 X72.523 Y110.705 E3.3200
G1 X73.028 Y109.636 E3.3689
G1 X73.210 Y109.286 E3.3852
G1 X73.523 Y108.767 E3.4102
G1 X73.738 Y108.467 E3.4254
G1 X74.107 Y108.041 E3.4487
G1 X74.502 Y107.670 E3.4711
G1 X74.923 Y107.338 E3.4932
G1 X75.653 Y106.812 E3.5304
G1 X76.076 Y106.466 E3.5530
G1 X76.339 Y106.188 E3.5688
G1 X76.484 Y105.995 E3.5788
G1 X76.676 Y105.645 E3.5953
G1 X76.786 Y105.311 E3.6098
G1 X76.842 Y104.883 E3.6276
G1 X76.818 Y104.440 E3.6459
G1 X76.726 Y103.997 E3.6647
G1 X76.545 Y103.454 E3.6883
G1 X76.351 Y102.997 E3.7088
G1 X76.007 Y102.306 E3.7407
G1 X74.662 Y99.886 E3.8551
G1 X74.196 Y98.955 E3.8981
G1 X73.927 Y98.313 E3.9268
G1 X73.800 Y97.936 E3.9433
G1 X73.672 Y97.397 E3.9661
G1 X73.637 Y97.099 E3.9785
G1 X73.634 Y96.823 E3.9899
G1 X73.660 Y96.569 E4.0005
G1 X73.712 Y96.328 E4.0107
G1 X73.790 Y96.091 E4.0210
G1 X73.895 Y95.849 E4.0319
G1 X74.021 Y95.607 E4.0432
G1 X74.837 Y94.279 E4.1075
G1 X75.208 Y93.575 E4.1404
G1 X75.382 Y93.170 E4.1586
G1 X75.533 Y92.749 E4.1771
G1 X75.660 Y92.304 E4.1962
G1 X75.760 Y91.834 E4.2160
G1 X75.831 Y91.341 E4.2366
G1 X75.873 Y90.818 E4.2583
G1 X75.875 Y90.006 E4.2918
G1 X75.808 Y89.139 E4.3278
G1 X75.723 Y88.524 E4.3534
G1 X75.607 Y87.891 E4.3800
G1 X75.418 Y87.018 E4.4169
G1 X81.420 Y87.221 E4.6650
G1 X80.199 Y87.732 F4600
G92 E0
G1 X80.309 Y87.993 E0.0117 F1056
G1 X79.856 Y88.485 E0.0393
G1 X79.080 Y89.407 E0.0891
G1 X78.514 Y90.174 E0.1285
G1 X78.008 Y90.982 E0.1678
G1 X77.704 Y91.565 E0.1950
G1 X77.447 Y92.162 E0.2219
G1 X77.244 Y92.763 E0.2481
G1 X77.153 Y93.107 E0.2628
G1 X77.036 Y93.712 E0.2882
G1 X76.995 Y94.050 E0.3023
G1 X76.971 Y94.389 E0.3163
G1 X76.971 Y95.002 E0.3417
G1 X76.996 Y95.356 E0.3563
G1 X77.085 Y95.977 E0.3822
G1 X77.233 Y96.602 E0.4088
G1 X77.436 Y97.223 E0.4358
G1 X77.810 Y98.080 E0.4744
G1 X78.120 Y98.654 E0.5013
G1 X78.456 Y99.196 E0.5277
G1 X78.820 Y99.719 E0.5540
G1 X79.206 Y100.222 E0.5802
G1 X79.612 Y100.710 E0.6064
G1 X80.232 Y101.389 E0.6444
G1 X80.664 Y101.830 E0.6699
G1 X81.308 Y102.447 E0.7067
G1 X82.052 Y103.102 E0.7477
G1 X82.047 Y109.367 E1.0065
G1 X76.553 Y109.367 E1.2335
G1 X76.553 Y117.127 E1.5540
G1 X82.053 Y117.127 E1.7812
G1 X82.052 Y125.982 E2.1470
G1 X81.814 Y126.106 E2.1581
G1 X81.278 Y125.730 E2.1851
G1 X80.185 Y124.917 E2.2414
G1 X76.163 Y121.762 E2.4525
G1 X73.070 Y119.424 E2.6127
G1 X72.502 Y118.945 E2.6434
G1 X72.265 Y118.719 E2.6569
G1 X72.037 Y118.480 E2.6706
G1 X71.825 Y118.229 E2.6841
G1 X71.630 Y117.968 E2.6976
G1 X71.337 Y117.503 E2.7203
G1 X71.063 Y116.968 E2.7451
G1 X70.802 Y116.344 E2.7731
G1 X70.558 Y115.622 E2.8046
G1 X70.410 Y115.105 E2.8268
G1 X70.273 Y114.555 E2.8502
G1 X70.090 Y113.682 E2.8870
G1 X69.880 Y112.359 E2.9424
G1 X70.112 Y112.202 E2.9539
G1 X70.329 Y112.330 E2.9644
G1 X70.819 Y112.485 E2.9856
G1 X71.403 Y112.480 E3.0097
G1 X71.911 Y112.290 E3.0321
G1 X72.236 Y112.063 E3.0485
G1 X72.528 Y111.765 E3.0657
G1 X72.823 Y111.324 E3.0876
G1 X73.018 Y110.951 E3.1050
G1 X73.523 Y109.881 E3.1539
G1 X73.692 Y109.556 E3.1690
G1 X73.984 Y109.071 E3.1924
G1 X74.172 Y108.809 E3.2057
G1 X74.505 Y108.424 E3.2268
G1 X74.862 Y108.089 E3.2470
G1 X75.255 Y107.779 E3.2677
G1 X75.990 Y107.250 E3.3051
G1 X76.453 Y106.871 E3.3298
G1 X76.762 Y106.545 E3.3484
G1 X76.949 Y106.295 E3.3613
G1 X77.185 Y105.866 E3.3815
G1 X77.326 Y105.435 E3.4002
G1 X77.396 Y104.904 E3.4223
G1 X77.366 Y104.369 E3.4445
G1 X77.260 Y103.853 E3.4662
G1 X77.062 Y103.258 E3.4921
G1 X76.852 Y102.766 E3.5142
G1 X76.495 Y102.049 E3.5473
G1 X75.150 Y99.628 E3.6617
G1 X74.698 Y98.725 E3.7035
G1 X74.444 Y98.118 E3.7306
G1 X74.331 Y97.784 E3.7452
G1 X74.217 Y97.301 E3.7657
G1 X74.189 Y97.063 E3.7756
G1 X74.186 Y96.847 E3.7845
G1 X74.206 Y96.656 E3.7925
G1 X74.245 Y96.473 E3.8002
G1 X74.307 Y96.287 E3.8083
G1 X74.393 Y96.087 E3.8173
G1 X74.502 Y95.879 E3.8269
G1 X75.317 Y94.553 E3.8913
G1 X75.707 Y93.813 E3.9258
G1 X75.896 Y93.372 E3.9456
G1 X76.059 Y92.918 E3.9656
G1 X76.196 Y92.437 E3.9862
G1 X76.304 Y91.931 E4.0076
G1 X76.380 Y91.402 E4.0297
G1 X76.424 Y90.841 E4.0529
G1 X76.427 Y89.986 E4.0883
G1 X76.357 Y89.080 E4.1258
G1 X76.268 Y88.436 E4.1526
G1 X76.114 Y87.593 E4.1880
G1 X80.199 Y87.732 E4.3569
; solid layer
G1 X80.050 Y87.947 F4600
G92 E0
G1 X79.690 Y88.339 E0.0220 F1122
G1 X78.907 Y89.270 E0.0722
G1 X78.331 Y90.049 E0.1123
G1 X77.816 Y90.872 E0.1523
G1 X77.505 Y91.471 E0.1802
