; G-Code generated by Simplify3D(R) Version 4.0.0
; May 27, 2018 at 9:34:16 PM
; Settings Summary
;   processName,nozzle 0.4
;   applyToModels,Flexy_Brachiosaurus
;   profileName,Flying Bear 902 Update 7-2017 (modified)
;   profileVersion,2017-07-10 09:45:20
;   baseProfile,Default
;   printMaterial,PLA
;   printQuality,Medium
;   printExtruders,
;   extruderName,Extruder 1
;   extruderToolheadNumber,0
;   extruderDiameter,0.4
;   extruderAutoWidth,1
;   extruderWidth,0.48
;   extrusionMultiplier,0.9
;   extruderUseRetract,1
;   extruderRetractionDistance,3
;   extruderExtraRestartDistance,0
;   extruderRetractionZLift,0
;   extruderRetractionSpeed,3000
;   extruderUseCoasting,0
;   extruderCoastingDistance,0.2
;   extruderUseWipe,1
;   extruderWipeDistance,5
;   primaryExtruder,0
;   layerHeight,0.2
;   topSolidLayers,3
;   bottomSolidLayers,2
;   perimeterOutlines,3
;   printPerimetersInsideOut,0
;   startPointOption,2
;   startPointOriginX,0
;   startPointOriginY,0
;   sequentialIslands,0
;   spiralVaseMode,0
;   firstLayerHeightPercentage,20
;   firstLayerWidthPercentage,115
;   firstLayerUnderspeed,0.3
;   useRaft,0
;   raftExtruder,0
;   raftTopLayers,2
;   raftBaseLayers,2
;   raftOffset,2
;   raftSeparationDistance,0.3
;   raftTopInfill,100
;   aboveRaftSpeedMultiplier,0.3
;   useSkirt,0
;   skirtExtruder,0
;   skirtLayers,1
;   skirtOutlines,2
;   skirtOffset,4
;   usePrimePillar,0
;   primePillarExtruder,999
;   primePillarWidth,12
;   primePillarLocation,7
;   primePillarSpeedMultiplier,1
;   useOozeShield,0
;   oozeShieldExtruder,999
;   oozeShieldOffset,2
;   oozeShieldOutlines,1
;   oozeShieldSidewallShape,1
;   oozeShieldSidewallAngle,30
;   oozeShieldSpeedMultiplier,1
;   infillExtruder,0
;   internalInfillPattern,Rectilinear
;   externalInfillPattern,Rectilinear
;   infillPercentage,15
;   outlineOverlapPercentage,60
;   infillExtrusionWidthPercentage,100
;   minInfillLength,5
;   infillLayerInterval,1
;   internalInfillAngles,45,-45
;   overlapInternalInfillAngles,0
;   externalInfillAngles,45,-45
;   generateSupport,1
;   supportExtruder,0
;   supportInfillPercentage,30
;   supportExtraInflation,0
;   supportBaseLayers,0
;   denseSupportExtruder,0
;   denseSupportLayers,0
;   denseSupportInfillPercentage,50
;   supportLayerInterval,1
;   supportHorizontalPartOffset,0.3
;   supportUpperSeparationLayers,1
;   supportLowerSeparationLayers,1
;   supportType,0
;   supportGridSpacing,4
;   maxOverhangAngle,60
;   supportAngles,0
;   temperatureName,Extruder 1,Heated Bed
;   temperatureNumber,0,0
;   temperatureSetpointCount,1,1
;   temperatureSetpointLayers,1,1
;   temperatureSetpointTemperatures,210,60
;   temperatureStabilizeAtStartup,1,0
;   temperatureHeatedBed,0,1
;   temperatureRelayBetweenLayers,0,0
;   temperatureRelayBetweenLoops,0,0
;   fanLayers,1
;   fanSpeeds,255
;   blipFanToFullPower,0
;   adjustSpeedForCooling,1
;   minSpeedLayerTime,15
;   minCoolingSpeedSlowdown,20
;   increaseFanForCooling,0
;   minFanLayerTime,45
;   maxCoolingFanSpeed,100
;   increaseFanForBridging,0
;   bridgingFanSpeed,100
;   use5D,1
;   relativeEdistances,0
;   allowEaxisZeroing,1
;   independentExtruderAxes,0
;   includeM10123,0
;   stickySupport,1
;   applyToolheadOffsets,0
;   gcodeXoffset,0
;   gcodeYoffset,0
;   gcodeZoffset,0
;   overrideMachineDefinition,1
;   machineTypeOverride,0
;   strokeXoverride,220
;   strokeYoverride,220
;   strokeZoverride,280
;   originOffsetXoverride,0
;   originOffsetYoverride,0
;   originOffsetZoverride,0
;   homeXdirOverride,-1
;   homeYdirOverride,-1
;   homeZdirOverride,-1
;   flipXoverride,1
;   flipYoverride,-1
;   flipZoverride,1
;   toolheadOffsets,0,0|0,0|0,0|0,0|0,0|0,0
;   overrideFirmwareConfiguration,1
;   firmwareTypeOverride,RepRap (Marlin/Repetier/Sprinter)
;   GPXconfigOverride,r2
;   baudRateOverride,250000
;   overridePrinterModels,0
;   printerModelsOverride
;   startingGcode,G28 ; home all axes,G1 X0 Y20 Z0.2 F3000 ; get ready to prime,G92 E0 ; reset extrusion distance,G1 X200 E20 F600 ; prime nozzle
;   layerChangeGcode,
;   retractionGcode,
;   toolChangeGcode,
;   endingGcode,M104 S0 ; turn off extruder,M140 S0 ; turn off bed,G28 X Y ; home x and y axes,M84 ; disable motors
;   exportFileFormat,gcode
;   celebration,0
;   celebrationSong,Random Song
;   postProcessing,
;   defaultSpeed,4400
;   outlineUnderspeed,0.6
;   solidInfillUnderspeed,0.85
;   supportUnderspeed,0.8
;   rapidXYspeed,4600
;   rapidZspeed,1002
;   minBridgingArea,50
;   bridgingExtraInflation,0
;   bridgingExtrusionMultiplier,1
;   bridgingSpeedMultiplier,1
;   useFixedBridgingAngle,0
;   fixedBridgingAngle,0
;   applyBridgingToPerimeters,0
;   filamentDiameters,1.75|1.75|1.75|1.75|1.75|1.75
;   filamentPricesPerKg,46|46|46|46|46|46
;   filamentDensities,1.25|1.25|1.25|1.25|1.25|1.25
;   useMinPrintHeight,0
;   minPrintHeight,0
;   useMaxPrintHeight,0
;   maxPrintHeight,4.3
;   useDiaphragm,0
;   diaphragmLayerInterval,20
;   robustSlicing,1
;   mergeAllIntoSolid,0
;   onlyRetractWhenCrossingOutline,1
;   retractBetweenLayers,1
;   useRetractionMinTravel,0
;   retractionMinTravel,3
;   retractWhileWiping,0
;   onlyWipeOutlines,1
;   avoidCrossingOutline,0
;   maxMovementDetourFactor,3
;   toolChangeRetractionDistance,12
;   toolChangeExtraRestartDistance,-0.5
;   toolChangeRetractionSpeed,600
;   externalThinWallType,1
;   internalThinWallType,1
;   thinWallAllowedOverlapPercentage,20
;   singleExtrusionMinLength,1
;   singleExtrusionMinPrintingWidthPercentage,50
;   singleExtrusionMaxPrintingWidthPercentage,200
;   singleExtrusionEndpointExtension,0.2
;   horizontalSizeCompensation,0
G90
M82
M106 S650
M140 S60
M104 S210 T0
M109 S210 T0
G28 ; home all axes
G1 X0 Y20 Z0.2 F3000 ; get ready to prime
G92 E0 ; reset extrusion distance
G1 X200 E20 F600 ; prime nozzle
G92 E0
G1 E-3.0000 F3000
G1 Z0.040 F1002
; process nozzle 0.4
; layer 1, Z = 0.040
T0
; tool H0.200 W0.552
; outer perimeter
G1 X23.008 Y73.699 F4600
G1 E0.0000 F900
G92 E0
G1 X23.779 Y73.579 E0.0322 F792
G1 X27.594 Y73.139 E0.1909
G1 X31.424 Y72.842 E0.3496
G1 X35.263 Y72.689 E0.5082
G1 X39.104 Y72.680 E0.6669
G1 X42.943 Y72.815 E0.8256
G1 X46.774 Y73.094 E0.9843
G1 X50.592 Y73.516 E1.1430
G1 X52.343 Y73.777 E1.2161
G1 X51.896 Y75.832 E1.3030
G1 X54.344 Y76.364 E1.4065
G1 X53.994 Y77.975 E1.4745
G1 X51.546 Y77.443 E1.5780
G1 X51.097 Y79.506 E1.6653
G1 X48.594 Y78.858 E1.7721
G1 X44.010 Y77.772 E1.9667
G1 X39.404 Y76.782 E2.1613
G1 X34.778 Y75.890 E2.3559
G1 X30.135 Y75.095 E2.5505
G1 X25.476 Y74.398 E2.7451
G1 X23.014 Y74.082 E2.8477
G1 X23.008 Y73.699 E2.8635
G1 X23.779 Y73.579 F4400
G1 X27.594 Y73.139 F4400
G1 X27.973 Y73.110 F4400
; inner perimeter
G1 X27.647 Y73.688 F4600
G92 E0
G1 X31.457 Y73.393 E0.1578 F1056
G1 X35.274 Y73.241 E0.3157
G1 X39.095 Y73.232 E0.4735
G1 X42.913 Y73.367 E0.6313
G1 X46.724 Y73.644 E0.7891
G1 X50.522 Y74.064 E0.9470
G1 X51.678 Y74.236 E0.9953
G1 X51.239 Y76.255 E1.0806
G1 X53.687 Y76.787 E1.1841
G1 X53.572 Y77.318 E1.2066
G1 X51.124 Y76.786 E1.3101
G1 X50.680 Y78.828 E1.3964
G1 X48.727 Y78.322 E1.4797
G1 X44.131 Y77.233 E1.6748
G1 X39.514 Y76.242 E1.8699
G1 X34.877 Y75.347 E2.0650
G1 X30.223 Y74.550 E2.2600
G1 X27.308 Y74.114 E2.3818
G1 X27.315 Y73.727 E2.3978
G1 X27.647 Y73.688 E2.4116
G1 X32.147 Y73.918 F4600
G92 E0
G1 X35.286 Y73.793 E0.1298 F1056
G1 X39.086 Y73.784 E0.2868
G1 X42.884 Y73.918 E0.4437
G1 X46.674 Y74.194 E0.6007
G1 X50.450 Y74.611 E0.7577
G1 X51.013 Y74.695 E0.7812
G1 X50.581 Y76.683 E0.8652
G1 X50.262 Y78.150 E0.9272
G1 X48.860 Y77.786 E0.9871
G1 X44.253 Y76.695 E1.1826
G1 X39.624 Y75.701 E1.3782
G1 X34.976 Y74.804 E1.5737
G1 X32.121 Y74.315 E1.6934
G1 X32.147 Y73.918 E1.7098
G92 E0
G1 E-3.0000 F3000
; external single extrusion
G1 X22.518 Y73.897 F4600
G1 E0.0000 F3000
G92 E0
; tool H0.200 W0.724
G1 X22.223 Y73.901 E0.0159 F792
; tool H0.200 W0.684
G1 X22.034 Y73.904 E0.0256
; tool H0.200 W0.631
G1 X21.845 Y73.906 E0.0345
; tool H0.200 W0.577
G1 X21.656 Y73.909 E0.0427
; tool H0.200 W0.524
G1 X21.467 Y73.911 E0.0501
; tool H0.200 W0.471
G1 X21.278 Y73.914 E0.0568
; tool H0.200 W0.418
G1 X21.089 Y73.917 E0.0627
; tool H0.200 W0.365
G1 X20.700 Y73.922 E0.0733
; tool H0.200 W0.552
; internal single extrusion
G1 X23.715 Y73.879 F4600
G92 E0
; tool H0.200 W0.240
G1 X24.107 Y73.881 E0.0070 F792
G1 X24.299 Y73.883 E0.0105
G1 X24.491 Y73.884 E0.0139
G1 X24.683 Y73.885 E0.0174
; tool H0.200 W0.276
G1 X24.875 Y73.886 E0.0214
; tool H0.200 W0.322
G1 X25.068 Y73.887 E0.0260
; tool H0.200 W0.369
G1 X25.260 Y73.889 E0.0313
; tool H0.200 W0.415
G1 X25.452 Y73.890 E0.0373
; tool H0.200 W0.450
G1 X25.548 Y73.890 E0.0405
; tool H0.200 W0.474
G1 X25.644 Y73.892 E0.0439
; tool H0.200 W0.512
G1 X25.836 Y73.895 E0.0513
; tool H0.200 W0.562
G1 X26.029 Y73.899 E0.0594
; tool H0.200 W0.613
G1 X26.221 Y73.902 E0.0682
; tool H0.200 W0.663
G1 X26.413 Y73.905 E0.0777
; tool H0.200 W0.714
G1 X26.806 Y73.912 E0.0987
G1 X28.040 Y73.943 F4600
; tool H0.200 W0.552
G92 E0
; tool H0.200 W0.240
G1 X28.336 Y73.953 E0.0053 F792
G1 X28.528 Y73.960 E0.0088
G1 X28.720 Y73.966 E0.0122
G1 X28.912 Y73.973 E0.0157
G1 X29.104 Y73.979 E0.0191
; tool H0.200 W0.263
G1 X29.296 Y73.986 E0.0229
; tool H0.200 W0.306
G1 X29.488 Y73.992 E0.0273
; tool H0.200 W0.348
G1 X29.680 Y73.999 E0.0323
; tool H0.200 W0.391
G1 X29.872 Y74.005 E0.0379
; tool H0.200 W0.434
G1 X30.063 Y74.012 E0.0441
; tool H0.200 W0.466
G1 X30.159 Y74.015 E0.0475
; tool H0.200 W0.487
G1 X30.255 Y74.018 E0.0510
; tool H0.200 W0.509
G1 X30.351 Y74.022 E0.0547
; tool H0.200 W0.544
G1 X30.544 Y74.031 E0.0625
; tool H0.200 W0.592
G1 X30.736 Y74.040 E0.0710
; tool H0.200 W0.639
G1 X30.928 Y74.049 E0.0802
; tool H0.200 W0.686
G1 X31.120 Y74.058 E0.0901
; tool H0.200 W0.734
G1 X31.312 Y74.067 E0.1006
; tool H0.200 W0.769
G1 X31.408 Y74.071 E0.1062
; tool H0.200 W0.784
G1 X31.633 Y74.081 E0.1194
; tool H0.200 W0.552
; solid layer
G1 X32.840 Y74.214 F4600
G92 E0
G1 X32.741 Y74.116 E0.0058 F1122
G1 X33.492 Y74.086 E0.0368
G1 X33.782 Y74.375 E0.0537
G1 X34.724 Y74.537 E0.0932
G1 X34.243 Y74.056 E0.1213
G1 X34.994 Y74.026 E0.1523
G1 X35.683 Y74.715 E0.1926
G1 X36.650 Y74.902 E0.2333
G1 X35.761 Y74.013 E0.2853
G1 X36.540 Y74.011 E0.3174
G1 X37.618 Y75.089 E0.3804
G1 X38.585 Y75.275 E0.4211
G1 X37.319 Y74.009 E0.4950
G1 X38.098 Y74.007 E0.5272
G1 X39.552 Y75.462 E0.6122
G1 X39.668 Y75.484 E0.6171
G1 X40.543 Y75.672 E0.6540
G1 X38.877 Y74.006 E0.7514
G1 X39.082 Y74.005 E0.7599
G1 X39.678 Y74.026 E0.7845
G1 X41.537 Y75.886 E0.8931
G1 X42.531 Y76.099 E0.9352
G1 X40.487 Y74.055 E1.0546
G1 X41.296 Y74.083 E1.0880
G1 X43.526 Y76.313 E1.2183
G1 X44.302 Y76.479 E1.2511
G1 X44.526 Y76.533 E1.2606
G1 X42.105 Y74.111 E1.4021
G1 X42.872 Y74.138 E1.4338
G1 X42.916 Y74.142 E1.4356
G1 X45.549 Y76.775 E1.5894
G1 X46.572 Y77.017 E1.6329
G1 X43.758 Y74.203 E1.7973
G1 X44.600 Y74.264 E1.8321
G1 X47.595 Y77.260 E2.0071
G1 X48.618 Y77.502 E2.0506
G1 X45.442 Y74.325 E2.2361
G1 X46.283 Y74.387 E2.2710
G1 X49.663 Y77.766 E2.4684
G1 X50.095 Y77.878 E2.4869
G1 X50.178 Y77.500 E2.5029
G1 X47.145 Y74.468 E2.6800
G1 X48.023 Y74.565 E2.7165
G1 X50.317 Y76.859 E2.8505
G1 X50.322 Y76.837 E2.8514
G1 X50.456 Y76.218 E2.8776
G1 X48.901 Y74.662 E2.9685
G1 X49.778 Y74.759 E3.0050
G1 X50.596 Y75.576 E3.0527
G1 X50.735 Y74.935 E3.0798
G1 X50.667 Y74.867 E3.0838
G92 E0
G1 E-3.0000 F3000
; outer perimeter
G1 X53.744 Y75.106 F4600
G1 E0.0000 F3000
G92 E0
G1 X53.981 Y74.018 E0.0460 F792
G1 X54.392 Y74.080 E0.0632
G1 X58.168 Y74.787 E0.2219
G1 X64.507 Y76.211 E0.4902
G1 X67.135 Y76.629 E0.6002
G1 X68.484 Y76.760 E0.6562
G1 X68.019 Y79.184 E0.7581
G1 X70.479 Y79.656 E0.8616
G1 X69.962 Y82.355 E0.9751
G1 X67.502 Y81.883 E1.0786
G1 X67.040 Y84.290 E1.1798
G1 X66.670 Y84.160 E1.1960
G1 X62.193 Y82.694 E1.3906
G1 X57.687 Y81.322 E1.5853
G1 X53.152 Y80.044 E1.7798
G1 X52.697 Y79.926 E1.7993
G1 X52.926 Y78.871 E1.8439
G1 X60.182 Y80.447 E2.1506
G1 X61.000 Y76.683 E2.3098
G1 X53.744 Y75.106 E2.6165
G1 X53.981 Y74.018 F4400
G1 X54.392 Y74.080 F4400
G1 X57.803 Y74.719 F4400
; inner perimeter
G1 X61.682 Y76.142 F4600
G92 E0
G1 X64.403 Y76.753 E0.1152 F1056
G1 X67.065 Y77.177 E0.2265
G1 X67.828 Y77.251 E0.2582
G1 X67.373 Y79.623 E0.3579
G1 X69.833 Y80.094 E0.4614
G1 X69.524 Y81.709 E0.5293
G1 X67.063 Y81.237 E0.6328
G1 X66.618 Y83.562 E0.7306
G1 X62.360 Y82.167 E0.9157
G1 X59.512 Y81.300 E1.0387
G1 X59.618 Y80.890 E1.0562
G1 X60.604 Y81.104 E1.0979
G1 X61.682 Y76.142 E1.3076
G1 X62.104 Y76.803 F4600
G92 E0
G1 X64.299 Y77.295 E0.0929 F1056
G1 X67.170 Y77.752 E0.2130
G1 X66.727 Y80.061 E0.3101
G1 X69.187 Y80.532 E0.4136
G1 X69.086 Y81.063 E0.4359
G1 X66.625 Y80.591 E0.5394
G1 X66.194 Y82.842 E0.6341
G1 X62.526 Y81.641 E0.7935
G1 X61.144 Y81.220 E0.8532
G1 X62.104 Y76.803 E1.0400
; internal single extrusion
G1 X61.219 Y76.102 F4600
G92 E0
; tool H0.200 W0.667
G1 X61.019 Y76.058 E0.0102 F792
; tool H0.200 W0.678
G1 X58.130 Y75.420 E0.1602
; tool H0.200 W0.688
G1 X58.042 Y75.400 E0.1648
G1 X57.954 Y75.383 E0.1695
; tool H0.200 W0.676
G1 X57.297 Y75.250 E0.2034
; tool H0.200 W0.646
G1 X55.888 Y74.965 E0.2728
; tool H0.200 W0.604
G1 X54.480 Y74.680 E0.3378
; tool H0.200 W0.541
G1 X54.393 Y74.621 E0.3420
; tool H0.200 W0.404
G1 X54.209 Y74.343 E0.3521
G92 E0
G1 E-3.0000 F3000
G1 X53.171 Y79.482 F4600
G1 E0.0000 F3000
; tool H0.200 W0.552
G92 E0
; tool H0.200 W0.561
G1 X54.015 Y79.693 E0.0366 F792
; tool H0.200 W0.602
G1 X54.666 Y79.855 E0.0668
; tool H0.200 W0.642
G1 X55.317 Y80.017 E0.0990
; tool H0.200 W0.683
G1 X55.968 Y80.180 E0.1333
; tool H0.200 W0.724
G1 X56.618 Y80.342 E0.1696
; tool H0.200 W0.764
G1 X57.269 Y80.504 E0.2080
; tool H0.200 W0.802
G1 X57.827 Y80.643 E0.2425
; tool H0.200 W0.823
G1 X57.920 Y80.667 E0.2484
; tool H0.200 W0.849
G1 X58.476 Y80.812 E0.2849
; tool H0.200 W0.888
G1 X59.041 Y80.959 E0.3237
; tool H0.200 W0.552
; solid layer
G1 X61.617 Y81.134 F4600
G92 E0
G1 X61.429 Y80.945 E0.0110 F1122
G1 X61.569 Y80.304 E0.0381
G1 X62.745 Y81.480 E0.1068
G1 X63.906 Y81.861 E0.1573
G1 X61.708 Y79.663 E0.2857
G1 X61.847 Y79.021 E0.3128
G1 X65.067 Y82.241 E0.5009
G1 X66.024 Y82.554 E0.5425
G1 X66.046 Y82.440 E0.5473
G1 X61.987 Y78.380 E0.7845
G1 X62.126 Y77.739 E0.8116
G1 X66.172 Y81.785 E1.0479
G1 X66.297 Y81.130 E1.0755
G1 X62.265 Y77.098 E1.3110
G1 X62.272 Y77.067 E1.3123
G1 X63.230 Y77.282 E1.3529
G1 X66.423 Y80.474 E1.5394
G1 X66.450 Y80.333 E1.5454
G1 X67.207 Y80.478 E1.5772
G1 X67.083 Y80.354 E1.5844
G1 X66.469 Y80.236 E1.6103
G1 X66.548 Y79.819 E1.6278
G1 X64.237 Y77.508 E1.7628
G1 X64.257 Y77.512 E1.7637
G1 X65.167 Y77.657 E1.8017
G1 X66.674 Y79.164 E1.8898
G1 X66.800 Y78.509 E1.9173
G1 X66.095 Y77.805 E1.9585
G1 X68.049 Y80.539 F4600
G92 E0
G1 X68.173 Y80.663 E0.0072 F1122
G92 E0
G1 E-3.0000 F3000
; outer perimeter
G1 X68.917 Y83.277 F4600
G1 E0.0000 F3000
G92 E0
G1 X76.209 Y84.675 E0.3067 F792
G1 X77.141 Y79.811 E0.5113
G1 X69.849 Y78.413 E0.8180
G1 X70.139 Y76.900 E0.8816
G1 X72.444 Y76.984 E0.9769
G1 X75.104 Y76.921 E1.0868
G1 X77.756 Y76.696 E1.1968
G1 X80.389 Y76.310 E1.3067
G1 X82.995 Y75.766 E1.4167
G1 X85.562 Y75.066 E1.5266
G1 X85.986 Y74.922 E1.5451
G1 X86.179 Y75.100 E1.5559
G1 X84.450 Y81.971 E1.8486
G1 X86.880 Y82.582 E1.9521
G1 X86.209 Y85.247 E2.0657
G1 X83.780 Y84.636 E2.1691
G1 X82.387 Y90.171 E2.4049
G1 X79.901 Y89.118 E2.5164
G1 X75.526 Y87.373 E2.7110
G1 X71.115 Y85.720 E2.9056
G1 X68.616 Y84.843 E3.0150
G1 X68.917 Y83.277 E3.0808
G1 X73.827 Y84.218 F4400
; inner perimeter
G1 X71.303 Y85.201 F4600
G92 E0
G1 X69.248 Y84.480 E0.0900 F1056
G1 X69.355 Y83.923 E0.1134
G1 X76.647 Y85.321 E0.4201
G1 X77.787 Y79.373 E0.6703
G1 X70.495 Y77.975 E0.9770
G1 X70.592 Y77.469 E0.9983
G1 X72.440 Y77.537 E1.0747
G1 X75.134 Y77.472 E1.1860
G1 X77.820 Y77.244 E1.2973
G1 X80.486 Y76.854 E1.4086
G1 X83.124 Y76.303 E1.5200
G1 X85.468 Y75.663 E1.6204
G1 X83.780 Y82.372 E1.9061
G1 X86.210 Y82.983 E2.0096
G1 X85.808 Y84.577 E2.0775
G1 X83.379 Y83.966 E2.1810
G1 X82.009 Y89.411 E2.4129
G1 X80.111 Y88.608 E2.4980
G1 X75.725 Y86.858 E2.6931
G1 X71.303 Y85.201 E2.8882
G1 X74.900 Y85.959 F4600
