; G-Code generated by Simplify3D(R) Version 4.0.0
; Sep 23, 2020 at 7:36:46 PM
; Settings Summary
;   processName,Process1 contc
;   applyToModels,Flexi_Unicorn_whole
;   profileName,bar (modified)
;   profileVersion,2019-07-15 16:42:33
;   baseProfile,Default (modified)
;   printMaterial,PLA
;   printQuality,Medium
;   printExtruders,
;   extruderName,Primary Extruder
;   extruderToolheadNumber,0
;   extruderDiameter,0.4
;   extruderAutoWidth,0
;   extruderWidth,0.4
;   extrusionMultiplier,0.9
;   extruderUseRetract,1
;   extruderRetractionDistance,1
;   extruderExtraRestartDistance,0
;   extruderRetractionZLift,0
;   extruderRetractionSpeed,1800
;   extruderUseCoasting,0
;   extruderCoastingDistance,0.2
;   extruderUseWipe,0
;   extruderWipeDistance,5
;   primaryExtruder,0
;   layerHeight,0.3
;   topSolidLayers,3
;   bottomSolidLayers,3
;   perimeterOutlines,2
;   printPerimetersInsideOut,1
;   startPointOption,2
;   startPointOriginX,0
;   startPointOriginY,0
;   sequentialIslands,0
;   spiralVaseMode,0
;   firstLayerHeightPercentage,100
;   firstLayerWidthPercentage,100
;   firstLayerUnderspeed,0.5
;   useRaft,0
;   raftExtruder,0
;   raftTopLayers,3
;   raftBaseLayers,2
;   raftOffset,3
;   raftSeparationDistance,0.14
;   raftTopInfill,100
;   aboveRaftSpeedMultiplier,0.3
;   useSkirt,0
;   skirtExtruder,0
;   skirtLayers,1
;   skirtOutlines,2
;   skirtOffset,4
;   usePrimePillar,0
;   primePillarExtruder,999
;   primePillarWidth,12
;   primePillarLocation,7
;   primePillarSpeedMultiplier,1
;   useOozeShield,0
;   oozeShieldExtruder,999
;   oozeShieldOffset,2
;   oozeShieldOutlines,1
;   oozeShieldSidewallShape,1
;   oozeShieldSidewallAngle,30
;   oozeShieldSpeedMultiplier,1
;   infillExtruder,0
;   internalInfillPattern,Rectilinear
;   externalInfillPattern,Concentric
;   infillPercentage,30
;   outlineOverlapPercentage,15
;   infillExtrusionWidthPercentage,100
;   minInfillLength,5
;   infillLayerInterval,1
;   internalInfillAngles,45,-45
;   overlapInternalInfillAngles,0
;   externalInfillAngles,45,-45
;   generateSupport,0
;   supportExtruder,0
;   supportInfillPercentage,30
;   supportExtraInflation,0
;   supportBaseLayers,0
;   denseSupportExtruder,0
;   denseSupportLayers,0
;   denseSupportInfillPercentage,70
;   supportLayerInterval,1
;   supportHorizontalPartOffset,0.3
;   supportUpperSeparationLayers,1
;   supportLowerSeparationLayers,1
;   supportType,1
;   supportGridSpacing,4
;   maxOverhangAngle,45
;   supportAngles,0
;   temperatureName,Primary Extruder,Hot Bed
;   temperatureNumber,0,1
;   temperatureSetpointCount,1,1
;   temperatureSetpointLayers,1,1
;   temperatureSetpointTemperatures,210,60
;   temperatureStabilizeAtStartup,1,1
;   temperatureHeatedBed,0,1
;   temperatureRelayBetweenLayers,0,0
;   temperatureRelayBetweenLoops,0,0
;   fanLayers,1,2
;   fanSpeeds,0,100
;   blipFanToFullPower,0
;   adjustSpeedForCooling,1
;   minSpeedLayerTime,15
;   minCoolingSpeedSlowdown,20
;   increaseFanForCooling,0
;   minFanLayerTime,45
;   maxCoolingFanSpeed,100
;   increaseFanForBridging,0
;   bridgingFanSpeed,100
;   use5D,1
;   relativeEdistances,0
;   allowEaxisZeroing,1
;   independentExtruderAxes,0
;   includeM10123,0
;   stickySupport,1
;   applyToolheadOffsets,0
;   gcodeXoffset,0
;   gcodeYoffset,0
;   gcodeZoffset,0
;   overrideMachineDefinition,0
;   machineTypeOverride,0
;   strokeXoverride,200
;   strokeYoverride,200
;   strokeZoverride,200
;   originOffsetXoverride,0
;   originOffsetYoverride,0
;   originOffsetZoverride,0
;   homeXdirOverride,-1
;   homeYdirOverride,-1
;   homeZdirOverride,-1
;   flipXoverride,1
;   flipYoverride,-1
;   flipZoverride,1
;   toolheadOffsets,0,0|0,0|0,0|0,0|0,0|0,0
;   overrideFirmwareConfiguration,0
;   firmwareTypeOverride,RepRap (Marlin/Repetier/Sprinter)
;   GPXconfigOverride,r2
;   baudRateOverride,115200
;   overridePrinterModels,0
;   printerModelsOverride
;   startingGcode,G28 ; home all axes,G1 X0 Y20 Z0.2 F3000 ; get ready to prime,G92 E0 ; reset extrusion distance,G1 X150 E20 F600 ; prime nozzle
;   layerChangeGcode,
;   retractionGcode,
;   toolChangeGcode,
;   endingGcode,M104 S0 ; turn off extruder,M140 S0 ; turn off bed,M84 ; disable motors,G1 X0 Y0; home
;   exportFileFormat,gcode
;   celebration,0
;   celebrationSong,Random Song
;   postProcessing,
;   defaultSpeed,4600
;   outlineUnderspeed,0.5
;   solidInfillUnderspeed,0.8
;   supportUnderspeed,0.8
;   rapidXYspeed,4800
;   rapidZspeed,1000
;   minBridgingArea,50
;   bridgingExtraInflation,0
;   bridgingExtrusionMultiplier,1
;   bridgingSpeedMultiplier,1
;   useFixedBridgingAngle,0
;   fixedBridgingAngle,0
;   applyBridgingToPerimeters,0
;   filamentDiameters,1.75|1.75|1.75|1.75|1.75|1.75
;   filamentPricesPerKg,46|46|46|46|46|46
;   filamentDensities,1.25|1.25|1.25|1.25|1.25|1.25
;   useMinPrintHeight,0
;   minPrintHeight,0
;   useMaxPrintHeight,0
;   maxPrintHeight,0
;   useDiaphragm,0
;   diaphragmLayerInterval,20
;   robustSlicing,1
;   mergeAllIntoSolid,0
;   onlyRetractWhenCrossingOutline,1
;   retractBetweenLayers,1
;   useRetractionMinTravel,0
;   retractionMinTravel,3
;   retractWhileWiping,0
;   onlyWipeOutlines,1
;   avoidCrossingOutline,0
;   maxMovementDetourFactor,3
;   toolChangeRetractionDistance,12
;   toolChangeExtraRestartDistance,-0.5
;   toolChangeRetractionSpeed,600
;   externalThinWallType,1
;   internalThinWallType,1
;   thinWallAllowedOverlapPercentage,10
;   singleExtrusionMinLength,1
;   singleExtrusionMinPrintingWidthPercentage,50
;   singleExtrusionMaxPrintingWidthPercentage,200
;   singleExtrusionEndpointExtension,0.2
;   horizontalSizeCompensation,0
G90
M82
M106 S0
M140 S60
M190 S60
M104 S210 T0
M109 S210 T0
G28 ; home all axes
G1 X0 Y20 Z0.2 F3000 ; get ready to prime
G92 E0 ; reset extrusion distance
G1 X150 E20 F600 ; prime nozzle
G92 E0
G1 E-1.0000 F1800
G1 Z0.300 F1000
; process Process1 contc
; layer 1, Z = 0.300
T0
; tool H0.300 W0.400
; inner perimeter
G1 X39.240 Y105.781 F4800
G1 E0.0000 F540
G92 E0
G1 X39.725 Y105.620 E0.0229 F1725
G1 X40.754 Y105.436 E0.0699
G1 X42.040 Y105.352 E0.1277
G1 X42.582 Y105.377 E0.1521
G1 X43.018 Y105.475 E0.1722
G1 X43.415 Y105.633 E0.1914
G1 X43.992 Y105.979 E0.2216
G1 X44.539 Y106.379 E0.2520
G1 X43.874 Y107.972 E0.3295
G1 X43.520 Y108.298 E0.3511
G1 X43.382 Y108.780 E0.3736
G1 X43.235 Y109.707 E0.4158
G1 X43.086 Y110.036 E0.4320
G1 X41.883 Y111.146 E0.5055
G1 X41.382 Y111.708 E0.5393
G1 X41.139 Y112.229 E0.5651
G1 X40.970 Y113.974 E0.6438
G1 X40.974 Y115.763 E0.7242
G1 X41.150 Y117.746 E0.8136
G1 X41.511 Y119.872 E0.9104
G1 X42.062 Y122.063 E1.0119
G1 X42.792 Y124.225 E1.1143
G1 X43.668 Y126.237 E1.2128
G1 X44.542 Y127.838 E1.2947
G1 X45.516 Y129.270 E1.3725
G1 X45.951 Y129.755 E1.4017
G1 X46.776 Y130.433 E1.4497
G1 X49.571 Y132.160 E1.5972
G1 X50.563 Y132.900 E1.6528
G1 X51.162 Y133.530 E1.6918
G1 X51.413 Y133.846 E1.7099
G1 X51.936 Y144.516 E2.1896
G1 X47.423 Y144.737 E2.3925
G1 X47.705 Y150.503 E2.6517
G1 X52.219 Y150.281 E2.8546
G1 X52.919 Y164.553 E3.4962
G1 X52.623 Y164.478 E3.5099
G1 X51.088 Y163.947 E3.5828
G1 X49.482 Y163.232 E3.6617
G1 X47.830 Y162.331 E3.7462
G1 X46.192 Y161.273 E3.8338
G1 X44.745 Y159.944 E3.9220
G1 X44.253 Y159.585 E3.9493
G1 X43.447 Y159.264 E3.9883
G1 X42.826 Y159.202 E4.0163
G1 X42.253 Y159.260 E4.0422
G1 X41.385 Y159.486 E4.0825
G1 X39.638 Y160.094 E4.1655
G1 X38.818 Y160.271 E4.2032
G1 X38.398 Y160.290 E4.2221
G1 X38.042 Y160.252 E4.2381
G1 X37.596 Y160.130 E4.2589
G1 X36.300 Y159.512 E4.3234
G1 X35.666 Y159.159 E4.3559
G1 X35.049 Y158.680 E4.3910
G1 X34.401 Y157.982 E4.4338
G1 X32.823 Y155.683 E4.5590
G1 X30.456 Y152.581 E4.7342
G1 X29.854 Y151.600 E4.7859
G1 X29.429 Y150.662 E4.8321
G1 X29.143 Y149.693 E4.8775
G1 X29.057 Y149.171 E4.9012
G1 X29.247 Y148.983 E4.9132
G1 X28.309 Y144.452 E5.1209
G1 X28.665 Y144.542 E5.1374
G1 X29.182 Y142.597 E5.2278
G1 X29.457 Y140.841 E5.3076
G1 X29.800 Y137.327 E5.4661
G1 X30.089 Y135.235 E5.5610
G1 X30.263 Y133.396 E5.6439
G1 X30.297 Y131.682 E5.7209
G1 X30.186 Y130.170 E5.7890
G1 X29.942 Y128.843 E5.8496
G1 X29.662 Y127.912 E5.8932
G1 X29.414 Y127.387 E5.9193
G1 X29.281 Y127.220 E5.9289
G1 X29.379 Y127.016 E5.9390
G1 X30.027 Y127.016 E5.9681
G1 X30.521 Y126.025 E6.0178
G1 X29.525 Y124.462 E6.1010
G1 X29.711 Y124.258 E6.1134
G1 X30.715 Y124.782 E6.1642
G1 X31.298 Y124.490 E6.1935
G1 X32.733 Y126.025 E6.2879
G1 X34.035 Y127.640 E6.3810
G1 X35.261 Y129.438 E6.4787
G1 X36.341 Y131.341 E6.5770
G1 X37.095 Y132.874 E6.6537
G1 X37.903 Y132.873 E6.6900
G1 X38.207 Y133.931 E6.7394
G1 X38.266 Y134.227 E6.7530
G1 X38.312 Y135.511 E6.8106
G1 X38.223 Y137.567 E6.9030
G1 X37.931 Y140.122 E7.0185
G1 X37.719 Y141.538 E7.0828
G1 X38.559 Y142.378 E7.1361
G1 X37.317 Y146.107 E7.3126
G1 X38.240 Y147.030 E7.3712
G1 X37.571 Y149.259 E7.4757
G1 X37.972 Y153.257 E7.6561
G1 X39.326 Y153.932 E7.7241
G1 X39.349 Y153.815 E7.7294
G1 X39.573 Y153.762 E7.7397
G1 X42.205 Y157.084 E7.9301
G1 X42.935 Y156.926 E7.9636
G1 X43.281 Y155.537 E8.0279
G1 X42.476 Y154.674 E8.0809
G1 X42.449 Y154.627 E8.0833
G1 X42.431 Y154.554 E8.0867
G1 X42.439 Y154.373 E8.0948
G1 X42.747 Y152.699 E8.1713
G1 X43.185 Y149.237 E8.3280
G1 X43.492 Y148.004 E8.3850
G1 X44.828 Y144.121 E8.5694
G1 X45.161 Y142.812 E8.6300
G1 X45.341 Y141.435 E8.6924
G1 X45.325 Y140.183 E8.7486
G1 X45.127 Y138.939 E8.8052
G1 X44.768 Y137.783 E8.8596
G1 X44.242 Y136.640 E8.9160
G1 X43.534 Y135.460 E8.9778
G1 X42.363 Y133.833 E9.0678
G1 X42.035 Y133.478 E9.0895
G1 X40.818 Y132.591 E9.1571
G1 X40.433 Y132.260 E9.1800
G1 X40.314 Y132.115 E9.1884
G1 X39.715 Y131.007 E9.2449
G1 X39.658 Y130.953 E9.2484
G1 X39.680 Y128.063 E9.3782
G1 X39.595 Y126.307 E9.4572
G1 X39.309 Y123.612 E9.5789
G1 X38.868 Y120.814 E9.7061
G1 X37.911 Y115.995 E9.9266
G1 X37.680 Y115.008 E9.9722
G1 X37.431 Y114.350 E10.0037
G1 X37.228 Y114.054 E10.0199
G1 X37.432 Y113.292 E10.0553
G1 X37.578 Y112.962 E10.0715
G1 X37.900 Y112.430 E10.0994
G1 X38.352 Y111.880 E10.1314
G1 X38.523 Y111.520 E10.1493
G1 X38.562 Y111.071 E10.1695
G1 X38.502 Y110.625 E10.1897
G1 X38.178 Y109.411 E10.2461
G1 X38.099 Y109.333 E10.2511
G1 X38.164 Y108.848 E10.2731
G1 X38.190 Y108.782 E10.2763
G1 X38.510 Y108.517 E10.2949
G1 X38.615 Y108.104 E10.3140
G1 X38.688 Y106.923 E10.3672
G1 X38.767 Y106.162 E10.4015
G1 X38.828 Y106.057 E10.4070
G1 X39.240 Y105.781 E10.4293
; outer perimeter
G1 X39.063 Y105.418 F4800
G92 E0
G1 X39.627 Y105.231 E0.0267 F1150
G1 X40.705 Y105.038 E0.0759
G1 X42.036 Y104.951 E0.1358
G1 X42.636 Y104.979 E0.1627
G1 X43.137 Y105.092 E0.1858
G1 X43.593 Y105.274 E0.2078
G1 X44.214 Y105.645 E0.2403
G1 X45.030 Y106.242 E0.2857
G1 X44.209 Y108.207 E0.3813
G1 X43.874 Y108.516 E0.4018
G1 X43.774 Y108.867 E0.4182
G1 X43.622 Y109.823 E0.4617
G1 X43.417 Y110.275 E0.4840
G1 X42.169 Y111.427 E0.5602
G1 X41.719 Y111.930 E0.5905
G1 X41.530 Y112.336 E0.6106
G1 X41.370 Y113.992 E0.6853
G1 X41.374 Y115.745 E0.7640
G1 X41.547 Y117.695 E0.8519
G1 X41.902 Y119.789 E0.9473
G1 X42.446 Y121.951 E1.0474
G1 X43.165 Y124.081 E1.1483
G1 X44.027 Y126.061 E1.2453
G1 X44.883 Y127.629 E1.3255
G1 X45.831 Y129.023 E1.4012
G1 X46.229 Y129.465 E1.4279
G1 X47.010 Y130.107 E1.4733
G1 X49.797 Y131.829 E1.6204
G1 X50.829 Y132.600 E1.6782
G1 X51.464 Y133.268 E1.7196
G1 X51.806 Y133.698 E1.7443
G1 X52.355 Y144.896 E2.2477
G1 X47.842 Y145.117 E2.4506
G1 X48.085 Y150.083 E2.6738
G1 X52.599 Y149.862 E2.8768
G1 X53.345 Y165.074 E3.5606
G1 X52.508 Y164.861 E3.5994
G1 X50.941 Y164.320 E3.6738
G1 X49.305 Y163.591 E3.7542
G1 X47.626 Y162.675 E3.8401
G1 X45.946 Y161.590 E3.9299
G1 X44.492 Y160.254 E4.0186
G1 X44.058 Y159.938 E4.0427
G1 X43.352 Y159.657 E4.0768
G1 X42.826 Y159.604 E4.1005
G1 X42.324 Y159.655 E4.1232
G1 X41.501 Y159.869 E4.1614
G1 X39.746 Y160.480 E4.2448
G1 X38.870 Y160.669 E4.2851
G1 X38.386 Y160.691 E4.3068
G1 X37.968 Y160.647 E4.3257
G1 X37.455 Y160.506 E4.3496
G1 X36.116 Y159.868 E4.4162
G1 X35.445 Y159.494 E4.4507
G1 X34.778 Y158.976 E4.4886
G1 X34.088 Y158.233 E4.5341
G1 X32.499 Y155.918 E4.6602
G1 X30.125 Y152.808 E4.8359
G1 X29.500 Y151.788 E4.8896
G1 X29.053 Y150.802 E4.9382
G1 X28.753 Y149.782 E4.9859
G1 X28.629 Y149.033 E5.0200
G1 X28.811 Y148.852 E5.0315
G1 X27.788 Y143.909 E5.2582
G1 X28.380 Y144.058 E5.2856
G1 X28.790 Y142.514 E5.3573
G1 X29.060 Y140.791 E5.4356
G1 X29.402 Y137.280 E5.5940
G1 X29.692 Y135.189 E5.6888
G1 X29.863 Y133.373 E5.7707
G1 X29.896 Y131.693 E5.8462
G1 X29.789 Y130.221 E5.9124
G1 X29.553 Y128.937 E5.9710
G1 X29.288 Y128.056 E6.0123
G1 X29.072 Y127.599 E6.0350
G1 X28.623 Y127.037 E6.0673
G1 X28.357 Y126.883 E6.0811
G1 X28.429 Y126.616 E6.0935
G1 X29.779 Y126.616 E6.1542
G1 X30.062 Y126.049 E6.1826
G1 X29.185 Y124.673 E6.2559
G1 X28.623 Y123.891 E6.2991
G1 X28.021 Y123.267 E6.3380
G1 X28.205 Y123.022 E6.3518
G1 X30.718 Y124.333 E6.4791
G1 X31.386 Y123.999 E6.5126
G1 X33.035 Y125.762 E6.6210
G1 X34.357 Y127.401 E6.7155
G1 X35.600 Y129.226 E6.8147
G1 X36.694 Y131.154 E6.9142
G1 X37.344 Y132.474 E6.9803
G1 X38.205 Y132.473 E7.0189
G1 X38.596 Y133.837 E7.0826
G1 X38.665 Y134.180 E7.0984
G1 X38.712 Y135.512 E7.1582
G1 X38.622 Y137.598 E7.2520
G1 X38.328 Y140.174 E7.3684
G1 X38.145 Y141.398 E7.4239
G1 X38.514 Y141.767 E7.4474
G1 X39.049 Y141.384 E7.4769
G1 X39.260 Y141.540 E7.4887
G1 X37.774 Y145.999 E7.6997
G1 X38.180 Y146.405 E7.7255
G1 X38.724 Y145.860 E7.7601
G1 X38.965 Y146.004 E7.7727
G1 X37.977 Y149.298 E7.9271
G1 X38.348 Y152.998 E8.0940
G1 X39.036 Y153.341 E8.1286
G1 X39.126 Y152.890 E8.1492
G1 X39.350 Y152.836 E8.1596
G1 X42.364 Y156.641 E8.3775
G1 X42.607 Y156.588 E8.3887
G1 X42.841 Y155.651 E8.4321
G1 X42.151 Y154.913 E8.4774
G1 X42.074 Y154.776 E8.4844
G1 X42.029 Y154.594 E8.4929
G1 X42.041 Y154.328 E8.5048
G1 X42.352 Y152.638 E8.5820
G1 X42.791 Y149.163 E8.7393
G1 X43.108 Y147.891 E8.7981
G1 X44.444 Y144.006 E8.9826
G1 X44.767 Y142.737 E9.0414
G1 X44.940 Y141.412 E9.1014
G1 X44.925 Y140.217 E9.1551
G1 X44.737 Y139.030 E9.2090
G1 X44.393 Y137.926 E9.2609
G1 X43.887 Y136.827 E9.3152
G1 X43.200 Y135.680 E9.3753
G1 X42.052 Y134.086 E9.4635
G1 X41.768 Y133.778 E9.4823
G1 X40.570 Y132.905 E9.5489
G1 X40.146 Y132.541 E9.5740
G1 X39.980 Y132.339 E9.5857
G1 X39.395 Y131.255 E9.6410
G1 X39.264 Y131.134 E9.6490
G1 X39.257 Y130.989 E9.6555
G1 X39.280 Y128.071 E9.7865
G1 X39.196 Y126.337 E9.8645
G1 X38.913 Y123.664 E9.9852
G1 X38.474 Y120.884 E10.1116
G1 X37.520 Y116.080 E10.3315
G1 X37.297 Y115.125 E10.3755
G1 X37.074 Y114.537 E10.4038
G1 X36.794 Y114.128 E10.4260
G1 X37.054 Y113.159 E10.4710
G1 X37.222 Y112.777 E10.4898
G1 X37.573 Y112.198 E10.5202
G1 X38.011 Y111.664 E10.5512
G1 X38.131 Y111.413 E10.5637
G1 X38.160 Y111.080 E10.5787
G1 X38.109 Y110.704 E10.5957
G1 X37.820 Y109.619 E10.6462
G1 X37.676 Y109.477 E10.6552
G1 X37.774 Y108.746 E10.6883
G1 X37.856 Y108.539 E10.6983
G1 X38.154 Y108.292 E10.7157
G1 X38.218 Y108.042 E10.7273
G1 X38.289 Y106.890 E10.7791
G1 X38.378 Y106.036 E10.8177
G1 X38.528 Y105.776 E10.8311
G1 X39.063 Y105.418 E10.8600
G92 E0
G1 E-1.0000 F1800
; external single extrusion
G1 X26.516 Y122.195 F4800
G1 E0.0000 F1800
G92 E0
; tool H0.300 W0.540
G1 X26.956 Y122.461 E0.0312 F1150
; tool H0.300 W0.585
G1 X27.293 Y122.664 E0.0570
; tool H0.300 W0.634
G1 X27.629 Y122.867 E0.0849
; tool H0.300 W0.598
G1 X27.659 Y122.961 E0.0915
; tool H0.300 W0.457
G1 X27.678 Y123.072 E0.0973
; tool H0.300 W0.294
G1 X27.696 Y123.184 E0.1011
; tool H0.300 W0.200
G1 X27.719 Y123.287 E0.1035
G1 X27.777 Y123.341 E0.1052
; tool H0.300 W0.400
; internal single extrusion
G1 X28.501 Y123.434 F4800
G92 E0
; tool H0.300 W0.200
G1 X28.562 Y123.480 E0.0017 F1150
G1 X28.686 Y123.573 E0.0052
G1 X28.810 Y123.665 E0.0087
G1 X28.871 Y123.713 E0.0104
; tool H0.300 W0.238
G1 X28.989 Y123.816 E0.0146
; tool H0.300 W0.311
G1 X29.108 Y123.918 E0.0201
; tool H0.300 W0.383
G1 X29.226 Y124.021 E0.0268
; tool H0.300 W0.438
G1 X29.437 Y124.203 E0.0405
; tool H0.300 W0.400
; solid layer
G1 X30.207 Y124.901 F4800
G92 E0
G1 X30.711 Y125.163 E0.0255 F1840
G1 X31.223 Y124.908 E0.0512
G1 X32.476 Y126.248 E0.1336
G1 X33.762 Y127.842 E0.2256
G1 X34.972 Y129.617 E0.3220
