; G-Code generated by Simplify3D(R) Version 4.0.0
; Dec 6, 2019 at 1:02:11 AM
; Settings Summary
;   processName,Process1
;   applyToModels,flyingbear_x_tensioner
;   profileName,Default(2) (modified)
;   profileVersion,2019-07-27 15:21:07
;   baseProfile,
;   printMaterial,PLA
;   printQuality,Medium
;   printExtruders,
;   extruderName,Primary Extruder
;   extruderToolheadNumber,0
;   extruderDiameter,0.4
;   extruderAutoWidth,1
;   extruderWidth,0.48
;   extrusionMultiplier,0.9
;   extruderUseRetract,1
;   extruderRetractionDistance,1
;   extruderExtraRestartDistance,0
;   extruderRetractionZLift,0
;   extruderRetractionSpeed,1800
;   extruderUseCoasting,0
;   extruderCoastingDistance,0.2
;   extruderUseWipe,0
;   extruderWipeDistance,5
;   primaryExtruder,0
;   layerHeight,0.2
;   topSolidLayers,3
;   bottomSolidLayers,2
;   perimeterOutlines,3
;   printPerimetersInsideOut,1
;   startPointOption,2
;   startPointOriginX,0
;   startPointOriginY,0
;   sequentialIslands,0
;   spiralVaseMode,0
;   firstLayerHeightPercentage,90
;   firstLayerWidthPercentage,100
;   firstLayerUnderspeed,0.5
;   useRaft,0
;   raftExtruder,0
;   raftTopLayers,3
;   raftBaseLayers,2
;   raftOffset,3
;   raftSeparationDistance,0.14
;   raftTopInfill,100
;   aboveRaftSpeedMultiplier,0.3
;   useSkirt,0
;   skirtExtruder,0
;   skirtLayers,1
;   skirtOutlines,2
;   skirtOffset,4
;   usePrimePillar,0
;   primePillarExtruder,999
;   primePillarWidth,12
;   primePillarLocation,7
;   primePillarSpeedMultiplier,1
;   useOozeShield,0
;   oozeShieldExtruder,999
;   oozeShieldOffset,2
;   oozeShieldOutlines,1
;   oozeShieldSidewallShape,1
;   oozeShieldSidewallAngle,30
;   oozeShieldSpeedMultiplier,1
;   infillExtruder,0
;   internalInfillPattern,Rectilinear
;   externalInfillPattern,Rectilinear
;   infillPercentage,100
;   outlineOverlapPercentage,15
;   infillExtrusionWidthPercentage,100
;   minInfillLength,5
;   infillLayerInterval,1
;   internalInfillAngles,45,-45
;   overlapInternalInfillAngles,0
;   externalInfillAngles,45,-45
;   generateSupport,1
;   supportExtruder,0
;   supportInfillPercentage,30
;   supportExtraInflation,0
;   supportBaseLayers,0
;   denseSupportExtruder,0
;   denseSupportLayers,0
;   denseSupportInfillPercentage,70
;   supportLayerInterval,1
;   supportHorizontalPartOffset,0.4
;   supportUpperSeparationLayers,1
;   supportLowerSeparationLayers,1
;   supportType,0
;   supportGridSpacing,4
;   maxOverhangAngle,45
;   supportAngles,0
;   temperatureName,Primary Extruder,Hot Bed
;   temperatureNumber,0,1
;   temperatureSetpointCount,1,1
;   temperatureSetpointLayers,1,1
;   temperatureSetpointTemperatures,210,60
;   temperatureStabilizeAtStartup,1,0
;   temperatureHeatedBed,0,1
;   temperatureRelayBetweenLayers,0,0
;   temperatureRelayBetweenLoops,0,0
;   fanLayers,1,2
;   fanSpeeds,0,100
;   blipFanToFullPower,0
;   adjustSpeedForCooling,1
;   minSpeedLayerTime,15
;   minCoolingSpeedSlowdown,20
;   increaseFanForCooling,0
;   minFanLayerTime,45
;   maxCoolingFanSpeed,100
;   increaseFanForBridging,0
;   bridgingFanSpeed,100
;   use5D,1
;   relativeEdistances,0
;   allowEaxisZeroing,1
;   independentExtruderAxes,0
;   includeM10123,0
;   stickySupport,1
;   applyToolheadOffsets,0
;   gcodeXoffset,-9
;   gcodeYoffset,-4
;   gcodeZoffset,0
;   overrideMachineDefinition,0
;   machineTypeOverride,0
;   strokeXoverride,200
;   strokeYoverride,200
;   strokeZoverride,200
;   originOffsetXoverride,0
;   originOffsetYoverride,0
;   originOffsetZoverride,0
;   homeXdirOverride,-1
;   homeYdirOverride,-1
;   homeZdirOverride,-1
;   flipXoverride,1
;   flipYoverride,-1
;   flipZoverride,1
;   toolheadOffsets,0,0|0,0|0,0|0,0|0,0|0,0
;   overrideFirmwareConfiguration,0
;   firmwareTypeOverride,RepRap (Marlin/Repetier/Sprinter)
;   GPXconfigOverride,r2
;   baudRateOverride,115200
;   overridePrinterModels,0
;   printerModelsOverride
;   startingGcode,G28 ; home all axes,G1 X2 Y15 Z0.2 F3000 ; get ready to prime,G92 E0 ; reset extrusion distance,G1 Y150 E20 F600 ; prime nozzle
;   layerChangeGcode,
;   retractionGcode,
;   toolChangeGcode,
;   endingGcode,M104 S0 ; turn off extruder,M140 S0 ; turn off bed,G28 X Y ; home X & Y,M84 ; disable motors,M107; Fan off
;   exportFileFormat,gcode
;   celebration,0
;   celebrationSong,Random Song
;   postProcessing,
;   defaultSpeed,2000
;   outlineUnderspeed,0.5
;   solidInfillUnderspeed,0.8
;   supportUnderspeed,0.8
;   rapidXYspeed,4800
;   rapidZspeed,1000
;   minBridgingArea,50
;   bridgingExtraInflation,0
;   bridgingExtrusionMultiplier,1
;   bridgingSpeedMultiplier,1
;   useFixedBridgingAngle,0
;   fixedBridgingAngle,0
;   applyBridgingToPerimeters,0
;   filamentDiameters,1.75|1.75|1.75|1.75|1.75|1.75
;   filamentPricesPerKg,46|46|46|46|46|46
;   filamentDensities,1.25|1.25|1.25|1.25|1.25|1.25
;   useMinPrintHeight,0
;   minPrintHeight,46.5
;   useMaxPrintHeight,0
;   maxPrintHeight,46.3
;   useDiaphragm,0
;   diaphragmLayerInterval,20
;   robustSlicing,1
;   mergeAllIntoSolid,0
;   onlyRetractWhenCrossingOutline,1
;   retractBetweenLayers,1
;   useRetractionMinTravel,0
;   retractionMinTravel,3
;   retractWhileWiping,0
;   onlyWipeOutlines,1
;   avoidCrossingOutline,0
;   maxMovementDetourFactor,3
;   toolChangeRetractionDistance,12
;   toolChangeExtraRestartDistance,-0.5
;   toolChangeRetractionSpeed,600
;   externalThinWallType,1
;   internalThinWallType,2
;   thinWallAllowedOverlapPercentage,10
;   singleExtrusionMinLength,1
;   singleExtrusionMinPrintingWidthPercentage,50
;   singleExtrusionMaxPrintingWidthPercentage,200
;   singleExtrusionEndpointExtension,0.2
;   horizontalSizeCompensation,0
G90
M82
M106 S0
M140 S60
M104 S210 T0
M109 S210 T0
G28 ; home all axes
G1 X2 Y15 Z0.2 F3000 ; get ready to prime
G92 E0 ; reset extrusion distance
G1 Y150 E20 F600 ; prime nozzle
G92 E0
G1 E-1.0000 F1800
G1 Z0.180 F1000
; process Process1
; layer 1, Z = 0.180
T0
; tool H0.200 W0.480
; inner perimeter
G1 X89.346 Y109.125 F4800
G1 E0.0000 F540
G92 E0
G1 X89.602 Y108.945 E0.0112 F750
G1 X89.886 Y108.813 E0.0225
G1 X90.188 Y108.732 E0.0337
G1 X90.552 Y108.700 E0.0469
G1 X134.448 Y108.700 E1.6236
G1 X134.812 Y108.732 E1.6367
G1 X135.114 Y108.813 E1.6480
G1 X135.398 Y108.945 E1.6592
G1 X135.654 Y109.125 E1.6705
G1 X135.875 Y109.346 E1.6817
G1 X136.055 Y109.602 E1.6930
G1 X136.187 Y109.886 E1.7042
G1 X136.268 Y110.188 E1.7154
G1 X136.300 Y110.552 E1.7286
G1 X136.300 Y114.448 E1.8685
G1 X136.268 Y114.812 E1.8816
G1 X136.187 Y115.114 E1.8929
G1 X136.055 Y115.398 E1.9041
G1 X135.875 Y115.654 E1.9153
G1 X135.654 Y115.875 E1.9266
G1 X135.398 Y116.055 E1.9378
G1 X135.114 Y116.187 E1.9491
G1 X134.812 Y116.268 E1.9603
G1 X134.448 Y116.300 E1.9734
G1 X90.552 Y116.300 E3.5502
G1 X90.188 Y116.268 E3.5633
G1 X89.886 Y116.187 E3.5746
G1 X89.602 Y116.055 E3.5858
G1 X89.346 Y115.875 E3.5971
G1 X89.125 Y115.654 E3.6083
G1 X88.945 Y115.398 E3.6195
G1 X88.813 Y115.114 E3.6308
G1 X88.732 Y114.812 E3.6420
G1 X88.701 Y114.456 E3.6549
G1 X88.700 Y110.552 E3.7951
G1 X88.732 Y110.188 E3.8082
G1 X88.813 Y109.886 E3.8195
G1 X88.945 Y109.602 E3.8307
G1 X89.125 Y109.346 E3.8419
G1 X89.346 Y109.125 E3.8532
G1 X89.036 Y108.756 F4800
G92 E0
G1 X89.361 Y108.528 E0.0143 F750
G1 X89.721 Y108.360 E0.0285
G1 X90.105 Y108.257 E0.0428
G1 X90.531 Y108.220 E0.0582
G1 X134.469 Y108.220 E1.6364
G1 X134.895 Y108.257 E1.6518
G1 X135.279 Y108.360 E1.6661
G1 X135.639 Y108.528 E1.6803
G1 X135.964 Y108.755 E1.6946
G1 X136.244 Y109.036 E1.7089
G1 X136.472 Y109.361 E1.7231
G1 X136.640 Y109.721 E1.7374
G1 X136.743 Y110.105 E1.7516
G1 X136.780 Y110.531 E1.7670
G1 X136.780 Y114.469 E1.9085
G1 X136.743 Y114.895 E1.9238
G1 X136.640 Y115.279 E1.9381
G1 X136.472 Y115.639 E1.9524
G1 X136.244 Y115.964 E1.9666
G1 X135.964 Y116.244 E1.9809
G1 X135.639 Y116.472 E1.9951
G1 X135.279 Y116.640 E2.0094
G1 X134.895 Y116.743 E2.0237
G1 X134.469 Y116.780 E2.0391
G1 X90.531 Y116.780 E3.6173
G1 X90.105 Y116.743 E3.6327
G1 X89.721 Y116.640 E3.6470
G1 X89.361 Y116.472 E3.6612
G1 X89.036 Y116.244 E3.6755
G1 X88.756 Y115.964 E3.6897
G1 X88.528 Y115.639 E3.7040
G1 X88.360 Y115.279 E3.7183
G1 X88.257 Y114.895 E3.7325
G1 X88.221 Y114.477 E3.7476
G1 X88.220 Y110.531 E3.8893
G1 X88.257 Y110.105 E3.9047
G1 X88.360 Y109.721 E3.9190
G1 X88.528 Y109.361 E3.9332
G1 X88.756 Y109.036 E3.9475
G1 X89.036 Y108.756 E3.9618
; outer perimeter
G1 X88.727 Y108.386 F4800
G92 E0
G1 X89.120 Y108.111 E0.0173 F500
G1 X89.556 Y107.907 E0.0346
G1 X90.021 Y107.783 E0.0518
G1 X90.511 Y107.740 E0.0695
G1 X134.489 Y107.740 E1.6492
G1 X134.979 Y107.783 E1.6669
G1 X135.444 Y107.907 E1.6842
G1 X135.880 Y108.111 E1.7015
G1 X136.273 Y108.386 E1.7187
G1 X136.614 Y108.727 E1.7360
G1 X136.889 Y109.120 E1.7533
G1 X137.093 Y109.556 E1.7706
G1 X137.217 Y110.021 E1.7878
G1 X137.260 Y110.510 E1.8055
G1 X137.260 Y114.490 E1.9484
G1 X137.217 Y114.979 E1.9661
G1 X137.093 Y115.444 E1.9833
G1 X136.889 Y115.880 E2.0006
G1 X136.614 Y116.274 E2.0179
G1 X136.273 Y116.614 E2.0352
G1 X135.880 Y116.889 E2.0524
G1 X135.444 Y117.093 E2.0697
G1 X134.979 Y117.217 E2.0870
G1 X134.490 Y117.260 E2.1047
G1 X90.510 Y117.260 E3.6844
G1 X90.021 Y117.217 E3.7021
G1 X89.556 Y117.093 E3.7194
G1 X89.120 Y116.889 E3.7366
G1 X88.727 Y116.614 E3.7539
G1 X88.386 Y116.273 E3.7712
G1 X88.111 Y115.880 E3.7885
G1 X87.907 Y115.444 E3.8057
G1 X87.783 Y114.979 E3.8230
G1 X87.741 Y114.498 E3.8404
G1 X87.740 Y110.511 E3.9836
G1 X87.783 Y110.021 E4.0012
G1 X87.907 Y109.556 E4.0185
G1 X88.111 Y109.120 E4.0358
G1 X88.386 Y108.727 E4.0531
G1 X88.727 Y108.386 E4.0704
; inner perimeter
G1 X91.429 Y110.440 F4800
G92 E0
G1 X91.108 Y110.898 E0.0201 F750
G1 X90.872 Y111.404 E0.0401
G1 X90.728 Y111.944 E0.0602
G1 X90.679 Y112.500 E0.0803
G1 X90.728 Y113.056 E0.1003
G1 X90.872 Y113.596 E0.1204
G1 X91.108 Y114.102 E0.1405
G1 X91.429 Y114.560 E0.1605
G1 X91.824 Y114.955 E0.1806
G1 X92.281 Y115.275 E0.2007
G1 X92.788 Y115.511 E0.2207
G1 X93.327 Y115.656 E0.2408
G1 X93.884 Y115.705 E0.2608
G1 X94.440 Y115.656 E0.2809
G1 X94.980 Y115.511 E0.3010
G1 X95.486 Y115.275 E0.3210
G1 X95.944 Y114.955 E0.3411
G1 X96.339 Y114.560 E0.3612
G1 X96.659 Y114.102 E0.3812
G1 X96.895 Y113.596 E0.4013
G1 X97.040 Y113.056 E0.4214
G1 X97.088 Y112.500 E0.4414
G1 X97.040 Y111.944 E0.4615
G1 X96.895 Y111.404 E0.4816
G1 X96.659 Y110.898 E0.5016
G1 X96.339 Y110.440 E0.5217
G1 X95.944 Y110.045 E0.5418
G1 X95.486 Y109.725 E0.5618
G1 X94.980 Y109.489 E0.5819
G1 X94.440 Y109.344 E0.6020
G1 X93.884 Y109.295 E0.6220
G1 X93.327 Y109.344 E0.6421
G1 X92.788 Y109.489 E0.6622
G1 X92.281 Y109.725 E0.6822
G1 X91.824 Y110.045 E0.7023
G1 X91.429 Y110.440 E0.7224
G1 X91.798 Y110.750 F4800
G92 E0
G1 X91.526 Y111.139 E0.0170 F750
G1 X91.325 Y111.569 E0.0341
G1 X91.202 Y112.027 E0.0511
G1 X91.161 Y112.500 E0.0682
G1 X91.202 Y112.973 E0.0852
G1 X91.325 Y113.431 E0.1023
G1 X91.526 Y113.861 E0.1193
G1 X91.798 Y114.250 E0.1364
G1 X92.134 Y114.586 E0.1534
G1 X92.522 Y114.858 E0.1705
G1 X92.952 Y115.059 E0.1875
G1 X93.411 Y115.181 E0.2046
G1 X93.884 Y115.223 E0.2216
G1 X94.356 Y115.181 E0.2387
G1 X94.815 Y115.059 E0.2557
G1 X95.245 Y114.858 E0.2728
G1 X95.634 Y114.586 E0.2898
G1 X95.969 Y114.250 E0.3069
G1 X96.242 Y113.861 E0.3239
G1 X96.442 Y113.431 E0.3410
G1 X96.565 Y112.973 E0.3580
G1 X96.606 Y112.500 E0.3751
G1 X96.565 Y112.027 E0.3921
G1 X96.442 Y111.569 E0.4092
G1 X96.242 Y111.139 E0.4262
G1 X95.969 Y110.750 E0.4433
G1 X95.634 Y110.414 E0.4603
G1 X95.245 Y110.142 E0.4774
G1 X94.815 Y109.941 E0.4944
G1 X94.356 Y109.819 E0.5114
G1 X93.884 Y109.777 E0.5285
G1 X93.411 Y109.819 E0.5455
G1 X92.952 Y109.941 E0.5626
G1 X92.522 Y110.142 E0.5796
G1 X92.134 Y110.414 E0.5967
G1 X91.798 Y110.750 E0.6137
; outer perimeter
G1 X92.167 Y111.060 F4800
G92 E0
G1 X91.943 Y111.380 E0.0140 F500
G1 X91.778 Y111.734 E0.0281
G1 X91.677 Y112.111 E0.0421
G1 X91.643 Y112.500 E0.0561
G1 X91.677 Y112.889 E0.0702
G1 X91.778 Y113.266 E0.0842
G1 X91.943 Y113.620 E0.0982
G1 X92.167 Y113.940 E0.1123
G1 X92.443 Y114.217 E0.1263
G1 X92.763 Y114.441 E0.1403
G1 X93.117 Y114.606 E0.1543
G1 X93.495 Y114.707 E0.1684
G1 X93.884 Y114.741 E0.1824
G1 X94.273 Y114.707 E0.1964
G1 X94.650 Y114.606 E0.2105
G1 X95.004 Y114.441 E0.2245
G1 X95.324 Y114.217 E0.2385
G1 X95.600 Y113.940 E0.2526
G1 X95.824 Y113.620 E0.2666
G1 X95.989 Y113.266 E0.2806
G1 X96.091 Y112.889 E0.2947
G1 X96.125 Y112.500 E0.3087
G1 X96.091 Y112.111 E0.3227
G1 X95.989 Y111.734 E0.3368
G1 X95.824 Y111.380 E0.3508
G1 X95.600 Y111.060 E0.3648
G1 X95.324 Y110.783 E0.3788
G1 X95.004 Y110.559 E0.3929
G1 X94.650 Y110.394 E0.4069
G1 X94.273 Y110.293 E0.4209
G1 X93.884 Y110.259 E0.4350
G1 X93.495 Y110.293 E0.4490
G1 X93.117 Y110.394 E0.4630
G1 X92.763 Y110.559 E0.4771
G1 X92.443 Y110.783 E0.4911
G1 X92.167 Y111.060 E0.5051
G92 E0
G1 E-1.0000 F1800
; inner perimeter
G1 X127.912 Y112.500 F4800
G1 E0.0000 F1800
G92 E0
G1 X127.960 Y113.056 E0.0201 F750
G1 X128.105 Y113.596 E0.0401
G1 X128.341 Y114.102 E0.0602
G1 X128.661 Y114.560 E0.0803
G1 X129.056 Y114.955 E0.1003
G1 X129.514 Y115.275 E0.1204
G1 X130.020 Y115.511 E0.1405
G1 X130.560 Y115.656 E0.1605
G1 X131.116 Y115.705 E0.1806
G1 X131.673 Y115.656 E0.2007
G1 X132.212 Y115.511 E0.2207
G1 X132.719 Y115.275 E0.2408
G1 X133.176 Y114.955 E0.2608
G1 X133.571 Y114.560 E0.2809
G1 X133.892 Y114.102 E0.3010
G1 X134.128 Y113.596 E0.3210
G1 X134.272 Y113.056 E0.3411
G1 X134.321 Y112.500 E0.3612
G1 X134.272 Y111.943 E0.3812
G1 X134.128 Y111.404 E0.4013
G1 X133.892 Y110.898 E0.4214
G1 X133.571 Y110.440 E0.4414
G1 X133.176 Y110.045 E0.4615
G1 X132.719 Y109.725 E0.4816
G1 X132.212 Y109.489 E0.5016
G1 X131.673 Y109.344 E0.5217
G1 X131.116 Y109.295 E0.5418
G1 X130.560 Y109.344 E0.5618
G1 X130.020 Y109.489 E0.5819
G1 X129.514 Y109.725 E0.6020
G1 X129.056 Y110.045 E0.6220
G1 X128.661 Y110.440 E0.6421
G1 X128.341 Y110.898 E0.6622
G1 X128.105 Y111.404 E0.6822
G1 X127.960 Y111.944 E0.7023
G1 X127.912 Y112.500 E0.7224
G1 X128.394 Y112.500 F4800
G92 E0
G1 X128.435 Y112.973 E0.0170 F750
G1 X128.558 Y113.431 E0.0341
G1 X128.758 Y113.861 E0.0511
G1 X129.031 Y114.250 E0.0682
G1 X129.366 Y114.586 E0.0852
G1 X129.755 Y114.858 E0.1023
G1 X130.185 Y115.059 E0.1193
G1 X130.643 Y115.181 E0.1364
G1 X131.116 Y115.223 E0.1534
G1 X131.589 Y115.181 E0.1705
G1 X132.048 Y115.059 E0.1875
G1 X132.478 Y114.858 E0.2046
G1 X132.866 Y114.586 E0.2216
G1 X133.202 Y114.250 E0.2387
G1 X133.474 Y113.861 E0.2557
G1 X133.675 Y113.431 E0.2728
G1 X133.798 Y112.973 E0.2898
G1 X133.839 Y112.500 E0.3069
G1 X133.798 Y112.027 E0.3239
G1 X133.675 Y111.569 E0.3410
G1 X133.474 Y111.139 E0.3580
G1 X133.202 Y110.750 E0.3751
G1 X132.866 Y110.414 E0.3921
G1 X132.478 Y110.142 E0.4092
G1 X132.048 Y109.941 E0.4262
G1 X131.589 Y109.819 E0.4433
G1 X131.116 Y109.777 E0.4603
G1 X130.643 Y109.819 E0.4774
G1 X130.185 Y109.941 E0.4944
G1 X129.755 Y110.142 E0.5114
G1 X129.366 Y110.414 E0.5285
G1 X129.031 Y110.750 E0.5455
G1 X128.758 Y111.139 E0.5626
G1 X128.558 Y111.569 E0.5796
G1 X128.435 Y112.027 E0.5967
G1 X128.394 Y112.500 E0.6137
; outer perimeter
G1 X128.875 Y112.500 F4800
G92 E0
G1 X128.909 Y112.889 E0.0140 F500
G1 X129.011 Y113.266 E0.0281
G1 X129.176 Y113.620 E0.0421
G1 X129.400 Y113.940 E0.0561
G1 X129.676 Y114.217 E0.0702
G1 X129.996 Y114.441 E0.0842
G1 X130.350 Y114.606 E0.0982
G1 X130.727 Y114.707 E0.1123
G1 X131.116 Y114.741 E0.1263
G1 X131.505 Y114.707 E0.1403
G1 X131.883 Y114.606 E0.1543
G1 X132.237 Y114.441 E0.1684
G1 X132.557 Y114.217 E0.1824
G1 X132.833 Y113.940 E0.1964
G1 X133.057 Y113.620 E0.2105
G1 X133.222 Y113.266 E0.2245
G1 X133.323 Y112.889 E0.2385
G1 X133.357 Y112.500 E0.2526
G1 X133.323 Y112.111 E0.2666
G1 X133.222 Y111.734 E0.2806
G1 X133.057 Y111.380 E0.2947
G1 X132.833 Y111.060 E0.3087
G1 X132.557 Y110.783 E0.3227
G1 X132.237 Y110.559 E0.3368
G1 X131.883 Y110.394 E0.3508
G1 X131.505 Y110.293 E0.3648
G1 X131.116 Y110.259 E0.3788
G1 X130.727 Y110.293 E0.3929
G1 X130.350 Y110.394 E0.4069
G1 X129.996 Y110.559 E0.4209
G1 X129.676 Y110.783 E0.4350
G1 X129.400 Y111.060 E0.4490
G1 X129.176 Y111.380 E0.4630
G1 X129.011 Y111.734 E0.4771
G1 X128.909 Y112.111 E0.4911
G1 X128.875 Y112.500 E0.5051
