; G-Code generated by Simplify3D(R) Version 4.0.0
; May 4, 2018 at 12:05:09 AM
; Settings Summary
;   processName,nozzle 0.4
;   applyToModels,flyingbear_x_tensioner
;   profileName,Flying Bear 902 Update 7-2017 (modified)
;   profileVersion,2017-07-10 09:45:20
;   baseProfile,Default
;   printMaterial,PLA
;   printQuality,Medium
;   printExtruders,
;   extruderName,Extruder 1
;   extruderToolheadNumber,0
;   extruderDiameter,0.4
;   extruderAutoWidth,1
;   extruderWidth,0.48
;   extrusionMultiplier,0.9
;   extruderUseRetract,1
;   extruderRetractionDistance,2
;   extruderExtraRestartDistance,0
;   extruderRetractionZLift,0
;   extruderRetractionSpeed,3000
;   extruderUseCoasting,0
;   extruderCoastingDistance,0.2
;   extruderUseWipe,1
;   extruderWipeDistance,5
;   primaryExtruder,0
;   layerHeight,0.15
;   topSolidLayers,3
;   bottomSolidLayers,3
;   perimeterOutlines,3
;   printPerimetersInsideOut,0
;   startPointOption,2
;   startPointOriginX,0
;   startPointOriginY,0
;   sequentialIslands,0
;   spiralVaseMode,0
;   firstLayerHeightPercentage,20
;   firstLayerWidthPercentage,100
;   firstLayerUnderspeed,0.3
;   useRaft,0
;   raftExtruder,0
;   raftTopLayers,2
;   raftBaseLayers,2
;   raftOffset,2
;   raftSeparationDistance,0.3
;   raftTopInfill,100
;   aboveRaftSpeedMultiplier,0.3
;   useSkirt,0
;   skirtExtruder,0
;   skirtLayers,1
;   skirtOutlines,2
;   skirtOffset,4
;   usePrimePillar,0
;   primePillarExtruder,999
;   primePillarWidth,12
;   primePillarLocation,7
;   primePillarSpeedMultiplier,1
;   useOozeShield,0
;   oozeShieldExtruder,999
;   oozeShieldOffset,2
;   oozeShieldOutlines,1
;   oozeShieldSidewallShape,1
;   oozeShieldSidewallAngle,30
;   oozeShieldSpeedMultiplier,1
;   infillExtruder,0
;   internalInfillPattern,Rectilinear
;   externalInfillPattern,Rectilinear
;   infillPercentage,100
;   outlineOverlapPercentage,60
;   infillExtrusionWidthPercentage,100
;   minInfillLength,5
;   infillLayerInterval,1
;   internalInfillAngles,45,-45
;   overlapInternalInfillAngles,0
;   externalInfillAngles,45,-45
;   generateSupport,0
;   supportExtruder,0
;   supportInfillPercentage,30
;   supportExtraInflation,0
;   supportBaseLayers,0
;   denseSupportExtruder,0
;   denseSupportLayers,0
;   denseSupportInfillPercentage,50
;   supportLayerInterval,1
;   supportHorizontalPartOffset,0.3
;   supportUpperSeparationLayers,1
;   supportLowerSeparationLayers,1
;   supportType,0
;   supportGridSpacing,4
;   maxOverhangAngle,70
;   supportAngles,0
;   temperatureName,Extruder 1,Heated Bed
;   temperatureNumber,0,0
;   temperatureSetpointCount,1,1
;   temperatureSetpointLayers,1,1
;   temperatureSetpointTemperatures,210,60
;   temperatureStabilizeAtStartup,1,0
;   temperatureHeatedBed,0,1
;   temperatureRelayBetweenLayers,0,0
;   temperatureRelayBetweenLoops,0,0
;   fanLayers,1
;   fanSpeeds,255
;   blipFanToFullPower,0
;   adjustSpeedForCooling,1
;   minSpeedLayerTime,15
;   minCoolingSpeedSlowdown,20
;   increaseFanForCooling,0
;   minFanLayerTime,45
;   maxCoolingFanSpeed,100
;   increaseFanForBridging,0
;   bridgingFanSpeed,100
;   use5D,1
;   relativeEdistances,0
;   allowEaxisZeroing,1
;   independentExtruderAxes,0
;   includeM10123,0
;   stickySupport,1
;   applyToolheadOffsets,0
;   gcodeXoffset,0
;   gcodeYoffset,0
;   gcodeZoffset,0
;   overrideMachineDefinition,1
;   machineTypeOverride,0
;   strokeXoverride,220
;   strokeYoverride,220
;   strokeZoverride,280
;   originOffsetXoverride,0
;   originOffsetYoverride,0
;   originOffsetZoverride,0
;   homeXdirOverride,-1
;   homeYdirOverride,-1
;   homeZdirOverride,-1
;   flipXoverride,1
;   flipYoverride,-1
;   flipZoverride,1
;   toolheadOffsets,0,0|0,0|0,0|0,0|0,0|0,0
;   overrideFirmwareConfiguration,1
;   firmwareTypeOverride,RepRap (Marlin/Repetier/Sprinter)
;   GPXconfigOverride,r2
;   baudRateOverride,250000
;   overridePrinterModels,0
;   printerModelsOverride
;   startingGcode,G28 ; home all axes,G1 X0 Y20 Z0.2 F3000 ; get ready to prime,G92 E0 ; reset extrusion distance,G1 X200 E20 F600 ; prime nozzle
;   layerChangeGcode,
;   retractionGcode,
;   toolChangeGcode,
;   endingGcode,M104 S0 ; turn off extruder,M140 S0 ; turn off bed,G28 X Y ; home x and y axes,M84 ; disable motors
;   exportFileFormat,gcode
;   celebration,0
;   celebrationSong,Random Song
;   postProcessing,
;   defaultSpeed,4400
;   outlineUnderspeed,0.6
;   solidInfillUnderspeed,0.85
;   supportUnderspeed,0.8
;   rapidXYspeed,5200
;   rapidZspeed,1002
;   minBridgingArea,50
;   bridgingExtraInflation,0
;   bridgingExtrusionMultiplier,1
;   bridgingSpeedMultiplier,1
;   useFixedBridgingAngle,0
;   fixedBridgingAngle,0
;   applyBridgingToPerimeters,0
;   filamentDiameters,1.75|1.75|1.75|1.75|1.75|1.75
;   filamentPricesPerKg,46|46|46|46|46|46
;   filamentDensities,1.25|1.25|1.25|1.25|1.25|1.25
;   useMinPrintHeight,0
;   minPrintHeight,0
;   useMaxPrintHeight,0
;   maxPrintHeight,2.3
;   useDiaphragm,0
;   diaphragmLayerInterval,20
;   robustSlicing,1
;   mergeAllIntoSolid,0
;   onlyRetractWhenCrossingOutline,1
;   retractBetweenLayers,1
;   useRetractionMinTravel,0
;   retractionMinTravel,3
;   retractWhileWiping,0
;   onlyWipeOutlines,1
;   avoidCrossingOutline,0
;   maxMovementDetourFactor,3
;   toolChangeRetractionDistance,12
;   toolChangeExtraRestartDistance,-0.5
;   toolChangeRetractionSpeed,600
;   externalThinWallType,0
;   internalThinWallType,0
;   thinWallAllowedOverlapPercentage,20
;   singleExtrusionMinLength,1
;   singleExtrusionMinPrintingWidthPercentage,50
;   singleExtrusionMaxPrintingWidthPercentage,200
;   singleExtrusionEndpointExtension,0.2
;   horizontalSizeCompensation,0
G90
M82
M106 S650
M140 S60
M104 S210 T0
M109 S210 T0
G28 ; home all axes
G1 X0 Y20 Z0.2 F3000 ; get ready to prime
G92 E0 ; reset extrusion distance
G1 X200 E20 F600 ; prime nozzle
G92 E0
G1 E-2.0000 F3000
G1 Z0.030 F1002
; process nozzle 0.4
; layer 1, Z = 0.030
T0
; tool H0.150 W0.480
; outer perimeter
G1 X86.227 Y105.886 F5200
G1 E0.0000 F900
G92 E0
G1 X86.620 Y105.611 E0.0130 F792
G1 X87.056 Y105.407 E0.0259
G1 X87.521 Y105.283 E0.0389
G1 X88.011 Y105.240 E0.0521
G1 X131.989 Y105.240 E1.2369
G1 X132.479 Y105.283 E1.2502
G1 X132.944 Y105.407 E1.2631
G1 X133.380 Y105.611 E1.2761
G1 X133.774 Y105.886 E1.2890
G1 X134.114 Y106.227 E1.3020
G1 X134.389 Y106.620 E1.3150
G1 X134.593 Y107.056 E1.3279
G1 X134.717 Y107.521 E1.3409
G1 X134.760 Y108.011 E1.3541
G1 X134.760 Y111.989 E1.4613
G1 X134.717 Y112.479 E1.4746
G1 X134.593 Y112.944 E1.4875
G1 X134.389 Y113.380 E1.5005
G1 X134.114 Y113.773 E1.5134
G1 X133.773 Y114.114 E1.5264
G1 X133.380 Y114.389 E1.5393
G1 X132.944 Y114.593 E1.5523
G1 X132.479 Y114.717 E1.5653
G1 X131.989 Y114.760 E1.5785
G1 X88.011 Y114.760 E2.7633
G1 X87.521 Y114.717 E2.7766
G1 X87.056 Y114.593 E2.7895
G1 X86.620 Y114.389 E2.8025
G1 X86.226 Y114.114 E2.8154
G1 X85.886 Y113.774 E2.8284
G1 X85.611 Y113.380 E2.8413
G1 X85.407 Y112.944 E2.8543
G1 X85.283 Y112.479 E2.8673
G1 X85.240 Y111.991 E2.8805
G1 X85.240 Y108.010 E2.9877
G1 X85.283 Y107.521 E3.0009
G1 X85.407 Y107.056 E3.0139
G1 X85.611 Y106.620 E3.0268
G1 X85.886 Y106.227 E3.0398
G1 X86.227 Y105.886 E3.0528
G1 X86.620 Y105.611 F4400
G1 X87.056 Y105.407 F4400
G1 X87.521 Y105.283 F4400
G1 X88.011 Y105.240 F4400
G1 X91.076 Y105.240 F4400
; inner perimeter
G1 X88.031 Y105.720 F5200
G92 E0
G1 X131.969 Y105.720 E1.1837 F1056
G1 X132.395 Y105.757 E1.1952
G1 X132.779 Y105.860 E1.2059
G1 X133.139 Y106.028 E1.2166
G1 X133.464 Y106.256 E1.2273
G1 X133.744 Y106.536 E1.2380
G1 X133.972 Y106.861 E1.2487
G1 X134.140 Y107.221 E1.2594
G1 X134.243 Y107.605 E1.2701
G1 X134.280 Y108.031 E1.2816
G1 X134.280 Y111.969 E1.3877
G1 X134.243 Y112.395 E1.3993
G1 X134.140 Y112.779 E1.4100
G1 X133.972 Y113.139 E1.4206
G1 X133.744 Y113.464 E1.4313
G1 X133.464 Y113.744 E1.4420
G1 X133.139 Y113.972 E1.4527
G1 X132.779 Y114.140 E1.4634
G1 X132.395 Y114.243 E1.4741
G1 X131.969 Y114.280 E1.4857
G1 X88.031 Y114.280 E2.6694
G1 X87.605 Y114.243 E2.6809
G1 X87.221 Y114.140 E2.6916
G1 X86.861 Y113.972 E2.7023
G1 X86.536 Y113.744 E2.7130
G1 X86.256 Y113.464 E2.7237
G1 X86.028 Y113.139 E2.7344
G1 X85.860 Y112.779 E2.7451
G1 X85.757 Y112.395 E2.7558
G1 X85.720 Y111.970 E2.7673
G1 X85.720 Y108.031 E2.8734
G1 X85.757 Y107.605 E2.8849
G1 X85.860 Y107.221 E2.8956
G1 X86.028 Y106.861 E2.9063
G1 X86.255 Y106.536 E2.9170
G1 X86.536 Y106.255 E2.9277
G1 X86.861 Y106.028 E2.9384
G1 X87.221 Y105.860 E2.9491
G1 X87.605 Y105.757 E2.9598
G1 X88.031 Y105.720 E2.9713
G1 X88.052 Y106.200 F5200
G92 E0
G1 X131.948 Y106.200 E1.1826 F1056
G1 X132.312 Y106.232 E1.1924
G1 X132.614 Y106.313 E1.2008
G1 X132.898 Y106.445 E1.2093
G1 X133.154 Y106.625 E1.2177
G1 X133.375 Y106.846 E1.2261
G1 X133.555 Y107.102 E1.2346
G1 X133.687 Y107.386 E1.2430
G1 X133.768 Y107.688 E1.2514
G1 X133.800 Y108.052 E1.2613
G1 X133.800 Y111.948 E1.3662
G1 X133.768 Y112.312 E1.3761
G1 X133.687 Y112.614 E1.3845
G1 X133.555 Y112.898 E1.3929
G1 X133.375 Y113.154 E1.4014
G1 X133.154 Y113.375 E1.4098
G1 X132.898 Y113.555 E1.4182
G1 X132.614 Y113.687 E1.4267
G1 X132.312 Y113.768 E1.4351
G1 X131.948 Y113.800 E1.4449
G1 X88.052 Y113.800 E2.6275
G1 X87.688 Y113.768 E2.6374
G1 X87.386 Y113.687 E2.6458
G1 X87.102 Y113.555 E2.6542
G1 X86.846 Y113.375 E2.6626
G1 X86.625 Y113.154 E2.6711
G1 X86.445 Y112.898 E2.6795
G1 X86.313 Y112.614 E2.6879
G1 X86.232 Y112.312 E2.6964
G1 X86.200 Y111.949 E2.7062
G1 X86.200 Y108.052 E2.8112
G1 X86.232 Y107.688 E2.8210
G1 X86.313 Y107.386 E2.8294
G1 X86.445 Y107.102 E2.8379
G1 X86.625 Y106.846 E2.8463
G1 X86.846 Y106.625 E2.8547
G1 X87.102 Y106.445 E2.8632
G1 X87.386 Y106.313 E2.8716
G1 X87.688 Y106.232 E2.8800
G1 X88.052 Y106.200 E2.8899
; outer perimeter
G1 X89.943 Y108.283 F5200
G92 E0
G1 X89.667 Y108.560 E0.0105 F792
G1 X89.443 Y108.880 E0.0211
G1 X89.278 Y109.234 E0.0316
G1 X89.177 Y109.611 E0.0421
G1 X89.143 Y110.000 E0.0526
G1 X89.177 Y110.389 E0.0631
G1 X89.278 Y110.766 E0.0737
G1 X89.443 Y111.120 E0.0842
G1 X89.667 Y111.440 E0.0947
G1 X89.943 Y111.717 E0.1052
G1 X90.263 Y111.941 E0.1158
G1 X90.617 Y112.106 E0.1263
G1 X90.995 Y112.207 E0.1368
G1 X91.384 Y112.241 E0.1473
G1 X91.773 Y112.207 E0.1579
G1 X92.150 Y112.106 E0.1684
G1 X92.504 Y111.941 E0.1789
G1 X92.824 Y111.717 E0.1894
G1 X93.100 Y111.440 E0.2000
G1 X93.324 Y111.120 E0.2105
G1 X93.489 Y110.766 E0.2210
G1 X93.591 Y110.389 E0.2315
G1 X93.625 Y110.000 E0.2420
G1 X93.591 Y109.611 E0.2526
G1 X93.489 Y109.234 E0.2631
G1 X93.324 Y108.880 E0.2736
G1 X93.100 Y108.560 E0.2841
G1 X92.824 Y108.283 E0.2947
G1 X92.504 Y108.059 E0.3052
G1 X92.150 Y107.894 E0.3157
G1 X91.773 Y107.793 E0.3262
G1 X91.384 Y107.759 E0.3368
G1 X90.995 Y107.793 E0.3473
G1 X90.617 Y107.894 E0.3578
G1 X90.266 Y108.058 E0.3683
G1 X89.943 Y108.283 E0.3788
G1 X89.667 Y108.560 F4400
G1 X89.443 Y108.880 F4400
G1 X89.278 Y109.234 F4400
G1 X89.177 Y109.611 F4400
G1 X89.143 Y110.000 F4400
G1 X89.177 Y110.389 F4400
G1 X89.278 Y110.766 F4400
G1 X89.443 Y111.120 F4400
G1 X89.667 Y111.440 F4400
G1 X89.943 Y111.717 F4400
G1 X90.263 Y111.941 F4400
G1 X90.617 Y112.106 F4400
G1 X90.919 Y112.187 F4400
; inner perimeter
G1 X90.911 Y112.681 F5200
G92 E0
G1 X91.384 Y112.723 E0.0128 F1056
G1 X91.856 Y112.681 E0.0256
G1 X92.315 Y112.559 E0.0384
G1 X92.745 Y112.358 E0.0511
G1 X93.134 Y112.086 E0.0639
G1 X93.469 Y111.750 E0.0767
G1 X93.742 Y111.361 E0.0895
G1 X93.942 Y110.931 E0.1023
G1 X94.065 Y110.473 E0.1151
G1 X94.106 Y110.000 E0.1279
G1 X94.065 Y109.527 E0.1406
G1 X93.942 Y109.069 E0.1534
G1 X93.742 Y108.639 E0.1662
G1 X93.469 Y108.250 E0.1790
G1 X93.134 Y107.914 E0.1918
G1 X92.745 Y107.642 E0.2046
G1 X92.315 Y107.441 E0.2174
G1 X91.856 Y107.319 E0.2302
G1 X91.384 Y107.277 E0.2429
G1 X90.911 Y107.319 E0.2557
G1 X90.452 Y107.441 E0.2685
G1 X90.025 Y107.641 E0.2812
G1 X89.634 Y107.914 E0.2941
G1 X89.298 Y108.250 E0.3069
G1 X89.026 Y108.639 E0.3197
G1 X88.825 Y109.069 E0.3324
G1 X88.702 Y109.527 E0.3452
G1 X88.661 Y110.000 E0.3580
G1 X88.702 Y110.473 E0.3708
G1 X88.825 Y110.931 E0.3836
G1 X89.026 Y111.361 E0.3964
G1 X89.298 Y111.750 E0.4092
G1 X89.634 Y112.086 E0.4219
G1 X90.022 Y112.358 E0.4347
G1 X90.452 Y112.559 E0.4475
G1 X90.911 Y112.681 E0.4603
G1 X90.827 Y113.156 F5200
G92 E0
G1 X91.384 Y113.205 E0.0150 F1056
G1 X91.940 Y113.156 E0.0301
G1 X92.480 Y113.011 E0.0451
G1 X92.986 Y112.775 E0.0602
G1 X93.444 Y112.455 E0.0752
G1 X93.839 Y112.060 E0.0903
G1 X94.159 Y111.602 E0.1053
G1 X94.395 Y111.096 E0.1204
G1 X94.540 Y110.556 E0.1354
G1 X94.588 Y110.000 E0.1505
G1 X94.540 Y109.444 E0.1655
G1 X94.395 Y108.904 E0.1806
G1 X94.159 Y108.398 E0.1956
G1 X93.839 Y107.940 E0.2107
G1 X93.444 Y107.545 E0.2257
G1 X92.986 Y107.225 E0.2408
G1 X92.480 Y106.989 E0.2558
G1 X91.940 Y106.844 E0.2709
G1 X91.384 Y106.795 E0.2859
G1 X90.827 Y106.844 E0.3010
G1 X90.288 Y106.989 E0.3160
G1 X89.784 Y107.223 E0.3310
G1 X89.324 Y107.545 E0.3461
G1 X88.929 Y107.940 E0.3612
G1 X88.608 Y108.398 E0.3762
G1 X88.372 Y108.904 E0.3913
G1 X88.228 Y109.444 E0.4063
G1 X88.179 Y110.000 E0.4214
G1 X88.228 Y110.556 E0.4364
G1 X88.372 Y111.096 E0.4515
G1 X88.608 Y111.602 E0.4665
G1 X88.929 Y112.060 E0.4816
G1 X89.324 Y112.455 E0.4966
G1 X89.781 Y112.775 E0.5117
G1 X90.288 Y113.011 E0.5267
G1 X90.827 Y113.156 E0.5418
; outer perimeter
G1 X126.375 Y110.000 F5200
G92 E0
G1 X126.409 Y110.389 E0.0105 F792
G1 X126.511 Y110.766 E0.0210
G1 X126.676 Y111.120 E0.0316
G1 X126.900 Y111.440 E0.0421
G1 X127.176 Y111.717 E0.0526
G1 X127.496 Y111.941 E0.0631
G1 X127.850 Y112.106 E0.0737
G1 X128.227 Y112.207 E0.0842
G1 X128.616 Y112.241 E0.0947
G1 X129.005 Y112.207 E0.1052
G1 X129.383 Y112.106 E0.1158
G1 X129.737 Y111.941 E0.1263
G1 X130.057 Y111.717 E0.1368
G1 X130.333 Y111.440 E0.1473
G1 X130.557 Y111.120 E0.1579
G1 X130.722 Y110.766 E0.1684
G1 X130.823 Y110.389 E0.1789
G1 X130.857 Y110.000 E0.1894
G1 X130.823 Y109.611 E0.1999
G1 X130.722 Y109.234 E0.2105
G1 X130.557 Y108.880 E0.2210
G1 X130.333 Y108.560 E0.2315
G1 X130.057 Y108.283 E0.2420
G1 X129.737 Y108.059 E0.2526
G1 X129.383 Y107.894 E0.2631
G1 X129.005 Y107.793 E0.2736
G1 X128.616 Y107.759 E0.2841
G1 X128.227 Y107.793 E0.2947
G1 X127.850 Y107.894 E0.3052
G1 X127.498 Y108.058 E0.3156
G1 X127.176 Y108.283 E0.3262
G1 X126.900 Y108.560 E0.3368
G1 X126.676 Y108.880 E0.3473
G1 X126.511 Y109.234 E0.3578
G1 X126.409 Y109.611 E0.3683
G1 X126.375 Y110.000 E0.3788
G1 X126.409 Y110.389 F4400
G1 X126.511 Y110.766 F4400
G1 X126.676 Y111.120 F4400
G1 X126.900 Y111.440 F4400
G1 X127.176 Y111.717 F4400
G1 X127.496 Y111.941 F4400
G1 X127.850 Y112.106 F4400
G1 X128.227 Y112.207 F4400
G1 X128.616 Y112.241 F4400
G1 X129.005 Y112.207 F4400
G1 X129.383 Y112.106 F4400
G1 X129.737 Y111.941 F4400
G1 X129.993 Y111.761 F4400
; inner perimeter
G1 X130.366 Y112.086 F5200
G92 E0
G1 X130.702 Y111.750 E0.0128 F1056
G1 X130.974 Y111.361 E0.0256
G1 X131.175 Y110.931 E0.0384
G1 X131.298 Y110.473 E0.0511
G1 X131.339 Y110.000 E0.0639
G1 X131.298 Y109.527 E0.0767
G1 X131.175 Y109.069 E0.0895
G1 X130.974 Y108.639 E0.1023
G1 X130.702 Y108.250 E0.1151
G1 X130.366 Y107.914 E0.1279
G1 X129.978 Y107.642 E0.1406
G1 X129.548 Y107.441 E0.1534
G1 X129.089 Y107.319 E0.1662
G1 X128.616 Y107.277 E0.1790
G1 X128.143 Y107.319 E0.1918
G1 X127.685 Y107.441 E0.2046
G1 X127.257 Y107.641 E0.2173
G1 X126.866 Y107.914 E0.2301
G1 X126.531 Y108.250 E0.2429
G1 X126.258 Y108.639 E0.2557
G1 X126.058 Y109.069 E0.2685
G1 X125.935 Y109.527 E0.2813
G1 X125.894 Y110.000 E0.2941
G1 X125.935 Y110.473 E0.3069
G1 X126.058 Y110.931 E0.3197
G1 X126.258 Y111.361 E0.3324
G1 X126.531 Y111.750 E0.3452
G1 X126.866 Y112.086 E0.3580
G1 X127.255 Y112.358 E0.3708
G1 X127.685 Y112.559 E0.3836
G1 X128.143 Y112.681 E0.3964
G1 X128.616 Y112.723 E0.4092
G1 X129.089 Y112.681 E0.4219
G1 X129.548 Y112.559 E0.4347
G1 X129.978 Y112.358 E0.4475
G1 X130.366 Y112.086 E0.4603
G1 X130.676 Y112.455 F5200
G92 E0
G1 X131.071 Y112.060 E0.0150 F1056
G1 X131.392 Y111.602 E0.0301
G1 X131.628 Y111.096 E0.0451
G1 X131.772 Y110.556 E0.0602
G1 X131.821 Y110.000 E0.0752
G1 X131.772 Y109.444 E0.0903
G1 X131.628 Y108.904 E0.1053
G1 X131.392 Y108.398 E0.1204
