; G-Code generated by Simplify3D(R) Version 4.0.0
; Jun 24, 2018 at 12:32:39 AM
; Settings Summary
;   processName,Process1
;   applyToModels,Folding_Raspberry_Pi_3_B+_Case
;   profileName,Flyingbear p902 (modified)
;   profileVersion,2017-02-06 00:22:54
;   baseProfile,Default
;   printMaterial,PLA
;   printQuality,Medium
;   printExtruders,
;   extruderName,Extruder 1
;   extruderToolheadNumber,0
;   extruderDiameter,0.4
;   extruderAutoWidth,1
;   extruderWidth,0.48
;   extrusionMultiplier,1
;   extruderUseRetract,1
;   extruderRetractionDistance,1
;   extruderExtraRestartDistance,0
;   extruderRetractionZLift,0
;   extruderRetractionSpeed,3400
;   extruderUseCoasting,0
;   extruderCoastingDistance,0.2
;   extruderUseWipe,0
;   extruderWipeDistance,5
;   primaryExtruder,0
;   layerHeight,0.2
;   topSolidLayers,4
;   bottomSolidLayers,4
;   perimeterOutlines,3
;   printPerimetersInsideOut,1
;   startPointOption,2
;   startPointOriginX,0
;   startPointOriginY,0
;   sequentialIslands,0
;   spiralVaseMode,0
;   firstLayerHeightPercentage,90
;   firstLayerWidthPercentage,100
;   firstLayerUnderspeed,0.5
;   useRaft,0
;   raftExtruder,0
;   raftTopLayers,3
;   raftBaseLayers,1
;   raftOffset,2
;   raftSeparationDistance,0.2
;   raftTopInfill,100
;   aboveRaftSpeedMultiplier,0.3
;   useSkirt,0
;   skirtExtruder,0
;   skirtLayers,1
;   skirtOutlines,2
;   skirtOffset,4
;   usePrimePillar,0
;   primePillarExtruder,999
;   primePillarWidth,12
;   primePillarLocation,7
;   primePillarSpeedMultiplier,1
;   useOozeShield,0
;   oozeShieldExtruder,999
;   oozeShieldOffset,2
;   oozeShieldOutlines,1
;   oozeShieldSidewallShape,1
;   oozeShieldSidewallAngle,30
;   oozeShieldSpeedMultiplier,1
;   infillExtruder,0
;   internalInfillPattern,Rectilinear
;   externalInfillPattern,Concentric
;   infillPercentage,100
;   outlineOverlapPercentage,15
;   infillExtrusionWidthPercentage,100
;   minInfillLength,5
;   infillLayerInterval,1
;   internalInfillAngles,45,-45
;   overlapInternalInfillAngles,0
;   externalInfillAngles,45,-45
;   generateSupport,0
;   supportExtruder,0
;   supportInfillPercentage,30
;   supportExtraInflation,0
;   supportBaseLayers,0
;   denseSupportExtruder,0
;   denseSupportLayers,0
;   denseSupportInfillPercentage,70
;   supportLayerInterval,1
;   supportHorizontalPartOffset,0.3
;   supportUpperSeparationLayers,1
;   supportLowerSeparationLayers,1
;   supportType,0
;   supportGridSpacing,4
;   maxOverhangAngle,45
;   supportAngles,0
;   temperatureName,Extruder 1,Heated Bed
;   temperatureNumber,0,0
;   temperatureSetpointCount,1,1
;   temperatureSetpointLayers,1,1
;   temperatureSetpointTemperatures,210,60
;   temperatureStabilizeAtStartup,1,1
;   temperatureHeatedBed,0,1
;   temperatureRelayBetweenLayers,0,0
;   temperatureRelayBetweenLoops,0,0
;   fanLayers,1,2
;   fanSpeeds,0,100
;   blipFanToFullPower,0
;   adjustSpeedForCooling,1
;   minSpeedLayerTime,15
;   minCoolingSpeedSlowdown,20
;   increaseFanForCooling,0
;   minFanLayerTime,45
;   maxCoolingFanSpeed,100
;   increaseFanForBridging,1
;   bridgingFanSpeed,100
;   use5D,1
;   relativeEdistances,0
;   allowEaxisZeroing,1
;   independentExtruderAxes,0
;   includeM10123,0
;   stickySupport,1
;   applyToolheadOffsets,0
;   gcodeXoffset,0
;   gcodeYoffset,0
;   gcodeZoffset,0
;   overrideMachineDefinition,1
;   machineTypeOverride,0
;   strokeXoverride,220
;   strokeYoverride,220
;   strokeZoverride,280
;   originOffsetXoverride,0
;   originOffsetYoverride,0
;   originOffsetZoverride,0
;   homeXdirOverride,-1
;   homeYdirOverride,-1
;   homeZdirOverride,-1
;   flipXoverride,1
;   flipYoverride,-1
;   flipZoverride,1
;   toolheadOffsets,0,0|0,0|0,0|0,0|0,0|0,0
;   overrideFirmwareConfiguration,1
;   firmwareTypeOverride,RepRap (Marlin/Repetier/Sprinter)
;   GPXconfigOverride,r2
;   baudRateOverride,250000
;   overridePrinterModels,0
;   printerModelsOverride
;   startingGcode,G28 ; home all axes,G1 X0 Y5 Z0.2 F3000 ; get ready to prime,G92 E0 ; reset extrusion distance,G1 X200 E20 F600 ; prime nozzle
;   layerChangeGcode,
;   retractionGcode,
;   toolChangeGcode,
;   endingGcode,M104 S0 ; turn off extruder,M140 S0 ; turn off bed,G91 ; use relative coordinates,G1 Z0.6 F5000 ; lift nozzle by 0.6mm,G90 ; use absolute coordinates,G28 X0 ; home X axis,G28 Y0 ; home X axis,M84 ; disable motors,M107 ; turn off fan
;   exportFileFormat,gcode
;   celebration,0
;   celebrationSong,Random Song
;   postProcessing,
;   defaultSpeed,4200
;   outlineUnderspeed,0.9
;   solidInfillUnderspeed,1
;   supportUnderspeed,0.8
;   rapidXYspeed,4200
;   rapidZspeed,1002
;   minBridgingArea,50
;   bridgingExtraInflation,0
;   bridgingExtrusionMultiplier,1
;   bridgingSpeedMultiplier,1
;   useFixedBridgingAngle,0
;   fixedBridgingAngle,0
;   applyBridgingToPerimeters,0
;   filamentDiameters,1.75|1.75|1.75|1.75|1.75|1.75
;   filamentPricesPerKg,46|46|46|46|46|46
;   filamentDensities,1.25|1.25|1.25|1.25|1.25|1.25
;   useMinPrintHeight,0
;   minPrintHeight,0
;   useMaxPrintHeight,0
;   maxPrintHeight,0
;   useDiaphragm,0
;   diaphragmLayerInterval,20
;   robustSlicing,1
;   mergeAllIntoSolid,0
;   onlyRetractWhenCrossingOutline,1
;   retractBetweenLayers,1
;   useRetractionMinTravel,0
;   retractionMinTravel,3
;   retractWhileWiping,0
;   onlyWipeOutlines,1
;   avoidCrossingOutline,0
;   maxMovementDetourFactor,3
;   toolChangeRetractionDistance,12
;   toolChangeExtraRestartDistance,-0.5
;   toolChangeRetractionSpeed,600
;   externalThinWallType,1
;   internalThinWallType,1
;   thinWallAllowedOverlapPercentage,10
;   singleExtrusionMinLength,1
;   singleExtrusionMinPrintingWidthPercentage,50
;   singleExtrusionMaxPrintingWidthPercentage,200
;   singleExtrusionEndpointExtension,0.2
;   horizontalSizeCompensation,0
G90
M82
M106 S0
M140 S60
M190 S60
M104 S210 T0
M109 S210 T0
G28 ; home all axes
G1 X0 Y5 Z0.2 F3000 ; get ready to prime
G92 E0 ; reset extrusion distance
G1 X200 E20 F600 ; prime nozzle
G92 E0
G1 E-1.0000 F3400
G1 Z0.180 F1002
; process Process1
; layer 1, Z = 0.180
T0
; tool H0.200 W0.480
; inner perimeter
G1 X45.025 Y67.700 F4200
G1 E0.0000 F1020
G92 E0
G1 X166.734 Y67.700 E4.8577 F1995
G1 X166.506 Y68.148 E4.8777
G1 X166.335 Y68.594 E4.8968
G1 X166.212 Y69.056 E4.9159
G1 X166.140 Y69.517 E4.9345
G1 X166.118 Y69.834 E4.9472
G1 X166.115 Y70.011 E4.9543
G1 X166.126 Y70.333 E4.9671
G1 X166.183 Y70.796 E4.9857
G1 X166.291 Y71.261 E5.0048
G1 X166.444 Y71.703 E5.0234
G1 X166.582 Y72.013 E5.0370
G1 X166.809 Y72.421 E5.0556
G1 X167.083 Y72.812 E5.0747
G1 X167.397 Y73.172 E5.0937
G1 X167.746 Y73.497 E5.1128
G1 X168.128 Y73.784 E5.1318
G1 X168.528 Y74.024 E5.1505
G1 X168.833 Y74.173 E5.1640
G1 X169.269 Y74.340 E5.1827
G1 X169.721 Y74.460 E5.2013
G1 X170.055 Y74.519 E5.2148
G1 X170.520 Y74.559 E5.2335
G1 X170.997 Y74.550 E5.2525
G1 X171.471 Y74.492 E5.2716
G1 X171.936 Y74.384 E5.2906
G1 X172.388 Y74.228 E5.3097
G1 X172.811 Y74.030 E5.3283
G1 X173.104 Y73.860 E5.3419
G1 X173.487 Y73.592 E5.3605
G1 X173.839 Y73.285 E5.3792
G1 X174.074 Y73.041 E5.3927
G1 X174.368 Y72.678 E5.4113
G1 X174.666 Y72.219 E5.4332
G1 X174.975 Y72.310 E5.4461
G1 X174.975 Y125.697 E7.5769
G1 X174.659 Y125.785 E7.5900
G1 X174.454 Y125.446 E7.6058
G1 X174.173 Y125.073 E7.6244
G1 X173.946 Y124.821 E7.6379
G1 X173.604 Y124.503 E7.6566
G1 X173.222 Y124.216 E7.6756
G1 X172.822 Y123.976 E7.6943
G1 X172.517 Y123.827 E7.7078
G1 X172.081 Y123.660 E7.7265
G1 X171.630 Y123.540 E7.7451
G1 X171.295 Y123.481 E7.7586
G1 X170.830 Y123.441 E7.7773
G1 X170.353 Y123.450 E7.7963
G1 X169.879 Y123.508 E7.8154
G1 X169.414 Y123.616 E7.8344
G1 X168.962 Y123.772 E7.8535
G1 X168.530 Y123.974 E7.8726
G1 X168.130 Y124.215 E7.8912
G1 X167.855 Y124.415 E7.9047
G1 X167.503 Y124.722 E7.9234
G1 X167.185 Y125.063 E7.9420
G1 X166.976 Y125.331 E7.9556
G1 X166.722 Y125.723 E7.9742
G1 X166.506 Y126.148 E7.9933
G1 X166.335 Y126.594 E8.0123
G1 X166.212 Y127.056 E8.0314
G1 X166.140 Y127.517 E8.0500
G1 X166.118 Y127.834 E8.0627
G1 X166.115 Y128.011 E8.0698
G1 X166.126 Y128.333 E8.0826
G1 X166.183 Y128.796 E8.1012
G1 X166.291 Y129.261 E8.1203
G1 X166.447 Y129.713 E8.1394
G1 X166.649 Y130.145 E8.1584
G1 X166.896 Y130.554 E8.1775
G1 X167.177 Y130.927 E8.1961
G1 X167.404 Y131.179 E8.2097
G1 X167.738 Y131.490 E8.2279
G1 X168.006 Y131.699 E8.2414
G1 X168.398 Y131.952 E8.2601
G1 X168.823 Y132.169 E8.2791
G1 X169.269 Y132.340 E8.2982
G1 X169.720 Y132.460 E8.3168
G1 X170.055 Y132.519 E8.3303
G1 X170.520 Y132.559 E8.3490
G1 X170.997 Y132.550 E8.3680
G1 X171.471 Y132.492 E8.3871
G1 X171.936 Y132.384 E8.4062
G1 X172.388 Y132.228 E8.4252
G1 X172.811 Y132.030 E8.4438
G1 X173.104 Y131.860 E8.4574
G1 X173.487 Y131.592 E8.4760
G1 X173.839 Y131.285 E8.4947
G1 X174.074 Y131.041 E8.5082
G1 X174.368 Y130.678 E8.5268
G1 X174.666 Y130.219 E8.5487
G1 X174.975 Y130.310 E8.5616
G1 X174.975 Y152.300 E9.4392
G1 X101.575 Y152.300 E12.3688
G1 X101.575 Y135.500 E13.0393
G1 X84.975 Y135.500 E13.7019
G1 X84.975 Y152.300 E14.3724
G1 X83.575 Y152.300 E14.4283
G1 X83.575 Y135.500 E15.0988
G1 X66.975 Y135.500 E15.7613
G1 X66.975 Y152.300 E16.4318
G1 X65.875 Y152.300 E16.4757
G1 X65.875 Y131.200 E17.3179
G1 X46.875 Y131.200 E18.0762
G1 X46.875 Y152.300 E18.9184
G1 X45.025 Y152.300 E18.9922
G1 X45.025 Y67.700 E22.3688
G1 X44.545 Y67.220 F4200
G92 E0
G1 X167.364 Y67.220 E4.9020 F1995
G1 X167.483 Y67.462 E4.9127
G1 X167.368 Y67.610 E4.9202
G1 X167.139 Y67.963 E4.9370
G1 X166.945 Y68.344 E4.9540
G1 X166.793 Y68.742 E4.9711
G1 X166.682 Y69.155 E4.9881
G1 X166.617 Y69.571 E5.0049
G1 X166.597 Y69.855 E5.0163
G1 X166.595 Y70.007 E5.0224
G1 X166.605 Y70.294 E5.0338
G1 X166.657 Y70.712 E5.0507
G1 X166.753 Y71.128 E5.0677
G1 X166.891 Y71.526 E5.0845
G1 X167.012 Y71.798 E5.0964
G1 X167.216 Y72.166 E5.1132
G1 X167.461 Y72.515 E5.1302
G1 X167.742 Y72.838 E5.1473
G1 X168.055 Y73.129 E5.1643
G1 X168.396 Y73.385 E5.1814
G1 X168.757 Y73.602 E5.1982
G1 X169.024 Y73.732 E5.2100
G1 X169.417 Y73.882 E5.2268
G1 X169.824 Y73.991 E5.2436
G1 X170.117 Y74.042 E5.2555
G1 X170.536 Y74.079 E5.2723
G1 X170.963 Y74.071 E5.2893
G1 X171.387 Y74.018 E5.3064
G1 X171.803 Y73.922 E5.3234
G1 X172.207 Y73.782 E5.3405
G1 X172.589 Y73.604 E5.3573
G1 X172.846 Y73.455 E5.3692
G1 X173.190 Y73.214 E5.3859
G1 X173.508 Y72.937 E5.4027
G1 X173.714 Y72.723 E5.4146
G1 X173.979 Y72.396 E5.4314
G1 X174.211 Y72.037 E5.4485
G1 X174.405 Y71.656 E5.4655
G1 X174.557 Y71.258 E5.4826
G1 X174.668 Y70.845 E5.4996
G1 X174.733 Y70.429 E5.5164
G1 X174.753 Y70.132 E5.5283
G1 X174.746 Y69.712 E5.5451
G1 X174.693 Y69.288 E5.5621
G1 X174.598 Y68.878 E5.5789
G1 X174.506 Y68.595 E5.5908
G1 X174.344 Y68.213 E5.6073
G1 X174.204 Y67.951 E5.6192
G1 X173.974 Y67.598 E5.6360
G1 X173.867 Y67.466 E5.6428
G1 X173.984 Y67.220 E5.6537
G1 X175.455 Y67.220 E5.7124
G1 X175.455 Y152.780 E9.1273
G1 X101.095 Y152.780 E12.0951
G1 X101.095 Y135.980 E12.7656
G1 X85.455 Y135.980 E13.3899
G1 X85.455 Y152.780 E14.0604
G1 X83.095 Y152.780 E14.1546
G1 X83.095 Y135.980 E14.8251
G1 X67.455 Y135.980 E15.4493
G1 X67.455 Y152.780 E16.1199
G1 X65.395 Y152.780 E16.2021
G1 X65.395 Y131.680 E17.0442
G1 X47.355 Y131.680 E17.7642
G1 X47.355 Y152.780 E18.6064
G1 X44.545 Y152.780 E18.7185
G1 X44.545 Y67.220 E22.1334
; outer perimeter
G1 X44.065 Y66.740 F4200
G92 E0
G1 X168.533 Y66.740 E4.9678 F1890
G1 X168.630 Y67.038 E4.9803
G1 X168.454 Y67.166 E4.9890
G1 X168.172 Y67.412 E5.0040
G1 X167.916 Y67.687 E5.0189
G1 X167.759 Y67.888 E5.0291
G1 X167.555 Y68.203 E5.0441
G1 X167.385 Y68.539 E5.0591
G1 X167.250 Y68.891 E5.0741
G1 X167.153 Y69.255 E5.0892
G1 X167.094 Y69.625 E5.1041
G1 X167.077 Y69.875 E5.1142
G1 X167.075 Y70.002 E5.1192
G1 X167.084 Y70.256 E5.1294
G1 X167.130 Y70.628 E5.1443
G1 X167.215 Y70.996 E5.1594
G1 X167.337 Y71.350 E5.1743
G1 X167.442 Y71.583 E5.1845
G1 X167.624 Y71.911 E5.1995
G1 X167.840 Y72.219 E5.2145
G1 X168.087 Y72.503 E5.2296
G1 X168.363 Y72.760 E5.2446
G1 X168.664 Y72.987 E5.2597
G1 X168.986 Y73.179 E5.2746
G1 X169.216 Y73.291 E5.2848
G1 X169.566 Y73.425 E5.2998
G1 X169.928 Y73.522 E5.3147
G1 X170.179 Y73.566 E5.3249
G1 X170.553 Y73.598 E5.3399
G1 X170.929 Y73.591 E5.3549
G1 X171.303 Y73.545 E5.3700
G1 X171.671 Y73.460 E5.3850
G1 X172.027 Y73.337 E5.4000
G1 X172.366 Y73.178 E5.4150
G1 X172.587 Y73.050 E5.4252
G1 X172.894 Y72.835 E5.4401
G1 X173.177 Y72.589 E5.4551
G1 X173.354 Y72.405 E5.4653
G1 X173.590 Y72.114 E5.4803
G1 X173.795 Y71.797 E5.4953
G1 X173.965 Y71.461 E5.5103
G1 X174.100 Y71.109 E5.5254
G1 X174.197 Y70.745 E5.5404
G1 X174.256 Y70.375 E5.5554
G1 X174.273 Y70.120 E5.5656
G1 X174.266 Y69.746 E5.5805
G1 X174.220 Y69.372 E5.5956
G1 X174.135 Y69.006 E5.6105
G1 X174.056 Y68.764 E5.6207
G1 X173.910 Y68.421 E5.6356
G1 X173.790 Y68.195 E5.6458
G1 X173.586 Y67.881 E5.6608
G1 X173.348 Y67.588 E5.6758
G1 X173.082 Y67.322 E5.6908
G1 X172.718 Y67.028 E5.7095
G1 X172.819 Y66.740 E5.7217
G1 X175.935 Y66.740 E5.8461
G1 X175.935 Y153.260 E9.2993
G1 X100.615 Y153.260 E12.3055
G1 X100.615 Y136.460 E12.9760
G1 X85.935 Y136.460 E13.5619
G1 X85.935 Y153.260 E14.2324
G1 X82.615 Y153.260 E14.3649
G1 X82.615 Y136.460 E15.0354
G1 X67.935 Y136.460 E15.6214
G1 X67.935 Y153.260 E16.2919
G1 X64.915 Y153.260 E16.4124
G1 X64.915 Y132.160 E17.2546
G1 X47.835 Y132.160 E17.9363
G1 X47.835 Y153.260 E18.7784
G1 X44.065 Y153.260 E18.9289
G1 X44.065 Y66.740 E22.3821
; inner perimeter
G1 X47.193 Y74.527 F4200
G92 E0
G1 X46.658 Y74.863 E0.0252 F1995
G1 X46.314 Y75.308 E0.0476
G1 X46.144 Y75.836 E0.0698
G1 X46.126 Y76.038 E0.0779
G1 X46.126 Y77.290 E0.1278
G1 X46.218 Y77.716 E0.1452
G1 X46.443 Y78.135 E0.1642
G1 X46.775 Y78.477 E0.1832
G1 X47.189 Y78.714 E0.2023
G1 X47.629 Y78.822 E0.2204
G1 X66.989 Y78.824 E0.9931
G1 X67.457 Y78.723 E1.0122
G1 X68.028 Y78.363 E1.0391
G1 X68.404 Y77.803 E1.0660
G1 X68.523 Y77.317 E1.0860
G1 X68.512 Y75.802 E1.1465
G1 X68.319 Y75.276 E1.1688
G1 X67.912 Y74.794 E1.1940
G1 X67.461 Y74.536 E1.2148
G1 X67.021 Y74.428 E1.2328
G1 X47.661 Y74.426 E2.0056
G1 X47.193 Y74.527 E2.0247
G1 X47.377 Y74.979 F4200
G92 E0
G1 X46.986 Y75.225 E0.0184 F1995
G1 X46.745 Y75.535 E0.0341
G1 X46.617 Y75.931 E0.0507
G1 X46.606 Y76.059 E0.0558
G1 X46.606 Y77.238 E0.1029
G1 X46.673 Y77.548 E0.1156
G1 X46.835 Y77.849 E0.1292
G1 X47.073 Y78.094 E0.1428
G1 X47.369 Y78.264 E0.1565
G1 X47.687 Y78.342 E0.1695
G1 X66.938 Y78.344 E0.9379
G1 X67.273 Y78.271 E0.9516
G1 X67.686 Y78.011 E0.9711
G1 X67.958 Y77.606 E0.9905
G1 X68.043 Y77.260 E1.0047
G1 X68.033 Y75.889 E1.0595
G1 X67.898 Y75.521 E1.0751
G1 X67.600 Y75.169 E1.0935
G1 X67.281 Y74.986 E1.1082
G1 X66.963 Y74.908 E1.1213
G1 X47.712 Y74.906 E1.8896
G1 X47.377 Y74.979 E1.9033
; outer perimeter
G1 X47.561 Y75.430 F4200
G92 E0
G1 X47.313 Y75.586 E0.0117 F1890
G1 X47.176 Y75.763 E0.0206
G1 X47.091 Y76.027 E0.0317
G1 X47.086 Y76.080 E0.0338
G1 X47.086 Y77.187 E0.0780
G1 X47.128 Y77.381 E0.0859
G1 X47.226 Y77.563 E0.0942
G1 X47.370 Y77.711 E0.1024
G1 X47.549 Y77.814 E0.1107
G1 X47.745 Y77.862 E0.1187
G1 X66.887 Y77.864 E0.8827
G1 X67.089 Y77.820 E0.8910
G1 X67.344 Y77.660 E0.9030
G1 X67.512 Y77.409 E0.9150
G1 X67.563 Y77.204 E0.9235
G1 X67.553 Y75.976 E0.9725
G1 X67.476 Y75.766 E0.9814
G1 X67.288 Y75.543 E0.9931
G1 X67.101 Y75.436 E1.0017
G1 X66.905 Y75.388 E1.0097
G1 X47.763 Y75.386 E1.7737
G1 X47.561 Y75.430 E1.7820
G92 E0
G1 E-1.0000 F3400
; inner perimeter
G1 X47.720 Y86.050 F4200
G1 E0.0000 F3400
G92 E0
G1 X47.216 Y86.139 E0.0204 F1995
G1 X46.625 Y86.508 E0.0482
G1 X46.248 Y87.068 E0.0752
G1 X46.140 Y87.502 E0.0930
G1 X46.126 Y87.662 E0.0994
G1 X46.125 Y88.823 E0.1458
G1 X46.168 Y89.174 E0.1599
G1 X46.343 Y89.606 E0.1785
G1 X46.662 Y90.015 E0.1992
G1 X47.198 Y90.350 E0.2244
G1 X47.664 Y90.449 E0.2434
G1 X66.941 Y90.450 E1.0128
G1 X67.481 Y90.345 E1.0348
G1 X68.031 Y89.974 E1.0613
G1 X68.362 Y89.519 E1.0837
G1 X68.524 Y88.954 E1.1072
G1 X68.525 Y87.677 E1.1581
G1 X68.477 Y87.283 E1.1740
G1 X68.205 Y86.726 E1.1987
G1 X67.831 Y86.365 E1.2194
G1 X67.410 Y86.141 E1.2385
G1 X66.986 Y86.051 E1.2558
G1 X47.720 Y86.050 E2.0247
G1 X47.762 Y86.530 F4200
G92 E0
G1 X47.391 Y86.595 E0.0150 F1995
G1 X46.966 Y86.861 E0.0350
G1 X46.693 Y87.266 E0.0545
