; G-Code generated by Simplify3D(R) Version 4.0.0
; Dec 21, 2019 at 1:02:12 PM
; Settings Summary
;   processName,Process1
;   applyToModels,GLCD_NoLetters
;   profileName,Default(2) (modified)
;   profileVersion,2019-07-27 15:21:07
;   baseProfile,
;   printMaterial,PLA
;   printQuality,Medium
;   printExtruders,
;   extruderName,Primary Extruder
;   extruderToolheadNumber,0
;   extruderDiameter,0.4
;   extruderAutoWidth,1
;   extruderWidth,0.48
;   extrusionMultiplier,0.9
;   extruderUseRetract,1
;   extruderRetractionDistance,1
;   extruderExtraRestartDistance,0
;   extruderRetractionZLift,0
;   extruderRetractionSpeed,1800
;   extruderUseCoasting,0
;   extruderCoastingDistance,0.2
;   extruderUseWipe,0
;   extruderWipeDistance,5
;   primaryExtruder,0
;   layerHeight,0.2
;   topSolidLayers,3
;   bottomSolidLayers,2
;   perimeterOutlines,3
;   printPerimetersInsideOut,1
;   startPointOption,2
;   startPointOriginX,0
;   startPointOriginY,0
;   sequentialIslands,0
;   spiralVaseMode,0
;   firstLayerHeightPercentage,90
;   firstLayerWidthPercentage,100
;   firstLayerUnderspeed,0.5
;   useRaft,0
;   raftExtruder,0
;   raftTopLayers,3
;   raftBaseLayers,2
;   raftOffset,3
;   raftSeparationDistance,0.14
;   raftTopInfill,100
;   aboveRaftSpeedMultiplier,0.3
;   useSkirt,0
;   skirtExtruder,0
;   skirtLayers,1
;   skirtOutlines,2
;   skirtOffset,4
;   usePrimePillar,0
;   primePillarExtruder,999
;   primePillarWidth,12
;   primePillarLocation,7
;   primePillarSpeedMultiplier,1
;   useOozeShield,0
;   oozeShieldExtruder,999
;   oozeShieldOffset,2
;   oozeShieldOutlines,1
;   oozeShieldSidewallShape,1
;   oozeShieldSidewallAngle,30
;   oozeShieldSpeedMultiplier,1
;   infillExtruder,0
;   internalInfillPattern,Rectilinear
;   externalInfillPattern,Rectilinear
;   infillPercentage,15
;   outlineOverlapPercentage,15
;   infillExtrusionWidthPercentage,100
;   minInfillLength,5
;   infillLayerInterval,1
;   internalInfillAngles,45,-45
;   overlapInternalInfillAngles,0
;   externalInfillAngles,45,-45
;   generateSupport,0
;   supportExtruder,0
;   supportInfillPercentage,30
;   supportExtraInflation,0
;   supportBaseLayers,0
;   denseSupportExtruder,0
;   denseSupportLayers,0
;   denseSupportInfillPercentage,70
;   supportLayerInterval,1
;   supportHorizontalPartOffset,0.4
;   supportUpperSeparationLayers,1
;   supportLowerSeparationLayers,1
;   supportType,0
;   supportGridSpacing,4
;   maxOverhangAngle,45
;   supportAngles,0
;   temperatureName,Primary Extruder,Hot Bed
;   temperatureNumber,0,1
;   temperatureSetpointCount,1,1
;   temperatureSetpointLayers,1,1
;   temperatureSetpointTemperatures,210,60
;   temperatureStabilizeAtStartup,1,0
;   temperatureHeatedBed,0,1
;   temperatureRelayBetweenLayers,0,0
;   temperatureRelayBetweenLoops,0,0
;   fanLayers,1,2
;   fanSpeeds,0,100
;   blipFanToFullPower,0
;   adjustSpeedForCooling,1
;   minSpeedLayerTime,15
;   minCoolingSpeedSlowdown,20
;   increaseFanForCooling,0
;   minFanLayerTime,45
;   maxCoolingFanSpeed,100
;   increaseFanForBridging,0
;   bridgingFanSpeed,100
;   use5D,1
;   relativeEdistances,0
;   allowEaxisZeroing,1
;   independentExtruderAxes,0
;   includeM10123,0
;   stickySupport,1
;   applyToolheadOffsets,0
;   gcodeXoffset,-9
;   gcodeYoffset,-4
;   gcodeZoffset,0
;   overrideMachineDefinition,0
;   machineTypeOverride,0
;   strokeXoverride,200
;   strokeYoverride,200
;   strokeZoverride,200
;   originOffsetXoverride,0
;   originOffsetYoverride,0
;   originOffsetZoverride,0
;   homeXdirOverride,-1
;   homeYdirOverride,-1
;   homeZdirOverride,-1
;   flipXoverride,1
;   flipYoverride,-1
;   flipZoverride,1
;   toolheadOffsets,0,0|0,0|0,0|0,0|0,0|0,0
;   overrideFirmwareConfiguration,0
;   firmwareTypeOverride,RepRap (Marlin/Repetier/Sprinter)
;   GPXconfigOverride,r2
;   baudRateOverride,115200
;   overridePrinterModels,0
;   printerModelsOverride
;   startingGcode,G28 ; home all axes,G1 X2 Y15 Z0.2 F3000 ; get ready to prime,G92 E0 ; reset extrusion distance,G1 Y150 E20 F600 ; prime nozzle
;   layerChangeGcode,
;   retractionGcode,
;   toolChangeGcode,
;   endingGcode,M104 S0 ; turn off extruder,M140 S0 ; turn off bed,G28 X Y ; home X & Y,M84 ; disable motors,M107; Fan off
;   exportFileFormat,gcode
;   celebration,0
;   celebrationSong,Random Song
;   postProcessing,
;   defaultSpeed,2000
;   outlineUnderspeed,0.5
;   solidInfillUnderspeed,0.8
;   supportUnderspeed,0.8
;   rapidXYspeed,4800
;   rapidZspeed,1000
;   minBridgingArea,50
;   bridgingExtraInflation,0
;   bridgingExtrusionMultiplier,1
;   bridgingSpeedMultiplier,1
;   useFixedBridgingAngle,0
;   fixedBridgingAngle,0
;   applyBridgingToPerimeters,0
;   filamentDiameters,1.75|1.75|1.75|1.75|1.75|1.75
;   filamentPricesPerKg,46|46|46|46|46|46
;   filamentDensities,1.25|1.25|1.25|1.25|1.25|1.25
;   useMinPrintHeight,0
;   minPrintHeight,46.5
;   useMaxPrintHeight,0
;   maxPrintHeight,46.3
;   useDiaphragm,0
;   diaphragmLayerInterval,20
;   robustSlicing,1
;   mergeAllIntoSolid,0
;   onlyRetractWhenCrossingOutline,1
;   retractBetweenLayers,1
;   useRetractionMinTravel,0
;   retractionMinTravel,3
;   retractWhileWiping,0
;   onlyWipeOutlines,1
;   avoidCrossingOutline,0
;   maxMovementDetourFactor,3
;   toolChangeRetractionDistance,12
;   toolChangeExtraRestartDistance,-0.5
;   toolChangeRetractionSpeed,600
;   externalThinWallType,1
;   internalThinWallType,2
;   thinWallAllowedOverlapPercentage,10
;   singleExtrusionMinLength,1
;   singleExtrusionMinPrintingWidthPercentage,50
;   singleExtrusionMaxPrintingWidthPercentage,200
;   singleExtrusionEndpointExtension,0.2
;   horizontalSizeCompensation,0
G90
M82
M106 S0
M140 S60
M104 S210 T0
M109 S210 T0
G28 ; home all axes
G1 X2 Y15 Z0.2 F3000 ; get ready to prime
G92 E0 ; reset extrusion distance
G1 Y150 E20 F600 ; prime nozzle
G92 E0
G1 E-1.0000 F1800
G1 Z0.180 F1000
; process Process1
; layer 1, Z = 0.180
T0
; tool H0.200 W0.480
; inner perimeter
G1 X65.574 Y68.574 F4800
G1 E0.0000 F540
G92 E0
G1 X159.426 Y68.574 E3.3712 F750
G1 X159.426 Y156.426 E6.5269
G1 X65.574 Y156.426 E9.8981
G1 X65.574 Y68.574 E13.0538
G1 X65.094 Y68.094 F4800
G92 E0
G1 X159.906 Y68.094 E3.4057 F750
G1 X159.906 Y156.906 E6.5959
G1 X65.094 Y156.906 E10.0016
G1 X65.094 Y68.094 E13.1918
; outer perimeter
G1 X65.019 Y67.614 F4800
G92 E0
G1 X159.985 Y67.614 E3.4113 F500
G1 X160.097 Y67.629 E3.4153
G1 X160.185 Y67.665 E3.4187
G1 X160.277 Y67.736 E3.4229
G1 X160.335 Y67.814 E3.4264
G1 X160.365 Y67.885 E3.4292
G1 X160.386 Y68.019 E3.4340
G1 X160.386 Y156.985 E6.6298
G1 X160.371 Y157.097 E6.6339
G1 X160.335 Y157.185 E6.6373
G1 X160.264 Y157.277 E6.6415
G1 X160.186 Y157.335 E6.6449
G1 X160.115 Y157.365 E6.6477
G1 X159.981 Y157.386 E6.6526
G1 X65.019 Y157.386 E10.0637
G1 X64.885 Y157.365 E10.0686
G1 X64.814 Y157.335 E10.0714
G1 X64.736 Y157.277 E10.0748
G1 X64.665 Y157.185 E10.0790
G1 X64.629 Y157.097 E10.0824
G1 X64.614 Y156.985 E10.0865
G1 X64.614 Y68.015 E13.2824
G1 X64.629 Y67.903 E13.2864
G1 X64.665 Y67.815 E13.2898
G1 X64.736 Y67.723 E13.2940
G1 X64.814 Y67.665 E13.2975
G1 X64.885 Y67.635 E13.3003
G1 X65.019 Y67.614 E13.3051
; inner perimeter
G1 X71.550 Y76.650 F4800
G92 E0
G1 X71.550 Y131.550 E1.9721 F750
G1 X153.450 Y131.550 E4.9140
G1 X153.450 Y76.650 E6.8860
G1 X71.550 Y76.650 E9.8280
G1 X72.030 Y77.130 F4800
G92 E0
G1 X72.030 Y131.070 E1.9376 F750
G1 X152.970 Y131.070 E4.8450
G1 X152.970 Y77.130 E6.7826
G1 X72.030 Y77.130 E9.6900
; outer perimeter
G1 X72.510 Y77.610 F4800
G92 E0
G1 X72.510 Y130.590 E1.9031 F500
G1 X152.490 Y130.590 E4.7760
G1 X152.490 Y77.610 E6.6791
G1 X72.510 Y77.610 E9.5521
G92 E0
G1 E-1.0000 F1800
; inner perimeter
G1 X74.443 Y139.972 F4800
G1 E0.0000 F1800
G92 E0
G1 X73.458 Y140.215 E0.0364 F750
G1 X72.559 Y140.686 E0.0729
G1 X71.800 Y141.359 E0.1093
G1 X71.223 Y142.194 E0.1458
G1 X70.863 Y143.143 E0.1822
G1 X70.741 Y144.150 E0.2187
G1 X70.863 Y145.157 E0.2551
G1 X71.223 Y146.106 E0.2916
G1 X71.800 Y146.941 E0.3280
G1 X72.559 Y147.614 E0.3645
G1 X73.458 Y148.085 E0.4009
G1 X74.443 Y148.328 E0.4374
G1 X75.457 Y148.328 E0.4738
G1 X76.442 Y148.085 E0.5103
G1 X77.341 Y147.614 E0.5467
G1 X78.100 Y146.941 E0.5831
G1 X78.677 Y146.106 E0.6196
G1 X79.037 Y145.157 E0.6560
G1 X79.159 Y144.150 E0.6925
G1 X79.037 Y143.143 E0.7289
G1 X78.677 Y142.194 E0.7654
G1 X78.100 Y141.359 E0.8018
G1 X77.341 Y140.686 E0.8383
G1 X76.442 Y140.215 E0.8747
G1 X75.457 Y139.972 E0.9112
G1 X74.443 Y139.972 E0.9476
G1 X74.501 Y140.452 F4800
G92 E0
G1 X73.629 Y140.667 E0.0323 F750
G1 X72.834 Y141.084 E0.0645
G1 X72.162 Y141.680 E0.0968
G1 X71.651 Y142.419 E0.1290
G1 X71.333 Y143.258 E0.1613
G1 X71.225 Y144.150 E0.1936
G1 X71.333 Y145.042 E0.2258
G1 X71.651 Y145.881 E0.2581
G1 X72.162 Y146.620 E0.2903
G1 X72.834 Y147.216 E0.3226
G1 X73.629 Y147.633 E0.3549
G1 X74.501 Y147.848 E0.3871
G1 X75.399 Y147.848 E0.4194
G1 X76.271 Y147.633 E0.4516
G1 X77.066 Y147.216 E0.4839
G1 X77.738 Y146.620 E0.5162
G1 X78.249 Y145.881 E0.5484
G1 X78.567 Y145.042 E0.5807
G1 X78.675 Y144.150 E0.6129
G1 X78.567 Y143.258 E0.6452
G1 X78.249 Y142.419 E0.6774
G1 X77.738 Y141.680 E0.7097
G1 X77.066 Y141.084 E0.7420
G1 X76.271 Y140.667 E0.7742
G1 X75.399 Y140.452 E0.8065
G1 X74.501 Y140.452 E0.8387
; outer perimeter
G1 X74.559 Y140.932 F4800
G92 E0
G1 X73.800 Y141.119 E0.0281 F500
G1 X73.108 Y141.482 E0.0561
G1 X72.523 Y142.000 E0.0842
G1 X72.080 Y142.643 E0.1123
G1 X71.802 Y143.374 E0.1404
G1 X71.708 Y144.150 E0.1684
G1 X71.802 Y144.926 E0.1965
G1 X72.080 Y145.657 E0.2246
G1 X72.523 Y146.300 E0.2527
G1 X73.108 Y146.818 E0.2807
G1 X73.800 Y147.181 E0.3088
G1 X74.559 Y147.368 E0.3369
G1 X75.341 Y147.368 E0.3649
G1 X76.100 Y147.181 E0.3930
G1 X76.792 Y146.818 E0.4211
G1 X77.376 Y146.300 E0.4492
G1 X77.820 Y145.656 E0.4772
G1 X78.098 Y144.926 E0.5053
G1 X78.192 Y144.150 E0.5334
G1 X78.098 Y143.374 E0.5614
G1 X77.820 Y142.643 E0.5895
G1 X77.376 Y142.000 E0.6176
G1 X76.792 Y141.482 E0.6457
G1 X76.100 Y141.119 E0.6737
G1 X75.341 Y140.932 E0.7018
G1 X74.559 Y140.932 E0.7299
; inner perimeter
G1 X99.787 Y143.550 F4800
G92 E0
G1 X99.787 Y146.950 E0.1221 F750
G1 X114.203 Y146.950 E0.6400
G1 X114.975 Y146.272 E0.6769
G1 X115.358 Y146.073 E0.6924
G1 X115.777 Y145.971 E0.7079
G1 X116.208 Y145.972 E0.7233
G1 X116.626 Y146.077 E0.7388
G1 X117.007 Y146.278 E0.7543
G1 X117.329 Y146.564 E0.7698
G1 X117.573 Y146.919 E0.7853
G1 X117.726 Y147.322 E0.8008
G1 X117.778 Y147.750 E0.8162
G1 X117.726 Y148.178 E0.8317
G1 X117.573 Y148.581 E0.8472
G1 X117.329 Y148.936 E0.8627
G1 X117.007 Y149.222 E0.8782
G1 X116.626 Y149.423 E0.8936
G1 X116.208 Y149.528 E0.9091
G1 X115.777 Y149.529 E0.9246
G1 X115.358 Y149.427 E0.9401
G1 X114.975 Y149.228 E0.9556
G1 X114.203 Y148.550 E0.9925
G1 X99.787 Y148.550 E1.5103
G1 X99.787 Y151.950 E1.6325
G1 X112.957 Y151.950 E2.1056
G1 X113.426 Y152.283 E2.1262
G1 X114.419 Y152.715 E2.1651
G1 X115.481 Y152.932 E2.2041
G1 X116.565 Y152.924 E2.2430
G1 X117.623 Y152.693 E2.2819
G1 X118.611 Y152.247 E2.3208
G1 X119.485 Y151.606 E2.3598
G1 X120.207 Y150.798 E2.3987
G1 X120.747 Y149.859 E2.4376
G1 X121.080 Y148.828 E2.4765
G1 X121.193 Y147.750 E2.5155
G1 X121.080 Y146.672 E2.5544
G1 X120.747 Y145.641 E2.5933
G1 X120.207 Y144.702 E2.6322
G1 X119.485 Y143.894 E2.6712
G1 X118.611 Y143.253 E2.7101
G1 X117.623 Y142.807 E2.7490
G1 X116.565 Y142.576 E2.7879
G1 X115.481 Y142.568 E2.8269
G1 X114.419 Y142.785 E2.8658
G1 X113.426 Y143.217 E2.9047
G1 X112.957 Y143.550 E2.9254
G1 X99.787 Y143.550 E3.3985
G1 X100.267 Y144.030 F4800
G92 E0
G1 X100.267 Y146.470 E0.0876 F750
G1 X114.022 Y146.470 E0.5817
G1 X114.702 Y145.872 E0.6143
G1 X115.188 Y145.620 E0.6339
G1 X115.720 Y145.491 E0.6536
G1 X116.267 Y145.493 E0.6733
G1 X116.798 Y145.625 E0.6929
G1 X117.282 Y145.880 E0.7126
G1 X117.691 Y146.244 E0.7322
G1 X118.002 Y146.695 E0.7519
G1 X118.195 Y147.207 E0.7716
G1 X118.261 Y147.750 E0.7912
G1 X118.195 Y148.293 E0.8109
G1 X118.002 Y148.805 E0.8305
G1 X117.691 Y149.256 E0.8502
G1 X117.282 Y149.620 E0.8699
G1 X116.798 Y149.875 E0.8895
G1 X116.267 Y150.007 E0.9092
G1 X115.720 Y150.009 E0.9288
G1 X115.188 Y149.880 E0.9485
G1 X114.702 Y149.628 E0.9682
G1 X114.022 Y149.030 E1.0007
G1 X100.267 Y149.030 E1.4948
G1 X100.267 Y151.470 E1.5824
G1 X113.111 Y151.470 E2.0438
G1 X113.663 Y151.863 E2.0682
G1 X114.565 Y152.255 E2.1035
G1 X115.528 Y152.452 E2.1388
G1 X116.511 Y152.445 E2.1741
G1 X117.472 Y152.234 E2.2094
G1 X118.368 Y151.830 E2.2447
G1 X119.161 Y151.249 E2.2801
G1 X119.816 Y150.516 E2.3154
G1 X120.306 Y149.663 E2.3507
G1 X120.608 Y148.728 E2.3860
G1 X120.711 Y147.750 E2.4213
G1 X120.608 Y146.772 E2.4566
G1 X120.306 Y145.837 E2.4920
G1 X119.816 Y144.984 E2.5273
G1 X119.161 Y144.251 E2.5626
G1 X118.368 Y143.670 E2.5979
G1 X117.472 Y143.266 E2.6332
G1 X116.511 Y143.055 E2.6685
G1 X115.528 Y143.048 E2.7039
G1 X114.565 Y143.245 E2.7392
G1 X113.663 Y143.637 E2.7745
G1 X113.111 Y144.030 E2.7988
G1 X100.267 Y144.030 E3.2602
; outer perimeter
G1 X100.747 Y144.510 F4800
G92 E0
G1 X100.747 Y145.990 E0.0532 F500
G1 X113.841 Y145.990 E0.5235
G1 X114.429 Y145.473 E0.5517
G1 X115.018 Y145.167 E0.5755
G1 X115.663 Y145.011 E0.5993
G1 X116.327 Y145.013 E0.6232
G1 X116.971 Y145.173 E0.6470
G1 X117.558 Y145.483 E0.6708
G1 X118.054 Y145.924 E0.6947
G1 X118.430 Y146.471 E0.7185
G1 X118.665 Y147.091 E0.7424
G1 X118.745 Y147.750 E0.7662
G1 X118.665 Y148.409 E0.7900
G1 X118.430 Y149.029 E0.8139
G1 X118.054 Y149.576 E0.8377
G1 X117.558 Y150.017 E0.8616
G1 X116.971 Y150.327 E0.8854
G1 X116.327 Y150.487 E0.9092
G1 X115.663 Y150.489 E0.9331
G1 X115.018 Y150.333 E0.9569
G1 X114.429 Y150.027 E0.9807
G1 X113.841 Y149.510 E1.0089
G1 X100.747 Y149.510 E1.4792
G1 X100.747 Y150.990 E1.5324
G1 X113.264 Y150.990 E1.9820
G1 X113.900 Y151.443 E2.0101
G1 X114.710 Y151.795 E2.0418
G1 X115.575 Y151.971 E2.0735
G1 X116.458 Y151.965 E2.1052
G1 X117.320 Y151.776 E2.1369
G1 X118.124 Y151.413 E2.1686
G1 X118.836 Y150.891 E2.2003
G1 X119.425 Y150.233 E2.2321
G1 X119.864 Y149.468 E2.2638
G1 X120.136 Y148.628 E2.2955
G1 X120.228 Y147.750 E2.3272
G1 X120.136 Y146.872 E2.3589
G1 X119.864 Y146.032 E2.3906
G1 X119.425 Y145.267 E2.4223
G1 X118.836 Y144.609 E2.4540
G1 X118.124 Y144.087 E2.4857
G1 X117.320 Y143.724 E2.5174
G1 X116.458 Y143.535 E2.5491
G1 X115.575 Y143.529 E2.5808
G1 X114.710 Y143.705 E2.6126
G1 X113.900 Y144.057 E2.6443
G1 X113.264 Y144.510 E2.6723
G1 X100.747 Y144.510 E3.1220
G92 E0
G1 E-1.0000 F1800
; inner perimeter
G1 X125.399 Y147.686 F4800
G1 E0.0000 F1800
G92 E0
G1 X125.790 Y147.686 E0.0141 F750
G1 X125.788 Y148.286 E0.0356
G1 X125.404 Y148.286 E0.0494
G1 X125.878 Y149.324 E0.0904
G1 X125.907 Y149.686 E0.1035
G1 X126.044 Y149.686 E0.1084
G1 X126.365 Y150.389 E0.1361
G1 X126.617 Y150.824 E0.1542
G1 X127.235 Y151.686 E0.1923
G1 X134.736 Y151.686 E0.4617
G1 X135.354 Y150.824 E0.4998
G1 X135.606 Y150.389 E0.5179
G1 X135.927 Y149.686 E0.5457
G1 X136.064 Y149.686 E0.5505
G1 X136.093 Y149.324 E0.5636
G1 X136.568 Y148.286 E0.6046
G1 X136.183 Y148.286 E0.6184
G1 X136.181 Y147.686 E0.6400
G1 X136.572 Y147.686 E0.6540
G1 X136.083 Y146.637 E0.6956
G1 X136.052 Y146.286 E0.7083
G1 X135.919 Y146.286 E0.7130
G1 X135.586 Y145.573 E0.7413
G1 X135.329 Y145.138 E0.7594
G1 X134.706 Y144.286 E0.7974
G1 X127.265 Y144.286 E1.0646
G1 X126.642 Y145.138 E1.1026
G1 X126.385 Y145.573 E1.1207
G1 X126.052 Y146.286 E1.1490
G1 X125.919 Y146.286 E1.1538
G1 X125.888 Y146.637 E1.1664
G1 X125.399 Y147.686 E1.2080
G1 X126.270 Y147.786 F4800
G92 E0
G1 X126.268 Y148.180 E0.0142 F750
G1 X126.315 Y148.766 E0.0353
G1 X126.151 Y148.766 E0.0412
G1 X126.350 Y149.201 E0.0584
G1 X126.350 Y149.206 E0.0585
G1 X126.352 Y149.206 E0.0586
G1 X126.792 Y150.168 E0.0966
G1 X127.021 Y150.563 E0.1130
G1 X127.482 Y151.206 E0.1414
G1 X134.489 Y151.206 E0.3931
G1 X134.950 Y150.563 E0.4215
G1 X135.179 Y150.168 E0.4379
G1 X135.619 Y149.206 E0.4759
G1 X135.621 Y149.202 E0.4761
G1 X135.820 Y148.766 E0.4933
G1 X135.656 Y148.766 E0.4992
G1 X135.703 Y148.180 E0.5203
G1 X135.701 Y147.786 E0.5345
G1 X135.651 Y147.206 E0.5554
G1 X135.819 Y147.206 E0.5614
G1 X135.612 Y146.763 E0.5790
G1 X135.161 Y145.797 E0.6173
