; G-Code generated by Simplify3D(R) Version 4.0.0
; Dec 21, 2019 at 1:02:56 PM
; Settings Summary
;   processName,Process1
;   applyToModels,GLCD_BOTTOM
;   profileName,Default(2) (modified)
;   profileVersion,2019-07-27 15:21:07
;   baseProfile,
;   printMaterial,PLA
;   printQuality,Medium
;   printExtruders,
;   extruderName,Primary Extruder
;   extruderToolheadNumber,0
;   extruderDiameter,0.4
;   extruderAutoWidth,1
;   extruderWidth,0.48
;   extrusionMultiplier,0.9
;   extruderUseRetract,1
;   extruderRetractionDistance,1
;   extruderExtraRestartDistance,0
;   extruderRetractionZLift,0
;   extruderRetractionSpeed,1800
;   extruderUseCoasting,0
;   extruderCoastingDistance,0.2
;   extruderUseWipe,0
;   extruderWipeDistance,5
;   primaryExtruder,0
;   layerHeight,0.2
;   topSolidLayers,3
;   bottomSolidLayers,2
;   perimeterOutlines,3
;   printPerimetersInsideOut,1
;   startPointOption,2
;   startPointOriginX,0
;   startPointOriginY,0
;   sequentialIslands,0
;   spiralVaseMode,0
;   firstLayerHeightPercentage,90
;   firstLayerWidthPercentage,100
;   firstLayerUnderspeed,0.5
;   useRaft,0
;   raftExtruder,0
;   raftTopLayers,3
;   raftBaseLayers,2
;   raftOffset,3
;   raftSeparationDistance,0.14
;   raftTopInfill,100
;   aboveRaftSpeedMultiplier,0.3
;   useSkirt,0
;   skirtExtruder,0
;   skirtLayers,1
;   skirtOutlines,2
;   skirtOffset,4
;   usePrimePillar,0
;   primePillarExtruder,999
;   primePillarWidth,12
;   primePillarLocation,7
;   primePillarSpeedMultiplier,1
;   useOozeShield,0
;   oozeShieldExtruder,999
;   oozeShieldOffset,2
;   oozeShieldOutlines,1
;   oozeShieldSidewallShape,1
;   oozeShieldSidewallAngle,30
;   oozeShieldSpeedMultiplier,1
;   infillExtruder,0
;   internalInfillPattern,Rectilinear
;   externalInfillPattern,Rectilinear
;   infillPercentage,15
;   outlineOverlapPercentage,15
;   infillExtrusionWidthPercentage,100
;   minInfillLength,5
;   infillLayerInterval,1
;   internalInfillAngles,45,-45
;   overlapInternalInfillAngles,0
;   externalInfillAngles,45,-45
;   generateSupport,1
;   supportExtruder,0
;   supportInfillPercentage,30
;   supportExtraInflation,0
;   supportBaseLayers,0
;   denseSupportExtruder,0
;   denseSupportLayers,0
;   denseSupportInfillPercentage,70
;   supportLayerInterval,1
;   supportHorizontalPartOffset,0.4
;   supportUpperSeparationLayers,1
;   supportLowerSeparationLayers,1
;   supportType,0
;   supportGridSpacing,4
;   maxOverhangAngle,45
;   supportAngles,0
;   temperatureName,Primary Extruder,Hot Bed
;   temperatureNumber,0,1
;   temperatureSetpointCount,1,1
;   temperatureSetpointLayers,1,1
;   temperatureSetpointTemperatures,210,60
;   temperatureStabilizeAtStartup,1,0
;   temperatureHeatedBed,0,1
;   temperatureRelayBetweenLayers,0,0
;   temperatureRelayBetweenLoops,0,0
;   fanLayers,1,2
;   fanSpeeds,0,100
;   blipFanToFullPower,0
;   adjustSpeedForCooling,1
;   minSpeedLayerTime,15
;   minCoolingSpeedSlowdown,20
;   increaseFanForCooling,0
;   minFanLayerTime,45
;   maxCoolingFanSpeed,100
;   increaseFanForBridging,0
;   bridgingFanSpeed,100
;   use5D,1
;   relativeEdistances,0
;   allowEaxisZeroing,1
;   independentExtruderAxes,0
;   includeM10123,0
;   stickySupport,1
;   applyToolheadOffsets,0
;   gcodeXoffset,-9
;   gcodeYoffset,-4
;   gcodeZoffset,0
;   overrideMachineDefinition,0
;   machineTypeOverride,0
;   strokeXoverride,200
;   strokeYoverride,200
;   strokeZoverride,200
;   originOffsetXoverride,0
;   originOffsetYoverride,0
;   originOffsetZoverride,0
;   homeXdirOverride,-1
;   homeYdirOverride,-1
;   homeZdirOverride,-1
;   flipXoverride,1
;   flipYoverride,-1
;   flipZoverride,1
;   toolheadOffsets,0,0|0,0|0,0|0,0|0,0|0,0
;   overrideFirmwareConfiguration,0
;   firmwareTypeOverride,RepRap (Marlin/Repetier/Sprinter)
;   GPXconfigOverride,r2
;   baudRateOverride,115200
;   overridePrinterModels,0
;   printerModelsOverride
;   startingGcode,G28 ; home all axes,G1 X2 Y15 Z0.2 F3000 ; get ready to prime,G92 E0 ; reset extrusion distance,G1 Y150 E20 F600 ; prime nozzle
;   layerChangeGcode,
;   retractionGcode,
;   toolChangeGcode,
;   endingGcode,M104 S0 ; turn off extruder,M140 S0 ; turn off bed,G28 X Y ; home X & Y,M84 ; disable motors,M107; Fan off
;   exportFileFormat,gcode
;   celebration,0
;   celebrationSong,Random Song
;   postProcessing,
;   defaultSpeed,2000
;   outlineUnderspeed,0.5
;   solidInfillUnderspeed,0.8
;   supportUnderspeed,0.8
;   rapidXYspeed,4800
;   rapidZspeed,1000
;   minBridgingArea,50
;   bridgingExtraInflation,0
;   bridgingExtrusionMultiplier,1
;   bridgingSpeedMultiplier,1
;   useFixedBridgingAngle,0
;   fixedBridgingAngle,0
;   applyBridgingToPerimeters,0
;   filamentDiameters,1.75|1.75|1.75|1.75|1.75|1.75
;   filamentPricesPerKg,46|46|46|46|46|46
;   filamentDensities,1.25|1.25|1.25|1.25|1.25|1.25
;   useMinPrintHeight,0
;   minPrintHeight,46.5
;   useMaxPrintHeight,0
;   maxPrintHeight,46.3
;   useDiaphragm,0
;   diaphragmLayerInterval,20
;   robustSlicing,1
;   mergeAllIntoSolid,0
;   onlyRetractWhenCrossingOutline,1
;   retractBetweenLayers,1
;   useRetractionMinTravel,0
;   retractionMinTravel,3
;   retractWhileWiping,0
;   onlyWipeOutlines,1
;   avoidCrossingOutline,0
;   maxMovementDetourFactor,3
;   toolChangeRetractionDistance,12
;   toolChangeExtraRestartDistance,-0.5
;   toolChangeRetractionSpeed,600
;   externalThinWallType,1
;   internalThinWallType,2
;   thinWallAllowedOverlapPercentage,10
;   singleExtrusionMinLength,1
;   singleExtrusionMinPrintingWidthPercentage,50
;   singleExtrusionMaxPrintingWidthPercentage,200
;   singleExtrusionEndpointExtension,0.2
;   horizontalSizeCompensation,0
G90
M82
M106 S0
M140 S60
M104 S210 T0
M109 S210 T0
G28 ; home all axes
G1 X2 Y15 Z0.2 F3000 ; get ready to prime
G92 E0 ; reset extrusion distance
G1 Y150 E20 F600 ; prime nozzle
G92 E0
G1 E-1.0000 F1800
G1 Z0.180 F1000
; process Process1
; layer 1, Z = 0.180
T0
; tool H0.200 W0.480
; inner perimeter
G1 X64.348 Y67.358 F4800
G1 E0.0000 F540
G92 E0
G1 X64.558 Y67.200 E0.0094 F750
G1 X64.771 Y67.114 E0.0177
G1 X65.077 Y67.074 E0.0288
G1 X159.923 Y67.074 E3.4357
G1 X160.229 Y67.114 E3.4468
G1 X160.442 Y67.200 E3.4551
G1 X160.652 Y67.358 E3.4645
G1 X160.789 Y67.536 E3.4726
G1 X160.878 Y67.747 E3.4808
G1 X160.926 Y68.084 E3.4930
G1 X160.926 Y70.019 E3.5625
G1 X160.611 Y70.108 E3.5743
G1 X160.267 Y69.548 E3.5979
G1 X160.053 Y69.279 E3.6102
G1 X159.650 Y68.875 E3.6307
G1 X159.419 Y68.661 E3.6420
G1 X159.159 Y68.484 E3.6533
G1 X158.676 Y68.180 E3.6738
G1 X158.366 Y68.031 E3.6862
G1 X157.533 Y67.750 E3.7178
G1 X156.661 Y67.642 E3.7493
G1 X156.310 Y67.642 E3.7619
G1 X155.438 Y67.750 E3.7935
G1 X154.605 Y68.031 E3.8251
G1 X154.289 Y68.183 E3.8376
G1 X153.550 Y68.659 E3.8692
G1 X152.922 Y69.274 E3.9008
G1 X152.708 Y69.542 E3.9131
G1 X152.404 Y70.026 E3.9336
G1 X152.247 Y70.298 E3.9449
G1 X152.132 Y70.591 E3.9563
G1 X151.943 Y71.130 E3.9768
G1 X151.867 Y71.465 E3.9891
G1 X151.780 Y72.324 E4.0201
G1 X151.804 Y72.653 E4.0320
G1 X151.868 Y73.220 E4.0525
G1 X151.945 Y73.556 E4.0648
G1 X152.244 Y74.382 E4.0964
G1 X152.704 Y75.131 E4.1280
G1 X152.922 Y75.405 E4.1406
G1 X153.550 Y76.020 E4.1721
G1 X154.289 Y76.496 E4.2037
G1 X154.599 Y76.645 E4.2161
G1 X155.138 Y76.833 E4.2366
G1 X155.439 Y76.926 E4.2479
G1 X155.750 Y76.973 E4.2592
G1 X156.317 Y77.037 E4.2797
G1 X156.661 Y77.037 E4.2920
G1 X157.533 Y76.929 E4.3236
G1 X158.366 Y76.648 E4.3552
G1 X158.682 Y76.496 E4.3678
G1 X159.421 Y76.020 E4.3993
G1 X160.049 Y75.405 E4.4309
G1 X160.263 Y75.137 E4.4432
G1 X160.613 Y74.580 E4.4669
G1 X160.926 Y74.670 E4.4785
G1 X160.926 Y135.026 E6.6466
G1 X160.613 Y135.116 E6.6583
G1 X160.168 Y134.406 E6.6884
G1 X159.423 Y133.661 E6.7262
G1 X158.532 Y133.100 E6.7641
G1 X157.538 Y132.751 E6.8019
G1 X156.491 Y132.632 E6.8397
G1 X155.477 Y132.745 E6.8764
G1 X155.327 Y132.788 E6.8820
G1 X154.449 Y133.096 E6.9154
G1 X153.557 Y133.654 E6.9532
G1 X152.811 Y134.398 E6.9911
G1 X152.247 Y135.290 E7.0290
G1 X151.894 Y136.305 E7.0676
G1 X151.778 Y137.339 E7.1049
G1 X151.898 Y138.396 E7.1432
G1 X152.249 Y139.391 E7.1810
G1 X152.811 Y140.281 E7.2189
G1 X153.556 Y141.024 E7.2567
G1 X154.429 Y141.573 E7.2937
G1 X155.442 Y141.930 E7.3323
G1 X156.491 Y142.047 E7.3702
G1 X157.538 Y141.928 E7.4080
G1 X158.532 Y141.579 E7.4459
G1 X159.423 Y141.018 E7.4837
G1 X160.168 Y140.273 E7.5216
G1 X160.613 Y139.563 E7.5517
G1 X160.926 Y139.653 E7.5633
G1 X160.926 Y156.923 E8.1837
G1 X160.886 Y157.229 E8.1948
G1 X160.800 Y157.442 E8.2030
G1 X160.646 Y157.646 E8.2122
G1 X160.442 Y157.800 E8.2214
G1 X160.229 Y157.886 E8.2296
G1 X159.923 Y157.926 E8.2407
G1 X65.077 Y157.926 E11.6477
G1 X64.771 Y157.886 E11.6588
G1 X64.558 Y157.800 E11.6670
G1 X64.354 Y157.646 E11.6762
G1 X64.200 Y157.442 E11.6854
G1 X64.113 Y157.228 E11.6937
G1 X64.074 Y156.932 E11.7044
G1 X64.074 Y139.812 E12.3193
G1 X64.387 Y139.722 E12.3310
G1 X64.734 Y140.275 E12.3545
G1 X65.479 Y141.020 E12.3923
G1 X66.372 Y141.581 E12.4302
G1 X67.367 Y141.929 E12.4680
G1 X68.414 Y142.047 E12.5059
G1 X69.462 Y141.929 E12.5438
G1 X70.457 Y141.581 E12.5817
G1 X71.350 Y141.020 E12.6195
G1 X72.095 Y140.275 E12.6574
G1 X72.656 Y139.382 E12.6952
G1 X73.004 Y138.387 E12.7331
G1 X73.122 Y137.339 E12.7710
G1 X73.004 Y136.292 E12.8088
G1 X72.656 Y135.297 E12.8467
G1 X72.095 Y134.404 E12.8846
G1 X71.350 Y133.659 E12.9225
G1 X70.457 Y133.098 E12.9603
G1 X69.462 Y132.750 E12.9982
G1 X68.414 Y132.632 E13.0360
G1 X67.367 Y132.750 E13.0739
G1 X66.372 Y133.098 E13.1118
G1 X65.479 Y133.659 E13.1497
G1 X64.734 Y134.404 E13.1875
G1 X64.387 Y134.957 E13.2109
G1 X64.074 Y134.867 E13.2226
G1 X64.074 Y74.823 E15.3794
G1 X64.389 Y74.734 E15.3912
G1 X64.633 Y75.131 E15.4079
G1 X64.851 Y75.405 E15.4205
G1 X65.479 Y76.020 E15.4521
G1 X66.218 Y76.496 E15.4837
G1 X66.528 Y76.645 E15.4960
G1 X67.067 Y76.833 E15.5165
G1 X67.368 Y76.926 E15.5278
G1 X67.679 Y76.973 E15.5391
G1 X68.246 Y77.037 E15.5596
G1 X68.590 Y77.037 E15.5720
G1 X69.462 Y76.929 E15.6035
G1 X70.295 Y76.648 E15.6351
G1 X70.610 Y76.496 E15.6477
G1 X71.350 Y76.020 E15.6793
G1 X71.978 Y75.405 E15.7108
G1 X72.192 Y75.137 E15.7232
G1 X72.496 Y74.653 E15.7437
G1 X72.653 Y74.381 E15.7550
G1 X72.768 Y74.088 E15.7663
G1 X72.957 Y73.549 E15.7868
G1 X73.033 Y73.214 E15.7992
G1 X73.122 Y72.339 E15.8307
G1 X73.033 Y71.465 E15.8623
G1 X72.955 Y71.123 E15.8749
G1 X72.656 Y70.297 E15.9065
G1 X72.196 Y69.548 E15.9380
G1 X71.982 Y69.279 E15.9504
G1 X71.578 Y68.875 E15.9709
G1 X71.348 Y68.661 E15.9822
G1 X71.088 Y68.484 E15.9935
G1 X70.605 Y68.180 E16.0140
G1 X70.295 Y68.031 E16.0263
G1 X69.462 Y67.750 E16.0579
G1 X68.590 Y67.642 E16.0895
G1 X68.239 Y67.642 E16.1021
G1 X67.367 Y67.750 E16.1336
G1 X66.534 Y68.031 E16.1652
G1 X66.218 Y68.183 E16.1778
G1 X65.479 Y68.659 E16.2094
G1 X64.851 Y69.274 E16.2410
G1 X64.637 Y69.542 E16.2533
G1 X64.387 Y69.940 E16.2702
G1 X64.074 Y69.850 E16.2819
G1 X64.074 Y68.084 E16.3453
G1 X64.122 Y67.747 E16.3575
G1 X64.211 Y67.536 E16.3658
G1 X64.348 Y67.358 E16.3738
G1 X64.008 Y67.014 F4800
G92 E0
G1 X64.320 Y66.779 E0.0140 F750
G1 X64.648 Y66.646 E0.0267
G1 X65.046 Y66.594 E0.0412
G1 X159.954 Y66.594 E3.4503
G1 X160.352 Y66.646 E3.4648
G1 X160.680 Y66.779 E3.4775
G1 X160.992 Y67.014 E3.4915
G1 X161.207 Y67.292 E3.5041
G1 X161.344 Y67.617 E3.5168
G1 X161.406 Y68.051 E3.5325
G1 X161.406 Y156.954 E6.7260
G1 X161.354 Y157.352 E6.7405
G1 X161.221 Y157.680 E6.7532
G1 X160.989 Y157.989 E6.7670
G1 X160.680 Y158.221 E6.7809
G1 X160.352 Y158.354 E6.7936
G1 X159.954 Y158.406 E6.8081
G1 X65.046 Y158.406 E10.2172
G1 X64.648 Y158.354 E10.2317
G1 X64.320 Y158.221 E10.2444
G1 X64.011 Y157.989 E10.2583
G1 X63.779 Y157.680 E10.2721
G1 X63.646 Y157.351 E10.2849
G1 X63.594 Y156.963 E10.2989
G1 X63.594 Y68.051 E13.4928
G1 X63.656 Y67.617 E13.5085
G1 X63.793 Y67.292 E13.5212
G1 X64.008 Y67.014 E13.5338
; outer perimeter
G1 X63.667 Y66.669 F4800
G92 E0
G1 X64.081 Y66.358 E0.0186 F500
G1 X64.525 Y66.178 E0.0358
G1 X65.015 Y66.114 E0.0536
G1 X159.985 Y66.114 E3.4650
G1 X160.475 Y66.178 E3.4827
G1 X160.919 Y66.358 E3.4999
G1 X161.333 Y66.669 E3.5185
G1 X161.624 Y67.047 E3.5357
G1 X161.811 Y67.488 E3.5529
G1 X161.886 Y68.017 E3.5721
G1 X161.886 Y156.985 E6.7679
G1 X161.822 Y157.475 E6.7856
G1 X161.642 Y157.919 E6.8028
G1 X161.332 Y158.332 E6.8214
G1 X160.919 Y158.642 E6.8400
G1 X160.475 Y158.822 E6.8571
G1 X159.985 Y158.886 E6.8749
G1 X65.015 Y158.886 E10.2863
G1 X64.525 Y158.822 E10.3041
G1 X64.081 Y158.642 E10.3213
G1 X63.668 Y158.332 E10.3398
G1 X63.358 Y157.919 E10.3584
G1 X63.178 Y157.475 E10.3756
G1 X63.117 Y157.014 E10.3923
G1 X63.114 Y156.988 E10.3932
G1 X63.114 Y68.017 E13.5891
G1 X63.189 Y67.488 E13.6083
G1 X63.376 Y67.047 E13.6255
G1 X63.667 Y66.669 E13.6427
; inner perimeter
G1 X65.780 Y69.036 F4800
G92 E0
G1 X65.208 Y69.596 E0.0288 F750
G1 X65.029 Y69.821 E0.0391
G1 X64.744 Y70.273 E0.0583
G1 X64.609 Y70.507 E0.0680
G1 X64.511 Y70.758 E0.0777
G1 X64.334 Y71.263 E0.0969
G1 X64.270 Y71.543 E0.1072
G1 X64.190 Y72.330 E0.1356
G1 X64.211 Y72.609 E0.1456
G1 X64.271 Y73.140 E0.1649
G1 X64.335 Y73.420 E0.1752
G1 X64.608 Y74.173 E0.2039
G1 X65.026 Y74.855 E0.2327
G1 X65.208 Y75.083 E0.2431
G1 X65.780 Y75.643 E0.2719
G1 X66.453 Y76.076 E0.3007
G1 X66.712 Y76.201 E0.3110
G1 X67.217 Y76.377 E0.3302
G1 X67.475 Y76.457 E0.3399
G1 X67.742 Y76.497 E0.3496
G1 X68.273 Y76.557 E0.3688
G1 X68.560 Y76.557 E0.3791
G1 X69.355 Y76.459 E0.4079
G1 X70.113 Y76.202 E0.4366
G1 X70.376 Y76.076 E0.4471
G1 X71.049 Y75.643 E0.4758
G1 X71.621 Y75.083 E0.5046
G1 X71.800 Y74.858 E0.5149
G1 X72.085 Y74.405 E0.5341
G1 X72.220 Y74.172 E0.5438
G1 X72.318 Y73.921 E0.5535
G1 X72.495 Y73.416 E0.5727
G1 X72.559 Y73.136 E0.5830
G1 X72.639 Y72.339 E0.6118
G1 X72.559 Y71.543 E0.6406
G1 X72.494 Y71.259 E0.6510
G1 X72.221 Y70.506 E0.6798
G1 X71.803 Y69.824 E0.7085
G1 X71.624 Y69.599 E0.7188
G1 X71.245 Y69.221 E0.7381
G1 X71.048 Y69.037 E0.7477
G1 X70.825 Y68.886 E0.7574
G1 X70.372 Y68.601 E0.7766
G1 X70.113 Y68.476 E0.7870
G1 X69.355 Y68.220 E0.8157
G1 X68.560 Y68.122 E0.8445
G1 X68.269 Y68.122 E0.8549
G1 X67.474 Y68.220 E0.8837
G1 X66.716 Y68.476 E0.9125
G1 X66.453 Y68.603 E0.9229
G1 X65.780 Y69.036 E0.9517
; outer perimeter
G1 X66.081 Y69.413 F4800
G92 E0
G1 X65.565 Y69.918 E0.0259 F500
G1 X65.421 Y70.099 E0.0342
G1 X65.155 Y70.521 E0.0521
G1 X65.043 Y70.716 E0.0602
G1 X64.961 Y70.925 E0.0683
G1 X64.796 Y71.396 E0.0862
G1 X64.745 Y71.621 E0.0945
G1 X64.672 Y72.336 E0.1203
G1 X64.689 Y72.564 E0.1285
G1 X64.745 Y73.059 E0.1464
G1 X64.796 Y73.284 E0.1547
G1 X65.043 Y73.963 E0.1807
G1 X65.420 Y74.579 E0.2066
G1 X65.565 Y74.760 E0.2150
G1 X66.081 Y75.265 E0.2409
G1 X66.688 Y75.657 E0.2668
G1 X66.896 Y75.757 E0.2751
G1 X67.367 Y75.921 E0.2931
G1 X67.582 Y75.988 E0.3011
G1 X67.804 Y76.021 E0.3092
G1 X68.300 Y76.077 E0.3271
G1 X68.530 Y76.077 E0.3354
G1 X69.247 Y75.988 E0.3613
G1 X69.932 Y75.757 E0.3873
G1 X70.141 Y75.657 E0.3956
G1 X70.748 Y75.266 E0.4216
G1 X71.264 Y74.760 E0.4475
G1 X71.408 Y74.580 E0.4558
G1 X71.673 Y74.158 E0.4737
G1 X71.786 Y73.963 E0.4818
G1 X71.868 Y73.754 E0.4899
G1 X72.033 Y73.283 E0.5078
G1 X72.084 Y73.058 E0.5161
G1 X72.157 Y72.339 E0.5420
G1 X72.084 Y71.621 E0.5680
G1 X72.032 Y71.395 E0.5763
G1 X71.786 Y70.716 E0.6022
G1 X71.409 Y70.100 E0.6282
G1 X71.265 Y69.920 E0.6365
G1 X70.912 Y69.567 E0.6544
G1 X70.748 Y69.414 E0.6625
G1 X70.562 Y69.287 E0.6705
G1 X70.139 Y69.022 E0.6885
G1 X69.932 Y68.922 E0.6967
G1 X69.247 Y68.691 E0.7227
G1 X68.530 Y68.602 E0.7486
G1 X68.298 Y68.602 E0.7570
G1 X67.582 Y68.691 E0.7829
G1 X66.897 Y68.922 E0.8089
G1 X66.688 Y69.022 E0.8172
G1 X66.081 Y69.413 E0.8431
G92 E0
G1 E-1.0000 F1800
; inner perimeter
G1 X82.800 Y72.800 F4800
G1 E0.0000 F1800
G92 E0
G1 X82.800 Y91.200 E0.6609 F750
G1 X142.200 Y91.200 E2.7946
G1 X142.200 Y72.800 E3.4556
G1 X82.800 Y72.800 E5.5893
G1 X83.280 Y73.280 F4800
G92 E0
G1 X83.280 Y90.720 E0.6265 F750
G1 X141.720 Y90.720 E2.7257
G1 X141.720 Y73.280 E3.3521
G1 X83.280 Y73.280 E5.4514
; outer perimeter
G1 X83.760 Y73.760 F4800
G92 E0
G1 X83.760 Y90.240 E0.5920 F500
G1 X141.240 Y90.240 E2.6567
G1 X141.240 Y73.760 E3.2487
