; G-Code generated by Simplify3D(R) Version 4.0.0
; Dec 21, 2019 at 1:03:32 PM
; Settings Summary
;   processName,Process1
;   applyToModels,Arm_Support,Back_Support,Base_support
;   profileName,Default(2) (modified)
;   profileVersion,2019-07-27 15:21:07
;   baseProfile,
;   printMaterial,PLA
;   printQuality,Medium
;   printExtruders,
;   extruderName,Primary Extruder
;   extruderToolheadNumber,0
;   extruderDiameter,0.4
;   extruderAutoWidth,1
;   extruderWidth,0.48
;   extrusionMultiplier,0.9
;   extruderUseRetract,1
;   extruderRetractionDistance,1
;   extruderExtraRestartDistance,0
;   extruderRetractionZLift,0
;   extruderRetractionSpeed,1800
;   extruderUseCoasting,0
;   extruderCoastingDistance,0.2
;   extruderUseWipe,0
;   extruderWipeDistance,5
;   primaryExtruder,0
;   layerHeight,0.2
;   topSolidLayers,3
;   bottomSolidLayers,2
;   perimeterOutlines,3
;   printPerimetersInsideOut,1
;   startPointOption,2
;   startPointOriginX,0
;   startPointOriginY,0
;   sequentialIslands,0
;   spiralVaseMode,0
;   firstLayerHeightPercentage,90
;   firstLayerWidthPercentage,100
;   firstLayerUnderspeed,0.5
;   useRaft,0
;   raftExtruder,0
;   raftTopLayers,3
;   raftBaseLayers,2
;   raftOffset,3
;   raftSeparationDistance,0.14
;   raftTopInfill,100
;   aboveRaftSpeedMultiplier,0.3
;   useSkirt,0
;   skirtExtruder,0
;   skirtLayers,1
;   skirtOutlines,2
;   skirtOffset,4
;   usePrimePillar,0
;   primePillarExtruder,999
;   primePillarWidth,12
;   primePillarLocation,7
;   primePillarSpeedMultiplier,1
;   useOozeShield,0
;   oozeShieldExtruder,999
;   oozeShieldOffset,2
;   oozeShieldOutlines,1
;   oozeShieldSidewallShape,1
;   oozeShieldSidewallAngle,30
;   oozeShieldSpeedMultiplier,1
;   infillExtruder,0
;   internalInfillPattern,Rectilinear
;   externalInfillPattern,Rectilinear
;   infillPercentage,50
;   outlineOverlapPercentage,15
;   infillExtrusionWidthPercentage,100
;   minInfillLength,5
;   infillLayerInterval,1
;   internalInfillAngles,45,-45
;   overlapInternalInfillAngles,0
;   externalInfillAngles,45,-45
;   generateSupport,0
;   supportExtruder,0
;   supportInfillPercentage,30
;   supportExtraInflation,0
;   supportBaseLayers,0
;   denseSupportExtruder,0
;   denseSupportLayers,0
;   denseSupportInfillPercentage,70
;   supportLayerInterval,1
;   supportHorizontalPartOffset,0.4
;   supportUpperSeparationLayers,1
;   supportLowerSeparationLayers,1
;   supportType,0
;   supportGridSpacing,4
;   maxOverhangAngle,45
;   supportAngles,0
;   temperatureName,Primary Extruder,Hot Bed
;   temperatureNumber,0,1
;   temperatureSetpointCount,1,1
;   temperatureSetpointLayers,1,1
;   temperatureSetpointTemperatures,210,60
;   temperatureStabilizeAtStartup,1,0
;   temperatureHeatedBed,0,1
;   temperatureRelayBetweenLayers,0,0
;   temperatureRelayBetweenLoops,0,0
;   fanLayers,1,2
;   fanSpeeds,0,100
;   blipFanToFullPower,0
;   adjustSpeedForCooling,1
;   minSpeedLayerTime,15
;   minCoolingSpeedSlowdown,20
;   increaseFanForCooling,0
;   minFanLayerTime,45
;   maxCoolingFanSpeed,100
;   increaseFanForBridging,0
;   bridgingFanSpeed,100
;   use5D,1
;   relativeEdistances,0
;   allowEaxisZeroing,1
;   independentExtruderAxes,0
;   includeM10123,0
;   stickySupport,1
;   applyToolheadOffsets,0
;   gcodeXoffset,-9
;   gcodeYoffset,-4
;   gcodeZoffset,0
;   overrideMachineDefinition,0
;   machineTypeOverride,0
;   strokeXoverride,200
;   strokeYoverride,200
;   strokeZoverride,200
;   originOffsetXoverride,0
;   originOffsetYoverride,0
;   originOffsetZoverride,0
;   homeXdirOverride,-1
;   homeYdirOverride,-1
;   homeZdirOverride,-1
;   flipXoverride,1
;   flipYoverride,-1
;   flipZoverride,1
;   toolheadOffsets,0,0|0,0|0,0|0,0|0,0|0,0
;   overrideFirmwareConfiguration,0
;   firmwareTypeOverride,RepRap (Marlin/Repetier/Sprinter)
;   GPXconfigOverride,r2
;   baudRateOverride,115200
;   overridePrinterModels,0
;   printerModelsOverride
;   startingGcode,G28 ; home all axes,G1 X2 Y15 Z0.2 F3000 ; get ready to prime,G92 E0 ; reset extrusion distance,G1 Y150 E20 F600 ; prime nozzle
;   layerChangeGcode,
;   retractionGcode,
;   toolChangeGcode,
;   endingGcode,M104 S0 ; turn off extruder,M140 S0 ; turn off bed,G28 X Y ; home X & Y,M84 ; disable motors,M107; Fan off
;   exportFileFormat,gcode
;   celebration,0
;   celebrationSong,Random Song
;   postProcessing,
;   defaultSpeed,2000
;   outlineUnderspeed,0.5
;   solidInfillUnderspeed,0.8
;   supportUnderspeed,0.8
;   rapidXYspeed,4800
;   rapidZspeed,1000
;   minBridgingArea,50
;   bridgingExtraInflation,0
;   bridgingExtrusionMultiplier,1
;   bridgingSpeedMultiplier,1
;   useFixedBridgingAngle,0
;   fixedBridgingAngle,0
;   applyBridgingToPerimeters,0
;   filamentDiameters,1.75|1.75|1.75|1.75|1.75|1.75
;   filamentPricesPerKg,46|46|46|46|46|46
;   filamentDensities,1.25|1.25|1.25|1.25|1.25|1.25
;   useMinPrintHeight,0
;   minPrintHeight,46.5
;   useMaxPrintHeight,0
;   maxPrintHeight,46.3
;   useDiaphragm,0
;   diaphragmLayerInterval,20
;   robustSlicing,1
;   mergeAllIntoSolid,0
;   onlyRetractWhenCrossingOutline,1
;   retractBetweenLayers,1
;   useRetractionMinTravel,0
;   retractionMinTravel,3
;   retractWhileWiping,0
;   onlyWipeOutlines,1
;   avoidCrossingOutline,0
;   maxMovementDetourFactor,3
;   toolChangeRetractionDistance,12
;   toolChangeExtraRestartDistance,-0.5
;   toolChangeRetractionSpeed,600
;   externalThinWallType,1
;   internalThinWallType,2
;   thinWallAllowedOverlapPercentage,10
;   singleExtrusionMinLength,1
;   singleExtrusionMinPrintingWidthPercentage,50
;   singleExtrusionMaxPrintingWidthPercentage,200
;   singleExtrusionEndpointExtension,0.2
;   horizontalSizeCompensation,0
G90
M82
M106 S0
M140 S60
M104 S210 T0
M109 S210 T0
G28 ; home all axes
G1 X2 Y15 Z0.2 F3000 ; get ready to prime
G92 E0 ; reset extrusion distance
G1 Y150 E20 F600 ; prime nozzle
G92 E0
G1 E-1.0000 F1800
G1 Z0.180 F1000
; process Process1
; layer 1, Z = 0.180
T0
; tool H0.200 W0.480
; inner perimeter
G1 X89.950 Y87.693 F4800
G1 E0.0000 F540
G92 E0
G1 X127.549 Y87.693 E1.3506 F750
G1 X127.550 Y94.419 E1.5922
G1 X127.261 Y94.521 E1.6032
G1 X127.067 Y94.279 E1.6143
G1 X126.659 Y93.919 E1.6339
G1 X126.197 Y93.634 E1.6534
G1 X125.693 Y93.430 E1.6729
G1 X125.162 Y93.315 E1.6924
G1 X124.618 Y93.291 E1.7120
G1 X124.072 Y93.361 E1.7318
G1 X123.559 Y93.518 E1.7510
G1 X123.074 Y93.762 E1.7705
G1 X122.637 Y94.084 E1.7900
G1 X122.260 Y94.476 E1.8096
G1 X121.955 Y94.926 E1.8291
G1 X121.730 Y95.421 E1.8486
G1 X121.593 Y95.946 E1.8681
G1 X121.546 Y96.488 E1.8876
G1 X121.591 Y97.029 E1.9072
G1 X121.727 Y97.555 E1.9267
G1 X121.950 Y98.051 E1.9462
G1 X122.254 Y98.502 E1.9657
G1 X122.629 Y98.895 E1.9853
G1 X123.066 Y99.218 E2.0048
G1 X123.551 Y99.464 E2.0243
G1 X124.070 Y99.624 E2.0438
G1 X124.609 Y99.694 E2.0633
G1 X125.152 Y99.671 E2.0829
G1 X125.684 Y99.558 E2.1024
G1 X126.188 Y99.356 E2.1219
G1 X126.651 Y99.072 E2.1414
G1 X127.060 Y98.713 E2.1610
G1 X127.262 Y98.464 E2.1725
G1 X127.550 Y98.566 E2.1834
G1 X127.550 Y105.292 E2.4251
G1 X89.951 Y105.293 E3.7757
G1 X89.950 Y98.577 E4.0169
G1 X90.222 Y98.468 E4.0274
G1 X90.629 Y98.895 E4.0486
G1 X91.066 Y99.218 E4.0681
G1 X91.551 Y99.464 E4.0877
G1 X92.070 Y99.624 E4.1072
G1 X92.609 Y99.694 E4.1267
G1 X93.152 Y99.671 E4.1462
G1 X93.684 Y99.558 E4.1657
G1 X94.188 Y99.356 E4.1853
G1 X94.651 Y99.072 E4.2048
G1 X95.060 Y98.713 E4.2243
G1 X95.402 Y98.291 E4.2438
G1 X95.668 Y97.817 E4.2634
G1 X95.850 Y97.305 E4.2829
G1 X95.942 Y96.769 E4.3024
G1 X95.943 Y96.226 E4.3219
G1 X95.852 Y95.690 E4.3414
G1 X95.672 Y95.177 E4.3610
G1 X95.407 Y94.702 E4.3805
G1 X95.067 Y94.279 E4.4000
G1 X94.659 Y93.919 E4.4195
G1 X94.197 Y93.634 E4.4391
G1 X93.693 Y93.430 E4.4586
G1 X93.162 Y93.315 E4.4781
G1 X92.618 Y93.291 E4.4977
G1 X92.072 Y93.361 E4.5174
G1 X91.559 Y93.518 E4.5367
G1 X91.074 Y93.762 E4.5562
G1 X90.637 Y94.084 E4.5757
G1 X90.221 Y94.517 E4.5973
G1 X89.950 Y94.408 E4.6077
G1 X89.950 Y87.693 E4.8489
G1 X89.470 Y87.213 F4800
G92 E0
G1 X128.029 Y87.213 E1.3851 F750
G1 X128.030 Y105.772 E2.0517
G1 X89.471 Y105.773 E3.4368
G1 X89.470 Y87.213 E4.1035
; outer perimeter
G1 X88.990 Y86.733 F4800
G92 E0
G1 X128.509 Y86.733 E1.4196 F500
G1 X128.510 Y106.252 E2.1207
G1 X88.991 Y106.253 E3.5403
G1 X88.990 Y86.733 E4.2414
; inner perimeter
G1 X91.738 Y93.965 F4800
G92 E0
G1 X91.326 Y94.172 E0.0166 F750
G1 X90.954 Y94.446 E0.0332
G1 X90.634 Y94.779 E0.0497
G1 X90.375 Y95.161 E0.0663
G1 X90.184 Y95.582 E0.0829
G1 X90.067 Y96.028 E0.0995
G1 X90.028 Y96.488 E0.1161
G1 X90.066 Y96.949 E0.1327
G1 X90.182 Y97.396 E0.1493
G1 X90.371 Y97.817 E0.1659
G1 X90.629 Y98.200 E0.1824
G1 X90.948 Y98.534 E0.1990
G1 X91.319 Y98.809 E0.2156
G1 X91.731 Y99.017 E0.2322
G1 X92.172 Y99.153 E0.2488
G1 X92.630 Y99.212 E0.2654
G1 X93.092 Y99.194 E0.2820
G1 X93.543 Y99.097 E0.2985
G1 X93.972 Y98.925 E0.3151
G1 X94.366 Y98.684 E0.3317
G1 X94.713 Y98.379 E0.3483
G1 X95.003 Y98.021 E0.3649
G1 X95.229 Y97.618 E0.3815
G1 X95.384 Y97.183 E0.3981
G1 X95.462 Y96.728 E0.4147
G1 X95.463 Y96.266 E0.4312
G1 X95.386 Y95.811 E0.4478
G1 X95.233 Y95.375 E0.4644
G1 X95.008 Y94.972 E0.4810
G1 X94.718 Y94.612 E0.4976
G1 X94.372 Y94.306 E0.5142
G1 X93.979 Y94.063 E0.5308
G1 X93.551 Y93.891 E0.5474
G1 X93.100 Y93.793 E0.5639
G1 X92.638 Y93.772 E0.5805
G1 X92.173 Y93.832 E0.5974
G1 X91.738 Y93.965 E0.6137
; outer perimeter
G1 X91.918 Y94.412 F4800
G92 E0
G1 X91.578 Y94.583 E0.0136 F500
G1 X91.272 Y94.808 E0.0273
G1 X91.009 Y95.082 E0.0410
G1 X90.795 Y95.397 E0.0546
G1 X90.638 Y95.743 E0.0683
G1 X90.542 Y96.111 E0.0819
G1 X90.509 Y96.489 E0.0956
G1 X90.541 Y96.868 E0.1092
G1 X90.636 Y97.236 E0.1229
G1 X90.792 Y97.582 E0.1365
G1 X91.004 Y97.898 E0.1502
G1 X91.267 Y98.172 E0.1638
G1 X91.572 Y98.399 E0.1775
G1 X91.911 Y98.570 E0.1911
G1 X92.275 Y98.682 E0.2048
G1 X92.651 Y98.731 E0.2184
G1 X93.031 Y98.716 E0.2321
G1 X93.403 Y98.636 E0.2457
G1 X93.756 Y98.495 E0.2594
G1 X94.080 Y98.296 E0.2730
G1 X94.365 Y98.045 E0.2867
G1 X94.605 Y97.750 E0.3003
G1 X94.790 Y97.419 E0.3140
G1 X94.918 Y97.061 E0.3276
G1 X94.982 Y96.686 E0.3413
G1 X94.983 Y96.306 E0.3549
G1 X94.919 Y95.931 E0.3686
G1 X94.793 Y95.573 E0.3822
G1 X94.608 Y95.241 E0.3959
G1 X94.370 Y94.945 E0.4096
G1 X94.085 Y94.693 E0.4232
G1 X93.762 Y94.493 E0.4369
G1 X93.409 Y94.351 E0.4505
G1 X93.038 Y94.270 E0.4642
G1 X92.658 Y94.254 E0.4778
G1 X92.275 Y94.303 E0.4917
G1 X91.918 Y94.412 E0.5051
; inner perimeter
G1 X122.028 Y96.488 F4800
G92 E0
G1 X122.066 Y96.949 E0.0166 F750
G1 X122.182 Y97.396 E0.0332
G1 X122.371 Y97.817 E0.0498
G1 X122.629 Y98.200 E0.0663
G1 X122.948 Y98.534 E0.0829
G1 X123.319 Y98.809 E0.0995
G1 X123.731 Y99.017 E0.1161
G1 X124.172 Y99.153 E0.1327
G1 X124.630 Y99.212 E0.1493
G1 X125.092 Y99.194 E0.1659
G1 X125.543 Y99.097 E0.1825
G1 X125.972 Y98.925 E0.1990
G1 X126.366 Y98.684 E0.2156
G1 X126.713 Y98.379 E0.2322
G1 X127.003 Y98.021 E0.2488
G1 X127.229 Y97.618 E0.2654
G1 X127.384 Y97.183 E0.2820
G1 X127.462 Y96.728 E0.2986
G1 X127.463 Y96.266 E0.3152
G1 X127.386 Y95.811 E0.3317
G1 X127.232 Y95.375 E0.3483
G1 X127.008 Y94.971 E0.3649
G1 X126.718 Y94.612 E0.3815
G1 X126.372 Y94.306 E0.3981
G1 X125.979 Y94.063 E0.4147
G1 X125.551 Y93.891 E0.4313
G1 X125.100 Y93.793 E0.4479
G1 X124.638 Y93.772 E0.4645
G1 X124.173 Y93.832 E0.4813
G1 X123.738 Y93.965 E0.4976
G1 X123.326 Y94.172 E0.5142
G1 X122.954 Y94.446 E0.5308
G1 X122.634 Y94.779 E0.5474
G1 X122.375 Y95.161 E0.5640
G1 X122.184 Y95.582 E0.5805
G1 X122.067 Y96.028 E0.5971
G1 X122.028 Y96.488 E0.6137
; outer perimeter
G1 X122.509 Y96.489 F4800
G92 E0
G1 X122.541 Y96.868 E0.0137 F500
G1 X122.636 Y97.236 E0.0273
G1 X122.792 Y97.582 E0.0410
G1 X123.004 Y97.898 E0.0546
G1 X123.267 Y98.172 E0.0683
G1 X123.572 Y98.399 E0.0819
G1 X123.911 Y98.570 E0.0956
G1 X124.275 Y98.682 E0.1092
G1 X124.651 Y98.731 E0.1229
G1 X125.031 Y98.716 E0.1365
G1 X125.403 Y98.636 E0.1502
G1 X125.756 Y98.495 E0.1638
G1 X126.080 Y98.296 E0.1775
G1 X126.365 Y98.045 E0.1911
G1 X126.605 Y97.750 E0.2048
G1 X126.790 Y97.419 E0.2184
G1 X126.918 Y97.060 E0.2321
G1 X126.982 Y96.686 E0.2457
G1 X126.983 Y96.306 E0.2594
G1 X126.919 Y95.931 E0.2730
G1 X126.793 Y95.573 E0.2867
G1 X126.608 Y95.241 E0.3003
G1 X126.370 Y94.945 E0.3140
G1 X126.085 Y94.693 E0.3276
G1 X125.762 Y94.493 E0.3413
G1 X125.409 Y94.351 E0.3550
G1 X125.038 Y94.270 E0.3686
G1 X124.658 Y94.254 E0.3823
G1 X124.275 Y94.303 E0.3961
G1 X123.918 Y94.412 E0.4096
G1 X123.578 Y94.583 E0.4232
G1 X123.272 Y94.808 E0.4369
G1 X123.009 Y95.082 E0.4505
G1 X122.795 Y95.397 E0.4642
G1 X122.638 Y95.743 E0.4778
G1 X122.542 Y96.111 E0.4915
G1 X122.509 Y96.489 E0.5051
G92 E0
G1 E-1.0000 F1800
; gap fill
G1 X127.469 Y94.885 F4800
G1 E0.0000 F1800
G92 E0
G1 X127.617 Y95.033 E0.0075 F800
G92 E0
G1 E-1.0000 F1800
G1 X89.976 Y98.122 F4800
G1 E0.0000 F1800
G92 E0
G1 X89.883 Y98.029 E0.0047 F800
; solid layer
G1 X90.376 Y93.770 F4800
G92 E0
G1 X90.358 Y93.752 E0.0009 F800
G1 X90.358 Y93.073 E0.0253
G1 X90.766 Y93.482 E0.0460
G1 X90.860 Y93.413 E0.0502
G1 X91.204 Y93.240 E0.0640
G1 X90.358 Y92.395 E0.1069
G1 X90.358 Y91.716 E0.1313
G1 X91.693 Y93.050 E0.1991
G1 X91.986 Y92.961 E0.2101
G1 X92.248 Y92.927 E0.2196
G1 X90.358 Y91.037 E0.3156
G1 X90.358 Y90.358 E0.3400
G1 X92.895 Y92.895 E0.4689
G1 X93.214 Y92.909 E0.4804
G1 X93.691 Y93.012 E0.4979
G1 X90.358 Y89.679 E0.6672
G1 X90.358 Y89.000 E0.6916
G1 X95.286 Y93.928 E0.9420
G1 X95.363 Y93.996 E0.9456
G1 X95.400 Y94.042 E0.9477
G1 X106.242 Y104.884 E1.4985
G1 X106.921 Y104.884 E1.5229
G1 X90.358 Y88.322 E2.3643
G1 X90.358 Y88.101 E2.3722
G1 X90.816 Y88.101 E2.3887
G1 X107.600 Y104.884 E3.2413
G1 X108.278 Y104.884 E3.2656
G1 X91.495 Y88.101 E4.1182
G1 X92.174 Y88.101 E4.1426
G1 X108.957 Y104.884 E4.9952
G1 X109.636 Y104.884 E5.0196
G1 X92.853 Y88.101 E5.8721
G1 X93.532 Y88.101 E5.8965
G1 X110.315 Y104.884 E6.7491
G1 X110.994 Y104.884 E6.7735
G1 X94.211 Y88.101 E7.6261
G1 X94.889 Y88.101 E7.6504
G1 X111.672 Y104.884 E8.5030
G1 X112.351 Y104.884 E8.5274
G1 X95.568 Y88.101 E9.3800
G1 X96.247 Y88.101 E9.4044
G1 X113.030 Y104.884 E10.2569
G1 X113.709 Y104.884 E10.2813
G1 X96.926 Y88.101 E11.1339
G1 X97.605 Y88.101 E11.1583
G1 X114.388 Y104.884 E12.0109
G1 X115.066 Y104.884 E12.0352
G1 X98.284 Y88.101 E12.8878
G1 X98.962 Y88.101 E12.9122
G1 X115.745 Y104.884 E13.7648
G1 X116.424 Y104.884 E13.7892
G1 X99.641 Y88.101 E14.6417
G1 X100.320 Y88.101 E14.6661
G1 X117.103 Y104.884 E15.5187
G1 X117.782 Y104.884 E15.5431
G1 X100.999 Y88.101 E16.3956
G1 X101.678 Y88.101 E16.4200
G1 X118.461 Y104.884 E17.2726
G1 X119.139 Y104.884 E17.2970
G1 X102.356 Y88.101 E18.1495
G1 X103.035 Y88.101 E18.1739
G1 X119.818 Y104.884 E19.0265
G1 X120.497 Y104.884 E19.0509
G1 X103.714 Y88.101 E19.9035
G1 X104.393 Y88.101 E19.9278
G1 X121.176 Y104.884 E20.7804
G1 X121.855 Y104.884 E20.8048
G1 X105.072 Y88.101 E21.6574
G1 X105.751 Y88.101 E21.6817
G1 X122.533 Y104.884 E22.5343
G1 X123.212 Y104.884 E22.5587
G1 X106.429 Y88.101 E23.4113
G1 X107.108 Y88.101 E23.4356
G1 X123.891 Y104.884 E24.2882
G1 X124.570 Y104.884 E24.3126
G1 X107.787 Y88.101 E25.1652
G1 X108.466 Y88.101 E25.1895
G1 X125.249 Y104.884 E26.0421
G1 X125.927 Y104.884 E26.0665
G1 X109.145 Y88.101 E26.9191
G1 X109.823 Y88.101 E26.9434
G1 X126.606 Y104.884 E27.7960
G1 X127.142 Y104.884 E27.8152
G1 X127.142 Y104.741 E27.8204
G1 X110.502 Y88.101 E28.6657
G1 X111.181 Y88.101 E28.6901
G1 X127.142 Y104.062 E29.5009
G1 X127.142 Y103.383 E29.5253
G1 X123.694 Y99.935 E29.7004
G1 X123.398 Y99.844 E29.7116
G1 X122.851 Y99.567 E29.7336
G1 X122.358 Y99.202 E29.7556
G1 X121.935 Y98.758 E29.7776
G1 X121.593 Y98.250 E29.7996
G1 X121.341 Y97.691 E29.8216
G1 X121.303 Y97.544 E29.8271
G1 X111.860 Y88.101 E30.3068
G1 X112.539 Y88.101 E30.3312
G1 X121.156 Y96.718 E30.7689
G1 X121.136 Y96.487 E30.7772
G1 X121.174 Y96.057 E30.7927
G1 X113.218 Y88.101 E31.1969
G1 X113.896 Y88.101 E31.2213
G1 X121.289 Y95.494 E31.5969
G1 X121.345 Y95.283 E31.6047
G1 X121.473 Y94.999 E31.6159
G1 X114.575 Y88.101 E31.9663
G1 X115.254 Y88.101 E31.9907
G1 X121.711 Y94.558 E32.3187
G1 X121.942 Y94.218 E32.3335
G1 X121.995 Y94.163 E32.3362
G1 X115.933 Y88.101 E32.6442
