; G-Code generated by Simplify3D(R) Version 4.0.0
; May 19, 2018 at 5:58:00 PM
; Settings Summary
;   processName,nozzle 0.4
;   applyToModels,cog,cog_shaft,full_auto_trigger,hook,single_shot_trigger,trigger_shaft
;   profileName,Flying Bear 902 Update 7-2017 (modified)
;   profileVersion,2017-07-10 09:45:20
;   baseProfile,Default
;   printMaterial,PLA
;   printQuality,Medium
;   printExtruders,
;   extruderName,Extruder 1
;   extruderToolheadNumber,0
;   extruderDiameter,0.4
;   extruderAutoWidth,1
;   extruderWidth,0.48
;   extrusionMultiplier,0.9
;   extruderUseRetract,1
;   extruderRetractionDistance,3
;   extruderExtraRestartDistance,0
;   extruderRetractionZLift,0
;   extruderRetractionSpeed,3000
;   extruderUseCoasting,0
;   extruderCoastingDistance,0.2
;   extruderUseWipe,1
;   extruderWipeDistance,5
;   primaryExtruder,0
;   layerHeight,0.3
;   topSolidLayers,3
;   bottomSolidLayers,2
;   perimeterOutlines,3
;   printPerimetersInsideOut,0
;   startPointOption,2
;   startPointOriginX,0
;   startPointOriginY,0
;   sequentialIslands,0
;   spiralVaseMode,0
;   firstLayerHeightPercentage,20
;   firstLayerWidthPercentage,115
;   firstLayerUnderspeed,0.3
;   useRaft,0
;   raftExtruder,0
;   raftTopLayers,2
;   raftBaseLayers,2
;   raftOffset,2
;   raftSeparationDistance,0.3
;   raftTopInfill,100
;   aboveRaftSpeedMultiplier,0.3
;   useSkirt,0
;   skirtExtruder,0
;   skirtLayers,1
;   skirtOutlines,2
;   skirtOffset,4
;   usePrimePillar,0
;   primePillarExtruder,999
;   primePillarWidth,12
;   primePillarLocation,7
;   primePillarSpeedMultiplier,1
;   useOozeShield,0
;   oozeShieldExtruder,999
;   oozeShieldOffset,2
;   oozeShieldOutlines,1
;   oozeShieldSidewallShape,1
;   oozeShieldSidewallAngle,30
;   oozeShieldSpeedMultiplier,1
;   infillExtruder,0
;   internalInfillPattern,Rectilinear
;   externalInfillPattern,Rectilinear
;   infillPercentage,100
;   outlineOverlapPercentage,60
;   infillExtrusionWidthPercentage,100
;   minInfillLength,5
;   infillLayerInterval,1
;   internalInfillAngles,45,-45
;   overlapInternalInfillAngles,0
;   externalInfillAngles,45,-45
;   generateSupport,1
;   supportExtruder,0
;   supportInfillPercentage,30
;   supportExtraInflation,0
;   supportBaseLayers,0
;   denseSupportExtruder,0
;   denseSupportLayers,0
;   denseSupportInfillPercentage,50
;   supportLayerInterval,1
;   supportHorizontalPartOffset,0.3
;   supportUpperSeparationLayers,1
;   supportLowerSeparationLayers,1
;   supportType,0
;   supportGridSpacing,4
;   maxOverhangAngle,60
;   supportAngles,0
;   temperatureName,Extruder 1,Heated Bed
;   temperatureNumber,0,0
;   temperatureSetpointCount,1,1
;   temperatureSetpointLayers,1,1
;   temperatureSetpointTemperatures,210,60
;   temperatureStabilizeAtStartup,1,0
;   temperatureHeatedBed,0,1
;   temperatureRelayBetweenLayers,0,0
;   temperatureRelayBetweenLoops,0,0
;   fanLayers,1
;   fanSpeeds,255
;   blipFanToFullPower,0
;   adjustSpeedForCooling,1
;   minSpeedLayerTime,15
;   minCoolingSpeedSlowdown,20
;   increaseFanForCooling,0
;   minFanLayerTime,45
;   maxCoolingFanSpeed,100
;   increaseFanForBridging,0
;   bridgingFanSpeed,100
;   use5D,1
;   relativeEdistances,0
;   allowEaxisZeroing,1
;   independentExtruderAxes,0
;   includeM10123,0
;   stickySupport,1
;   applyToolheadOffsets,0
;   gcodeXoffset,0
;   gcodeYoffset,0
;   gcodeZoffset,0
;   overrideMachineDefinition,1
;   machineTypeOverride,0
;   strokeXoverride,220
;   strokeYoverride,220
;   strokeZoverride,280
;   originOffsetXoverride,0
;   originOffsetYoverride,0
;   originOffsetZoverride,0
;   homeXdirOverride,-1
;   homeYdirOverride,-1
;   homeZdirOverride,-1
;   flipXoverride,1
;   flipYoverride,-1
;   flipZoverride,1
;   toolheadOffsets,0,0|0,0|0,0|0,0|0,0|0,0
;   overrideFirmwareConfiguration,1
;   firmwareTypeOverride,RepRap (Marlin/Repetier/Sprinter)
;   GPXconfigOverride,r2
;   baudRateOverride,250000
;   overridePrinterModels,0
;   printerModelsOverride
;   startingGcode,G28 ; home all axes,G1 X0 Y20 Z0.2 F3000 ; get ready to prime,G92 E0 ; reset extrusion distance,G1 X200 E20 F600 ; prime nozzle
;   layerChangeGcode,
;   retractionGcode,
;   toolChangeGcode,
;   endingGcode,M104 S0 ; turn off extruder,M140 S0 ; turn off bed,G28 X Y ; home x and y axes,M84 ; disable motors
;   exportFileFormat,gcode
;   celebration,0
;   celebrationSong,Random Song
;   postProcessing,
;   defaultSpeed,4400
;   outlineUnderspeed,0.6
;   solidInfillUnderspeed,0.85
;   supportUnderspeed,0.8
;   rapidXYspeed,4600
;   rapidZspeed,1002
;   minBridgingArea,50
;   bridgingExtraInflation,0
;   bridgingExtrusionMultiplier,1
;   bridgingSpeedMultiplier,1
;   useFixedBridgingAngle,0
;   fixedBridgingAngle,0
;   applyBridgingToPerimeters,0
;   filamentDiameters,1.75|1.75|1.75|1.75|1.75|1.75
;   filamentPricesPerKg,46|46|46|46|46|46
;   filamentDensities,1.25|1.25|1.25|1.25|1.25|1.25
;   useMinPrintHeight,0
;   minPrintHeight,0
;   useMaxPrintHeight,0
;   maxPrintHeight,4.3
;   useDiaphragm,0
;   diaphragmLayerInterval,20
;   robustSlicing,1
;   mergeAllIntoSolid,0
;   onlyRetractWhenCrossingOutline,1
;   retractBetweenLayers,1
;   useRetractionMinTravel,0
;   retractionMinTravel,3
;   retractWhileWiping,0
;   onlyWipeOutlines,1
;   avoidCrossingOutline,0
;   maxMovementDetourFactor,3
;   toolChangeRetractionDistance,12
;   toolChangeExtraRestartDistance,-0.5
;   toolChangeRetractionSpeed,600
;   externalThinWallType,0
;   internalThinWallType,0
;   thinWallAllowedOverlapPercentage,20
;   singleExtrusionMinLength,1
;   singleExtrusionMinPrintingWidthPercentage,50
;   singleExtrusionMaxPrintingWidthPercentage,200
;   singleExtrusionEndpointExtension,0.2
;   horizontalSizeCompensation,0
G90
M82
M106 S650
M140 S60
M104 S210 T0
M109 S210 T0
G28 ; home all axes
G1 X0 Y20 Z0.2 F3000 ; get ready to prime
G92 E0 ; reset extrusion distance
G1 X200 E20 F600 ; prime nozzle
G92 E0
G1 E-3.0000 F3000
G1 Z0.060 F1002
; process nozzle 0.4
; layer 1, Z = 0.060
T0
; tool H0.300 W0.552
; outer perimeter
G1 X78.354 Y70.347 F4600
G1 E0.0000 F900
G92 E0
G1 X78.426 Y70.208 E0.0097 F792
G1 X78.453 Y70.168 E0.0126
G1 X79.793 Y71.326 E0.1224
G1 X81.252 Y72.168 E0.2268
G1 X81.582 Y72.307 E0.2490
G1 X81.938 Y72.379 E0.2715
G1 X82.136 Y72.389 E0.2838
G1 X82.497 Y72.353 E0.3063
G1 X82.844 Y72.246 E0.3288
G1 X83.024 Y72.159 E0.3412
G1 X83.324 Y71.955 E0.3636
G1 X84.240 Y71.002 E0.4455
G1 X84.645 Y70.620 E0.4800
G1 X85.066 Y70.253 E0.5146
G1 X85.500 Y69.902 E0.5492
G1 X85.948 Y69.569 E0.5838
G1 X86.469 Y69.213 E0.6229
G1 X86.742 Y68.984 E0.6450
G1 X86.972 Y68.695 E0.6679
G1 X87.138 Y68.372 E0.6903
G1 X87.201 Y68.184 E0.7027
G1 X87.264 Y67.826 E0.7252
G1 X87.255 Y67.457 E0.7481
G1 X87.174 Y67.103 E0.7705
G1 X87.102 Y66.918 E0.7828
G1 X85.811 Y64.666 E0.9437
G1 X85.748 Y64.524 E0.9533
G1 X85.719 Y64.352 E0.9641
G1 X85.736 Y64.182 E0.9747
G1 X85.798 Y64.022 E0.9853
G1 X85.905 Y63.877 E0.9965
G1 X85.958 Y63.829 E1.0009
G1 X86.091 Y63.745 E1.0107
G1 X86.134 Y63.724 E1.0137
G1 X86.716 Y65.397 E1.1234
G1 X87.535 Y66.815 E1.2249
G1 X87.684 Y67.034 E1.2413
G1 X87.813 Y67.180 E1.2534
G1 X88.085 Y67.408 E1.2754
G1 X88.255 Y67.512 E1.2877
G1 X88.590 Y67.653 E1.3102
G1 X88.945 Y67.724 E1.3326
G1 X89.143 Y67.734 E1.3450
G1 X89.504 Y67.698 E1.3675
G1 X90.458 Y67.412 E1.4292
G1 X90.999 Y67.273 E1.4638
G1 X91.545 Y67.155 E1.4983
G1 X92.095 Y67.058 E1.5330
G1 X92.647 Y66.982 E1.5675
G1 X93.762 Y66.876 E1.6369
G1 X93.956 Y66.827 E1.6493
G1 X94.290 Y66.686 E1.6718
G1 X94.596 Y66.478 E1.6947
G1 X94.849 Y66.218 E1.7172
G1 X94.965 Y66.057 E1.7295
G1 X95.131 Y65.734 E1.7520
G1 X95.230 Y65.379 E1.7748
G1 X95.258 Y65.060 E1.7946
G1 X95.258 Y62.638 E1.9447
G1 X95.278 Y62.466 E1.9554
G1 X95.299 Y62.400 E1.9597
G1 X95.385 Y62.241 E1.9709
G1 X95.511 Y62.112 E1.9821
G1 X95.566 Y62.074 E1.9863
G1 X95.741 Y61.999 E1.9981
G1 X95.816 Y61.984 E2.0028
G1 X95.903 Y61.978 E2.0082
G1 X96.006 Y61.985 E2.0146
G1 X95.676 Y63.724 E2.1243
G1 X95.681 Y65.493 E2.2339
G1 X95.745 Y65.854 E2.2566
G1 X95.879 Y66.197 E2.2795
G1 X96.076 Y66.502 E2.3020
G1 X96.209 Y66.652 E2.3144
G1 X96.486 Y66.885 E2.3368
G1 X96.805 Y67.058 E2.3592
G1 X96.986 Y67.124 E2.3712
G1 X98.181 Y67.413 E2.4474
G1 X98.714 Y67.572 E2.4819
G1 X99.242 Y67.753 E2.5165
G1 X99.763 Y67.954 E2.5511
G1 X100.276 Y68.175 E2.5857
G1 X100.917 Y68.481 E2.6297
G1 X101.097 Y68.546 E2.6415
G1 X101.446 Y68.617 E2.6636
G1 X101.644 Y68.627 E2.6759
G1 X101.999 Y68.591 E2.6980
G1 X102.192 Y68.542 E2.7104
G1 X102.526 Y68.401 E2.7328
G1 X102.831 Y68.193 E2.7557
G1 X103.087 Y67.931 E2.7784
G1 X103.243 Y67.701 E2.7956
G1 X104.452 Y65.606 E2.9455
G1 X104.556 Y65.468 E2.9562
G1 X104.692 Y65.361 E2.9669
G1 X104.849 Y65.294 E2.9775
G1 X105.019 Y65.272 E2.9881
G1 X105.198 Y65.296 E2.9993
G1 X105.260 Y65.317 E3.0034
G1 X105.427 Y65.418 E3.0154
G1 X104.273 Y66.754 E3.1248
G1 X103.453 Y68.175 E3.2265
G1 X103.306 Y68.500 E3.2485
G1 X103.224 Y68.861 E3.2715
G1 X103.215 Y69.223 E3.2939
G1 X103.240 Y69.420 E3.3063
G1 X103.338 Y69.770 E3.3288
G1 X103.504 Y70.092 E3.3512
G1 X103.616 Y70.248 E3.3631
G1 X103.738 Y70.387 E3.3746
G1 X104.399 Y71.004 E3.4306
G1 X104.790 Y71.402 E3.4652
G1 X105.165 Y71.815 E3.4998
G1 X105.524 Y72.243 E3.5344
G1 X105.865 Y72.683 E3.5689
G1 X106.460 Y73.530 E3.6330
G1 X106.588 Y73.675 E3.6450
G1 X106.860 Y73.904 E3.6670
G1 X107.030 Y74.007 E3.6794
G1 X107.364 Y74.148 E3.7018
G1 X107.720 Y74.220 E3.7243
G1 X107.919 Y74.230 E3.7366
G1 X108.280 Y74.194 E3.7592
G1 X108.626 Y74.087 E3.7816
G1 X108.796 Y74.005 E3.7933
G1 X110.931 Y72.773 E3.9460
G1 X111.099 Y72.703 E3.9573
G1 X111.269 Y72.680 E3.9679
G1 X111.439 Y72.703 E3.9785
G1 X111.596 Y72.770 E3.9891
G1 X111.738 Y72.882 E4.0003
G1 X111.781 Y72.933 E4.0044
G1 X111.870 Y73.097 E4.0160
G1 X110.203 Y73.677 E4.1254
G1 X108.744 Y74.520 E4.2298
G1 X108.458 Y74.737 E4.2520
G1 X108.218 Y75.009 E4.2745
G1 X108.110 Y75.177 E4.2869
G1 X107.961 Y75.506 E4.3093
G1 X107.880 Y75.860 E4.3318
G1 X107.866 Y76.060 E4.3442
G1 X107.893 Y76.421 E4.3667
G1 X108.260 Y77.691 E4.4486
G1 X108.388 Y78.233 E4.4831
G1 X108.496 Y78.781 E4.5177
G1 X108.582 Y79.332 E4.5523
G1 X108.647 Y79.886 E4.5868
G1 X108.695 Y80.516 E4.6260
G1 X108.756 Y80.866 E4.6480
G1 X108.892 Y81.211 E4.6709
G1 X109.088 Y81.515 E4.6934
G1 X109.220 Y81.664 E4.7057
G1 X109.498 Y81.898 E4.7282
G1 X109.823 Y82.075 E4.7511
G1 X110.176 Y82.184 E4.7741
G1 X110.538 Y82.219 E4.7965
G1 X112.959 Y82.219 E4.9466
G1 X113.156 Y82.246 E4.9589
G1 X113.220 Y82.268 E4.9631
G1 X113.375 Y82.360 E4.9743
G1 X113.500 Y82.489 E4.9854
G1 X113.542 Y82.554 E4.9902
G1 X113.574 Y82.624 E4.9949
G1 X113.616 Y82.800 E5.0062
G1 X113.611 Y82.969 E5.0167
G1 X111.876 Y82.638 E5.1261
G1 X110.150 Y82.640 E5.2331
G1 X109.790 Y82.694 E5.2557
G1 X109.450 Y82.818 E5.2781
G1 X109.275 Y82.913 E5.2904
G1 X108.985 Y83.133 E5.3130
G1 X108.746 Y83.404 E5.3354
G1 X108.638 Y83.571 E5.3477
G1 X108.489 Y83.902 E5.3702
G1 X108.259 Y84.871 E5.4319
G1 X108.110 Y85.409 E5.4665
G1 X107.939 Y85.941 E5.5011
G1 X107.748 Y86.465 E5.5357
G1 X107.537 Y86.982 E5.5702
G1 X107.069 Y88.007 E5.6401
G1 X106.988 Y88.361 E5.6626
G1 X106.973 Y88.559 E5.6749
G1 X107.000 Y88.921 E5.6974
G1 X107.098 Y89.271 E5.7199
G1 X107.180 Y89.452 E5.7322
G1 X107.377 Y89.757 E5.7547
G1 X107.634 Y90.020 E5.7775
G1 X107.897 Y90.203 E5.7974
G1 X110.000 Y91.417 E5.9478
G1 X110.147 Y91.534 E5.9595
G1 X110.249 Y91.672 E5.9701
G1 X110.310 Y91.832 E5.9807
G1 X110.327 Y92.002 E5.9913
G1 X110.297 Y92.180 E6.0025
G1 X110.273 Y92.244 E6.0067
G1 X110.182 Y92.389 E6.0173
G1 X108.845 Y91.235 E6.1268
G1 X107.426 Y90.415 E6.2284
G1 X107.148 Y90.285 E6.2474
G1 X106.959 Y90.227 E6.2596
G1 X106.608 Y90.174 E6.2816
G1 X106.409 Y90.174 E6.2939
G1 X106.049 Y90.229 E6.3165
G1 X105.709 Y90.353 E6.3389
G1 X105.535 Y90.448 E6.3512
G1 X105.250 Y90.664 E6.3734
G1 X104.397 Y91.559 E6.4500
G1 X103.993 Y91.941 E6.4845
G1 X103.572 Y92.308 E6.5190
G1 X103.137 Y92.658 E6.5537
G1 X102.690 Y92.992 E6.5883
G1 X102.105 Y93.394 E6.6322
G1 X101.963 Y93.513 E6.6437
G1 X101.829 Y93.650 E6.6556
G1 X101.617 Y93.945 E6.6781
G1 X101.468 Y94.276 E6.7005
G1 X101.414 Y94.468 E6.7129
G1 X101.369 Y94.827 E6.7353
G1 X101.397 Y95.196 E6.7582
G1 X101.496 Y95.549 E6.7810
G1 X101.617 Y95.798 E6.7982
G1 X102.834 Y97.907 E6.9490
G1 X102.902 Y98.082 E6.9606
G1 X102.919 Y98.252 E6.9712
G1 X102.890 Y98.421 E6.9818
G1 X102.818 Y98.576 E6.9924
G1 X102.702 Y98.714 E7.0036
G1 X102.647 Y98.757 E7.0079
G1 X102.502 Y98.833 E7.0181
G1 X101.922 Y97.164 E7.1275
G1 X101.102 Y95.743 E7.2292
G1 X100.894 Y95.454 E7.2513
G1 X100.622 Y95.202 E7.2743
G1 X100.313 Y95.013 E7.2967
G1 X100.130 Y94.936 E7.3090
G1 X99.777 Y94.846 E7.3316
G1 X99.416 Y94.828 E7.3540
G1 X99.225 Y94.848 E7.3659
G1 X99.044 Y94.884 E7.3773
G1 X98.179 Y95.149 E7.4334
G1 X97.639 Y95.288 E7.4679
G1 X97.093 Y95.406 E7.5025
G1 X96.543 Y95.503 E7.5371
G1 X95.991 Y95.578 E7.5716
G1 X94.961 Y95.670 E7.6357
G1 X94.771 Y95.708 E7.6477
G1 X94.430 Y95.832 E7.6702
G1 X94.121 Y96.022 E7.6927
G1 X93.974 Y96.145 E7.7046
G1 X93.840 Y96.282 E7.7165
G1 X93.628 Y96.577 E7.7390
G1 X93.476 Y96.915 E7.7619
G1 X93.395 Y97.268 E7.7843
G1 X93.381 Y97.456 E7.7960
G1 X93.380 Y99.946 E7.9503
G1 X93.349 Y100.129 E7.9618
G1 X93.273 Y100.292 E7.9730
G1 X93.228 Y100.354 E7.9778
G1 X93.174 Y100.409 E7.9825
G1 X93.025 Y100.511 E7.9937
G1 X92.855 Y100.571 E8.0049
G1 X92.785 Y100.580 E8.0093
G1 X92.632 Y100.574 E8.0187
G1 X92.962 Y98.838 E8.1282
G1 X92.961 Y97.160 E8.2322
G1 X92.947 Y96.972 E8.2439
G1 X92.866 Y96.619 E8.2663
G1 X92.714 Y96.281 E8.2892
G1 X92.498 Y95.982 E8.3121
G1 X92.232 Y95.735 E8.3346
G1 X92.067 Y95.622 E8.3470
G1 X91.740 Y95.465 E8.3694
G1 X90.457 Y95.148 E8.4513
G1 X89.924 Y94.988 E8.4858
G1 X89.396 Y94.808 E8.5204
G1 X88.875 Y94.606 E8.5550
G1 X88.361 Y94.385 E8.5897
G1 X87.640 Y94.048 E8.6390
G1 X87.452 Y93.990 E8.6512
G1 X87.093 Y93.936 E8.6737
G1 X86.731 Y93.954 E8.6962
G1 X86.536 Y93.993 E8.7085
G1 X86.195 Y94.117 E8.7310
G1 X85.879 Y94.310 E8.7539
G1 X85.608 Y94.562 E8.7768
G1 X85.397 Y94.857 E8.7993
G1 X84.168 Y96.983 E8.9515
G1 X84.050 Y97.123 E8.9629
G1 X83.909 Y97.220 E8.9735
G1 X83.747 Y97.276 E8.9841
G1 X83.576 Y97.288 E8.9947
G1 X83.399 Y97.252 E9.0059
G1 X83.333 Y97.224 E9.0103
G1 X83.209 Y97.145 E9.0194
G1 X84.365 Y95.807 E9.1290
G1 X85.184 Y94.389 E9.2305
G1 X85.298 Y94.150 E9.2469
G1 X85.360 Y93.965 E9.2590
G1 X85.422 Y93.615 E9.2809
G1 X85.427 Y93.417 E9.2933
G1 X85.381 Y93.055 E9.3158
G1 X85.266 Y92.713 E9.3382
G1 X85.176 Y92.536 E9.3506
G1 X84.963 Y92.241 E9.3730
G1 X84.239 Y91.558 E9.4348
G1 X83.848 Y91.159 E9.4693
G1 X83.473 Y90.746 E9.5039
G1 X83.114 Y90.318 E9.5385
G1 X82.772 Y89.877 E9.5731
G1 X82.119 Y88.959 E9.6429
G1 X81.847 Y88.707 E9.6659
G1 X81.538 Y88.518 E9.6884
G1 X81.361 Y88.443 E9.7003
G1 X81.178 Y88.386 E9.7122
G1 X80.819 Y88.332 E9.7346
G1 X80.449 Y88.351 E9.7576
G1 X80.092 Y88.442 E9.7804
G1 X79.803 Y88.578 E9.8002
G1 X77.703 Y89.790 E9.9505
G1 X77.576 Y89.848 E9.9591
G1 X77.506 Y89.867 E9.9636
G1 X77.326 Y89.879 E9.9748
G1 X77.158 Y89.845 E9.9854
G1 X77.006 Y89.768 E9.9960
G1 X76.872 Y89.647 E10.0071
G1 X76.829 Y89.588 E10.0117
G1 X76.768 Y89.471 E10.0198
G1 X78.436 Y88.883 E10.1294
G1 X79.855 Y88.064 E10.2309
G1 X80.106 Y87.888 E10.2499
G1 X80.251 Y87.753 E10.2622
G1 X80.477 Y87.470 E10.2846
G1 X80.645 Y87.141 E10.3075
G1 X80.746 Y86.784 E10.3305
G1 X80.772 Y86.424 E10.3529
G1 X80.758 Y86.232 E10.3648
G1 X80.726 Y86.048 E10.3764
G1 X80.378 Y84.869 E10.4526
G1 X80.250 Y84.328 E10.4870
G1 X80.142 Y83.780 E10.5216
G1 X80.056 Y83.228 E10.5562
G1 X79.991 Y82.674 E10.5908
G1 X79.935 Y81.966 E10.6348
G1 X79.903 Y81.784 E10.6462
G1 X79.851 Y81.600 E10.6581
G1 X79.702 Y81.269 E10.6806
G1 X79.486 Y80.969 E10.7035
G1 X79.215 Y80.717 E10.7264
G1 X78.906 Y80.528 E10.7489
G1 X78.722 Y80.451 E10.7612
G1 X78.374 Y80.362 E10.7835
G1 X78.097 Y80.342 E10.8007
G1 X75.675 Y80.342 E10.9508
G1 X75.528 Y80.327 E10.9599
G1 X75.450 Y80.306 E10.9650
G1 X75.379 Y80.276 E10.9697
G1 X75.230 Y80.173 E10.9809
G1 X75.120 Y80.043 E10.9915
G1 X75.048 Y79.888 E11.0021
G1 X75.018 Y79.712 E11.0132
G1 X75.024 Y79.591 E11.0207
