; G-Code generated by Simplify3D(R) Version 4.0.0
; May 12, 2018 at 3:03:47 AM
; Settings Summary
;   processName,nozzle 0.4
;   applyToModels,haim_cf_hoder
;   profileName,Flying Bear 902 Update 7-2017 (modified)
;   profileVersion,2017-07-10 09:45:20
;   baseProfile,Default
;   printMaterial,PLA
;   printQuality,Medium
;   printExtruders,
;   extruderName,Extruder 1
;   extruderToolheadNumber,0
;   extruderDiameter,0.4
;   extruderAutoWidth,1
;   extruderWidth,0.48
;   extrusionMultiplier,0.9
;   extruderUseRetract,1
;   extruderRetractionDistance,3
;   extruderExtraRestartDistance,0
;   extruderRetractionZLift,0
;   extruderRetractionSpeed,3000
;   extruderUseCoasting,0
;   extruderCoastingDistance,0.2
;   extruderUseWipe,1
;   extruderWipeDistance,5
;   primaryExtruder,0
;   layerHeight,0.2
;   topSolidLayers,3
;   bottomSolidLayers,2
;   perimeterOutlines,3
;   printPerimetersInsideOut,0
;   startPointOption,2
;   startPointOriginX,0
;   startPointOriginY,0
;   sequentialIslands,0
;   spiralVaseMode,0
;   firstLayerHeightPercentage,20
;   firstLayerWidthPercentage,115
;   firstLayerUnderspeed,0.3
;   useRaft,0
;   raftExtruder,0
;   raftTopLayers,2
;   raftBaseLayers,2
;   raftOffset,2
;   raftSeparationDistance,0.3
;   raftTopInfill,100
;   aboveRaftSpeedMultiplier,0.3
;   useSkirt,0
;   skirtExtruder,0
;   skirtLayers,1
;   skirtOutlines,2
;   skirtOffset,4
;   usePrimePillar,0
;   primePillarExtruder,999
;   primePillarWidth,12
;   primePillarLocation,7
;   primePillarSpeedMultiplier,1
;   useOozeShield,0
;   oozeShieldExtruder,999
;   oozeShieldOffset,2
;   oozeShieldOutlines,1
;   oozeShieldSidewallShape,1
;   oozeShieldSidewallAngle,30
;   oozeShieldSpeedMultiplier,1
;   infillExtruder,0
;   internalInfillPattern,Rectilinear
;   externalInfillPattern,Concentric
;   infillPercentage,10
;   outlineOverlapPercentage,60
;   infillExtrusionWidthPercentage,100
;   minInfillLength,5
;   infillLayerInterval,1
;   internalInfillAngles,45,-45
;   overlapInternalInfillAngles,0
;   externalInfillAngles,45,-45
;   generateSupport,1
;   supportExtruder,0
;   supportInfillPercentage,30
;   supportExtraInflation,0
;   supportBaseLayers,0
;   denseSupportExtruder,0
;   denseSupportLayers,0
;   denseSupportInfillPercentage,50
;   supportLayerInterval,1
;   supportHorizontalPartOffset,0.3
;   supportUpperSeparationLayers,1
;   supportLowerSeparationLayers,1
;   supportType,0
;   supportGridSpacing,4
;   maxOverhangAngle,60
;   supportAngles,0
;   temperatureName,Extruder 1,Heated Bed
;   temperatureNumber,0,0
;   temperatureSetpointCount,1,1
;   temperatureSetpointLayers,1,1
;   temperatureSetpointTemperatures,210,60
;   temperatureStabilizeAtStartup,1,0
;   temperatureHeatedBed,0,1
;   temperatureRelayBetweenLayers,0,0
;   temperatureRelayBetweenLoops,0,0
;   fanLayers,1
;   fanSpeeds,255
;   blipFanToFullPower,0
;   adjustSpeedForCooling,1
;   minSpeedLayerTime,15
;   minCoolingSpeedSlowdown,20
;   increaseFanForCooling,0
;   minFanLayerTime,45
;   maxCoolingFanSpeed,100
;   increaseFanForBridging,0
;   bridgingFanSpeed,100
;   use5D,1
;   relativeEdistances,0
;   allowEaxisZeroing,1
;   independentExtruderAxes,0
;   includeM10123,0
;   stickySupport,1
;   applyToolheadOffsets,0
;   gcodeXoffset,0
;   gcodeYoffset,0
;   gcodeZoffset,0
;   overrideMachineDefinition,1
;   machineTypeOverride,0
;   strokeXoverride,220
;   strokeYoverride,220
;   strokeZoverride,280
;   originOffsetXoverride,0
;   originOffsetYoverride,0
;   originOffsetZoverride,0
;   homeXdirOverride,-1
;   homeYdirOverride,-1
;   homeZdirOverride,-1
;   flipXoverride,1
;   flipYoverride,-1
;   flipZoverride,1
;   toolheadOffsets,0,0|0,0|0,0|0,0|0,0|0,0
;   overrideFirmwareConfiguration,1
;   firmwareTypeOverride,RepRap (Marlin/Repetier/Sprinter)
;   GPXconfigOverride,r2
;   baudRateOverride,250000
;   overridePrinterModels,0
;   printerModelsOverride
;   startingGcode,G28 ; home all axes,G1 X0 Y20 Z0.2 F3000 ; get ready to prime,G92 E0 ; reset extrusion distance,G1 X200 E20 F600 ; prime nozzle
;   layerChangeGcode,
;   retractionGcode,
;   toolChangeGcode,
;   endingGcode,M104 S0 ; turn off extruder,M140 S0 ; turn off bed,G28 X Y ; home x and y axes,M84 ; disable motors
;   exportFileFormat,gcode
;   celebration,0
;   celebrationSong,Random Song
;   postProcessing,
;   defaultSpeed,4400
;   outlineUnderspeed,0.6
;   solidInfillUnderspeed,0.85
;   supportUnderspeed,0.8
;   rapidXYspeed,4600
;   rapidZspeed,1002
;   minBridgingArea,50
;   bridgingExtraInflation,0
;   bridgingExtrusionMultiplier,1
;   bridgingSpeedMultiplier,1
;   useFixedBridgingAngle,0
;   fixedBridgingAngle,0
;   applyBridgingToPerimeters,0
;   filamentDiameters,1.75|1.75|1.75|1.75|1.75|1.75
;   filamentPricesPerKg,46|46|46|46|46|46
;   filamentDensities,1.25|1.25|1.25|1.25|1.25|1.25
;   useMinPrintHeight,0
;   minPrintHeight,0
;   useMaxPrintHeight,0
;   maxPrintHeight,4.3
;   useDiaphragm,0
;   diaphragmLayerInterval,20
;   robustSlicing,1
;   mergeAllIntoSolid,0
;   onlyRetractWhenCrossingOutline,1
;   retractBetweenLayers,1
;   useRetractionMinTravel,0
;   retractionMinTravel,3
;   retractWhileWiping,0
;   onlyWipeOutlines,1
;   avoidCrossingOutline,0
;   maxMovementDetourFactor,3
;   toolChangeRetractionDistance,12
;   toolChangeExtraRestartDistance,-0.5
;   toolChangeRetractionSpeed,600
;   externalThinWallType,1
;   internalThinWallType,1
;   thinWallAllowedOverlapPercentage,20
;   singleExtrusionMinLength,1
;   singleExtrusionMinPrintingWidthPercentage,50
;   singleExtrusionMaxPrintingWidthPercentage,200
;   singleExtrusionEndpointExtension,0.2
;   horizontalSizeCompensation,0
G90
M82
M106 S650
M140 S60
M104 S210 T0
M109 S210 T0
G28 ; home all axes
G1 X0 Y20 Z0.2 F3000 ; get ready to prime
G92 E0 ; reset extrusion distance
G1 X200 E20 F600 ; prime nozzle
G92 E0
G1 E-3.0000 F3000
G1 Z0.040 F1002
; process nozzle 0.4
; layer 1, Z = 0.040
T0
; tool H0.200 W0.552
; outer perimeter
G1 X69.789 Y83.283 F4600
G1 E0.0000 F900
G92 E0
G1 X70.212 Y82.975 E0.0216 F792
G1 X71.033 Y82.776 E0.0565
G1 X148.968 Y82.776 E3.2759
G1 X149.779 Y82.973 E3.3104
G1 X150.405 Y83.505 E3.3443
G1 X150.523 Y83.702 E3.3538
G1 X150.724 Y84.533 E3.3891
G1 X150.724 Y135.488 E5.4940
G1 X150.701 Y135.751 E5.5049
G1 X150.447 Y136.410 E5.5341
G1 X149.320 Y137.188 E5.5907
G1 X148.946 Y137.224 E5.6062
G1 X71.023 Y137.223 E8.8251
G1 X70.374 Y137.101 E8.8524
G1 X70.074 Y136.947 E8.8663
G1 X69.561 Y136.433 E8.8963
G1 X69.299 Y135.749 E8.9266
G1 X69.276 Y135.488 E8.9374
G1 X69.276 Y84.514 E11.0431
G1 X69.316 Y84.140 E11.0586
G1 X69.423 Y83.810 E11.0730
G1 X69.789 Y83.283 E11.0995
G1 X70.212 Y82.975 F4400
G1 X71.033 Y82.776 F4400
G1 X74.665 Y82.776 F4400
; inner perimeter
G1 X71.099 Y83.328 F4600
G92 E0
G1 X148.902 Y83.328 E3.2140 F1056
G1 X149.521 Y83.479 E3.2403
G1 X149.999 Y83.884 E3.2662
G1 X150.172 Y84.599 E3.2966
G1 X150.172 Y135.464 E5.3977
G1 X150.158 Y135.625 E5.4044
G1 X149.993 Y136.053 E5.4234
G1 X149.124 Y136.652 E5.4670
G1 X148.920 Y136.672 E5.4754
G1 X71.074 Y136.671 E8.6912
G1 X70.555 Y136.574 E8.7130
G1 X70.404 Y136.496 E8.7200
G1 X70.034 Y136.126 E8.7416
G1 X69.842 Y135.624 E8.7638
G1 X69.828 Y135.464 E8.7704
G1 X69.828 Y84.544 E10.8739
G1 X69.859 Y84.256 E10.8859
G1 X69.923 Y84.058 E10.8945
G1 X70.190 Y83.674 E10.9138
G1 X70.448 Y83.486 E10.9270
G1 X71.099 Y83.328 E10.9547
G1 X71.165 Y83.880 F4600
G92 E0
G1 X148.836 Y83.880 E3.2085 F1056
G1 X149.264 Y83.984 E3.2267
G1 X149.505 Y84.189 E3.2398
G1 X149.620 Y84.665 E3.2600
G1 X149.620 Y135.440 E5.3574
G1 X149.615 Y135.499 E5.3599
G1 X149.539 Y135.695 E5.3686
G1 X148.923 Y136.120 E5.3995
G1 X71.126 Y136.119 E8.6132
G1 X70.734 Y136.046 E8.6297
G1 X70.508 Y135.819 E8.6430
G1 X70.385 Y135.499 E8.6571
G1 X70.380 Y135.440 E8.6595
G1 X70.380 Y84.573 E10.7608
G1 X70.402 Y84.372 E10.7692
G1 X70.423 Y84.306 E10.7720
G1 X70.590 Y84.065 E10.7841
G1 X70.685 Y83.996 E10.7890
G1 X71.165 Y83.880 E10.8094
; solid layer
G1 X71.191 Y84.101 F4600
G92 E0
G1 X148.809 Y84.101 E3.2063 F1122
G1 X149.161 Y84.187 E3.2213
G1 X149.307 Y84.311 E3.2292
G1 X149.399 Y84.691 E3.2454
G1 X149.399 Y135.430 E5.3413
G1 X149.398 Y135.449 E5.3421
G1 X149.358 Y135.552 E5.3467
G1 X148.854 Y135.899 E5.3720
G1 X71.147 Y135.899 E8.5820
G1 X70.842 Y135.841 E8.5948
G1 X70.697 Y135.696 E8.6033
G1 X70.602 Y135.449 E8.6142
G1 X70.601 Y135.431 E8.6149
G1 X70.601 Y84.585 E10.7153
G1 X70.619 Y84.418 E10.7223
G1 X70.623 Y84.405 E10.7228
G1 X70.750 Y84.222 E10.7321
G1 X70.779 Y84.201 E10.7335
G1 X71.191 Y84.101 E10.7511
G1 X71.257 Y84.653 F4600
G92 E0
G1 X148.743 Y84.653 E3.2009 F1122
G1 X148.827 Y84.673 E3.2044
G1 X148.847 Y84.757 E3.2080
G1 X148.847 Y135.234 E5.2931
G1 X148.683 Y135.347 E5.3014
G1 X71.198 Y135.347 E8.5022
G1 X71.153 Y135.338 E8.5041
G1 X71.153 Y84.678 E10.5968
G1 X71.257 Y84.653 E10.6013
G1 X71.705 Y85.205 F4600
G92 E0
G1 X148.295 Y85.205 E3.1639 F1122
G1 X148.295 Y134.795 E5.2124
G1 X71.705 Y134.795 E8.3763
G1 X71.705 Y85.205 E10.4248
G1 X72.257 Y85.757 F4600
G92 E0
G1 X147.743 Y85.757 E3.1183 F1122
G1 X147.743 Y134.243 E5.1212
G1 X72.257 Y134.243 E8.2395
G1 X72.257 Y85.757 E10.2424
G1 X72.809 Y86.309 F4600
G92 E0
G1 X147.191 Y86.309 E3.0727 F1122
G1 X147.191 Y133.691 E5.0300
G1 X72.809 Y133.691 E8.1026
G1 X72.809 Y86.309 E10.0599
G1 X73.361 Y86.861 F4600
G92 E0
G1 X146.639 Y86.861 E3.0271 F1122
G1 X146.639 Y133.139 E4.9388
G1 X73.361 Y133.139 E7.9658
G1 X73.361 Y86.861 E9.8775
G1 X73.913 Y87.413 F4600
G92 E0
G1 X146.087 Y87.413 E2.9815 F1122
G1 X146.087 Y132.587 E4.8476
G1 X73.913 Y132.587 E7.8290
G1 X73.913 Y87.413 E9.6951
G1 X74.465 Y87.965 F4600
G92 E0
G1 X145.535 Y87.965 E2.9359 F1122
G1 X145.535 Y132.035 E4.7563
G1 X74.465 Y132.035 E7.6922
G1 X74.465 Y87.965 E9.5127
G1 X75.017 Y88.517 F4600
G92 E0
G1 X144.983 Y88.517 E2.8902 F1122
G1 X144.983 Y131.483 E4.6651
G1 X75.017 Y131.483 E7.5554
G1 X75.017 Y88.517 E9.3303
G1 X75.569 Y89.069 F4600
G92 E0
G1 X144.431 Y89.069 E2.8446 F1122
G1 X144.431 Y130.931 E4.5739
G1 X75.569 Y130.931 E7.4186
G1 X75.569 Y89.069 E9.1478
G1 X76.121 Y89.621 F4600
G92 E0
G1 X143.879 Y89.621 E2.7990 F1122
G1 X143.879 Y130.379 E4.4827
G1 X76.121 Y130.379 E7.2818
G1 X76.121 Y89.621 E8.9654
G1 X76.673 Y90.173 F4600
G92 E0
G1 X143.327 Y90.173 E2.7534 F1122
G1 X143.327 Y129.827 E4.3915
G1 X76.673 Y129.827 E7.1449
G1 X76.673 Y90.173 E8.7830
G1 X77.225 Y90.725 F4600
G92 E0
G1 X142.775 Y90.725 E2.7078 F1122
G1 X142.775 Y129.275 E4.3003
G1 X77.225 Y129.275 E7.0081
G1 X77.225 Y90.725 E8.6006
G1 X77.777 Y91.277 F4600
G92 E0
G1 X142.223 Y91.277 E2.6622 F1122
G1 X142.223 Y128.723 E4.2091
G1 X77.777 Y128.723 E6.8713
G1 X77.777 Y91.277 E8.4182
G1 X78.329 Y91.829 F4600
G92 E0
G1 X141.671 Y91.829 E2.6166 F1122
G1 X141.671 Y128.171 E4.1179
G1 X78.329 Y128.171 E6.7345
G1 X78.329 Y91.829 E8.2357
G1 X78.881 Y92.381 F4600
G92 E0
G1 X141.119 Y92.381 E2.5710 F1122
G1 X141.119 Y127.619 E4.0267
G1 X78.881 Y127.619 E6.5977
G1 X78.881 Y92.381 E8.0533
G1 X79.433 Y92.933 F4600
G92 E0
G1 X140.567 Y92.933 E2.5254 F1122
G1 X140.567 Y127.067 E3.9354
G1 X79.433 Y127.067 E6.4609
G1 X79.433 Y92.933 E7.8709
G1 X79.985 Y93.485 F4600
G92 E0
G1 X140.015 Y93.485 E2.4798 F1122
G1 X140.015 Y126.515 E3.8442
G1 X79.985 Y126.515 E6.3240
G1 X79.985 Y93.485 E7.6885
G1 X80.537 Y94.037 F4600
G92 E0
G1 X139.463 Y94.037 E2.4342 F1122
G1 X139.463 Y125.963 E3.7530
G1 X80.537 Y125.963 E6.1872
G1 X80.537 Y94.037 E7.5060
G1 X81.089 Y94.589 F4600
G92 E0
G1 X138.911 Y94.589 E2.3886 F1122
G1 X138.911 Y125.411 E3.6618
G1 X81.089 Y125.411 E6.0504
G1 X81.089 Y94.589 E7.3236
G1 X81.641 Y95.141 F4600
G92 E0
G1 X138.359 Y95.141 E2.3430 F1122
G1 X138.359 Y124.859 E3.5706
G1 X81.641 Y124.859 E5.9136
G1 X81.641 Y95.141 E7.1412
G1 X82.193 Y95.693 F4600
G92 E0
G1 X137.807 Y95.693 E2.2974 F1122
G1 X137.807 Y124.307 E3.4794
G1 X82.193 Y124.307 E5.7768
G1 X82.193 Y95.693 E6.9588
G1 X82.745 Y96.245 F4600
G92 E0
G1 X137.255 Y96.245 E2.2518 F1122
G1 X137.255 Y123.755 E3.3882
G1 X82.745 Y123.755 E5.6400
G1 X82.745 Y96.245 E6.7764
G1 X83.297 Y96.797 F4600
G92 E0
G1 X136.703 Y96.797 E2.2062 F1122
G1 X136.703 Y123.203 E3.2970
G1 X83.297 Y123.203 E5.5031
G1 X83.297 Y96.797 E6.5939
G1 X83.849 Y97.349 F4600
G92 E0
G1 X136.151 Y97.349 E2.1606 F1122
G1 X136.151 Y122.651 E3.2058
G1 X83.849 Y122.651 E5.3663
G1 X83.849 Y97.349 E6.4115
G1 X84.401 Y97.901 F4600
G92 E0
G1 X135.599 Y97.901 E2.1150 F1122
G1 X135.599 Y122.099 E3.1146
G1 X84.401 Y122.099 E5.2295
G1 X84.401 Y97.901 E6.2291
G1 X84.953 Y98.453 F4600
G92 E0
G1 X135.047 Y98.453 E2.0694 F1122
G1 X135.047 Y121.547 E3.0233
G1 X84.953 Y121.547 E5.0927
G1 X84.953 Y98.453 E6.0467
G1 X85.505 Y99.005 F4600
G92 E0
G1 X134.495 Y99.005 E2.0237 F1122
G1 X134.495 Y120.995 E2.9321
G1 X85.505 Y120.995 E4.9559
G1 X85.505 Y99.005 E5.8643
G1 X86.057 Y99.557 F4600
G92 E0
G1 X133.943 Y99.557 E1.9781 F1122
G1 X133.943 Y120.443 E2.8409
G1 X86.057 Y120.443 E4.8191
G1 X86.057 Y99.557 E5.6818
G1 X86.609 Y100.109 F4600
G92 E0
G1 X133.391 Y100.109 E1.9325 F1122
G1 X133.391 Y119.891 E2.7497
G1 X86.609 Y119.891 E4.6822
G1 X86.609 Y100.109 E5.4994
G1 X87.161 Y100.661 F4600
G92 E0
G1 X132.839 Y100.661 E1.8869 F1122
G1 X132.839 Y119.339 E2.6585
G1 X87.161 Y119.339 E4.5454
G1 X87.161 Y100.661 E5.3170
G1 X87.713 Y101.213 F4600
G92 E0
G1 X132.287 Y101.213 E1.8413 F1122
G1 X132.287 Y118.787 E2.5673
G1 X87.713 Y118.787 E4.4086
G1 X87.713 Y101.213 E5.1346
G1 X88.265 Y101.765 F4600
G92 E0
G1 X131.735 Y101.765 E1.7957 F1122
G1 X131.735 Y118.235 E2.4761
G1 X88.265 Y118.235 E4.2718
G1 X88.265 Y101.765 E4.9522
G1 X88.817 Y102.317 F4600
G92 E0
G1 X131.183 Y102.317 E1.7501 F1122
G1 X131.183 Y117.683 E2.3849
G1 X88.817 Y117.683 E4.1350
G1 X88.817 Y102.317 E4.7697
G1 X89.369 Y102.869 F4600
G92 E0
G1 X130.631 Y102.869 E1.7045 F1122
G1 X130.631 Y117.131 E2.2937
G1 X89.369 Y117.131 E3.9982
G1 X89.369 Y102.869 E4.5873
G1 X89.921 Y103.421 F4600
G92 E0
G1 X130.079 Y103.421 E1.6589 F1122
G1 X130.079 Y116.579 E2.2024
G1 X89.921 Y116.579 E3.8614
G1 X89.921 Y103.421 E4.4049
G1 X90.473 Y103.973 F4600
G92 E0
G1 X129.527 Y103.973 E1.6133 F1122
G1 X129.527 Y116.027 E2.1112
G1 X90.473 Y116.027 E3.7245
G1 X90.473 Y103.973 E4.2225
G1 X91.025 Y104.525 F4600
G92 E0
G1 X128.975 Y104.525 E1.5677 F1122
G1 X128.975 Y115.475 E2.0200
G1 X91.025 Y115.475 E3.5877
G1 X91.025 Y104.525 E4.0400
G1 X91.577 Y105.077 F4600
G92 E0
G1 X128.423 Y105.077 E1.5221 F1122
G1 X128.423 Y114.923 E1.9288
G1 X91.577 Y114.923 E3.4509
G1 X91.577 Y105.077 E3.8576
G1 X92.129 Y105.629 F4600
G92 E0
G1 X127.871 Y105.629 E1.4765 F1122
G1 X127.871 Y114.371 E1.8376
G1 X92.129 Y114.371 E3.3141
G1 X92.129 Y105.629 E3.6752
G1 X92.681 Y106.181 F4600
G92 E0
G1 X127.319 Y106.181 E1.4309 F1122
G1 X127.319 Y113.819 E1.7464
G1 X92.681 Y113.819 E3.1773
G1 X92.681 Y106.181 E3.4928
G1 X93.233 Y106.733 F4600
G92 E0
G1 X126.767 Y106.733 E1.3853 F1122
G1 X126.767 Y113.267 E1.6552
G1 X93.233 Y113.267 E3.0405
G1 X93.233 Y106.733 E3.3104
G1 X93.785 Y107.285 F4600
G92 E0
G1 X126.215 Y107.285 E1.3397 F1122
G1 X126.215 Y112.715 E1.5640
G1 X93.785 Y112.715 E2.9036
G1 X93.785 Y107.285 E3.1279
G1 X94.337 Y107.837 F4600
G92 E0
G1 X125.663 Y107.837 E1.2941 F1122
G1 X125.663 Y112.163 E1.4728
G1 X94.337 Y112.163 E2.7668
G1 X94.337 Y107.837 E2.9455
G1 X94.889 Y108.389 F4600
G92 E0
G1 X125.111 Y108.389 E1.2485 F1122
G1 X125.111 Y111.611 E1.3816
G1 X94.889 Y111.611 E2.6300
G1 X94.889 Y108.389 E2.7631
G1 X95.441 Y108.941 F4600
G92 E0
G1 X124.559 Y108.941 E1.2029 F1122
G1 X124.559 Y111.059 E1.2903
G1 X95.441 Y111.059 E2.4932
G1 X95.441 Y108.941 E2.5807
G1 X95.993 Y109.493 F4600
G92 E0
G1 X124.007 Y109.493 E1.1572 F1122
G1 X124.007 Y110.507 E1.1991
G1 X95.993 Y110.507 E2.3564
G1 X95.993 Y109.493 E2.3983
G92 E0
G1 E-3.0000 F3000
; layer 2, Z = 0.240
; tool H0.200 W0.480
; outer perimeter
G1 X71.029 Y82.740 F4600
G1 Z0.240 F1002
G1 E0.0000 F3000
G92 E0
G1 X148.977 Y82.741 E2.8000 F2640
G1 X149.795 Y82.940 E2.8302
G1 X150.433 Y83.482 E2.8603
G1 X150.557 Y83.691 E2.8690
G1 X150.760 Y84.529 E2.9000
G1 X150.760 Y135.490 E4.7306
G1 X150.737 Y135.758 E4.7402
G1 X150.476 Y136.435 E4.7663
G1 X149.339 Y137.220 E4.8159
