; G-Code generated by Simplify3D(R) Version 4.0.0
; Jan 8, 2019 at 5:36:59 PM
; Settings Summary
;   processName,Process1
;   applyToModels,Headphone_Base_230mm,Headphone_Top_230mm
;   profileName,Flyingbear p902 (modified)
;   profileVersion,2017-02-06 00:22:54
;   baseProfile,Default
;   printMaterial,PLA
;   printQuality,Medium
;   printExtruders,
;   extruderName,Extruder 1
;   extruderToolheadNumber,0
;   extruderDiameter,0.4
;   extruderAutoWidth,1
;   extruderWidth,0.48
;   extrusionMultiplier,1
;   extruderUseRetract,1
;   extruderRetractionDistance,1
;   extruderExtraRestartDistance,0
;   extruderRetractionZLift,0
;   extruderRetractionSpeed,3400
;   extruderUseCoasting,0
;   extruderCoastingDistance,0.2
;   extruderUseWipe,0
;   extruderWipeDistance,5
;   primaryExtruder,0
;   layerHeight,0.3
;   topSolidLayers,3
;   bottomSolidLayers,2
;   perimeterOutlines,2
;   printPerimetersInsideOut,0
;   startPointOption,2
;   startPointOriginX,0
;   startPointOriginY,0
;   sequentialIslands,0
;   spiralVaseMode,0
;   firstLayerHeightPercentage,100
;   firstLayerWidthPercentage,100
;   firstLayerUnderspeed,0.5
;   useRaft,0
;   raftExtruder,0
;   raftTopLayers,3
;   raftBaseLayers,1
;   raftOffset,2
;   raftSeparationDistance,0.2
;   raftTopInfill,100
;   aboveRaftSpeedMultiplier,0.3
;   useSkirt,0
;   skirtExtruder,0
;   skirtLayers,1
;   skirtOutlines,2
;   skirtOffset,4
;   usePrimePillar,0
;   primePillarExtruder,999
;   primePillarWidth,12
;   primePillarLocation,7
;   primePillarSpeedMultiplier,1
;   useOozeShield,0
;   oozeShieldExtruder,999
;   oozeShieldOffset,2
;   oozeShieldOutlines,1
;   oozeShieldSidewallShape,1
;   oozeShieldSidewallAngle,30
;   oozeShieldSpeedMultiplier,1
;   infillExtruder,0
;   internalInfillPattern,Rectilinear
;   externalInfillPattern,Rectilinear
;   infillPercentage,10
;   outlineOverlapPercentage,15
;   infillExtrusionWidthPercentage,100
;   minInfillLength,5
;   infillLayerInterval,1
;   internalInfillAngles,45,-45
;   overlapInternalInfillAngles,0
;   externalInfillAngles,45,-45
;   generateSupport,0
;   supportExtruder,0
;   supportInfillPercentage,15
;   supportExtraInflation,0.5
;   supportBaseLayers,0
;   denseSupportExtruder,0
;   denseSupportLayers,0
;   denseSupportInfillPercentage,70
;   supportLayerInterval,1
;   supportHorizontalPartOffset,0.3
;   supportUpperSeparationLayers,1
;   supportLowerSeparationLayers,1
;   supportType,1
;   supportGridSpacing,1
;   maxOverhangAngle,60
;   supportAngles,0
;   temperatureName,Extruder 1,Heated Bed
;   temperatureNumber,0,0
;   temperatureSetpointCount,1,1
;   temperatureSetpointLayers,1,1
;   temperatureSetpointTemperatures,210,60
;   temperatureStabilizeAtStartup,1,1
;   temperatureHeatedBed,0,1
;   temperatureRelayBetweenLayers,0,0
;   temperatureRelayBetweenLoops,0,0
;   fanLayers,1,2
;   fanSpeeds,0,100
;   blipFanToFullPower,0
;   adjustSpeedForCooling,1
;   minSpeedLayerTime,15
;   minCoolingSpeedSlowdown,20
;   increaseFanForCooling,0
;   minFanLayerTime,45
;   maxCoolingFanSpeed,100
;   increaseFanForBridging,1
;   bridgingFanSpeed,100
;   use5D,1
;   relativeEdistances,0
;   allowEaxisZeroing,1
;   independentExtruderAxes,0
;   includeM10123,0
;   stickySupport,1
;   applyToolheadOffsets,0
;   gcodeXoffset,0
;   gcodeYoffset,0
;   gcodeZoffset,0
;   overrideMachineDefinition,1
;   machineTypeOverride,0
;   strokeXoverride,220
;   strokeYoverride,220
;   strokeZoverride,280
;   originOffsetXoverride,0
;   originOffsetYoverride,0
;   originOffsetZoverride,0
;   homeXdirOverride,-1
;   homeYdirOverride,-1
;   homeZdirOverride,-1
;   flipXoverride,1
;   flipYoverride,-1
;   flipZoverride,1
;   toolheadOffsets,0,0|0,0|0,0|0,0|0,0|0,0
;   overrideFirmwareConfiguration,1
;   firmwareTypeOverride,RepRap (Marlin/Repetier/Sprinter)
;   GPXconfigOverride,r2
;   baudRateOverride,250000
;   overridePrinterModels,0
;   printerModelsOverride
;   startingGcode,G28 ; home all axes,G1 X0 Y5 Z0.2 F3000 ; get ready to prime,G92 E0 ; reset extrusion distance,G1 X200 E20 F600 ; prime nozzle
;   layerChangeGcode,
;   retractionGcode,
;   toolChangeGcode,
;   endingGcode,M104 S0 ; turn off extruder,M140 S0 ; turn off bed,G91 ; use relative coordinates,G1 Z0.6 F5000 ; lift nozzle by 0.6mm,G90 ; use absolute coordinates,G28 X0 ; home X axis,G28 Y0 ; home X axis,M84 ; disable motors,M107 ; turn off fan
;   exportFileFormat,gcode
;   celebration,0
;   celebrationSong,Random Song
;   postProcessing,
;   defaultSpeed,4200
;   outlineUnderspeed,0.9
;   solidInfillUnderspeed,1
;   supportUnderspeed,0.8
;   rapidXYspeed,4200
;   rapidZspeed,1002
;   minBridgingArea,50
;   bridgingExtraInflation,0
;   bridgingExtrusionMultiplier,1
;   bridgingSpeedMultiplier,1
;   useFixedBridgingAngle,0
;   fixedBridgingAngle,0
;   applyBridgingToPerimeters,0
;   filamentDiameters,1.75|1.75|1.75|1.75|1.75|1.75
;   filamentPricesPerKg,46|46|46|46|46|46
;   filamentDensities,1.25|1.25|1.25|1.25|1.25|1.25
;   useMinPrintHeight,0
;   minPrintHeight,0
;   useMaxPrintHeight,0
;   maxPrintHeight,0
;   useDiaphragm,0
;   diaphragmLayerInterval,20
;   robustSlicing,1
;   mergeAllIntoSolid,0
;   onlyRetractWhenCrossingOutline,1
;   retractBetweenLayers,1
;   useRetractionMinTravel,0
;   retractionMinTravel,3
;   retractWhileWiping,0
;   onlyWipeOutlines,1
;   avoidCrossingOutline,0
;   maxMovementDetourFactor,3
;   toolChangeRetractionDistance,12
;   toolChangeExtraRestartDistance,-0.5
;   toolChangeRetractionSpeed,600
;   externalThinWallType,1
;   internalThinWallType,1
;   thinWallAllowedOverlapPercentage,10
;   singleExtrusionMinLength,1
;   singleExtrusionMinPrintingWidthPercentage,50
;   singleExtrusionMaxPrintingWidthPercentage,200
;   singleExtrusionEndpointExtension,0.2
;   horizontalSizeCompensation,0
G90
M82
M106 S0
M140 S60
M190 S60
M104 S210 T0
M109 S210 T0
G28 ; home all axes
G1 X0 Y5 Z0.2 F3000 ; get ready to prime
G92 E0 ; reset extrusion distance
G1 X200 E20 F600 ; prime nozzle
G92 E0
G1 E-1.0000 F3400
G1 Z0.300 F1002
; process Process1
; layer 1, Z = 0.300
T0
; tool H0.300 W0.480
; outer perimeter
G1 X38.794 Y42.370 F4200
G1 E0.0000 F1020
G92 E0
G1 X39.677 Y41.855 E0.0612 F1890
G1 X40.656 Y41.534 E0.1228
G1 X41.683 Y41.425 E0.1847
G1 X42.018 Y41.425 E0.2048
G1 X42.962 Y41.519 E0.2615
G1 X43.852 Y41.790 E0.3172
G1 X44.645 Y42.210 E0.3710
G1 X45.369 Y42.795 E0.4267
G1 X45.965 Y43.509 E0.4824
G1 X46.416 Y44.336 E0.5388
G1 X93.360 Y154.930 E7.7316
G1 X94.169 Y156.505 E7.8377
G1 X95.203 Y157.954 E7.9442
G1 X96.437 Y159.238 E8.0508
G1 X97.893 Y160.362 E8.1609
G1 X99.439 Y161.227 E8.2670
G1 X101.094 Y161.860 E8.3731
G1 X102.854 Y162.251 E8.4810
G1 X104.615 Y162.379 E8.5867
G1 X124.670 Y162.379 E9.7874
G1 X126.431 Y162.251 E9.8931
G1 X128.191 Y161.860 E10.0010
G1 X129.846 Y161.227 E10.1071
G1 X131.392 Y160.362 E10.2131
G1 X132.822 Y159.262 E10.3211
G1 X134.082 Y157.954 E10.4299
G1 X135.116 Y156.505 E10.5364
G1 X135.925 Y154.930 E10.6425
G1 X182.869 Y44.336 E17.8353
G1 X183.320 Y43.509 E17.8917
G1 X183.916 Y42.795 E17.9474
G1 X184.613 Y42.229 E18.0012
G1 X185.433 Y41.790 E18.0568
G1 X186.356 Y41.514 E18.1145
G1 X187.261 Y41.425 E18.1689
G1 X187.596 Y41.425 E18.1890
G1 X188.635 Y41.536 E18.2516
G1 X189.608 Y41.855 E18.3129
G1 X190.491 Y42.370 E18.3741
G1 X191.243 Y43.058 E18.4351
G1 X191.831 Y43.886 E18.4959
G1 X192.228 Y44.819 E18.5566
G1 X192.416 Y45.812 E18.6171
G1 X192.387 Y46.823 E18.6777
G1 X192.140 Y47.818 E18.7390
G1 X146.276 Y172.827 E26.7109
G1 X146.079 Y173.214 E26.7369
G1 X145.803 Y173.533 E26.7622
G1 X145.458 Y173.776 E26.7874
G1 X145.065 Y173.927 E26.8126
G1 X144.632 Y173.981 E26.8387
G1 X84.655 Y173.981 E30.4294
G1 X84.219 Y173.927 E30.4557
G1 X83.833 Y173.779 E30.4805
G1 X83.487 Y173.538 E30.5057
G1 X83.210 Y173.220 E30.5310
G1 X83.010 Y172.829 E30.5573
G1 X37.145 Y47.818 E38.5293
G1 X36.898 Y46.823 E38.5906
G1 X36.869 Y45.812 E38.6512
G1 X37.057 Y44.819 E38.7117
G1 X37.454 Y43.886 E38.7724
G1 X38.042 Y43.058 E38.8332
G1 X38.794 Y42.370 E38.8942
; inner perimeter
G1 X39.080 Y42.759 F4200
G92 E0
G1 X39.875 Y42.295 E0.0551 F1995
G1 X40.757 Y42.006 E0.1106
G1 X41.708 Y41.905 E0.1679
G1 X41.995 Y41.905 E0.1851
G1 X42.867 Y41.992 E0.2376
G1 X43.668 Y42.236 E0.2877
G1 X44.380 Y42.612 E0.3359
G1 X45.031 Y43.139 E0.3860
G1 X45.566 Y43.780 E0.4360
G1 X45.984 Y44.545 E0.4882
G1 X92.925 Y155.133 E7.6807
G1 X93.758 Y156.756 E7.7899
G1 X94.833 Y158.261 E7.9006
G1 X96.115 Y159.596 E8.0114
G1 X97.628 Y160.763 E8.1258
G1 X99.235 Y161.663 E8.2360
G1 X100.956 Y162.321 E8.3464
G1 X102.784 Y162.727 E8.4585
G1 X104.598 Y162.859 E8.5674
G1 X124.687 Y162.859 E9.7701
G1 X126.501 Y162.727 E9.8789
G1 X128.329 Y162.321 E9.9911
G1 X130.050 Y161.663 E10.1014
G1 X131.657 Y160.763 E10.2116
G1 X133.143 Y159.621 E10.3238
G1 X134.452 Y158.262 E10.4368
G1 X135.527 Y156.756 E10.5476
G1 X136.360 Y155.133 E10.6568
G1 X183.301 Y44.545 E17.8492
G1 X183.719 Y43.780 E17.9014
G1 X184.255 Y43.138 E17.9515
G1 X184.880 Y42.630 E17.9997
G1 X185.617 Y42.236 E18.0497
G1 X186.449 Y41.987 E18.1017
G1 X187.284 Y41.905 E18.1520
G1 X187.571 Y41.905 E18.1691
G1 X188.533 Y42.008 E18.2271
G1 X189.410 Y42.295 E18.2823
G1 X190.205 Y42.759 E18.3374
G1 X190.881 Y43.377 E18.3923
G1 X191.409 Y44.122 E18.4469
G1 X191.766 Y44.959 E18.5014
G1 X191.935 Y45.851 E18.5558
G1 X191.909 Y46.758 E18.6101
G1 X191.680 Y47.677 E18.6668
G1 X145.835 Y172.635 E26.6354
G1 X145.678 Y172.944 E26.6561
G1 X145.478 Y173.175 E26.6744
G1 X145.230 Y173.349 E26.6925
G1 X144.948 Y173.458 E26.7107
G1 X144.602 Y173.501 E26.7315
G1 X84.685 Y173.501 E30.3187
G1 X84.336 Y173.458 E30.3397
G1 X84.059 Y173.352 E30.3575
G1 X83.810 Y173.178 E30.3756
G1 X83.610 Y172.948 E30.3939
G1 X83.450 Y172.636 E30.4149
G1 X37.605 Y47.677 E38.3836
G1 X37.376 Y46.758 E38.4403
G1 X37.350 Y45.851 E38.4946
G1 X37.519 Y44.959 E38.5489
G1 X37.876 Y44.122 E38.6034
G1 X38.404 Y43.377 E38.6580
G1 X39.080 Y42.759 E38.7129
; solid layer
G1 X43.396 Y42.579 F4200
G92 E0
G1 X45.672 Y44.855 E0.1927 F2100
G1 X46.172 Y46.034 E0.2694
G1 X42.504 Y42.366 E0.5800
G1 X41.974 Y42.313 E0.6118
G1 X41.773 Y42.313 E0.6239
G1 X46.673 Y47.214 E1.0388
G1 X47.174 Y48.393 E1.1155
G1 X41.155 Y42.374 E1.6251
G1 X40.843 Y42.407 E1.6439
G1 X40.591 Y42.490 E1.6598
G1 X47.674 Y49.573 E2.2595
G1 X48.175 Y50.752 E2.3362
G1 X40.080 Y42.657 E3.0215
G1 X40.043 Y42.669 E3.0238
G1 X39.646 Y42.901 E3.0514
G1 X48.676 Y51.932 E3.8160
G1 X49.176 Y53.111 E3.8927
G1 X39.235 Y43.170 E4.7344
G1 X38.881 Y43.494 E4.7631
G1 X49.677 Y54.291 E5.6772
G1 X50.178 Y55.470 E5.7539
G1 X38.564 Y43.857 E6.7372
G1 X38.282 Y44.254 E6.7664
G1 X50.678 Y56.650 E7.8159
G1 X51.179 Y57.829 E7.8926
G1 X38.066 Y44.716 E9.0028
G1 X37.912 Y45.078 E9.0264
G1 X37.886 Y45.215 E9.0347
G1 X51.680 Y59.009 E10.2025
G1 X52.180 Y60.188 E10.2793
G1 X37.778 Y45.786 E11.4987
G1 X37.760 Y45.883 E11.5046
G1 X37.776 Y46.462 E11.5393
G1 X52.681 Y61.368 E12.8012
G1 X53.182 Y62.547 E12.8780
G1 X37.931 Y47.296 E14.1692
G1 X37.996 Y47.557 E14.1853
G1 X38.275 Y48.320 E14.2339
G1 X53.682 Y63.726 E15.5384
G1 X54.183 Y64.906 E15.6151
G1 X38.669 Y49.392 E16.9286
G1 X39.062 Y50.464 E16.9970
G1 X54.684 Y66.085 E18.3196
G1 X55.184 Y67.265 E18.3963
G1 X39.456 Y51.536 E19.7280
G1 X39.849 Y52.608 E19.7964
G1 X55.685 Y68.444 E21.1372
G1 X56.186 Y69.624 E21.2139
G1 X40.242 Y53.681 E22.5638
G1 X40.636 Y54.753 E22.6321
G1 X56.686 Y70.803 E23.9911
G1 X57.187 Y71.983 E24.0678
G1 X41.029 Y55.825 E25.4358
G1 X41.422 Y56.897 E25.5042
G1 X57.688 Y73.162 E26.8813
G1 X58.188 Y74.342 E26.9580
G1 X41.816 Y57.969 E28.3442
G1 X42.209 Y59.041 E28.4126
G1 X58.689 Y75.521 E29.8079
G1 X59.190 Y76.701 E29.8846
G1 X42.602 Y60.114 E31.2890
G1 X42.996 Y61.186 E31.3574
G1 X59.690 Y77.880 E32.7708
G1 X60.191 Y79.060 E32.8475
G1 X43.389 Y62.258 E34.2701
G1 X43.783 Y63.330 E34.3385
G1 X60.692 Y80.239 E35.7701
G1 X61.192 Y81.419 E35.8468
G1 X44.176 Y64.402 E37.2875
G1 X44.569 Y65.475 E37.3559
G1 X61.693 Y82.598 E38.8057
G1 X62.194 Y83.778 E38.8824
G1 X44.963 Y66.547 E40.3413
G1 X45.356 Y67.619 E40.4096
G1 X62.694 Y84.957 E41.8776
G1 X63.195 Y86.137 E41.9543
G1 X45.749 Y68.691 E43.4314
G1 X46.143 Y69.763 E43.4997
G1 X63.696 Y87.316 E44.9859
G1 X64.196 Y88.496 E45.0626
G1 X46.536 Y70.836 E46.5578
G1 X46.929 Y71.908 E46.6262
G1 X64.697 Y89.675 E48.1305
G1 X65.197 Y90.855 E48.2072
G1 X47.323 Y72.980 E49.7206
G1 X47.716 Y74.052 E49.7889
G1 X65.698 Y92.034 E51.3114
G1 X66.199 Y93.214 E51.3881
G1 X48.110 Y75.124 E52.9197
G1 X48.503 Y76.197 E52.9880
G1 X66.699 Y94.393 E54.5287
G1 X67.200 Y95.573 E54.6054
G1 X48.896 Y77.269 E56.1551
G1 X49.290 Y78.341 E56.2235
G1 X67.701 Y96.752 E57.7823
G1 X68.201 Y97.932 E57.8590
G1 X49.683 Y79.413 E59.4269
G1 X50.076 Y80.485 E59.4953
G1 X68.702 Y99.111 E61.0722
G1 X69.203 Y100.290 E61.1490
G1 X50.470 Y81.557 E62.7350
G1 X50.863 Y82.630 E62.8034
G1 X69.703 Y101.470 E64.3985
G1 X70.204 Y102.649 E64.4752
G1 X51.256 Y83.702 E66.0795
G1 X51.650 Y84.774 E66.1479
G1 X70.705 Y103.829 E67.7612
G1 X71.205 Y105.008 E67.8379
G1 X52.043 Y85.846 E69.4603
G1 X52.437 Y86.918 E69.5286
G1 X71.706 Y106.188 E71.1601
G1 X72.207 Y107.367 E71.2368
G1 X52.830 Y87.991 E72.8774
G1 X53.223 Y89.063 E72.9458
G1 X72.707 Y108.547 E74.5954
G1 X73.208 Y109.726 E74.6721
G1 X53.617 Y90.135 E76.3309
G1 X54.010 Y91.207 E76.3992
G1 X73.709 Y110.906 E78.0671
G1 X74.209 Y112.085 E78.1438
G1 X54.403 Y92.279 E79.8207
G1 X54.797 Y93.352 E79.8890
G1 X74.710 Y113.265 E81.5750
G1 X75.211 Y114.444 E81.6517
G1 X55.190 Y94.424 E83.3468
G1 X55.584 Y95.496 E83.4152
G1 X75.711 Y115.624 E85.1193
G1 X76.212 Y116.803 E85.1961
G1 X55.977 Y96.568 E86.9093
G1 X56.370 Y97.640 E86.9777
G1 X76.713 Y117.983 E88.7000
G1 X77.213 Y119.162 E88.7767
G1 X56.764 Y98.712 E90.5081
G1 X57.157 Y99.785 E90.5765
G1 X77.714 Y120.342 E92.3170
G1 X78.215 Y121.521 E92.3937
G1 X57.550 Y100.857 E94.1433
G1 X57.944 Y101.929 E94.2116
G1 X78.715 Y122.701 E95.9703
G1 X79.216 Y123.880 E96.0470
G1 X58.337 Y103.001 E97.8148
G1 X58.730 Y104.073 E97.8831
G1 X79.717 Y125.060 E99.6600
G1 X80.217 Y126.239 E99.7367
G1 X59.124 Y105.146 E101.5226
G1 X59.517 Y106.218 E101.5910
G1 X80.718 Y127.419 E103.3860
G1 X81.219 Y128.598 E103.4627
G1 X59.911 Y107.290 E105.2667
G1 X60.304 Y108.362 E105.3351
G1 X81.719 Y129.778 E107.1483
G1 X82.220 Y130.957 E107.2250
G1 X60.697 Y109.434 E109.0472
G1 X61.091 Y110.507 E109.1156
G1 X82.721 Y132.137 E110.9470
G1 X83.221 Y133.316 E111.0237
G1 X61.484 Y111.579 E112.8641
G1 X61.877 Y112.651 E112.9325
G1 X83.722 Y134.495 E114.7820
G1 X84.223 Y135.675 E114.8587
G1 X62.271 Y113.723 E116.7173
G1 X62.664 Y114.795 E116.7856
G1 X84.723 Y136.854 E118.6533
G1 X85.224 Y138.034 E118.7300
G1 X63.057 Y115.867 E120.6068
G1 X63.451 Y116.940 E120.6752
G1 X85.725 Y139.213 E122.5610
G1 X86.225 Y140.393 E122.6377
G1 X63.844 Y118.012 E124.5326
G1 X64.238 Y119.084 E124.6010
G1 X86.726 Y141.572 E126.5050
G1 X87.227 Y142.752 E126.5817
G1 X64.631 Y120.156 E128.4948
G1 X65.024 Y121.228 E128.5632
G1 X87.727 Y143.931 E130.4854
G1 X88.228 Y145.111 E130.5621
G1 X65.418 Y122.301 E132.4933
G1 X65.811 Y123.373 E132.5617
G1 X88.729 Y146.290 E134.5021
G1 X89.229 Y147.470 E134.5788
G1 X66.204 Y124.445 E136.5282
G1 X66.598 Y125.517 E136.5966
G1 X89.730 Y148.649 E138.5551
G1 X90.231 Y149.829 E138.6318
G1 X66.991 Y126.589 E140.5994
G1 X67.384 Y127.662 E140.6678
G1 X90.731 Y151.008 E142.6445
G1 X91.232 Y152.188 E142.7212
G1 X67.778 Y128.734 E144.7069
G1 X68.171 Y129.806 E144.7753
G1 X91.733 Y153.367 E146.7702
G1 X92.233 Y154.547 E146.8469
G1 X68.565 Y130.878 E148.8508
G1 X68.958 Y131.950 E148.9192
G1 X92.810 Y155.803 E150.9387
G1 X93.409 Y156.968 E151.0171
G1 X93.687 Y157.358 E151.0458
G1 X69.351 Y133.022 E153.1062
G1 X69.745 Y134.095 E153.1745
G1 X108.743 Y173.093 E156.4764
G1 X109.421 Y173.093 E156.5170
G1 X97.473 Y161.144 E157.5287
G1 X99.015 Y162.007 E157.6345
G1 X110.100 Y173.093 E158.5730
G1 X110.779 Y173.093 E158.6137
G1 X100.127 Y162.441 E159.5155
G1 X100.838 Y162.713 E159.5611
G1 X101.146 Y162.781 E159.5800
G1 X111.458 Y173.093 E160.4530
G1 X112.137 Y173.093 E160.4937
G1 X102.019 Y162.975 E161.3503
G1 X102.725 Y163.132 E161.3936
