; G-Code generated by Simplify3D(R) Version 4.0.0
; Jan 8, 2019 at 5:39:11 PM
; Settings Summary
;   processName,Process1
;   applyToModels,Headphone_Back_230mm
;   profileName,Flyingbear p902 (modified)
;   profileVersion,2017-02-06 00:22:54
;   baseProfile,Default
;   printMaterial,PLA
;   printQuality,Medium
;   printExtruders,
;   extruderName,Extruder 1
;   extruderToolheadNumber,0
;   extruderDiameter,0.4
;   extruderAutoWidth,1
;   extruderWidth,0.48
;   extrusionMultiplier,1
;   extruderUseRetract,1
;   extruderRetractionDistance,1
;   extruderExtraRestartDistance,0
;   extruderRetractionZLift,0
;   extruderRetractionSpeed,3400
;   extruderUseCoasting,0
;   extruderCoastingDistance,0.2
;   extruderUseWipe,0
;   extruderWipeDistance,5
;   primaryExtruder,0
;   layerHeight,0.3
;   topSolidLayers,3
;   bottomSolidLayers,2
;   perimeterOutlines,2
;   printPerimetersInsideOut,0
;   startPointOption,2
;   startPointOriginX,0
;   startPointOriginY,0
;   sequentialIslands,0
;   spiralVaseMode,0
;   firstLayerHeightPercentage,100
;   firstLayerWidthPercentage,100
;   firstLayerUnderspeed,0.5
;   useRaft,0
;   raftExtruder,0
;   raftTopLayers,3
;   raftBaseLayers,1
;   raftOffset,2
;   raftSeparationDistance,0.2
;   raftTopInfill,100
;   aboveRaftSpeedMultiplier,0.3
;   useSkirt,0
;   skirtExtruder,0
;   skirtLayers,1
;   skirtOutlines,2
;   skirtOffset,4
;   usePrimePillar,0
;   primePillarExtruder,999
;   primePillarWidth,12
;   primePillarLocation,7
;   primePillarSpeedMultiplier,1
;   useOozeShield,0
;   oozeShieldExtruder,999
;   oozeShieldOffset,2
;   oozeShieldOutlines,1
;   oozeShieldSidewallShape,1
;   oozeShieldSidewallAngle,30
;   oozeShieldSpeedMultiplier,1
;   infillExtruder,0
;   internalInfillPattern,Rectilinear
;   externalInfillPattern,Rectilinear
;   infillPercentage,10
;   outlineOverlapPercentage,15
;   infillExtrusionWidthPercentage,100
;   minInfillLength,5
;   infillLayerInterval,1
;   internalInfillAngles,45,-45
;   overlapInternalInfillAngles,0
;   externalInfillAngles,45,-45
;   generateSupport,0
;   supportExtruder,0
;   supportInfillPercentage,15
;   supportExtraInflation,0.5
;   supportBaseLayers,0
;   denseSupportExtruder,0
;   denseSupportLayers,0
;   denseSupportInfillPercentage,70
;   supportLayerInterval,1
;   supportHorizontalPartOffset,0.3
;   supportUpperSeparationLayers,1
;   supportLowerSeparationLayers,1
;   supportType,1
;   supportGridSpacing,1
;   maxOverhangAngle,60
;   supportAngles,0
;   temperatureName,Extruder 1,Heated Bed
;   temperatureNumber,0,0
;   temperatureSetpointCount,1,1
;   temperatureSetpointLayers,1,1
;   temperatureSetpointTemperatures,210,60
;   temperatureStabilizeAtStartup,1,1
;   temperatureHeatedBed,0,1
;   temperatureRelayBetweenLayers,0,0
;   temperatureRelayBetweenLoops,0,0
;   fanLayers,1,2
;   fanSpeeds,0,100
;   blipFanToFullPower,0
;   adjustSpeedForCooling,1
;   minSpeedLayerTime,15
;   minCoolingSpeedSlowdown,20
;   increaseFanForCooling,0
;   minFanLayerTime,45
;   maxCoolingFanSpeed,100
;   increaseFanForBridging,1
;   bridgingFanSpeed,100
;   use5D,1
;   relativeEdistances,0
;   allowEaxisZeroing,1
;   independentExtruderAxes,0
;   includeM10123,0
;   stickySupport,1
;   applyToolheadOffsets,0
;   gcodeXoffset,0
;   gcodeYoffset,0
;   gcodeZoffset,0
;   overrideMachineDefinition,1
;   machineTypeOverride,0
;   strokeXoverride,220
;   strokeYoverride,220
;   strokeZoverride,280
;   originOffsetXoverride,0
;   originOffsetYoverride,0
;   originOffsetZoverride,0
;   homeXdirOverride,-1
;   homeYdirOverride,-1
;   homeZdirOverride,-1
;   flipXoverride,1
;   flipYoverride,-1
;   flipZoverride,1
;   toolheadOffsets,0,0|0,0|0,0|0,0|0,0|0,0
;   overrideFirmwareConfiguration,1
;   firmwareTypeOverride,RepRap (Marlin/Repetier/Sprinter)
;   GPXconfigOverride,r2
;   baudRateOverride,250000
;   overridePrinterModels,0
;   printerModelsOverride
;   startingGcode,G28 ; home all axes,G1 X0 Y5 Z0.2 F3000 ; get ready to prime,G92 E0 ; reset extrusion distance,G1 X200 E20 F600 ; prime nozzle
;   layerChangeGcode,
;   retractionGcode,
;   toolChangeGcode,
;   endingGcode,M104 S0 ; turn off extruder,M140 S0 ; turn off bed,G91 ; use relative coordinates,G1 Z0.6 F5000 ; lift nozzle by 0.6mm,G90 ; use absolute coordinates,G28 X0 ; home X axis,G28 Y0 ; home X axis,M84 ; disable motors,M107 ; turn off fan
;   exportFileFormat,gcode
;   celebration,0
;   celebrationSong,Random Song
;   postProcessing,
;   defaultSpeed,4200
;   outlineUnderspeed,0.9
;   solidInfillUnderspeed,1
;   supportUnderspeed,0.8
;   rapidXYspeed,4200
;   rapidZspeed,1002
;   minBridgingArea,50
;   bridgingExtraInflation,0
;   bridgingExtrusionMultiplier,1
;   bridgingSpeedMultiplier,1
;   useFixedBridgingAngle,0
;   fixedBridgingAngle,0
;   applyBridgingToPerimeters,0
;   filamentDiameters,1.75|1.75|1.75|1.75|1.75|1.75
;   filamentPricesPerKg,46|46|46|46|46|46
;   filamentDensities,1.25|1.25|1.25|1.25|1.25|1.25
;   useMinPrintHeight,0
;   minPrintHeight,0
;   useMaxPrintHeight,0
;   maxPrintHeight,0
;   useDiaphragm,0
;   diaphragmLayerInterval,20
;   robustSlicing,1
;   mergeAllIntoSolid,0
;   onlyRetractWhenCrossingOutline,1
;   retractBetweenLayers,1
;   useRetractionMinTravel,0
;   retractionMinTravel,3
;   retractWhileWiping,0
;   onlyWipeOutlines,1
;   avoidCrossingOutline,0
;   maxMovementDetourFactor,3
;   toolChangeRetractionDistance,12
;   toolChangeExtraRestartDistance,-0.5
;   toolChangeRetractionSpeed,600
;   externalThinWallType,1
;   internalThinWallType,1
;   thinWallAllowedOverlapPercentage,10
;   singleExtrusionMinLength,1
;   singleExtrusionMinPrintingWidthPercentage,50
;   singleExtrusionMaxPrintingWidthPercentage,200
;   singleExtrusionEndpointExtension,0.2
;   horizontalSizeCompensation,0
G90
M82
M106 S0
M140 S60
M190 S60
M104 S210 T0
M109 S210 T0
G28 ; home all axes
G1 X0 Y5 Z0.2 F3000 ; get ready to prime
G92 E0 ; reset extrusion distance
G1 X200 E20 F600 ; prime nozzle
G92 E0
G1 E-1.0000 F3400
G1 Z0.300 F1002
; process Process1
; layer 1, Z = 0.300
T0
; tool H0.300 W0.480
; outer perimeter
G1 X28.835 Y22.612 F4200
G1 E0.0000 F1020
G92 E0
G1 X31.526 Y25.283 E0.2269 F1890
G1 X35.653 Y21.125 E0.5777
G1 X41.058 Y25.556 E0.9961
G1 X44.045 Y28.031 E1.2283
G1 X190.811 Y148.817 E12.6079
G1 X193.689 Y151.168 E12.8304
G1 X198.805 Y155.396 E13.2278
G1 X156.130 Y198.380 E16.8540
G1 X151.754 Y193.162 E17.2618
G1 X149.492 Y190.433 E17.4740
G1 X27.657 Y44.538 E28.8535
G1 X25.205 Y41.622 E29.0816
G1 X20.691 Y36.195 E29.5042
G1 X24.820 Y32.036 E29.8551
G1 X22.130 Y29.365 E30.0820
G1 X28.835 Y22.612 E30.6518
; inner perimeter
G1 X28.838 Y23.291 F4200
G92 E0
G1 X31.528 Y25.961 E0.2269 F1995
G1 X35.686 Y21.773 E0.5803
G1 X40.753 Y25.926 E0.9725
G1 X43.740 Y28.401 E1.2047
G1 X190.506 Y149.188 E12.5844
G1 X193.385 Y151.539 E12.8069
G1 X198.094 Y155.431 E13.1727
G1 X156.160 Y197.669 E16.7360
G1 X152.123 Y192.854 E17.1122
G1 X149.861 Y190.126 E17.3243
G1 X28.025 Y44.230 E28.7039
G1 X25.573 Y41.314 E28.9320
G1 X21.339 Y36.224 E29.3284
G1 X25.499 Y32.034 E29.6819
G1 X22.809 Y29.363 E29.9088
G1 X28.838 Y23.291 E30.4211
; outer perimeter
G1 X37.269 Y36.510 F4200
G92 E0
G1 X36.617 Y37.043 E0.0504 F1890
G1 X36.089 Y37.699 E0.1008
G1 X35.709 Y38.451 E0.1513
G1 X35.494 Y39.265 E0.2017
G1 X35.453 Y40.106 E0.2521
G1 X35.588 Y40.937 E0.3025
G1 X35.893 Y41.722 E0.3529
G1 X36.348 Y42.418 E0.4027
G1 X147.662 Y175.706 E10.7992
G1 X148.835 Y176.942 E10.9012
G1 X150.237 Y178.080 E11.0093
G1 X151.779 Y179.021 E11.1175
G1 X153.433 Y179.748 E11.2256
G1 X155.168 Y180.248 E11.3337
G1 X156.955 Y180.512 E11.4419
G1 X158.762 Y180.536 E11.5500
G1 X160.555 Y180.319 E11.6582
G1 X162.303 Y179.865 E11.7663
G1 X163.976 Y179.182 E11.8745
G1 X165.542 Y178.282 E11.9826
G1 X166.971 Y177.183 E12.0905
G1 X167.629 Y176.564 E12.1446
G1 X177.078 Y167.049 E12.9474
G1 X177.693 Y166.386 E13.0016
G1 X178.781 Y164.949 E13.1095
G1 X179.670 Y163.377 E13.2176
G1 X180.342 Y161.699 E13.3258
G1 X180.784 Y159.947 E13.4340
G1 X180.988 Y158.152 E13.5421
G1 X180.952 Y156.346 E13.6503
G1 X180.674 Y154.560 E13.7585
G1 X180.162 Y152.828 E13.8667
G1 X179.423 Y151.179 E13.9748
G1 X178.471 Y149.643 E14.0830
G1 X177.323 Y148.249 E14.1911
G1 X176.078 Y147.084 E14.2932
G1 X41.990 Y36.735 E24.6897
G1 X41.291 Y36.285 E24.7395
G1 X40.504 Y35.986 E24.7899
G1 X39.672 Y35.857 E24.8403
G1 X38.831 Y35.904 E24.8907
G1 X38.018 Y36.125 E24.9411
G1 X37.269 Y36.510 E24.9916
; inner perimeter
G1 X37.005 Y36.106 F4200
G92 E0
G1 X36.274 Y36.703 E0.0565 F1995
G1 X35.683 Y37.438 E0.1129
G1 X35.258 Y38.279 E0.1694
G1 X35.017 Y39.191 E0.2258
G1 X34.972 Y40.133 E0.2823
G1 X35.123 Y41.064 E0.3387
G1 X35.464 Y41.943 E0.3952
G1 X35.962 Y42.704 E0.4496
G1 X147.303 Y176.026 E10.8487
G1 X148.508 Y177.295 E10.9535
G1 X149.960 Y178.473 E11.0654
G1 X151.556 Y179.448 E11.1774
G1 X153.269 Y180.200 E11.2894
G1 X155.066 Y180.718 E11.4014
G1 X156.917 Y180.992 E11.5134
G1 X158.787 Y181.017 E11.6254
G1 X160.644 Y180.792 E11.7374
G1 X162.455 Y180.321 E11.8494
G1 X164.187 Y179.614 E11.9614
G1 X165.809 Y178.682 E12.0734
G1 X167.283 Y177.549 E12.1847
G1 X167.964 Y176.908 E12.2407
G1 X177.424 Y167.381 E13.0445
G1 X178.061 Y166.695 E13.1005
G1 X179.183 Y165.214 E13.2118
G1 X180.104 Y163.585 E13.3238
G1 X180.799 Y161.848 E13.4358
G1 X181.257 Y160.034 E13.5478
G1 X181.469 Y158.175 E13.6598
G1 X181.431 Y156.304 E13.7719
G1 X181.144 Y154.455 E13.8839
G1 X180.613 Y152.661 E13.9959
G1 X179.848 Y150.953 E14.1079
G1 X178.862 Y149.363 E14.2199
G1 X177.674 Y147.919 E14.3319
G1 X176.395 Y146.723 E14.4367
G1 X42.273 Y36.346 E24.8358
G1 X41.509 Y35.854 E24.8902
G1 X40.627 Y35.519 E24.9467
G1 X39.695 Y35.375 E25.0032
G1 X38.754 Y35.428 E25.0596
G1 X37.843 Y35.675 E25.1161
G1 X37.005 Y36.106 E25.1726
G92 E0
G1 E-1.0000 F3400
; solid layer
G1 X151.194 Y179.704 F4200
G1 E0.0000 F3400
G92 E0
G1 X162.347 Y190.858 E0.9443 F2100
G1 X162.686 Y190.517 E0.9731
G1 X152.458 Y180.290 E1.8390
G1 X153.130 Y180.585 E1.8829
G1 X153.554 Y180.707 E1.9094
G1 X163.024 Y190.177 E2.7111
G1 X163.362 Y189.836 E2.7399
G1 X154.508 Y180.982 E3.4895
G1 X154.980 Y181.118 E3.5189
G1 X155.382 Y181.178 E3.5433
G1 X163.700 Y189.495 E4.2475
G1 X164.038 Y189.155 E4.2762
G1 X156.179 Y181.295 E4.9417
G1 X156.884 Y181.400 E4.9844
G1 X156.963 Y181.401 E4.9891
G1 X164.376 Y188.814 E5.6167
G1 X164.715 Y188.473 E5.6455
G1 X157.651 Y181.410 E6.2435
G1 X158.339 Y181.419 E6.2847
G1 X165.053 Y188.133 E6.8532
G1 X165.391 Y187.792 E6.8819
G1 X159.001 Y181.402 E7.4230
G1 X159.606 Y181.329 E7.4595
G1 X165.729 Y187.452 E7.9779
G1 X166.067 Y187.111 E8.0066
G1 X160.212 Y181.255 E8.5024
G1 X160.721 Y181.194 E8.5331
G1 X160.807 Y181.171 E8.5384
G1 X166.406 Y186.770 E9.0125
G1 X166.744 Y186.430 E9.0412
G1 X161.345 Y181.031 E9.4983
G1 X161.884 Y180.891 E9.5316
G1 X167.082 Y186.089 E9.9717
G1 X167.420 Y185.748 E10.0004
G1 X162.423 Y180.751 E10.4235
G1 X162.584 Y180.709 E10.4335
G1 X162.922 Y180.571 E10.4553
G1 X167.758 Y185.408 E10.8648
G1 X168.097 Y185.067 E10.8935
G1 X163.404 Y180.374 E11.2908
G1 X163.886 Y180.178 E11.3220
G1 X168.435 Y184.726 E11.7071
G1 X168.773 Y184.386 E11.7359
G1 X164.368 Y179.981 E12.1088
G1 X164.799 Y179.733 E12.1386
G1 X169.111 Y184.045 E12.5037
G1 X169.449 Y183.705 E12.5325
G1 X165.230 Y179.485 E12.8897
G1 X165.661 Y179.237 E12.9195
G1 X169.787 Y183.364 E13.2689
G1 X170.126 Y183.023 E13.2976
G1 X166.086 Y178.984 E13.6396
G1 X166.470 Y178.689 E13.6686
G1 X170.464 Y182.683 E14.0068
G1 X170.802 Y182.342 E14.0355
G1 X166.854 Y178.394 E14.3698
G1 X167.237 Y178.099 E14.3988
G1 X171.140 Y182.001 E14.7292
G1 X171.478 Y181.661 E14.7580
G1 X167.615 Y177.797 E15.0851
G1 X167.964 Y177.468 E15.1139
G1 X171.817 Y181.320 E15.4400
G1 X172.155 Y180.979 E15.4688
G1 X168.312 Y177.136 E15.7941
G1 X168.650 Y176.796 E15.8229
G1 X172.493 Y180.639 E16.1482
G1 X172.831 Y180.298 E16.1770
G1 X168.988 Y176.455 E16.5023
G1 X169.326 Y176.115 E16.5311
G1 X173.169 Y179.958 E16.8564
G1 X173.508 Y179.617 E16.8852
G1 X169.665 Y175.774 E17.2105
G1 X170.003 Y175.433 E17.2393
G1 X173.846 Y179.276 E17.5646
G1 X174.184 Y178.936 E17.5934
G1 X170.341 Y175.093 E17.9187
G1 X170.679 Y174.752 E17.9475
G1 X174.522 Y178.595 E18.2728
G1 X174.860 Y178.254 E18.3016
G1 X171.018 Y174.412 E18.6269
G1 X171.356 Y174.071 E18.6557
G1 X175.198 Y177.914 E18.9810
G1 X175.537 Y177.573 E19.0097
G1 X171.694 Y173.730 E19.3351
G1 X172.032 Y173.390 E19.3638
G1 X175.875 Y177.232 E19.6892
G1 X176.213 Y176.892 E19.7179
G1 X172.370 Y173.049 E20.0433
G1 X172.709 Y172.709 E20.0720
G1 X176.551 Y176.551 E20.3973
G1 X176.889 Y176.211 E20.4261
G1 X173.047 Y172.368 E20.7514
G1 X173.385 Y172.027 E20.7801
G1 X177.228 Y175.870 E21.1055
G1 X177.566 Y175.529 E21.1342
G1 X173.723 Y171.687 E21.4595
G1 X174.061 Y171.346 E21.4883
G1 X177.904 Y175.189 E21.8136
G1 X178.242 Y174.848 E21.8423
G1 X174.400 Y171.006 E22.1677
G1 X174.738 Y170.665 E22.1964
G1 X178.580 Y174.507 E22.5217
G1 X178.919 Y174.167 E22.5505
G1 X175.076 Y170.324 E22.8758
G1 X175.414 Y169.984 E22.9045
G1 X179.257 Y173.826 E23.2299
G1 X179.595 Y173.486 E23.2586
G1 X175.753 Y169.643 E23.5839
G1 X176.091 Y169.303 E23.6126
G1 X179.933 Y173.145 E23.9380
G1 X180.271 Y172.804 E23.9667
G1 X176.429 Y168.962 E24.2920
G1 X176.767 Y168.621 E24.3207
G1 X180.609 Y172.464 E24.6461
G1 X180.948 Y172.123 E24.6748
G1 X177.105 Y168.281 E25.0001
G1 X177.444 Y167.940 E25.0288
G1 X181.286 Y171.782 E25.3541
G1 X181.624 Y171.442 E25.3829
G1 X177.780 Y167.597 E25.7084
G1 X178.107 Y167.245 E25.7371
G1 X181.962 Y171.101 E26.0636
G1 X182.300 Y170.760 E26.0923
G1 X178.427 Y166.887 E26.4202
G1 X178.720 Y166.501 E26.4492
G1 X182.639 Y170.420 E26.7810
G1 X182.977 Y170.079 E26.8098
G1 X179.012 Y166.115 E27.1454
G1 X179.305 Y165.728 E27.1744
G1 X183.315 Y169.739 E27.5139
G1 X183.653 Y169.398 E27.5427
G1 X179.586 Y165.330 E27.8871
G1 X179.831 Y164.897 E27.9169
G1 X183.991 Y169.057 E28.2691
G1 X184.330 Y168.717 E28.2979
G1 X180.076 Y164.463 E28.6580
G1 X180.321 Y164.029 E28.6878
G1 X184.668 Y168.376 E29.0559
G1 X185.006 Y168.035 E29.0846
G1 X180.547 Y163.576 E29.4622
G1 X180.741 Y163.091 E29.4934
G1 X185.344 Y167.695 E29.8832
G1 X185.682 Y167.354 E29.9119
G1 X180.935 Y162.607 E30.3139
G1 X181.129 Y162.122 E30.3451
G1 X186.020 Y167.013 E30.7593
G1 X186.359 Y166.673 E30.7880
G1 X181.283 Y161.597 E31.2178
G1 X181.420 Y161.055 E31.2512
G1 X186.697 Y166.332 E31.6980
G1 X187.035 Y165.992 E31.7268
G1 X181.557 Y160.513 E32.1906
G1 X181.659 Y160.107 E32.2157
G1 X181.677 Y159.954 E32.2249
G1 X187.373 Y165.651 E32.7072
G1 X187.711 Y165.310 E32.7359
G1 X181.746 Y159.345 E33.2410
G1 X181.816 Y158.736 E33.2777
G1 X188.050 Y164.970 E33.8055
G1 X188.388 Y164.629 E33.8343
G1 X181.876 Y158.117 E34.3856
G1 X181.862 Y157.424 E34.4271
G1 X188.726 Y164.288 E35.0083
G1 X189.064 Y163.948 E35.0370
G1 X181.848 Y156.731 E35.6480
G1 X181.838 Y156.268 E35.6758
G1 X181.797 Y156.002 E35.6919
G1 X189.402 Y163.607 E36.3359
G1 X189.741 Y163.266 E36.3646
G1 X181.672 Y155.198 E37.0477
G1 X181.547 Y154.394 E37.0964
G1 X190.079 Y162.926 E37.8187
G1 X190.417 Y162.585 E37.8475
G1 X181.268 Y153.436 E38.6221
G1 X180.997 Y152.519 E38.6793
G1 X180.970 Y152.459 E38.6833
G1 X190.755 Y162.245 E39.5117
G1 X191.093 Y161.904 E39.5405
G1 X180.419 Y151.229 E40.4443
G1 X193.916 Y152.508 F4200
G92 E0
G1 X197.181 Y155.773 E0.2764 F2100
G1 X196.843 Y156.113 E0.3052
G1 X190.163 Y149.434 E0.8707
G1 X186.328 Y146.278 E1.1680
G1 X196.504 Y156.454 E2.0296
G1 X196.166 Y156.794 E2.0583
G1 X182.494 Y143.122 E3.2159
G1 X178.659 Y139.966 E3.5133
G1 X195.828 Y157.135 E4.9669
G1 X195.490 Y157.476 E4.9957
G1 X174.824 Y136.810 E6.7454
G1 X170.989 Y133.654 E7.0427
G1 X195.152 Y157.816 E9.0884
G1 X194.813 Y158.157 E9.1172
G1 X167.154 Y130.498 E11.4590
G1 X163.319 Y127.342 E11.7563
G1 X194.475 Y158.498 E14.3942
G1 X194.137 Y158.838 E14.4229
G1 X159.485 Y124.186 E17.3568
G1 X155.650 Y121.030 E17.6541
G1 X193.799 Y159.179 E20.8841
G1 X193.461 Y159.519 E20.9128
G1 X151.815 Y117.874 E24.4388
G1 X147.980 Y114.718 E24.7361
G1 X193.122 Y159.860 E28.5581
G1 X192.784 Y160.201 E28.5869
G1 X144.145 Y111.562 E32.7050
G1 X140.311 Y108.406 E33.0023
