; G-Code generated by Simplify3D(R) Version 4.0.0
; Apr 2, 2018 at 3:22:24 PM
; Settings Summary
;   processName,Process1(1)
;   applyToModels,hodaya1
;   profileName,Flying Bear 902 Update 7-2017 (modified)
;   profileVersion,2017-07-10 09:45:20
;   baseProfile,Default
;   printMaterial,PLA
;   printQuality,Medium
;   printExtruders,
;   extruderName,Extruder 1
;   extruderToolheadNumber,0
;   extruderDiameter,0.2
;   extruderAutoWidth,1
;   extruderWidth,0.24
;   extrusionMultiplier,0.9
;   extruderUseRetract,1
;   extruderRetractionDistance,2
;   extruderExtraRestartDistance,0
;   extruderRetractionZLift,0
;   extruderRetractionSpeed,3000
;   extruderUseCoasting,0
;   extruderCoastingDistance,0.2
;   extruderUseWipe,1
;   extruderWipeDistance,5
;   primaryExtruder,0
;   layerHeight,0.2
;   topSolidLayers,3
;   bottomSolidLayers,3
;   perimeterOutlines,3
;   printPerimetersInsideOut,0
;   startPointOption,2
;   startPointOriginX,0
;   startPointOriginY,0
;   sequentialIslands,0
;   spiralVaseMode,0
;   firstLayerHeightPercentage,20
;   firstLayerWidthPercentage,100
;   firstLayerUnderspeed,0.5
;   useRaft,0
;   raftExtruder,0
;   raftTopLayers,2
;   raftBaseLayers,2
;   raftOffset,3
;   raftSeparationDistance,0.5
;   raftTopInfill,100
;   aboveRaftSpeedMultiplier,0.3
;   useSkirt,0
;   skirtExtruder,0
;   skirtLayers,1
;   skirtOutlines,2
;   skirtOffset,4
;   usePrimePillar,0
;   primePillarExtruder,999
;   primePillarWidth,12
;   primePillarLocation,7
;   primePillarSpeedMultiplier,1
;   useOozeShield,0
;   oozeShieldExtruder,999
;   oozeShieldOffset,2
;   oozeShieldOutlines,1
;   oozeShieldSidewallShape,1
;   oozeShieldSidewallAngle,30
;   oozeShieldSpeedMultiplier,1
;   infillExtruder,0
;   internalInfillPattern,Rectilinear
;   externalInfillPattern,Rectilinear
;   infillPercentage,5
;   outlineOverlapPercentage,60
;   infillExtrusionWidthPercentage,100
;   minInfillLength,5
;   infillLayerInterval,1
;   internalInfillAngles,45,-45
;   overlapInternalInfillAngles,0
;   externalInfillAngles,45,-45
;   generateSupport,0
;   supportExtruder,0
;   supportInfillPercentage,30
;   supportExtraInflation,0
;   supportBaseLayers,0
;   denseSupportExtruder,0
;   denseSupportLayers,0
;   denseSupportInfillPercentage,50
;   supportLayerInterval,1
;   supportHorizontalPartOffset,0.3
;   supportUpperSeparationLayers,1
;   supportLowerSeparationLayers,1
;   supportType,0
;   supportGridSpacing,4
;   maxOverhangAngle,70
;   supportAngles,0
;   temperatureName,Extruder 1,Heated Bed
;   temperatureNumber,0,0
;   temperatureSetpointCount,1,2
;   temperatureSetpointLayers,1,1,10
;   temperatureSetpointTemperatures,210,70,60
;   temperatureStabilizeAtStartup,1,0
;   temperatureHeatedBed,0,1
;   temperatureRelayBetweenLayers,0,0
;   temperatureRelayBetweenLoops,0,0
;   fanLayers,1
;   fanSpeeds,255
;   blipFanToFullPower,0
;   adjustSpeedForCooling,1
;   minSpeedLayerTime,15
;   minCoolingSpeedSlowdown,20
;   increaseFanForCooling,0
;   minFanLayerTime,45
;   maxCoolingFanSpeed,100
;   increaseFanForBridging,0
;   bridgingFanSpeed,100
;   use5D,1
;   relativeEdistances,0
;   allowEaxisZeroing,1
;   independentExtruderAxes,0
;   includeM10123,0
;   stickySupport,1
;   applyToolheadOffsets,0
;   gcodeXoffset,0
;   gcodeYoffset,0
;   gcodeZoffset,0
;   overrideMachineDefinition,1
;   machineTypeOverride,0
;   strokeXoverride,220
;   strokeYoverride,220
;   strokeZoverride,280
;   originOffsetXoverride,0
;   originOffsetYoverride,0
;   originOffsetZoverride,0
;   homeXdirOverride,-1
;   homeYdirOverride,-1
;   homeZdirOverride,-1
;   flipXoverride,1
;   flipYoverride,-1
;   flipZoverride,1
;   toolheadOffsets,0,0|0,0|0,0|0,0|0,0|0,0
;   overrideFirmwareConfiguration,1
;   firmwareTypeOverride,RepRap (Marlin/Repetier/Sprinter)
;   GPXconfigOverride,r2
;   baudRateOverride,250000
;   overridePrinterModels,0
;   printerModelsOverride
;   startingGcode,G28 ; home all axes,G1 X0 Y20 Z0.2 F3000 ; get ready to prime,G92 E0 ; reset extrusion distance,G1 X200 E20 F600 ; prime nozzle
;   layerChangeGcode,
;   retractionGcode,
;   toolChangeGcode,
;   endingGcode,M104 S0 ; turn off extruder,M140 S0 ; turn off bed,G28 X Y ; home x and y axes,M84 ; disable motors
;   exportFileFormat,gcode
;   celebration,0
;   celebrationSong,Random Song
;   postProcessing,
;   defaultSpeed,4600
;   outlineUnderspeed,0.6
;   solidInfillUnderspeed,0.85
;   supportUnderspeed,0.8
;   rapidXYspeed,5200
;   rapidZspeed,1002
;   minBridgingArea,50
;   bridgingExtraInflation,0
;   bridgingExtrusionMultiplier,1
;   bridgingSpeedMultiplier,1
;   useFixedBridgingAngle,0
;   fixedBridgingAngle,0
;   applyBridgingToPerimeters,0
;   filamentDiameters,1.75|1.75|1.75|1.75|1.75|1.75
;   filamentPricesPerKg,46|46|46|46|46|46
;   filamentDensities,1.25|1.25|1.25|1.25|1.25|1.25
;   useMinPrintHeight,0
;   minPrintHeight,0
;   useMaxPrintHeight,0
;   maxPrintHeight,0.3
;   useDiaphragm,0
;   diaphragmLayerInterval,20
;   robustSlicing,1
;   mergeAllIntoSolid,0
;   onlyRetractWhenCrossingOutline,1
;   retractBetweenLayers,1
;   useRetractionMinTravel,0
;   retractionMinTravel,3
;   retractWhileWiping,0
;   onlyWipeOutlines,1
;   avoidCrossingOutline,0
;   maxMovementDetourFactor,3
;   toolChangeRetractionDistance,12
;   toolChangeExtraRestartDistance,-0.5
;   toolChangeRetractionSpeed,600
;   externalThinWallType,1
;   internalThinWallType,1
;   thinWallAllowedOverlapPercentage,15
;   singleExtrusionMinLength,1
;   singleExtrusionMinPrintingWidthPercentage,50
;   singleExtrusionMaxPrintingWidthPercentage,200
;   singleExtrusionEndpointExtension,0.2
;   horizontalSizeCompensation,0
G90
M82
M106 S650
M140 S70
M104 S210 T0
M109 S210 T0
G28 ; home all axes
G1 X0 Y20 Z0.2 F3000 ; get ready to prime
G92 E0 ; reset extrusion distance
G1 X200 E20 F600 ; prime nozzle
G92 E0
G1 E-2.0000 F3000
G1 Z0.040 F1002
; process Process1(1)
; layer 1, Z = 0.040
T0
; tool H0.200 W0.240
; outer perimeter
G1 X92.620 Y97.620 F5200
G1 E0.0000 F900
G92 E0
G1 X127.380 Y97.620 E0.6243 F1380
G1 X127.380 Y122.380 E1.0690
G1 X92.620 Y122.380 E1.6933
G1 X92.620 Y97.620 E2.1380
G1 X97.620 Y97.620 F4600
; inner perimeter
G1 X92.860 Y97.860 F5200
G92 E0
G1 X127.140 Y97.860 E0.6157 F1840
G1 X127.140 Y122.140 E1.0518
G1 X92.860 Y122.140 E1.6675
G1 X92.860 Y97.860 E2.1035
G1 X93.100 Y98.100 F5200
G92 E0
G1 X126.900 Y98.100 E0.6071 F1840
G1 X126.900 Y121.900 E1.0345
G1 X93.100 Y121.900 E1.6416
G1 X93.100 Y98.100 E2.0690
; solid layer
G1 X93.293 Y121.804 F5200
G92 E0
G1 X93.196 Y121.707 E0.0025 F1955
G1 X93.196 Y121.367 E0.0086
G1 X93.633 Y121.804 E0.0197
G1 X93.972 Y121.804 E0.0258
G1 X93.196 Y121.028 E0.0455
G1 X93.196 Y120.688 E0.0516
G1 X94.312 Y121.804 E0.0799
G1 X94.651 Y121.804 E0.0860
G1 X93.196 Y120.349 E0.1230
G1 X93.196 Y120.009 E0.1291
G1 X94.991 Y121.804 E0.1746
G1 X95.330 Y121.804 E0.1807
G1 X93.196 Y119.670 E0.2349
G1 X93.196 Y119.331 E0.2410
G1 X95.669 Y121.804 E0.3039
G1 X96.009 Y121.804 E0.3100
G1 X93.196 Y118.991 E0.3814
G1 X93.196 Y118.652 E0.3875
G1 X96.348 Y121.804 E0.4676
G1 X96.688 Y121.804 E0.4737
G1 X93.196 Y118.312 E0.5623
G1 X93.196 Y117.973 E0.5684
G1 X97.027 Y121.804 E0.6658
G1 X97.366 Y121.804 E0.6718
G1 X93.196 Y117.634 E0.7778
G1 X93.196 Y117.294 E0.7839
G1 X97.706 Y121.804 E0.8984
G1 X98.045 Y121.804 E0.9045
G1 X93.196 Y116.955 E1.0277
G1 X93.196 Y116.615 E1.0338
G1 X98.385 Y121.804 E1.1656
G1 X98.724 Y121.804 E1.1717
G1 X93.196 Y116.276 E1.3121
G1 X93.196 Y115.937 E1.3182
G1 X99.063 Y121.804 E1.4672
G1 X99.403 Y121.804 E1.4733
G1 X93.196 Y115.597 E1.6310
G1 X93.196 Y115.258 E1.6371
G1 X99.742 Y121.804 E1.8033
G1 X100.082 Y121.804 E1.8094
G1 X93.196 Y114.918 E1.9843
G1 X93.196 Y114.579 E1.9904
G1 X100.421 Y121.804 E2.1739
G1 X100.761 Y121.804 E2.1800
G1 X93.196 Y114.239 E2.3722
G1 X93.196 Y113.900 E2.3783
G1 X101.100 Y121.804 E2.5790
G1 X101.439 Y121.804 E2.5851
G1 X93.196 Y113.561 E2.7945
G1 X93.196 Y113.221 E2.8006
G1 X101.779 Y121.804 E3.0186
G1 X102.118 Y121.804 E3.0247
G1 X93.196 Y112.882 E3.2513
G1 X93.196 Y112.542 E3.2574
G1 X102.458 Y121.804 E3.4927
G1 X102.797 Y121.804 E3.4988
G1 X93.196 Y112.203 E3.7426
G1 X93.196 Y111.864 E3.7487
G1 X103.136 Y121.804 E4.0012
G1 X103.476 Y121.804 E4.0073
G1 X93.196 Y111.524 E4.2684
G1 X93.196 Y111.185 E4.2745
G1 X103.815 Y121.804 E4.5442
G1 X104.155 Y121.804 E4.5503
G1 X93.196 Y110.845 E4.8287
G1 X93.196 Y110.506 E4.8348
G1 X104.494 Y121.804 E5.1217
G1 X104.833 Y121.804 E5.1278
G1 X93.196 Y110.167 E5.4234
G1 X93.196 Y109.827 E5.4295
G1 X105.173 Y121.804 E5.7337
G1 X105.512 Y121.804 E5.7398
G1 X93.196 Y109.488 E6.0527
G1 X93.196 Y109.148 E6.0588
G1 X105.852 Y121.804 E6.3802
G1 X106.191 Y121.804 E6.3863
G1 X93.196 Y108.809 E6.7164
G1 X93.196 Y108.469 E6.7225
G1 X106.531 Y121.804 E7.0612
G1 X106.870 Y121.804 E7.0673
G1 X93.196 Y108.130 E7.4146
G1 X93.196 Y107.791 E7.4207
G1 X107.209 Y121.804 E7.7766
G1 X107.549 Y121.804 E7.7827
G1 X93.196 Y107.451 E8.1473
G1 X93.196 Y107.112 E8.1534
G1 X107.888 Y121.804 E8.5265
G1 X108.228 Y121.804 E8.5326
G1 X93.196 Y106.772 E8.9144
G1 X93.196 Y106.433 E8.9205
G1 X108.567 Y121.804 E9.3110
G1 X108.906 Y121.804 E9.3171
G1 X93.196 Y106.094 E9.7161
G1 X93.196 Y105.754 E9.7222
G1 X109.246 Y121.804 E10.1299
G1 X109.585 Y121.804 E10.1360
G1 X93.196 Y105.415 E10.5522
G1 X93.196 Y105.075 E10.5583
G1 X109.925 Y121.804 E10.9832
G1 X110.264 Y121.804 E10.9893
G1 X93.196 Y104.736 E11.4229
G1 X93.196 Y104.397 E11.4290
G1 X110.603 Y121.804 E11.8711
G1 X110.943 Y121.804 E11.8772
G1 X93.196 Y104.057 E12.3280
G1 X93.196 Y103.718 E12.3341
G1 X111.282 Y121.804 E12.7935
G1 X111.622 Y121.804 E12.7996
G1 X93.196 Y103.378 E13.2676
G1 X93.196 Y103.039 E13.2737
G1 X111.961 Y121.804 E13.7503
G1 X112.300 Y121.804 E13.7564
G1 X93.196 Y102.700 E14.2416
G1 X93.196 Y102.360 E14.2477
G1 X112.640 Y121.804 E14.7416
G1 X112.979 Y121.804 E14.7477
G1 X93.196 Y102.021 E15.2502
G1 X93.196 Y101.681 E15.2563
G1 X113.319 Y121.804 E15.7674
G1 X113.658 Y121.804 E15.7735
G1 X93.196 Y101.342 E16.2933
G1 X93.196 Y101.002 E16.2993
G1 X113.998 Y121.804 E16.8277
G1 X114.337 Y121.804 E16.8338
G1 X93.196 Y100.663 E17.3708
G1 X93.196 Y100.324 E17.3769
G1 X114.676 Y121.804 E17.9225
G1 X115.016 Y121.804 E17.9286
G1 X93.196 Y99.984 E18.4828
G1 X93.196 Y99.645 E18.4889
G1 X115.355 Y121.804 E19.0517
G1 X115.695 Y121.804 E19.0578
G1 X93.196 Y99.305 E19.6293
G1 X93.196 Y98.966 E19.6354
G1 X116.034 Y121.804 E20.2155
G1 X116.373 Y121.804 E20.2216
G1 X93.196 Y98.627 E20.8103
G1 X93.196 Y98.287 E20.8164
G1 X116.713 Y121.804 E21.4137
G1 X117.052 Y121.804 E21.4198
G1 X93.444 Y98.196 E22.0194
G1 X93.784 Y98.196 E22.0255
G1 X117.392 Y121.804 E22.6252
G1 X117.731 Y121.804 E22.6313
G1 X94.123 Y98.196 E23.2309
G1 X94.462 Y98.196 E23.2370
G1 X118.070 Y121.804 E23.8366
G1 X118.410 Y121.804 E23.8427
G1 X94.802 Y98.196 E24.4424
G1 X95.141 Y98.196 E24.4485
G1 X118.749 Y121.804 E25.0481
G1 X119.089 Y121.804 E25.0542
G1 X95.481 Y98.196 E25.6539
G1 X95.820 Y98.196 E25.6600
G1 X119.428 Y121.804 E26.2596
G1 X119.768 Y121.804 E26.2657
G1 X96.160 Y98.196 E26.8653
G1 X96.499 Y98.196 E26.8714
G1 X120.107 Y121.804 E27.4711
G1 X120.446 Y121.804 E27.4772
G1 X96.838 Y98.196 E28.0768
G1 X97.178 Y98.196 E28.0829
G1 X120.786 Y121.804 E28.6826
G1 X121.125 Y121.804 E28.6886
G1 X97.517 Y98.196 E29.2883
G1 X97.857 Y98.196 E29.2944
G1 X121.465 Y121.804 E29.8940
G1 X121.804 Y121.804 E29.9001
G1 X98.196 Y98.196 E30.4998
G1 X98.535 Y98.196 E30.5059
G1 X122.143 Y121.804 E31.1055
G1 X122.483 Y121.804 E31.1116
G1 X98.875 Y98.196 E31.7112
G1 X99.214 Y98.196 E31.7173
G1 X122.822 Y121.804 E32.3170
G1 X123.162 Y121.804 E32.3231
G1 X99.554 Y98.196 E32.9227
G1 X99.893 Y98.196 E32.9288
G1 X123.501 Y121.804 E33.5285
G1 X123.840 Y121.804 E33.5345
G1 X100.232 Y98.196 E34.1342
G1 X100.572 Y98.196 E34.1403
G1 X124.180 Y121.804 E34.7399
G1 X124.519 Y121.804 E34.7460
G1 X100.911 Y98.196 E35.3457
G1 X101.251 Y98.196 E35.3518
G1 X124.859 Y121.804 E35.9514
G1 X125.198 Y121.804 E35.9575
G1 X101.590 Y98.196 E36.5571
G1 X101.930 Y98.196 E36.5632
G1 X125.538 Y121.804 E37.1629
G1 X125.877 Y121.804 E37.1690
G1 X102.269 Y98.196 E37.7686
G1 X102.608 Y98.196 E37.7747
G1 X126.216 Y121.804 E38.3744
G1 X126.556 Y121.804 E38.3805
G1 X102.948 Y98.196 E38.9801
G1 X103.287 Y98.196 E38.9862
G1 X126.804 Y121.713 E39.5835
G1 X126.804 Y121.373 E39.5896
G1 X103.627 Y98.196 E40.1783
G1 X103.966 Y98.196 E40.1844
G1 X126.804 Y121.034 E40.7645
G1 X126.804 Y120.695 E40.7706
G1 X104.305 Y98.196 E41.3421
G1 X104.645 Y98.196 E41.3482
G1 X126.804 Y120.355 E41.9110
G1 X126.804 Y120.016 E41.9171
G1 X104.984 Y98.196 E42.4713
G1 X105.324 Y98.196 E42.4774
G1 X126.804 Y119.676 E43.0230
G1 X126.804 Y119.337 E43.0291
G1 X105.663 Y98.196 E43.5661
G1 X106.002 Y98.196 E43.5722
G1 X126.804 Y118.998 E44.1005
G1 X126.804 Y118.658 E44.1066
G1 X106.342 Y98.196 E44.6264
G1 X106.681 Y98.196 E44.6325
G1 X126.804 Y118.319 E45.1436
G1 X126.804 Y117.979 E45.1497
G1 X107.021 Y98.196 E45.6522
G1 X107.360 Y98.196 E45.6583
G1 X126.804 Y117.640 E46.1521
G1 X126.804 Y117.300 E46.1582
G1 X107.700 Y98.196 E46.6435
G1 X108.039 Y98.196 E46.6496
G1 X126.804 Y116.961 E47.1262
G1 X126.804 Y116.622 E47.1323
G1 X108.378 Y98.196 E47.6003
G1 X108.718 Y98.196 E47.6064
G1 X126.804 Y116.282 E48.0658
G1 X126.804 Y115.943 E48.0719
G1 X109.057 Y98.196 E48.5227
G1 X109.397 Y98.196 E48.5288
G1 X126.804 Y115.603 E48.9709
G1 X126.804 Y115.264 E48.9770
G1 X109.736 Y98.196 E49.4105
G1 X110.075 Y98.196 E49.4166
G1 X126.804 Y114.925 E49.8415
G1 X126.804 Y114.585 E49.8476
G1 X110.415 Y98.196 E50.2639
G1 X110.754 Y98.196 E50.2700
G1 X126.804 Y114.246 E50.6777
G1 X126.804 Y113.906 E50.6838
G1 X111.094 Y98.196 E51.0828
G1 X111.433 Y98.196 E51.0889
G1 X126.804 Y113.567 E51.4793
G1 X126.804 Y113.228 E51.4854
G1 X111.772 Y98.196 E51.8672
G1 X112.112 Y98.196 E51.8733
G1 X126.804 Y112.888 E52.2465
G1 X126.804 Y112.549 E52.2526
G1 X112.451 Y98.196 E52.6172
G1 X112.791 Y98.196 E52.6233
G1 X126.804 Y112.209 E52.9792
G1 X126.804 Y111.870 E52.9853
G1 X113.130 Y98.196 E53.3326
G1 X113.470 Y98.196 E53.3387
G1 X126.804 Y111.530 E53.6774
G1 X126.804 Y111.191 E53.6835
G1 X113.809 Y98.196 E54.0136
G1 X114.148 Y98.196 E54.0197
G1 X126.804 Y110.852 E54.3411
G1 X126.804 Y110.512 E54.3472
G1 X114.488 Y98.196 E54.6600
G1 X114.827 Y98.196 E54.6661
G1 X126.804 Y110.173 E54.9704
G1 X126.804 Y109.833 E54.9764
G1 X115.167 Y98.196 E55.2720
G1 X115.506 Y98.196 E55.2781
G1 X126.804 Y109.494 E55.5651
G1 X126.804 Y109.155 E55.5712
G1 X115.845 Y98.196 E55.8495
G1 X116.185 Y98.196 E55.8556
G1 X126.804 Y108.815 E56.1254
G1 X126.804 Y108.476 E56.1315
G1 X116.524 Y98.196 E56.3926
G1 X116.864 Y98.196 E56.3987
G1 X126.804 Y108.136 E56.6512
G1 X126.804 Y107.797 E56.6572
G1 X117.203 Y98.196 E56.9011
G1 X117.542 Y98.196 E56.9072
G1 X126.804 Y107.458 E57.1424
G1 X126.804 Y107.118 E57.1485
G1 X117.882 Y98.196 E57.3752
G1 X118.221 Y98.196 E57.3813
G1 X126.804 Y106.779 E57.5993
G1 X126.804 Y106.439 E57.6054
G1 X118.561 Y98.196 E57.8147
G1 X118.900 Y98.196 E57.8208
G1 X126.804 Y106.100 E58.0216
G1 X126.804 Y105.760 E58.0277
G1 X119.240 Y98.196 E58.2198
G1 X119.579 Y98.196 E58.2259
G1 X126.804 Y105.421 E58.4094
G1 X126.804 Y105.082 E58.4155
G1 X119.918 Y98.196 E58.5904
G1 X120.258 Y98.196 E58.5965
G1 X126.804 Y104.742 E58.7628
G1 X126.804 Y104.403 E58.7689
G1 X120.597 Y98.196 E58.9266
G1 X120.937 Y98.196 E58.9326
G1 X126.804 Y104.063 E59.0817
G1 X126.804 Y103.724 E59.0878
G1 X121.276 Y98.196 E59.2282
G1 X121.615 Y98.196 E59.2343
G1 X126.804 Y103.385 E59.3661
G1 X126.804 Y103.045 E59.3722
G1 X121.955 Y98.196 E59.4953
G1 X122.294 Y98.196 E59.5014
G1 X126.804 Y102.706 E59.6160
G1 X126.804 Y102.366 E59.6221
G1 X122.634 Y98.196 E59.7280
G1 X122.973 Y98.196 E59.7341
G1 X126.804 Y102.027 E59.8314
G1 X126.804 Y101.688 E59.8375
G1 X123.312 Y98.196 E59.9262
G1 X123.652 Y98.196 E59.9323
G1 X126.804 Y101.348 E60.0124
G1 X126.804 Y101.009 E60.0184
G1 X123.991 Y98.196 E60.0899
G1 X124.331 Y98.196 E60.0960
G1 X126.804 Y100.669 E60.1588
G1 X126.804 Y100.330 E60.1649
G1 X124.670 Y98.196 E60.2191
G1 X125.009 Y98.196 E60.2252
G1 X126.804 Y99.991 E60.2708
