; G-Code generated by Simplify3D(R) Version 4.0.0
; May 6, 2018 at 11:27:42 PM
; Settings Summary
;   processName,nozzle 0.4
;   applyToModels,joint_axis_v2
;   profileName,Flying Bear 902 Update 7-2017 (modified)
;   profileVersion,2017-07-10 09:45:20
;   baseProfile,Default
;   printMaterial,PLA
;   printQuality,Medium
;   printExtruders,
;   extruderName,Extruder 1
;   extruderToolheadNumber,0
;   extruderDiameter,0.4
;   extruderAutoWidth,1
;   extruderWidth,0.48
;   extrusionMultiplier,0.9
;   extruderUseRetract,1
;   extruderRetractionDistance,2
;   extruderExtraRestartDistance,0
;   extruderRetractionZLift,0
;   extruderRetractionSpeed,3000
;   extruderUseCoasting,0
;   extruderCoastingDistance,0.2
;   extruderUseWipe,1
;   extruderWipeDistance,5
;   primaryExtruder,0
;   layerHeight,0.2
;   topSolidLayers,2
;   bottomSolidLayers,2
;   perimeterOutlines,4
;   printPerimetersInsideOut,0
;   startPointOption,2
;   startPointOriginX,0
;   startPointOriginY,0
;   sequentialIslands,0
;   spiralVaseMode,0
;   firstLayerHeightPercentage,20
;   firstLayerWidthPercentage,115
;   firstLayerUnderspeed,0.3
;   useRaft,1
;   raftExtruder,0
;   raftTopLayers,2
;   raftBaseLayers,2
;   raftOffset,2
;   raftSeparationDistance,0.3
;   raftTopInfill,100
;   aboveRaftSpeedMultiplier,0.3
;   useSkirt,0
;   skirtExtruder,0
;   skirtLayers,1
;   skirtOutlines,2
;   skirtOffset,4
;   usePrimePillar,0
;   primePillarExtruder,999
;   primePillarWidth,12
;   primePillarLocation,7
;   primePillarSpeedMultiplier,1
;   useOozeShield,0
;   oozeShieldExtruder,999
;   oozeShieldOffset,2
;   oozeShieldOutlines,1
;   oozeShieldSidewallShape,1
;   oozeShieldSidewallAngle,30
;   oozeShieldSpeedMultiplier,1
;   infillExtruder,0
;   internalInfillPattern,Rectilinear
;   externalInfillPattern,Rectilinear
;   infillPercentage,100
;   outlineOverlapPercentage,60
;   infillExtrusionWidthPercentage,100
;   minInfillLength,5
;   infillLayerInterval,1
;   internalInfillAngles,45,-45
;   overlapInternalInfillAngles,0
;   externalInfillAngles,45,-45
;   generateSupport,1
;   supportExtruder,0
;   supportInfillPercentage,30
;   supportExtraInflation,0
;   supportBaseLayers,0
;   denseSupportExtruder,0
;   denseSupportLayers,0
;   denseSupportInfillPercentage,50
;   supportLayerInterval,1
;   supportHorizontalPartOffset,0.3
;   supportUpperSeparationLayers,1
;   supportLowerSeparationLayers,1
;   supportType,0
;   supportGridSpacing,4
;   maxOverhangAngle,70
;   supportAngles,0
;   temperatureName,Extruder 1,Heated Bed
;   temperatureNumber,0,0
;   temperatureSetpointCount,1,1
;   temperatureSetpointLayers,1,1
;   temperatureSetpointTemperatures,210,60
;   temperatureStabilizeAtStartup,1,0
;   temperatureHeatedBed,0,1
;   temperatureRelayBetweenLayers,0,0
;   temperatureRelayBetweenLoops,0,0
;   fanLayers,1
;   fanSpeeds,255
;   blipFanToFullPower,0
;   adjustSpeedForCooling,1
;   minSpeedLayerTime,10
;   minCoolingSpeedSlowdown,20
;   increaseFanForCooling,0
;   minFanLayerTime,45
;   maxCoolingFanSpeed,100
;   increaseFanForBridging,0
;   bridgingFanSpeed,100
;   use5D,1
;   relativeEdistances,0
;   allowEaxisZeroing,1
;   independentExtruderAxes,0
;   includeM10123,0
;   stickySupport,1
;   applyToolheadOffsets,0
;   gcodeXoffset,0
;   gcodeYoffset,0
;   gcodeZoffset,0
;   overrideMachineDefinition,1
;   machineTypeOverride,0
;   strokeXoverride,220
;   strokeYoverride,220
;   strokeZoverride,280
;   originOffsetXoverride,0
;   originOffsetYoverride,0
;   originOffsetZoverride,0
;   homeXdirOverride,-1
;   homeYdirOverride,-1
;   homeZdirOverride,-1
;   flipXoverride,1
;   flipYoverride,-1
;   flipZoverride,1
;   toolheadOffsets,0,0|0,0|0,0|0,0|0,0|0,0
;   overrideFirmwareConfiguration,1
;   firmwareTypeOverride,RepRap (Marlin/Repetier/Sprinter)
;   GPXconfigOverride,r2
;   baudRateOverride,250000
;   overridePrinterModels,0
;   printerModelsOverride
;   startingGcode,G28 ; home all axes,G1 X0 Y20 Z0.2 F3000 ; get ready to prime,G92 E0 ; reset extrusion distance,G1 X200 E20 F600 ; prime nozzle
;   layerChangeGcode,
;   retractionGcode,
;   toolChangeGcode,
;   endingGcode,M104 S0 ; turn off extruder,M140 S0 ; turn off bed,G28 X Y ; home x and y axes,M84 ; disable motors
;   exportFileFormat,gcode
;   celebration,0
;   celebrationSong,Random Song
;   postProcessing,
;   defaultSpeed,4000
;   outlineUnderspeed,0.5
;   solidInfillUnderspeed,0.9
;   supportUnderspeed,0.75
;   rapidXYspeed,4200
;   rapidZspeed,1002
;   minBridgingArea,50
;   bridgingExtraInflation,0
;   bridgingExtrusionMultiplier,1
;   bridgingSpeedMultiplier,1
;   useFixedBridgingAngle,0
;   fixedBridgingAngle,0
;   applyBridgingToPerimeters,0
;   filamentDiameters,1.75|1.75|1.75|1.75|1.75|1.75
;   filamentPricesPerKg,46|46|46|46|46|46
;   filamentDensities,1.25|1.25|1.25|1.25|1.25|1.25
;   useMinPrintHeight,0
;   minPrintHeight,0
;   useMaxPrintHeight,0
;   maxPrintHeight,4.3
;   useDiaphragm,0
;   diaphragmLayerInterval,20
;   robustSlicing,1
;   mergeAllIntoSolid,0
;   onlyRetractWhenCrossingOutline,1
;   retractBetweenLayers,1
;   useRetractionMinTravel,0
;   retractionMinTravel,3
;   retractWhileWiping,0
;   onlyWipeOutlines,1
;   avoidCrossingOutline,0
;   maxMovementDetourFactor,3
;   toolChangeRetractionDistance,12
;   toolChangeExtraRestartDistance,-0.5
;   toolChangeRetractionSpeed,600
;   externalThinWallType,0
;   internalThinWallType,2
;   thinWallAllowedOverlapPercentage,20
;   singleExtrusionMinLength,1
;   singleExtrusionMinPrintingWidthPercentage,50
;   singleExtrusionMaxPrintingWidthPercentage,200
;   singleExtrusionEndpointExtension,0.2
;   horizontalSizeCompensation,0
G90
M82
M106 S650
M140 S60
M104 S210 T0
M109 S210 T0
G28 ; home all axes
G1 X0 Y20 Z0.2 F3000 ; get ready to prime
G92 E0 ; reset extrusion distance
G1 X200 E20 F600 ; prime nozzle
G92 E0
G1 E-2.0000 F3000
G1 Z0.100 F1002
; process nozzle 0.4
; layer 1, Z = 0.100
T0
; tool H0.500 W0.920
; raft
G1 X105.287 Y102.879 F4200
G1 E0.0000 F900
G92 E0
G1 X105.862 Y102.359 E0.1334 F300
G1 X105.946 Y102.292 E0.1519
G1 X106.584 Y101.853 E0.2852
G1 X106.676 Y101.798 E0.3037
G1 X107.368 Y101.448 E0.4371
G1 X107.466 Y101.406 E0.4556
G1 X108.198 Y101.151 E0.5890
G1 X108.302 Y101.122 E0.6074
G1 X109.061 Y100.967 E0.7408
G1 X109.167 Y100.953 E0.7593
G1 X109.941 Y100.900 E0.8927
G1 X110.048 Y100.900 E0.9111
G1 X110.821 Y100.951 E1.0446
G1 X110.927 Y100.966 E1.0630
G1 X111.687 Y101.119 E1.1964
G1 X111.790 Y101.148 E1.2148
G1 X112.523 Y101.401 E1.3483
G1 X112.621 Y101.443 E1.3667
G1 X113.313 Y101.792 E1.5001
G1 X113.406 Y101.847 E1.5185
G1 X114.045 Y102.285 E1.6520
G1 X114.129 Y102.351 E1.6704
G1 X114.704 Y102.871 E1.8038
G1 X114.779 Y102.948 E1.8222
G1 X115.280 Y103.540 E1.9557
G1 X115.343 Y103.626 E1.9741
G1 X115.761 Y104.279 E2.1075
G1 X115.812 Y104.373 E2.1259
G1 X116.139 Y105.076 E2.2594
G1 X116.177 Y105.176 E2.2778
G1 X116.407 Y105.916 E2.4112
G1 X116.432 Y106.020 E2.4297
G1 X116.561 Y106.785 E2.5631
G1 X116.572 Y106.891 E2.5815
G1 X116.598 Y107.666 E2.7149
G1 X116.594 Y107.773 E2.7334
G1 X116.517 Y108.544 E2.8668
G1 X116.499 Y108.650 E2.8852
G1 X116.319 Y109.404 E3.0186
G1 X116.288 Y109.506 E3.0371
G1 X116.009 Y110.229 E3.1705
G1 X115.964 Y110.327 E3.1889
G1 X115.591 Y111.006 E3.3224
G1 X115.534 Y111.096 E3.3408
G1 X115.074 Y111.721 E3.4742
G1 X114.950 Y111.867 E3.5072
G1 X114.950 Y118.163 E4.5908
G1 X114.013 Y119.100 E4.8190
G1 X110.187 Y119.100 E5.4774
G1 X110.000 Y118.913 E5.5230
G1 X109.813 Y119.100 E5.5686
G1 X105.987 Y119.100 E6.2270
G1 X105.050 Y118.163 E6.4552
G1 X105.050 Y111.867 E7.5388
G1 X104.933 Y111.729 E7.5699
G1 X104.473 Y111.106 E7.7032
G1 X104.415 Y111.016 E7.7217
G1 X104.041 Y110.337 E7.8551
G1 X103.996 Y110.240 E7.8735
G1 X103.716 Y109.517 E8.0069
G1 X103.684 Y109.415 E8.0253
G1 X103.503 Y108.661 E8.1588
G1 X103.485 Y108.556 E8.1772
G1 X103.406 Y107.784 E8.3107
G1 X103.402 Y107.678 E8.3290
G1 X103.427 Y106.903 E8.4625
G1 X103.438 Y106.796 E8.4809
G1 X103.566 Y106.032 E8.6144
G1 X103.590 Y105.927 E8.6328
G1 X103.819 Y105.187 E8.7662
G1 X103.857 Y105.087 E8.7846
G1 X104.184 Y104.379 E8.9189
G1 X104.236 Y104.284 E8.9374
G1 X104.651 Y103.634 E9.0701
G1 X104.714 Y103.549 E9.0884
G1 X105.213 Y102.956 E9.2218
G1 X105.287 Y102.879 E9.2402
G92 E0
G1 E-2.0000 F3000
G1 X106.188 Y103.143 F4200
G1 E0.0000 F3000
G92 E0
G1 X113.812 Y103.143 E1.3123 F300
G1 X114.148 Y103.447 E1.3903
G1 X114.185 Y103.485 E1.3995
G1 X114.652 Y104.036 E1.5237
G1 X114.683 Y104.079 E1.5329
G1 X115.072 Y104.687 E1.6571
G1 X115.098 Y104.734 E1.6663
G1 X115.402 Y105.389 E1.7906
G1 X115.417 Y105.429 E1.7979
G1 X104.583 Y105.429 E3.6628
G1 X104.575 Y105.448 E3.6664
G1 X104.362 Y106.138 E3.7906
G1 X104.350 Y106.190 E3.7998
G1 X104.231 Y106.902 E3.9240
G1 X104.226 Y106.955 E3.9332
G1 X104.203 Y107.676 E4.0575
G1 X104.204 Y107.714 E4.0640
G1 X115.796 Y107.714 E6.0592
G1 X115.796 Y107.720 E6.0601
G1 X115.723 Y108.437 E6.1843
G1 X115.715 Y108.490 E6.1935
G1 X115.547 Y109.192 E6.3177
G1 X115.532 Y109.243 E6.3269
G1 X115.272 Y109.917 E6.4512
G1 X115.250 Y109.966 E6.4603
G1 X115.231 Y110.000 E6.4671
G1 X104.769 Y110.000 E8.2679
G1 X105.103 Y110.607 E8.3871
G1 X105.132 Y110.652 E8.3964
G1 X105.561 Y111.232 E8.5205
G1 X105.850 Y111.573 E8.5975
G1 X105.850 Y112.286 E8.7201
G1 X114.150 Y112.286 E10.1487
G1 X114.150 Y114.571 E10.5422
G1 X105.850 Y114.571 E11.9708
G1 X105.850 Y116.857 E12.3642
G1 X114.150 Y116.857 E13.7928
G92 E0
G1 E-2.0000 F3000
; layer 2, Z = 0.600
; tool H0.500 W0.800
G1 X114.950 Y118.163 F4200
G1 Z0.600 F1002
G1 E0.0000 F3000
G92 E0
G1 X114.013 Y119.100 E0.1984 F1000
G1 X110.187 Y119.100 E0.7709
G1 X110.000 Y118.913 E0.8106
G1 X109.813 Y119.100 E0.8502
G1 X105.987 Y119.100 E1.4228
G1 X105.050 Y118.163 E1.6212
G1 X105.050 Y111.867 E2.5635
G1 X104.933 Y111.729 E2.5905
G1 X104.473 Y111.106 E2.7064
G1 X104.415 Y111.016 E2.7225
G1 X104.041 Y110.337 E2.8385
G1 X103.996 Y110.240 E2.8545
G1 X103.716 Y109.517 E2.9705
G1 X103.684 Y109.415 E2.9865
G1 X103.503 Y108.661 E3.1026
G1 X103.485 Y108.556 E3.1186
G1 X103.406 Y107.784 E3.2346
G1 X103.402 Y107.678 E3.2506
G1 X103.427 Y106.903 E3.3667
G1 X103.438 Y106.796 E3.3827
G1 X103.566 Y106.032 E3.4987
G1 X103.590 Y105.927 E3.5147
G1 X103.819 Y105.187 E3.6307
G1 X103.857 Y105.087 E3.6468
G1 X104.184 Y104.379 E3.7635
G1 X104.236 Y104.284 E3.7796
G1 X104.651 Y103.634 E3.8950
G1 X104.714 Y103.549 E3.9109
G1 X105.213 Y102.956 E4.0269
G1 X105.287 Y102.879 E4.0429
G1 X105.862 Y102.359 E4.1589
G1 X105.946 Y102.292 E4.1750
G1 X106.584 Y101.853 E4.2910
G1 X106.676 Y101.798 E4.3070
G1 X107.368 Y101.448 E4.4230
G1 X107.466 Y101.406 E4.4391
G1 X108.198 Y101.151 E4.5551
G1 X108.302 Y101.122 E4.5711
G1 X109.061 Y100.967 E4.6871
G1 X109.167 Y100.953 E4.7032
G1 X109.941 Y100.900 E4.8192
G1 X110.048 Y100.900 E4.8352
G1 X110.821 Y100.951 E4.9512
G1 X110.927 Y100.966 E4.9672
G1 X111.687 Y101.119 E5.0833
G1 X111.790 Y101.148 E5.0993
G1 X112.523 Y101.401 E5.2153
G1 X112.621 Y101.443 E5.2313
G1 X113.313 Y101.792 E5.3474
G1 X113.406 Y101.847 E5.3634
G1 X114.045 Y102.285 E5.4794
G1 X114.129 Y102.351 E5.4954
G1 X114.704 Y102.871 E5.6115
G1 X114.779 Y102.948 E5.6275
G1 X115.280 Y103.540 E5.7435
G1 X115.343 Y103.626 E5.7595
G1 X115.761 Y104.279 E5.8756
G1 X115.812 Y104.373 E5.8916
G1 X116.139 Y105.076 E6.0076
G1 X116.177 Y105.176 E6.0236
G1 X116.407 Y105.916 E6.1396
G1 X116.432 Y106.020 E6.1557
G1 X116.561 Y106.785 E6.2717
G1 X116.572 Y106.891 E6.2877
G1 X116.598 Y107.666 E6.4037
G1 X116.594 Y107.773 E6.4198
G1 X116.517 Y108.544 E6.5358
G1 X116.499 Y108.650 E6.5518
G1 X116.319 Y109.404 E6.6678
G1 X116.288 Y109.506 E6.6839
G1 X116.009 Y110.229 E6.7999
G1 X115.964 Y110.327 E6.8159
G1 X115.591 Y111.006 E6.9319
G1 X115.534 Y111.096 E6.9479
G1 X115.074 Y111.721 E7.0640
G1 X114.950 Y111.867 E7.0927
G1 X114.950 Y118.163 E8.0350
G92 E0
G1 E-2.0000 F3000
G1 X114.150 Y116.857 F4200
G1 E0.0000 F3000
G92 E0
G1 X105.850 Y116.857 E1.2423 F1000
G1 X105.850 Y114.571 E1.5844
G1 X114.150 Y114.571 E2.8266
G1 X114.150 Y112.286 E3.1687
G1 X105.850 Y112.286 E4.4110
G1 X105.850 Y111.573 E4.5176
G1 X105.561 Y111.232 E4.5846
G1 X105.132 Y110.652 E4.6925
G1 X105.103 Y110.607 E4.7006
G1 X104.769 Y110.000 E4.8043
G1 X115.231 Y110.000 E6.3702
G1 X115.250 Y109.966 E6.3760
G1 X115.272 Y109.917 E6.3840
G1 X115.532 Y109.243 E6.4921
G1 X115.547 Y109.192 E6.5001
G1 X115.715 Y108.490 E6.6081
G1 X115.723 Y108.437 E6.6161
G1 X115.796 Y107.720 E6.7241
G1 X115.796 Y107.714 E6.7249
G1 X104.204 Y107.714 E8.4598
G1 X104.203 Y107.676 E8.4655
G1 X104.226 Y106.955 E8.5735
G1 X104.231 Y106.902 E8.5815
G1 X104.350 Y106.190 E8.6895
G1 X104.362 Y106.138 E8.6976
G1 X104.575 Y105.448 E8.8056
G1 X104.583 Y105.429 E8.8087
G1 X115.417 Y105.429 E10.4303
G1 X115.402 Y105.389 E10.4367
G1 X115.098 Y104.734 E10.5447
G1 X115.072 Y104.687 E10.5527
G1 X114.683 Y104.079 E10.6608
G1 X114.652 Y104.036 E10.6688
G1 X114.185 Y103.485 E10.7768
G1 X114.148 Y103.447 E10.7848
G1 X113.812 Y103.143 E10.8526
G1 X106.188 Y103.143 E11.9937
G92 E0
G1 E-2.0000 F3000
; layer 3, Z = 0.822
; tool H0.222 W0.400
G1 X113.653 Y101.774 F4200
G1 Z0.822 F1002
G1 E0.0000 F3000
G92 E0
G1 X115.714 Y103.834 E0.0969 F3000
G1 X115.933 Y104.177 E0.1104
G1 X115.991 Y104.283 E0.1144
G1 X116.323 Y104.998 E0.1407
G1 X116.330 Y105.016 E0.1413
G1 X112.493 Y101.179 E0.3218
G1 X111.849 Y100.956 E0.3445
G1 X111.733 Y100.925 E0.3485
G1 X111.657 Y100.909 E0.3510
G1 X116.595 Y105.847 E0.5833
G1 X116.600 Y105.863 E0.5839
G1 X116.628 Y105.980 E0.5879
G1 X116.723 Y106.540 E0.6068
G1 X110.949 Y100.767 E0.8783
G1 X110.841 Y100.752 E0.8820
G1 X110.335 Y100.719 E0.8988
G1 X116.781 Y107.164 E1.2020
G1 X116.798 Y107.666 E1.2187
G1 X116.795 Y107.744 E1.2213
G1 X109.763 Y100.712 E1.5521
G1 X109.233 Y100.748 E1.5697
G1 X116.746 Y108.261 E1.9231
G1 X116.715 Y108.571 E1.9335
G1 X116.695 Y108.689 E1.9375
G1 X116.679 Y108.759 E1.9399
G1 X108.747 Y100.827 E2.3129
G1 X108.277 Y100.923 E2.3289
G1 X116.570 Y109.216 E2.7189
G1 X116.512 Y109.457 E2.7272
G1 X116.477 Y109.572 E2.7312
G1 X116.444 Y109.656 E2.7342
G1 X107.849 Y101.061 E3.1385
G1 X107.429 Y101.207 E3.1533
G1 X116.287 Y110.064 E3.5699
G1 X116.193 Y110.308 E3.5786
G1 X116.143 Y110.417 E3.5826
G1 X116.118 Y110.461 E3.5843
G1 X107.044 Y101.387 E4.0111
G1 X106.669 Y101.578 E4.0251
G1 X115.918 Y110.827 E4.4601
G1 X115.764 Y111.108 E4.4708
G1 X115.713 Y111.188 E4.4739
G1 X106.318 Y101.793 E4.9158
G1 X105.983 Y102.023 E4.9293
G1 X115.474 Y111.514 E5.3758
G1 X115.234 Y111.840 E5.3892
G1 X105.663 Y102.269 E5.8394
G1 X105.366 Y102.538 E5.8527
G1 X115.150 Y112.322 E6.3129
G1 X115.150 Y112.887 E6.3318
G1 X105.075 Y102.812 E6.8057
G1 X105.064 Y102.822 E6.8062
G1 X104.815 Y103.118 E6.8190
G1 X115.150 Y113.453 E7.3051
G1 X115.150 Y114.019 E7.3240
G1 X104.556 Y103.425 E7.8223
G1 X104.486 Y103.521 E7.8262
G1 X104.330 Y103.765 E7.8358
G1 X115.150 Y114.584 E8.3448
G1 X115.150 Y115.150 E8.3636
G1 X104.110 Y104.110 E8.8829
G1 X104.064 Y104.182 E8.8857
G1 X104.006 Y104.289 E8.8897
G1 X103.916 Y104.482 E8.8968
G1 X115.150 Y115.716 E9.4252
G1 X115.150 Y116.281 E9.4440
G1 X103.737 Y104.869 E9.9808
G1 X103.673 Y105.009 E9.9860
G1 X103.630 Y105.121 E9.9900
G1 X103.581 Y105.278 E9.9954
G1 X115.150 Y116.847 E10.5396
G1 X115.150 Y117.413 E10.5584
G1 X103.448 Y105.711 E11.1088
G1 X103.397 Y105.875 E11.1146
G1 X103.369 Y105.992 E11.1186
G1 X103.340 Y106.168 E11.1245
G1 X115.150 Y117.978 E11.6800
G1 X115.150 Y118.246 E11.6889
G1 X115.001 Y118.395 E11.6959
G1 X103.259 Y106.653 E12.2482
G1 X103.239 Y106.770 E12.2522
G1 X103.227 Y106.890 E12.2562
G1 X103.218 Y107.178 E12.2658
G1 X114.718 Y118.678 E12.8067
G1 X114.435 Y118.961 E12.8200
G1 X103.204 Y107.730 E13.3483
G1 X103.207 Y107.798 E13.3505
G1 X103.263 Y108.355 E13.3691
G1 X114.152 Y119.243 E13.8813
G1 X114.096 Y119.300 E13.8840
G1 X113.643 Y119.300 E13.8990
G1 X103.390 Y109.047 E14.3813
G1 X103.491 Y109.468 E14.3957
G1 X103.527 Y109.583 E14.3997
G1 X103.632 Y109.855 E14.4094
G1 X113.077 Y119.300 E14.8537
G1 X112.512 Y119.300 E14.8725
G1 X104.136 Y110.924 E15.2665
G1 X104.243 Y111.119 E15.2739
G1 X104.308 Y111.220 E15.2779
G1 X104.776 Y111.854 E15.3041
