; G-Code generated by Simplify3D(R) Version 4.0.0
; May 6, 2018 at 10:14:30 PM
; Settings Summary
;   processName,nozzle 0.4
;   applyToModels,joint_axis
;   profileName,Flying Bear 902 Update 7-2017 (modified)
;   profileVersion,2017-07-10 09:45:20
;   baseProfile,Default
;   printMaterial,PLA
;   printQuality,Medium
;   printExtruders,
;   extruderName,Extruder 1
;   extruderToolheadNumber,0
;   extruderDiameter,0.4
;   extruderAutoWidth,1
;   extruderWidth,0.48
;   extrusionMultiplier,0.9
;   extruderUseRetract,1
;   extruderRetractionDistance,2
;   extruderExtraRestartDistance,0
;   extruderRetractionZLift,0
;   extruderRetractionSpeed,3000
;   extruderUseCoasting,0
;   extruderCoastingDistance,0.2
;   extruderUseWipe,1
;   extruderWipeDistance,5
;   primaryExtruder,0
;   layerHeight,0.2
;   topSolidLayers,2
;   bottomSolidLayers,2
;   perimeterOutlines,4
;   printPerimetersInsideOut,0
;   startPointOption,2
;   startPointOriginX,0
;   startPointOriginY,0
;   sequentialIslands,0
;   spiralVaseMode,0
;   firstLayerHeightPercentage,20
;   firstLayerWidthPercentage,115
;   firstLayerUnderspeed,0.3
;   useRaft,1
;   raftExtruder,0
;   raftTopLayers,2
;   raftBaseLayers,2
;   raftOffset,2
;   raftSeparationDistance,0.3
;   raftTopInfill,100
;   aboveRaftSpeedMultiplier,0.3
;   useSkirt,0
;   skirtExtruder,0
;   skirtLayers,1
;   skirtOutlines,2
;   skirtOffset,4
;   usePrimePillar,0
;   primePillarExtruder,999
;   primePillarWidth,12
;   primePillarLocation,7
;   primePillarSpeedMultiplier,1
;   useOozeShield,0
;   oozeShieldExtruder,999
;   oozeShieldOffset,2
;   oozeShieldOutlines,1
;   oozeShieldSidewallShape,1
;   oozeShieldSidewallAngle,30
;   oozeShieldSpeedMultiplier,1
;   infillExtruder,0
;   internalInfillPattern,Rectilinear
;   externalInfillPattern,Concentric
;   infillPercentage,100
;   outlineOverlapPercentage,60
;   infillExtrusionWidthPercentage,100
;   minInfillLength,5
;   infillLayerInterval,1
;   internalInfillAngles,45,-45
;   overlapInternalInfillAngles,0
;   externalInfillAngles,45,-45
;   generateSupport,1
;   supportExtruder,0
;   supportInfillPercentage,30
;   supportExtraInflation,0
;   supportBaseLayers,0
;   denseSupportExtruder,0
;   denseSupportLayers,0
;   denseSupportInfillPercentage,50
;   supportLayerInterval,1
;   supportHorizontalPartOffset,0.3
;   supportUpperSeparationLayers,1
;   supportLowerSeparationLayers,1
;   supportType,0
;   supportGridSpacing,4
;   maxOverhangAngle,70
;   supportAngles,0
;   temperatureName,Extruder 1,Heated Bed
;   temperatureNumber,0,0
;   temperatureSetpointCount,1,1
;   temperatureSetpointLayers,1,1
;   temperatureSetpointTemperatures,210,60
;   temperatureStabilizeAtStartup,1,0
;   temperatureHeatedBed,0,1
;   temperatureRelayBetweenLayers,0,0
;   temperatureRelayBetweenLoops,0,0
;   fanLayers,1
;   fanSpeeds,255
;   blipFanToFullPower,0
;   adjustSpeedForCooling,1
;   minSpeedLayerTime,15
;   minCoolingSpeedSlowdown,20
;   increaseFanForCooling,0
;   minFanLayerTime,45
;   maxCoolingFanSpeed,100
;   increaseFanForBridging,0
;   bridgingFanSpeed,100
;   use5D,1
;   relativeEdistances,0
;   allowEaxisZeroing,1
;   independentExtruderAxes,0
;   includeM10123,0
;   stickySupport,1
;   applyToolheadOffsets,0
;   gcodeXoffset,0
;   gcodeYoffset,0
;   gcodeZoffset,0
;   overrideMachineDefinition,1
;   machineTypeOverride,0
;   strokeXoverride,220
;   strokeYoverride,220
;   strokeZoverride,280
;   originOffsetXoverride,0
;   originOffsetYoverride,0
;   originOffsetZoverride,0
;   homeXdirOverride,-1
;   homeYdirOverride,-1
;   homeZdirOverride,-1
;   flipXoverride,1
;   flipYoverride,-1
;   flipZoverride,1
;   toolheadOffsets,0,0|0,0|0,0|0,0|0,0|0,0
;   overrideFirmwareConfiguration,1
;   firmwareTypeOverride,RepRap (Marlin/Repetier/Sprinter)
;   GPXconfigOverride,r2
;   baudRateOverride,250000
;   overridePrinterModels,0
;   printerModelsOverride
;   startingGcode,G28 ; home all axes,G1 X0 Y20 Z0.2 F3000 ; get ready to prime,G92 E0 ; reset extrusion distance,G1 X200 E20 F600 ; prime nozzle
;   layerChangeGcode,
;   retractionGcode,
;   toolChangeGcode,
;   endingGcode,M104 S0 ; turn off extruder,M140 S0 ; turn off bed,G28 X Y ; home x and y axes,M84 ; disable motors
;   exportFileFormat,gcode
;   celebration,0
;   celebrationSong,Random Song
;   postProcessing,
;   defaultSpeed,4400
;   outlineUnderspeed,0.6
;   solidInfillUnderspeed,0.85
;   supportUnderspeed,0.8
;   rapidXYspeed,5200
;   rapidZspeed,1002
;   minBridgingArea,50
;   bridgingExtraInflation,0
;   bridgingExtrusionMultiplier,1
;   bridgingSpeedMultiplier,1
;   useFixedBridgingAngle,0
;   fixedBridgingAngle,0
;   applyBridgingToPerimeters,0
;   filamentDiameters,1.75|1.75|1.75|1.75|1.75|1.75
;   filamentPricesPerKg,46|46|46|46|46|46
;   filamentDensities,1.25|1.25|1.25|1.25|1.25|1.25
;   useMinPrintHeight,0
;   minPrintHeight,0
;   useMaxPrintHeight,0
;   maxPrintHeight,4.3
;   useDiaphragm,0
;   diaphragmLayerInterval,20
;   robustSlicing,1
;   mergeAllIntoSolid,0
;   onlyRetractWhenCrossingOutline,1
;   retractBetweenLayers,1
;   useRetractionMinTravel,0
;   retractionMinTravel,3
;   retractWhileWiping,0
;   onlyWipeOutlines,1
;   avoidCrossingOutline,0
;   maxMovementDetourFactor,3
;   toolChangeRetractionDistance,12
;   toolChangeExtraRestartDistance,-0.5
;   toolChangeRetractionSpeed,600
;   externalThinWallType,1
;   internalThinWallType,1
;   thinWallAllowedOverlapPercentage,20
;   singleExtrusionMinLength,1
;   singleExtrusionMinPrintingWidthPercentage,50
;   singleExtrusionMaxPrintingWidthPercentage,200
;   singleExtrusionEndpointExtension,0.2
;   horizontalSizeCompensation,0
G90
M82
M106 S650
M140 S60
M104 S210 T0
M109 S210 T0
G28 ; home all axes
G1 X0 Y20 Z0.2 F3000 ; get ready to prime
G92 E0 ; reset extrusion distance
G1 X200 E20 F600 ; prime nozzle
G92 E0
G1 E-2.0000 F3000
G1 Z0.100 F1002
; process nozzle 0.4
; layer 1, Z = 0.100
T0
; tool H0.500 W0.920
; raft
G1 X105.059 Y103.369 F5200
G1 E0.0000 F900
G92 E0
G1 X105.595 Y102.830 E0.1309 F330
G1 X105.674 Y102.760 E0.1490
G1 X106.276 Y102.295 E0.2800
G1 X106.364 Y102.237 E0.2981
G1 X107.022 Y101.855 E0.4290
G1 X107.116 Y101.808 E0.4471
G1 X107.818 Y101.516 E0.5780
G1 X107.917 Y101.482 E0.5961
G1 X108.652 Y101.284 E0.7270
G1 X108.755 Y101.263 E0.7451
G1 X109.509 Y101.163 E0.8761
G1 X109.614 Y101.156 E0.8941
G1 X110.375 Y101.155 E1.0251
G1 X110.479 Y101.162 E1.0431
G1 X111.234 Y101.261 E1.1741
G1 X111.337 Y101.281 E1.1922
G1 X112.072 Y101.478 E1.3231
G1 X112.171 Y101.512 E1.3412
G1 X112.874 Y101.803 E1.4721
G1 X112.968 Y101.850 E1.4902
G1 X113.627 Y102.230 E1.6212
G1 X113.714 Y102.289 E1.6393
G1 X114.317 Y102.752 E1.7702
G1 X114.396 Y102.822 E1.7883
G1 X114.933 Y103.360 E1.9192
G1 X115.003 Y103.440 E1.9373
G1 X115.465 Y104.044 E2.0682
G1 X115.523 Y104.131 E2.0863
G1 X115.902 Y104.791 E2.2172
G1 X115.948 Y104.885 E2.2353
G1 X116.238 Y105.589 E2.3663
G1 X116.271 Y105.688 E2.3843
G1 X116.466 Y106.424 E2.5153
G1 X116.487 Y106.526 E2.5334
G1 X116.584 Y107.281 E2.6643
G1 X116.590 Y107.386 E2.6824
G1 X116.588 Y108.147 E2.8134
G1 X116.580 Y108.252 E2.8314
G1 X116.478 Y109.005 E2.9624
G1 X116.457 Y109.108 E2.9805
G1 X116.258 Y109.842 E3.1114
G1 X116.223 Y109.942 E3.1295
G1 X115.929 Y110.643 E3.2604
G1 X115.882 Y110.737 E3.2785
G1 X115.499 Y111.394 E3.4094
G1 X115.440 Y111.481 E3.4275
G1 X114.974 Y112.083 E3.5585
G1 X114.904 Y112.161 E3.5765
G1 X114.364 Y112.696 E3.7075
G1 X114.284 Y112.765 E3.7255
G1 X113.779 Y113.148 E3.8346
G1 X113.779 Y117.907 E4.6538
G1 X112.842 Y118.845 E4.8820
G1 X107.158 Y118.845 E5.8604
G1 X106.221 Y117.907 E6.0885
G1 X106.221 Y113.147 E6.9078
G1 X105.725 Y112.772 E7.0148
G1 X105.645 Y112.704 E7.0329
G1 X105.103 Y112.170 E7.1638
G1 X105.034 Y112.091 E7.1819
G1 X104.566 Y111.491 E7.3129
G1 X104.507 Y111.404 E7.3309
G1 X104.123 Y110.747 E7.4619
G1 X104.076 Y110.654 E7.4800
G1 X103.780 Y109.953 E7.6109
G1 X103.746 Y109.853 E7.6290
G1 X103.545 Y109.120 E7.7599
G1 X103.524 Y109.017 E7.7780
G1 X103.420 Y108.263 E7.9089
G1 X103.413 Y108.158 E7.9270
G1 X103.409 Y107.398 E8.0579
G1 X103.416 Y107.293 E8.0761
G1 X103.511 Y106.538 E8.2070
G1 X103.531 Y106.435 E8.2251
G1 X103.726 Y105.694 E8.3568
G1 X103.760 Y105.594 E8.3750
G1 X104.047 Y104.895 E8.5052
G1 X104.093 Y104.801 E8.5232
G1 X104.471 Y104.141 E8.6541
G1 X104.529 Y104.053 E8.6721
G1 X104.990 Y103.448 E8.8031
G1 X105.059 Y103.369 E8.8212
G92 E0
G1 E-2.0000 F3000
G1 X106.488 Y103.143 F5200
G1 E0.0000 F3000
G92 E0
G1 X113.512 Y103.143 E1.2091 F330
G1 X113.809 Y103.371 E1.2735
G1 X113.848 Y103.405 E1.2825
G1 X114.348 Y103.907 E1.4044
G1 X114.383 Y103.946 E1.4135
G1 X114.813 Y104.509 E1.5353
G1 X114.842 Y104.553 E1.5444
G1 X115.195 Y105.167 E1.6663
G1 X115.218 Y105.214 E1.6753
G1 X115.307 Y105.429 E1.7153
G1 X104.693 Y105.429 E3.5422
G1 X104.510 Y105.874 E3.6250
G1 X104.493 Y105.924 E3.6341
G1 X104.312 Y106.613 E3.7568
G1 X104.302 Y106.665 E3.7659
G1 X104.213 Y107.367 E3.8878
G1 X104.209 Y107.420 E3.8968
G1 X104.211 Y107.714 E3.9475
G1 X115.789 Y107.714 E5.9404
G1 X115.788 Y108.118 E6.0098
G1 X115.784 Y108.170 E6.0189
G1 X115.689 Y108.872 E6.1408
G1 X115.679 Y108.924 E6.1498
G1 X115.493 Y109.607 E6.2717
G1 X115.476 Y109.657 E6.2808
G1 X115.332 Y110.000 E6.3449
G1 X104.668 Y110.000 E8.1802
G1 X104.803 Y110.319 E8.2397
G1 X104.826 Y110.366 E8.2488
G1 X105.184 Y110.977 E8.3707
G1 X105.214 Y111.020 E8.3797
G1 X105.649 Y111.579 E8.5016
G1 X105.684 Y111.618 E8.5107
G1 X106.188 Y112.116 E8.6326
G1 X106.228 Y112.150 E8.6416
G1 X106.407 Y112.286 E8.6804
G1 X113.592 Y112.286 E9.9170
G1 X112.979 Y112.750 E10.0494
G1 X112.979 Y114.571 E10.3628
G1 X107.021 Y114.571 E11.3885
G1 X107.021 Y116.857 E11.7819
G1 X112.979 Y116.857 E12.8076
G92 E0
G1 E-2.0000 F3000
; layer 2, Z = 0.600
; tool H0.500 W0.800
G1 X113.779 Y117.907 F5200
G1 Z0.600 F1002
G1 E0.0000 F3000
G92 E0
G1 X112.842 Y118.845 E0.1984 F1100
G1 X107.158 Y118.845 E1.0492
G1 X106.221 Y117.907 E1.2476
G1 X106.221 Y113.147 E1.9600
G1 X105.725 Y112.772 E2.0531
G1 X105.645 Y112.704 E2.0688
G1 X105.103 Y112.170 E2.1826
G1 X105.034 Y112.091 E2.1983
G1 X104.566 Y111.491 E2.3122
G1 X104.507 Y111.404 E2.3279
G1 X104.123 Y110.747 E2.4418
G1 X104.076 Y110.654 E2.4575
G1 X103.780 Y109.953 E2.5714
G1 X103.746 Y109.853 E2.5871
G1 X103.545 Y109.120 E2.7010
G1 X103.524 Y109.017 E2.7167
G1 X103.420 Y108.263 E2.8306
G1 X103.413 Y108.158 E2.8463
G1 X103.409 Y107.398 E2.9601
G1 X103.416 Y107.293 E2.9759
G1 X103.511 Y106.538 E3.0897
G1 X103.531 Y106.435 E3.1054
G1 X103.726 Y105.694 E3.2200
G1 X103.760 Y105.594 E3.2358
G1 X104.047 Y104.895 E3.3491
G1 X104.093 Y104.801 E3.3647
G1 X104.471 Y104.141 E3.4785
G1 X104.529 Y104.053 E3.4942
G1 X104.990 Y103.448 E3.6081
G1 X105.059 Y103.369 E3.6238
G1 X105.595 Y102.830 E3.7377
G1 X105.674 Y102.760 E3.7534
G1 X106.276 Y102.295 E3.8672
G1 X106.364 Y102.237 E3.8830
G1 X107.022 Y101.855 E3.9968
G1 X107.116 Y101.808 E4.0125
G1 X107.818 Y101.516 E4.1264
G1 X107.917 Y101.482 E4.1421
G1 X108.652 Y101.284 E4.2560
G1 X108.755 Y101.263 E4.2717
G1 X109.509 Y101.163 E4.3856
G1 X109.614 Y101.156 E4.4013
G1 X110.375 Y101.155 E4.5152
G1 X110.479 Y101.162 E4.5309
G1 X111.234 Y101.261 E4.6448
G1 X111.337 Y101.281 E4.6605
G1 X112.072 Y101.478 E4.7743
G1 X112.171 Y101.512 E4.7901
G1 X112.874 Y101.803 E4.9039
G1 X112.968 Y101.850 E4.9196
G1 X113.627 Y102.230 E5.0335
G1 X113.714 Y102.289 E5.0492
G1 X114.317 Y102.752 E5.1631
G1 X114.396 Y102.822 E5.1788
G1 X114.933 Y103.360 E5.2927
G1 X115.003 Y103.440 E5.3084
G1 X115.465 Y104.044 E5.4222
G1 X115.523 Y104.131 E5.4380
G1 X115.902 Y104.791 E5.5518
G1 X115.948 Y104.885 E5.5676
G1 X116.238 Y105.589 E5.6814
G1 X116.271 Y105.688 E5.6971
G1 X116.466 Y106.424 E5.8110
G1 X116.487 Y106.526 E5.8267
G1 X116.584 Y107.281 E5.9406
G1 X116.590 Y107.386 E5.9563
G1 X116.588 Y108.147 E6.0702
G1 X116.580 Y108.252 E6.0859
G1 X116.478 Y109.005 E6.1997
G1 X116.457 Y109.108 E6.2155
G1 X116.258 Y109.842 E6.3293
G1 X116.223 Y109.942 E6.3451
G1 X115.929 Y110.643 E6.4589
G1 X115.882 Y110.737 E6.4746
G1 X115.499 Y111.394 E6.5885
G1 X115.440 Y111.481 E6.6042
G1 X114.974 Y112.083 E6.7181
G1 X114.904 Y112.161 E6.7338
G1 X114.364 Y112.696 E6.8477
G1 X114.284 Y112.765 E6.8634
G1 X113.779 Y113.148 E6.9582
G1 X113.779 Y117.907 E7.6706
G92 E0
G1 E-2.0000 F3000
G1 X112.979 Y116.857 F5200
G1 E0.0000 F3000
G92 E0
G1 X107.021 Y116.857 E0.8919 F1100
G1 X107.021 Y114.571 E1.2340
G1 X112.979 Y114.571 E2.1259
G1 X112.979 Y112.750 E2.3984
G1 X113.592 Y112.286 E2.5135
G1 X106.407 Y112.286 E3.5889
G1 X106.228 Y112.150 E3.6226
G1 X106.188 Y112.116 E3.6304
G1 X105.684 Y111.618 E3.7364
G1 X105.649 Y111.579 E3.7443
G1 X105.214 Y111.020 E3.8503
G1 X105.184 Y110.977 E3.8581
G1 X104.826 Y110.366 E3.9642
G1 X104.803 Y110.319 E3.9720
G1 X104.668 Y110.000 E4.0238
G1 X115.332 Y110.000 E5.6197
G1 X115.476 Y109.657 E5.6755
G1 X115.493 Y109.607 E5.6834
G1 X115.679 Y108.924 E5.7893
G1 X115.689 Y108.872 E5.7972
G1 X115.784 Y108.170 E5.9032
G1 X115.788 Y108.118 E5.9111
G1 X115.789 Y107.714 E5.9715
G1 X104.211 Y107.714 E7.7044
G1 X104.209 Y107.420 E7.7485
G1 X104.213 Y107.367 E7.7564
G1 X104.302 Y106.665 E7.8623
G1 X104.312 Y106.613 E7.8702
G1 X104.493 Y105.924 E7.9769
G1 X104.510 Y105.874 E7.9848
G1 X104.693 Y105.429 E8.0568
G1 X115.307 Y105.429 E9.6455
G1 X115.218 Y105.214 E9.6802
G1 X115.195 Y105.167 E9.6881
G1 X114.842 Y104.553 E9.7941
G1 X114.813 Y104.509 E9.8019
G1 X114.383 Y103.946 E9.9079
G1 X114.348 Y103.907 E9.9158
G1 X113.848 Y103.405 E10.0218
G1 X113.809 Y103.371 E10.0297
G1 X113.512 Y103.143 E10.0856
G1 X106.488 Y103.143 E11.1370
G92 E0
G1 E-2.0000 F3000
; layer 3, Z = 0.822
; tool H0.222 W0.400
G1 X112.919 Y101.606 F5200
G1 Z0.822 F1002
G1 E0.0000 F3000
G92 E0
G1 X116.141 Y104.827 E0.1515 F3300
G1 X116.425 Y105.519 E0.1764
G1 X116.463 Y105.631 E0.1803
G1 X116.493 Y105.745 E0.1843
G1 X112.000 Y101.252 E0.3956
G1 X111.382 Y101.087 E0.4169
G1 X111.266 Y101.064 E0.4208
G1 X111.243 Y101.061 E0.4216
G1 X116.685 Y106.503 E0.6776
G1 X116.769 Y107.152 E0.6994
G1 X110.592 Y100.975 E0.9899
G1 X110.499 Y100.963 E0.9930
G1 X110.381 Y100.955 E0.9970
G1 X110.007 Y100.956 E1.0094
G1 X116.789 Y107.738 E1.3284
G1 X116.788 Y108.154 E1.3423
G1 X116.779 Y108.272 E1.3462
G1 X116.777 Y108.292 E1.3469
G1 X109.454 Y100.969 E1.6913
G1 X108.955 Y101.035 E1.7081
G1 X116.709 Y108.790 E2.0728
G1 X116.676 Y109.039 E2.0812
G1 X116.652 Y109.155 E2.0851
G1 X116.621 Y109.268 E2.0890
G1 X108.478 Y101.124 E2.4721
G1 X108.032 Y101.244 E2.4874
G1 X116.500 Y109.712 E2.8858
G1 X116.449 Y109.901 E2.8923
G1 X116.410 Y110.013 E2.8962
G1 X116.359 Y110.136 E2.9006
G1 X107.609 Y101.386 E3.3122
G1 X107.209 Y101.553 E3.3266
G1 X116.192 Y110.535 E3.7491
G1 X116.111 Y110.727 E3.7560
G1 X116.058 Y110.833 E3.7600
G1 X116.009 Y110.918 E3.7632
G1 X106.828 Y101.736 E4.1951
G1 X106.470 Y101.944 E4.2089
G1 X115.800 Y111.275 E4.6477
G1 X115.668 Y111.501 E4.6564
G1 X115.602 Y111.599 E4.6604
G1 X115.583 Y111.623 E4.6614
G1 X106.122 Y102.162 E5.1064
G1 X105.803 Y102.408 E5.1199
G1 X115.336 Y111.942 E5.5683
G1 X115.128 Y112.210 E5.5796
G1 X115.086 Y112.258 E5.5817
G1 X105.487 Y102.658 E6.0332
G1 X105.458 Y102.684 E6.0345
G1 X105.203 Y102.940 E6.0465
G1 X114.804 Y112.542 E6.4981
G1 X114.520 Y112.823 E6.5114
G1 X104.921 Y103.224 E6.9629
G1 X104.912 Y103.233 E6.9633
G1 X104.835 Y103.322 E6.9673
G1 X104.670 Y103.538 E6.9763
G1 X114.206 Y113.075 E7.4249
G1 X113.979 Y113.247 E7.4344
G1 X113.979 Y113.414 E7.4399
G1 X104.425 Y103.859 E7.8893
G1 X104.366 Y103.937 E7.8926
G1 X104.301 Y104.036 E7.8965
G1 X104.204 Y104.204 E7.9029
G1 X113.979 Y113.979 E8.3627
G1 X113.979 Y114.545 E8.3816
G1 X103.998 Y104.564 E8.8511
G1 X103.916 Y104.707 E8.8565
G1 X103.865 Y104.812 E8.8604
G1 X103.811 Y104.943 E8.8651
G1 X113.979 Y115.111 E9.3434
G1 X113.979 Y115.676 E9.3622
G1 X103.647 Y105.344 E9.8482
G1 X103.572 Y105.524 E9.8547
G1 X103.535 Y105.637 E9.8587
G1 X103.501 Y105.764 E9.8631
G1 X113.979 Y116.242 E10.3559
G1 X113.979 Y116.808 E10.3747
G1 X103.383 Y106.212 E10.8731
G1 X103.336 Y106.390 E10.8793
G1 X103.314 Y106.506 E10.8832
G1 X103.291 Y106.685 E10.8892
G1 X113.979 Y117.374 E11.3920
