; G-Code generated by Simplify3D(R) Version 4.0.0
; Oct 21, 2019 at 2:17:05 PM
; Settings Summary
;   processName,Process2
;   applyToModels,kabuto_socket_fancy
;   profileName,Default(2) (modified)
;   profileVersion,2019-07-27 15:21:07
;   baseProfile,
;   printMaterial,PLA
;   printQuality,Medium
;   printExtruders,
;   extruderName,Primary Extruder
;   extruderToolheadNumber,0
;   extruderDiameter,0.4
;   extruderAutoWidth,1
;   extruderWidth,0.48
;   extrusionMultiplier,0.9
;   extruderUseRetract,1
;   extruderRetractionDistance,1
;   extruderExtraRestartDistance,0
;   extruderRetractionZLift,0
;   extruderRetractionSpeed,1800
;   extruderUseCoasting,0
;   extruderCoastingDistance,0.2
;   extruderUseWipe,0
;   extruderWipeDistance,5
;   primaryExtruder,0
;   layerHeight,0.3
;   topSolidLayers,3
;   bottomSolidLayers,3
;   perimeterOutlines,3
;   printPerimetersInsideOut,1
;   startPointOption,2
;   startPointOriginX,0
;   startPointOriginY,0
;   sequentialIslands,0
;   spiralVaseMode,0
;   firstLayerHeightPercentage,90
;   firstLayerWidthPercentage,100
;   firstLayerUnderspeed,0.5
;   useRaft,1
;   raftExtruder,0
;   raftTopLayers,3
;   raftBaseLayers,2
;   raftOffset,3
;   raftSeparationDistance,0.14
;   raftTopInfill,100
;   aboveRaftSpeedMultiplier,0.3
;   useSkirt,0
;   skirtExtruder,0
;   skirtLayers,1
;   skirtOutlines,2
;   skirtOffset,4
;   usePrimePillar,0
;   primePillarExtruder,999
;   primePillarWidth,12
;   primePillarLocation,7
;   primePillarSpeedMultiplier,1
;   useOozeShield,0
;   oozeShieldExtruder,999
;   oozeShieldOffset,2
;   oozeShieldOutlines,1
;   oozeShieldSidewallShape,1
;   oozeShieldSidewallAngle,30
;   oozeShieldSpeedMultiplier,1
;   infillExtruder,0
;   internalInfillPattern,Rectilinear
;   externalInfillPattern,Rectilinear
;   infillPercentage,10
;   outlineOverlapPercentage,15
;   infillExtrusionWidthPercentage,100
;   minInfillLength,5
;   infillLayerInterval,1
;   internalInfillAngles,45,-45
;   overlapInternalInfillAngles,0
;   externalInfillAngles,45,-45
;   generateSupport,1
;   supportExtruder,0
;   supportInfillPercentage,30
;   supportExtraInflation,0
;   supportBaseLayers,0
;   denseSupportExtruder,0
;   denseSupportLayers,0
;   denseSupportInfillPercentage,70
;   supportLayerInterval,1
;   supportHorizontalPartOffset,0.3
;   supportUpperSeparationLayers,1
;   supportLowerSeparationLayers,1
;   supportType,0
;   supportGridSpacing,4
;   maxOverhangAngle,45
;   supportAngles,0
;   temperatureName,Primary Extruder,Hot Bed
;   temperatureNumber,0,1
;   temperatureSetpointCount,1,1
;   temperatureSetpointLayers,1,1
;   temperatureSetpointTemperatures,200,60
;   temperatureStabilizeAtStartup,1,0
;   temperatureHeatedBed,0,1
;   temperatureRelayBetweenLayers,0,0
;   temperatureRelayBetweenLoops,0,0
;   fanLayers,1,2
;   fanSpeeds,0,100
;   blipFanToFullPower,0
;   adjustSpeedForCooling,1
;   minSpeedLayerTime,15
;   minCoolingSpeedSlowdown,20
;   increaseFanForCooling,0
;   minFanLayerTime,45
;   maxCoolingFanSpeed,100
;   increaseFanForBridging,0
;   bridgingFanSpeed,100
;   use5D,1
;   relativeEdistances,0
;   allowEaxisZeroing,1
;   independentExtruderAxes,0
;   includeM10123,0
;   stickySupport,1
;   applyToolheadOffsets,0
;   gcodeXoffset,-9
;   gcodeYoffset,-4
;   gcodeZoffset,0
;   overrideMachineDefinition,0
;   machineTypeOverride,0
;   strokeXoverride,200
;   strokeYoverride,200
;   strokeZoverride,200
;   originOffsetXoverride,0
;   originOffsetYoverride,0
;   originOffsetZoverride,0
;   homeXdirOverride,-1
;   homeYdirOverride,-1
;   homeZdirOverride,-1
;   flipXoverride,1
;   flipYoverride,-1
;   flipZoverride,1
;   toolheadOffsets,0,0|0,0|0,0|0,0|0,0|0,0
;   overrideFirmwareConfiguration,0
;   firmwareTypeOverride,RepRap (Marlin/Repetier/Sprinter)
;   GPXconfigOverride,r2
;   baudRateOverride,115200
;   overridePrinterModels,0
;   printerModelsOverride
;   startingGcode,G28 ; home all axes,G1 X2 Y15 Z0.2 F3000 ; get ready to prime,G92 E0 ; reset extrusion distance,G1 Y150 E20 F600 ; prime nozzle
;   layerChangeGcode,
;   retractionGcode,
;   toolChangeGcode,
;   endingGcode,M104 S0 ; turn off extruder,M140 S0 ; turn off bed,G28 X Y ; home X & Y,M84 ; disable motors
;   exportFileFormat,gcode
;   celebration,0
;   celebrationSong,Random Song
;   postProcessing,
;   defaultSpeed,4600
;   outlineUnderspeed,0.5
;   solidInfillUnderspeed,0.8
;   supportUnderspeed,0.8
;   rapidXYspeed,4800
;   rapidZspeed,1000
;   minBridgingArea,50
;   bridgingExtraInflation,0
;   bridgingExtrusionMultiplier,1
;   bridgingSpeedMultiplier,1
;   useFixedBridgingAngle,0
;   fixedBridgingAngle,0
;   applyBridgingToPerimeters,0
;   filamentDiameters,1.75|1.75|1.75|1.75|1.75|1.75
;   filamentPricesPerKg,46|46|46|46|46|46
;   filamentDensities,1.25|1.25|1.25|1.25|1.25|1.25
;   useMinPrintHeight,0
;   minPrintHeight,0
;   useMaxPrintHeight,0
;   maxPrintHeight,0
;   useDiaphragm,0
;   diaphragmLayerInterval,20
;   robustSlicing,1
;   mergeAllIntoSolid,0
;   onlyRetractWhenCrossingOutline,1
;   retractBetweenLayers,1
;   useRetractionMinTravel,0
;   retractionMinTravel,3
;   retractWhileWiping,0
;   onlyWipeOutlines,1
;   avoidCrossingOutline,0
;   maxMovementDetourFactor,3
;   toolChangeRetractionDistance,12
;   toolChangeExtraRestartDistance,-0.5
;   toolChangeRetractionSpeed,600
;   externalThinWallType,1
;   internalThinWallType,1
;   thinWallAllowedOverlapPercentage,10
;   singleExtrusionMinLength,1
;   singleExtrusionMinPrintingWidthPercentage,50
;   singleExtrusionMaxPrintingWidthPercentage,200
;   singleExtrusionEndpointExtension,0.2
;   horizontalSizeCompensation,0
G90
M82
M106 S0
M140 S60
M104 S200 T0
M109 S200 T0
G28 ; home all axes
G1 X2 Y15 Z0.2 F3000 ; get ready to prime
G92 E0 ; reset extrusion distance
G1 Y150 E20 F600 ; prime nozzle
G92 E0
G1 E-1.0000 F1800
G1 Z0.450 F1000
; process Process2
; layer 1, Z = 0.450
T0
; tool H0.500 W0.800
; raft
G1 X93.680 Y97.203 F4800
G1 E0.0000 F540
G92 E0
G1 X95.203 Y95.680 E0.3224 F575
G1 X101.797 Y95.680 E1.3093
G1 X102.500 Y96.383 E1.4581
G1 X103.203 Y95.680 E1.6069
G1 X109.797 Y95.680 E2.5938
G1 X111.320 Y97.203 E2.9162
G1 X111.320 Y99.680 E3.2869
G1 X113.680 Y99.680 E3.6402
G1 X113.680 Y97.203 E4.0109
G1 X115.203 Y95.680 E4.3333
G1 X121.797 Y95.680 E5.3202
G1 X122.500 Y96.383 E5.4690
G1 X123.203 Y95.680 E5.6178
G1 X129.797 Y95.680 E6.6047
G1 X131.320 Y97.203 E6.9271
G1 X131.320 Y103.680 E7.8965
G1 X137.797 Y103.680 E8.8659
G1 X139.320 Y105.203 E9.1883
G1 X139.320 Y111.797 E10.1752
G1 X137.797 Y113.320 E10.4976
G1 X131.320 Y113.320 E11.4670
G1 X131.320 Y115.797 E11.8377
G1 X130.617 Y116.500 E11.9865
G1 X131.320 Y117.203 E12.1353
G1 X131.320 Y123.797 E13.1223
G1 X129.797 Y125.320 E13.4446
G1 X123.203 Y125.320 E14.4315
G1 X122.500 Y124.617 E14.5804
G1 X121.797 Y125.320 E14.7292
G1 X119.320 Y125.320 E15.0999
G1 X119.320 Y131.797 E16.0693
G1 X117.797 Y133.320 E16.3917
G1 X107.203 Y133.320 E17.9773
G1 X105.680 Y131.797 E18.2997
G1 X105.680 Y125.320 E19.2691
G1 X103.203 Y125.320 E19.6398
G1 X102.500 Y124.617 E19.7886
G1 X101.797 Y125.320 E19.9374
G1 X95.203 Y125.320 E20.9243
G1 X93.680 Y123.797 E21.2467
G1 X93.680 Y117.203 E22.2336
G1 X94.383 Y116.500 E22.3824
G1 X93.680 Y115.797 E22.5313
G1 X93.680 Y113.320 E22.9020
G1 X87.203 Y113.320 E23.8714
G1 X85.680 Y111.797 E24.1938
G1 X85.680 Y105.203 E25.1807
G1 X87.203 Y103.680 E25.5031
G1 X93.680 Y103.680 E26.4725
G1 X93.680 Y97.203 E27.4419
G92 E0
G1 E-1.0000 F1800
G1 X95.514 Y96.500 F4800
G1 E0.0000 F1800
G92 E0
G1 X101.486 Y96.500 E0.8937 F575
G1 X102.500 Y97.514 E1.1084
G1 X103.514 Y96.500 E1.3231
G1 X109.486 Y96.500 E2.2169
G1 X110.520 Y97.534 E2.4358
G1 X110.520 Y98.786 E2.6231
G1 X94.480 Y98.786 E5.0238
G1 X94.480 Y101.071 E5.3659
G1 X130.520 Y101.071 E10.7600
G1 X130.520 Y103.357 E11.1021
G1 X94.480 Y103.357 E16.4963
G1 X94.480 Y104.480 E16.6643
G1 X87.534 Y104.480 E17.7039
G1 X86.480 Y105.534 E17.9271
G1 X86.480 Y105.643 E17.9433
G1 X138.520 Y105.643 E25.7322
G1 X138.520 Y107.929 E26.0743
G1 X86.480 Y107.929 E33.8631
G1 X86.480 Y110.214 E34.2052
G1 X138.520 Y110.214 E41.9941
G1 X138.520 Y111.466 E42.1814
G1 X137.486 Y112.500 E42.4003
G1 X87.514 Y112.500 E49.8795
G1 X87.534 Y112.520 E49.8837
G1 X94.480 Y112.520 E50.9233
G1 X94.480 Y114.786 E51.2624
G1 X130.520 Y114.786 E56.6565
G1 X130.520 Y115.466 E56.7583
G1 X129.486 Y116.500 E56.9772
G1 X130.057 Y117.071 E57.0982
G1 X94.943 Y117.071 E62.3537
G1 X94.480 Y117.534 E62.4517
G1 X94.480 Y119.357 E62.7245
G1 X130.520 Y119.357 E68.1187
G1 X130.520 Y121.643 E68.4608
G1 X94.480 Y121.643 E73.8549
G1 X94.480 Y123.466 E74.1277
G1 X94.943 Y123.929 E74.2257
G1 X102.057 Y123.929 E75.2905
G1 X102.500 Y123.486 E75.3842
G1 X102.943 Y123.929 E75.4780
G1 X122.057 Y123.929 E78.3388
G1 X121.466 Y124.520 E78.4640
G1 X118.520 Y124.520 E78.9049
G1 X118.520 Y126.214 E79.1584
G1 X106.480 Y126.214 E80.9605
G1 X106.480 Y128.500 E81.3026
G1 X118.520 Y128.500 E83.1046
G1 X118.520 Y130.786 E83.4467
G1 X106.480 Y130.786 E85.2488
G92 E0
G1 E-1.0000 F1800
G1 X122.943 Y123.929 F4800
G1 E0.0000 F1800
G92 E0
G1 X130.057 Y123.929 E1.0647 F575
G92 E0
G1 E-1.0000 F1800
G1 X114.480 Y98.786 F4800
G1 E0.0000 F1800
G92 E0
G1 X130.520 Y98.786 E2.4007 F575
G1 X130.520 Y97.534 E2.5880
G1 X129.486 Y96.500 E2.8069
G1 X123.514 Y96.500 E3.7007
G1 X122.500 Y97.514 E3.9154
G1 X121.486 Y96.500 E4.1301
G1 X115.514 Y96.500 E5.0238
G92 E0
G1 E-1.0000 F1800
; layer 2, Z = 0.950
M106 S255
G1 X115.203 Y95.680 F4800
G1 Z0.950 F1000
G1 E0.0000 F1800
G92 E0
G1 X121.797 Y95.680 E0.9869 F1150
G1 X122.500 Y96.383 E1.1357
G1 X123.203 Y95.680 E1.2845
G1 X129.797 Y95.680 E2.2715
G1 X131.320 Y97.203 E2.5938
G1 X131.320 Y103.680 E3.5632
G1 X137.797 Y103.680 E4.5327
G1 X139.320 Y105.203 E4.8550
G1 X139.320 Y111.797 E5.8419
G1 X137.797 Y113.320 E6.1643
G1 X131.320 Y113.320 E7.1337
G1 X131.320 Y115.797 E7.5045
G1 X130.617 Y116.500 E7.6533
G1 X131.320 Y117.203 E7.8021
G1 X131.320 Y123.797 E8.7890
G1 X129.797 Y125.320 E9.1114
G1 X123.203 Y125.320 E10.0983
G1 X122.500 Y124.617 E10.2471
G1 X121.797 Y125.320 E10.3959
G1 X119.320 Y125.320 E10.7666
G1 X119.320 Y131.797 E11.7361
G1 X117.797 Y133.320 E12.0584
G1 X107.203 Y133.320 E13.6440
G1 X105.680 Y131.797 E13.9664
G1 X105.680 Y125.320 E14.9358
G1 X103.203 Y125.320 E15.3065
G1 X102.500 Y124.617 E15.4554
G1 X101.797 Y125.320 E15.6042
G1 X95.203 Y125.320 E16.5911
G1 X93.680 Y123.797 E16.9135
G1 X93.680 Y117.203 E17.9004
G1 X94.383 Y116.500 E18.0492
G1 X93.680 Y115.797 E18.1980
G1 X93.680 Y113.320 E18.5687
G1 X87.203 Y113.320 E19.5381
G1 X85.680 Y111.797 E19.8605
G1 X85.680 Y105.203 E20.8474
G1 X87.203 Y103.680 E21.1698
G1 X93.680 Y103.680 E22.1392
G1 X93.680 Y97.203 E23.1086
G1 X95.203 Y95.680 E23.4310
G1 X101.797 Y95.680 E24.4179
G1 X102.500 Y96.383 E24.5667
G1 X103.203 Y95.680 E24.7155
G1 X109.797 Y95.680 E25.7025
G1 X111.320 Y97.203 E26.0248
G1 X111.320 Y99.680 E26.3956
G1 X113.680 Y99.680 E26.7488
G1 X113.680 Y97.203 E27.1195
G1 X115.203 Y95.680 E27.4419
G92 E0
G1 E-1.0000 F1800
G1 X115.514 Y96.500 F4800
G1 E0.0000 F1800
G92 E0
G1 X121.486 Y96.500 E0.8937 F1150
G1 X122.500 Y97.514 E1.1084
G1 X123.514 Y96.500 E1.3231
G1 X129.486 Y96.500 E2.2169
G1 X130.520 Y97.534 E2.4358
G1 X130.520 Y98.786 E2.6231
G1 X114.480 Y98.786 E5.0238
G92 E0
G1 E-1.0000 F1800
G1 X95.514 Y96.500 F4800
G1 E0.0000 F1800
G92 E0
G1 X101.486 Y96.500 E0.8937 F1150
G1 X102.500 Y97.514 E1.1084
G1 X103.514 Y96.500 E1.3231
G1 X109.486 Y96.500 E2.2169
G1 X110.520 Y97.534 E2.4358
G1 X110.520 Y98.786 E2.6231
G1 X94.480 Y98.786 E5.0238
G1 X94.480 Y101.071 E5.3659
G1 X130.520 Y101.071 E10.7600
G1 X130.520 Y103.357 E11.1021
G1 X94.480 Y103.357 E16.4963
G1 X94.480 Y104.480 E16.6643
G1 X87.534 Y104.480 E17.7039
G1 X86.480 Y105.534 E17.9271
G1 X86.480 Y105.643 E17.9433
G1 X138.520 Y105.643 E25.7322
G1 X138.520 Y107.929 E26.0743
G1 X86.480 Y107.929 E33.8631
G1 X86.480 Y110.214 E34.2052
G1 X138.520 Y110.214 E41.9941
G1 X138.520 Y111.466 E42.1814
G1 X137.486 Y112.500 E42.4003
G1 X87.514 Y112.500 E49.8795
G1 X87.534 Y112.520 E49.8837
G1 X94.480 Y112.520 E50.9233
G1 X94.480 Y114.786 E51.2624
G1 X130.520 Y114.786 E56.6565
G1 X130.520 Y115.466 E56.7583
G1 X129.486 Y116.500 E56.9772
G1 X130.057 Y117.071 E57.0982
G1 X94.943 Y117.071 E62.3537
G1 X94.480 Y117.534 E62.4517
G1 X94.480 Y119.357 E62.7245
G1 X130.520 Y119.357 E68.1187
G1 X130.520 Y121.643 E68.4608
G1 X94.480 Y121.643 E73.8549
G1 X94.480 Y123.466 E74.1277
G1 X94.943 Y123.929 E74.2257
G1 X102.057 Y123.929 E75.2905
G1 X102.500 Y123.486 E75.3842
G1 X102.943 Y123.929 E75.4780
G1 X122.057 Y123.929 E78.3388
G1 X121.466 Y124.520 E78.4640
G1 X118.520 Y124.520 E78.9049
G1 X118.520 Y126.214 E79.1584
G1 X106.480 Y126.214 E80.9605
G1 X106.480 Y128.500 E81.3026
G1 X118.520 Y128.500 E83.1046
G1 X118.520 Y130.786 E83.4467
G1 X106.480 Y130.786 E85.2488
G92 E0
G1 E-1.0000 F1800
G1 X122.943 Y123.929 F4800
G1 E0.0000 F1800
G92 E0
G1 X130.057 Y123.929 E1.0647 F1150
G92 E0
G1 E-1.0000 F1800
; layer 3, Z = 1.172
; tool H0.222 W0.400
G1 X129.461 Y125.520 F4800
G1 Z1.172 F1000
G1 E0.0000 F1800
G92 E0
G1 X131.520 Y123.461 E0.0968 F3450
G1 X131.520 Y122.896 E0.1156
G1 X128.896 Y125.520 E0.2391
G1 X128.330 Y125.520 E0.2579
G1 X131.520 Y122.330 E0.4080
G1 X131.520 Y121.764 E0.4268
G1 X127.764 Y125.520 E0.6034
G1 X127.199 Y125.520 E0.6222
G1 X131.520 Y121.199 E0.8255
G1 X131.520 Y120.633 E0.8443
G1 X126.633 Y125.520 E1.0742
G1 X126.067 Y125.520 E1.0930
G1 X131.520 Y120.067 E1.3495
G1 X131.520 Y119.502 E1.3683
G1 X125.502 Y125.520 E1.6514
G1 X124.936 Y125.520 E1.6702
G1 X131.520 Y118.936 E1.9799
G1 X131.520 Y118.370 E1.9987
G1 X124.370 Y125.520 E2.3350
G1 X123.805 Y125.520 E2.3538
G1 X131.520 Y117.804 E2.7168
G1 X131.520 Y117.239 E2.7356
G1 X123.239 Y125.520 E3.1251
G1 X123.120 Y125.520 E3.1290
G1 X122.897 Y125.296 E3.1395
G1 X131.296 Y116.897 E3.5346
G1 X131.014 Y116.614 E3.5480
G1 X122.614 Y125.014 E3.9431
G1 X122.500 Y124.900 E3.9484
G1 X121.880 Y125.520 E3.9776
G1 X121.542 Y125.520 E3.9888
G1 X131.520 Y115.542 E4.4582
G1 X131.520 Y114.976 E4.4770
G1 X120.976 Y125.520 E4.9729
G1 X120.410 Y125.520 E4.9918
G1 X131.520 Y114.410 E5.5143
G1 X131.520 Y113.845 E5.5331
G1 X119.845 Y125.520 E6.0823
G92 E0
G1 E-1.0000 F1800
G1 X119.520 Y131.502 F4800
G1 E0.0000 F1800
G92 E0
G1 X117.502 Y133.520 E0.0949 F3450
G1 X116.936 Y133.520 E0.1138
G1 X119.520 Y130.936 E0.2353
G1 X119.520 Y130.370 E0.2541
G1 X116.370 Y133.520 E0.4023
G1 X115.805 Y133.520 E0.4211
G1 X119.520 Y129.804 E0.5959
G1 X119.520 Y129.239 E0.6147
G1 X115.239 Y133.520 E0.8160
G1 X114.673 Y133.520 E0.8349
G1 X119.520 Y128.673 E1.0628
G1 X119.520 Y128.107 E1.0817
G1 X114.107 Y133.520 E1.3362
G1 X113.542 Y133.520 E1.3551
G1 X119.520 Y127.542 E1.6363
G1 X119.520 Y126.976 E1.6551
G1 X112.976 Y133.520 E1.9629
G1 X112.410 Y133.520 E1.9817
G1 X119.520 Y126.410 E2.3161
G1 X119.520 Y125.845 E2.3349
G1 X111.845 Y133.520 E2.6959
G1 X111.279 Y133.520 E2.7148
G1 X139.520 Y105.279 E4.0431
G1 X139.520 Y105.120 E4.0484
G1 X139.317 Y104.917 E4.0580
G1 X110.713 Y133.520 E5.4034
G1 X110.148 Y133.520 E5.4222
G1 X139.034 Y104.634 E6.7809
G1 X138.751 Y104.351 E6.7942
G1 X109.582 Y133.520 E8.1662
G1 X109.016 Y133.520 E8.1851
G1 X138.468 Y104.068 E9.5704
G1 X138.185 Y103.785 E9.5837
G1 X108.451 Y133.520 E10.9823
G1 X107.885 Y133.520 E11.0011
G1 X137.902 Y103.503 E12.4130
G1 X137.880 Y103.480 E12.4141
G1 X137.359 Y103.480 E12.4314
G1 X107.319 Y133.520 E13.8444
G1 X107.120 Y133.520 E13.8510
G1 X106.937 Y133.337 E13.8597
G1 X136.794 Y103.480 E15.2640
G1 X136.228 Y103.480 E15.2828
G1 X106.654 Y133.054 E16.6739
G1 X106.371 Y132.771 E16.6872
G1 X135.662 Y103.480 E18.0650
G1 X135.096 Y103.480 E18.0838
G1 X106.088 Y132.488 E19.4482
G1 X105.806 Y132.205 E19.4615
G1 X134.531 Y103.480 E20.8127
G1 X133.965 Y103.480 E20.8315
G1 X105.523 Y131.922 E22.1693
G1 X105.480 Y131.880 E22.1713
G1 X105.480 Y131.399 E22.1873
G1 X133.399 Y103.480 E23.5006
G1 X132.834 Y103.480 E23.5194
G1 X105.480 Y130.834 E24.8060
G1 X105.480 Y130.268 E24.8248
G1 X132.268 Y103.480 E26.0849
G1 X131.702 Y103.480 E26.1037
G1 X105.480 Y129.702 E27.3371
G1 X105.480 Y129.137 E27.3559
