; G-Code generated by Simplify3D(R) Version 4.0.0
; Jan 2, 2021 at 9:39:21 PM
; Settings Summary
;   processName,Process1
;   applyToModels,keychain_number_2
;   profileName,new profile (modified)
;   profileVersion,2020-09-07 14:01:24
;   baseProfile,Default (modified)
;   printMaterial,PLA
;   printQuality,Medium
;   printExtruders,
;   extruderName,Primary Extruder
;   extruderToolheadNumber,0
;   extruderDiameter,0.4
;   extruderAutoWidth,0
;   extruderWidth,0.4
;   extrusionMultiplier,0.9
;   extruderUseRetract,1
;   extruderRetractionDistance,1
;   extruderExtraRestartDistance,0
;   extruderRetractionZLift,0
;   extruderRetractionSpeed,1800
;   extruderUseCoasting,0
;   extruderCoastingDistance,0.2
;   extruderUseWipe,0
;   extruderWipeDistance,5
;   primaryExtruder,0
;   layerHeight,0.3
;   topSolidLayers,4
;   bottomSolidLayers,3
;   perimeterOutlines,2
;   printPerimetersInsideOut,1
;   startPointOption,2
;   startPointOriginX,0
;   startPointOriginY,0
;   sequentialIslands,0
;   spiralVaseMode,0
;   firstLayerHeightPercentage,90
;   firstLayerWidthPercentage,103
;   firstLayerUnderspeed,0.5
;   useRaft,0
;   raftExtruder,0
;   raftTopLayers,2
;   raftBaseLayers,2
;   raftOffset,1.4
;   raftSeparationDistance,0.14
;   raftTopInfill,100
;   aboveRaftSpeedMultiplier,0.3
;   useSkirt,0
;   skirtExtruder,0
;   skirtLayers,1
;   skirtOutlines,2
;   skirtOffset,4
;   usePrimePillar,0
;   primePillarExtruder,999
;   primePillarWidth,12
;   primePillarLocation,7
;   primePillarSpeedMultiplier,1
;   useOozeShield,0
;   oozeShieldExtruder,999
;   oozeShieldOffset,2
;   oozeShieldOutlines,1
;   oozeShieldSidewallShape,1
;   oozeShieldSidewallAngle,30
;   oozeShieldSpeedMultiplier,1
;   infillExtruder,0
;   internalInfillPattern,Rectilinear
;   externalInfillPattern,Rectilinear
;   infillPercentage,20
;   outlineOverlapPercentage,15
;   infillExtrusionWidthPercentage,100
;   minInfillLength,5
;   infillLayerInterval,1
;   internalInfillAngles,45,-45
;   overlapInternalInfillAngles,0
;   externalInfillAngles,45,-45
;   generateSupport,0
;   supportExtruder,0
;   supportInfillPercentage,30
;   supportExtraInflation,0
;   supportBaseLayers,0
;   denseSupportExtruder,0
;   denseSupportLayers,0
;   denseSupportInfillPercentage,70
;   supportLayerInterval,1
;   supportHorizontalPartOffset,0.3
;   supportUpperSeparationLayers,1
;   supportLowerSeparationLayers,1
;   supportType,0
;   supportGridSpacing,4
;   maxOverhangAngle,45
;   supportAngles,0
;   temperatureName,Primary Extruder,Hot Bed
;   temperatureNumber,0,1
;   temperatureSetpointCount,1,1
;   temperatureSetpointLayers,1,1
;   temperatureSetpointTemperatures,210,60
;   temperatureStabilizeAtStartup,1,0
;   temperatureHeatedBed,0,1
;   temperatureRelayBetweenLayers,0,0
;   temperatureRelayBetweenLoops,0,0
;   fanLayers,1,2
;   fanSpeeds,0,100
;   blipFanToFullPower,0
;   adjustSpeedForCooling,1
;   minSpeedLayerTime,15
;   minCoolingSpeedSlowdown,20
;   increaseFanForCooling,0
;   minFanLayerTime,45
;   maxCoolingFanSpeed,100
;   increaseFanForBridging,0
;   bridgingFanSpeed,100
;   use5D,1
;   relativeEdistances,0
;   allowEaxisZeroing,1
;   independentExtruderAxes,0
;   includeM10123,0
;   stickySupport,1
;   applyToolheadOffsets,0
;   gcodeXoffset,-0.03
;   gcodeYoffset,-0.03
;   gcodeZoffset,0
;   overrideMachineDefinition,0
;   machineTypeOverride,0
;   strokeXoverride,200
;   strokeYoverride,200
;   strokeZoverride,200
;   originOffsetXoverride,0
;   originOffsetYoverride,0
;   originOffsetZoverride,0
;   homeXdirOverride,-1
;   homeYdirOverride,-1
;   homeZdirOverride,-1
;   flipXoverride,1
;   flipYoverride,-1
;   flipZoverride,1
;   toolheadOffsets,0,0|0,0|0,0|0,0|0,0|0,0
;   overrideFirmwareConfiguration,0
;   firmwareTypeOverride,RepRap (Marlin/Repetier/Sprinter)
;   GPXconfigOverride,r2
;   baudRateOverride,115200
;   overridePrinterModels,0
;   printerModelsOverride
;   startingGcode,G28 ; home all axes,G1 X3 Y5 Z0.2 F3000 ; get ready to prime,G92 E0 ; reset extrusion distance,G1 Y150 E20 F600 ; prime nozzle
;   layerChangeGcode,
;   retractionGcode,
;   toolChangeGcode,
;   endingGcode,M104 S0 ; turn off extruder,M140 S0 ; turn off bedG1 X0 Y0; home,M84 ; disable motors,M107 ; fan off,G28 X Y; Home,M18; Disable steppers
;   exportFileFormat,gcode
;   celebration,0
;   celebrationSong,Random Song
;   postProcessing,
;   defaultSpeed,4600
;   outlineUnderspeed,0.5
;   solidInfillUnderspeed,0.8
;   supportUnderspeed,0.8
;   rapidXYspeed,4800
;   rapidZspeed,1000
;   minBridgingArea,50
;   bridgingExtraInflation,0
;   bridgingExtrusionMultiplier,1
;   bridgingSpeedMultiplier,1
;   useFixedBridgingAngle,0
;   fixedBridgingAngle,0
;   applyBridgingToPerimeters,0
;   filamentDiameters,1.75|1.75|1.75|1.75|1.75|1.75
;   filamentPricesPerKg,46|46|46|46|46|46
;   filamentDensities,1.25|1.25|1.25|1.25|1.25|1.25
;   useMinPrintHeight,0
;   minPrintHeight,0
;   useMaxPrintHeight,0
;   maxPrintHeight,0
;   useDiaphragm,0
;   diaphragmLayerInterval,20
;   robustSlicing,1
;   mergeAllIntoSolid,0
;   onlyRetractWhenCrossingOutline,1
;   retractBetweenLayers,1
;   useRetractionMinTravel,0
;   retractionMinTravel,3
;   retractWhileWiping,0
;   onlyWipeOutlines,1
;   avoidCrossingOutline,0
;   maxMovementDetourFactor,3
;   toolChangeRetractionDistance,12
;   toolChangeExtraRestartDistance,-0.5
;   toolChangeRetractionSpeed,600
;   externalThinWallType,0
;   internalThinWallType,0
;   thinWallAllowedOverlapPercentage,8
;   singleExtrusionMinLength,1
;   singleExtrusionMinPrintingWidthPercentage,50
;   singleExtrusionMaxPrintingWidthPercentage,200
;   singleExtrusionEndpointExtension,0.2
;   horizontalSizeCompensation,0
G90
M82
M106 S0
M140 S60
M104 S210 T0
M109 S210 T0
G28 ; home all axes
G1 X3 Y5 Z0.2 F3000 ; get ready to prime
G92 E0 ; reset extrusion distance
G1 Y150 E20 F600 ; prime nozzle
G92 E0
G1 E-1.0000 F1800
G1 Z0.270 F1000
; process Process1
; layer 1, Z = 0.270
T0
; tool H0.300 W0.412
; inner perimeter
G1 X102.088 Y94.588 F4800
G1 E0.0000 F540
G92 E0
G1 X125.852 Y94.588 E1.0990 F1725
G1 X125.852 Y143.352 E3.3543
G1 X102.088 Y143.352 E4.4533
G1 X102.088 Y94.588 E6.7086
; outer perimeter
G1 X101.676 Y94.176 F4800
G92 E0
G1 X126.264 Y94.176 E1.1372 F1150
G1 X126.264 Y143.764 E3.4305
G1 X101.676 Y143.764 E4.5677
G1 X101.676 Y94.176 E6.8610
; inner perimeter
G1 X110.127 Y97.972 F4800
G92 E0
G1 X109.992 Y98.387 E0.0202 F1725
G1 X109.900 Y98.819 E0.0406
G1 X109.851 Y99.447 E0.0698
G1 X109.874 Y99.886 E0.0901
G1 X109.941 Y100.312 E0.1100
G1 X110.053 Y100.728 E0.1300
G1 X110.207 Y101.131 E0.1499
G1 X110.402 Y101.513 E0.1697
G1 X110.636 Y101.874 E0.1897
G1 X110.909 Y102.212 E0.2097
G1 X111.214 Y102.516 E0.2297
G1 X111.549 Y102.788 E0.2496
G1 X111.911 Y103.023 E0.2695
G1 X112.295 Y103.218 E0.2895
G1 X112.705 Y103.376 E0.3098
G1 X113.326 Y103.525 E0.3393
G1 X113.962 Y103.575 E0.3688
G1 X114.400 Y103.552 E0.3892
G1 X114.826 Y103.484 E0.4091
G1 X115.243 Y103.373 E0.4290
G1 X115.645 Y103.218 E0.4490
G1 X116.029 Y103.023 E0.4689
G1 X116.391 Y102.788 E0.4889
G1 X116.726 Y102.516 E0.5088
G1 X117.031 Y102.212 E0.5287
G1 X117.302 Y101.877 E0.5487
G1 X117.537 Y101.515 E0.5686
G1 X117.733 Y101.131 E0.5885
G1 X117.890 Y100.721 E0.6089
G1 X118.039 Y100.100 E0.6384
G1 X118.089 Y99.464 E0.6679
G1 X118.066 Y99.025 E0.6882
G1 X117.999 Y98.599 E0.7082
G1 X117.887 Y98.183 E0.7281
G1 X117.733 Y97.780 E0.7480
G1 X117.537 Y97.396 E0.7680
G1 X117.302 Y97.035 E0.7879
G1 X117.031 Y96.700 E0.8079
G1 X116.728 Y96.397 E0.8277
G1 X116.391 Y96.123 E0.8477
G1 X116.029 Y95.888 E0.8677
G1 X115.645 Y95.693 E0.8876
G1 X115.235 Y95.535 E0.9079
G1 X114.617 Y95.387 E0.9373
G1 X113.978 Y95.336 E0.9670
G1 X113.540 Y95.359 E0.9873
G1 X113.114 Y95.427 E1.0072
G1 X112.697 Y95.538 E1.0272
G1 X112.295 Y95.693 E1.0471
G1 X111.916 Y95.886 E1.0668
G1 X111.699 Y96.021 E1.0786
G1 X111.545 Y96.127 E1.0872
G1 X111.216 Y96.393 E1.1068
G1 X110.909 Y96.699 E1.1269
G1 X110.638 Y97.034 E1.1468
G1 X110.400 Y97.401 E1.1670
G1 X110.127 Y97.972 E1.1963
; outer perimeter
G1 X110.511 Y98.125 F4800
G92 E0
G1 X110.391 Y98.494 E0.0180 F1150
G1 X110.309 Y98.878 E0.0361
G1 X110.264 Y99.453 E0.0628
G1 X110.284 Y99.843 E0.0809
G1 X110.345 Y100.226 E0.0988
G1 X110.445 Y100.601 E0.1167
G1 X110.584 Y100.963 E0.1347
G1 X110.759 Y101.306 E0.1525
G1 X110.970 Y101.632 E0.1704
G1 X111.216 Y101.935 E0.1885
G1 X111.490 Y102.210 E0.2064
G1 X111.792 Y102.454 E0.2244
G1 X112.117 Y102.665 E0.2423
G1 X112.462 Y102.841 E0.2603
G1 X112.827 Y102.981 E0.2783
G1 X113.390 Y103.116 E0.3051
G1 X113.967 Y103.162 E0.3319
G1 X114.357 Y103.141 E0.3499
G1 X114.741 Y103.081 E0.3679
G1 X115.115 Y102.980 E0.3858
G1 X115.477 Y102.841 E0.4038
G1 X115.823 Y102.665 E0.4217
G1 X116.149 Y102.454 E0.4397
G1 X116.450 Y102.210 E0.4576
G1 X116.724 Y101.936 E0.4755
G1 X116.968 Y101.634 E0.4935
G1 X117.180 Y101.309 E0.5114
G1 X117.356 Y100.963 E0.5294
G1 X117.496 Y100.598 E0.5474
G1 X117.631 Y100.035 E0.5742
G1 X117.676 Y99.458 E0.6010
G1 X117.656 Y99.068 E0.6190
G1 X117.595 Y98.685 E0.6370
G1 X117.495 Y98.310 E0.6549
G1 X117.356 Y97.948 E0.6729
G1 X117.180 Y97.602 E0.6908
G1 X116.968 Y97.277 E0.7088
G1 X116.724 Y96.976 E0.7267
G1 X116.452 Y96.703 E0.7445
G1 X116.149 Y96.457 E0.7626
G1 X115.823 Y96.246 E0.7805
G1 X115.477 Y96.070 E0.7985
G1 X115.113 Y95.930 E0.8165
G1 X114.552 Y95.795 E0.8432
G1 X113.973 Y95.749 E0.8701
G1 X113.583 Y95.770 E0.8881
G1 X113.199 Y95.830 E0.9061
G1 X112.825 Y95.931 E0.9240
G1 X112.462 Y96.070 E0.9420
G1 X112.119 Y96.245 E0.9598
G1 X111.924 Y96.366 E0.9704
G1 X111.792 Y96.457 E0.9779
G1 X111.492 Y96.700 E0.9957
G1 X111.216 Y96.976 E1.0137
G1 X110.972 Y97.277 E1.0317
G1 X110.760 Y97.602 E1.0496
G1 X110.511 Y98.125 E1.0764
G92 E0
G1 E-1.0000 F1800
; inner perimeter
G1 X113.495 Y132.560 F4800
G1 E0.0000 F1800
G92 E0
G1 X113.240 Y132.593 E0.0119 F1725
G1 X112.775 Y132.692 E0.0339
G1 X112.315 Y132.841 E0.0563
G1 X111.873 Y133.038 E0.0786
G1 X111.454 Y133.280 E0.1010
G1 X111.063 Y133.564 E0.1234
G1 X110.709 Y133.883 E0.1454
G1 X110.520 Y134.084 E0.1582
G1 X110.378 Y134.250 E0.1683
G1 X110.096 Y134.638 E0.1904
G1 X109.859 Y135.050 E0.2124
G1 X109.748 Y135.282 E0.2244
G1 X109.577 Y135.726 E0.2463
G1 X109.452 Y136.193 E0.2687
G1 X109.376 Y136.671 E0.2911
G1 X109.351 Y137.154 E0.3134
G1 X109.376 Y137.636 E0.3358
G1 X109.452 Y138.114 E0.3581
G1 X109.577 Y138.581 E0.3805
G1 X109.750 Y139.032 E0.4028
G1 X109.964 Y139.452 E0.4247
G1 X110.101 Y139.676 E0.4368
G1 X110.381 Y140.060 E0.4588
G1 X110.704 Y140.420 E0.4811
G1 X111.063 Y140.743 E0.5035
G1 X111.454 Y141.027 E0.5258
G1 X111.864 Y141.264 E0.5477
G1 X112.099 Y141.376 E0.5597
G1 X112.543 Y141.546 E0.5817
G1 X113.006 Y141.671 E0.6039
G1 X113.487 Y141.747 E0.6264
G1 X113.970 Y141.772 E0.6488
G1 X114.453 Y141.747 E0.6712
G1 X114.922 Y141.673 E0.6932
G1 X115.173 Y141.612 E0.7051
G1 X115.625 Y141.466 E0.7271
G1 X116.067 Y141.269 E0.7494
G1 X116.486 Y141.027 E0.7718
G1 X116.877 Y140.743 E0.7941
G1 X117.236 Y140.420 E0.8165
G1 X117.560 Y140.060 E0.8389
G1 X117.844 Y139.669 E0.8612
G1 X118.085 Y139.250 E0.8836
G1 X118.282 Y138.809 E0.9059
G1 X118.431 Y138.349 E0.9283
G1 X118.530 Y137.884 E0.9503
G1 X118.564 Y137.628 E0.9622
G1 X118.589 Y137.154 E0.9842
G1 X118.564 Y136.671 E1.0066
G1 X118.488 Y136.193 E1.0289
G1 X118.363 Y135.726 E1.0513
G1 X118.190 Y135.275 E1.0736
G1 X117.970 Y134.844 E1.0960
G1 X117.707 Y134.439 E1.1184
G1 X117.403 Y134.063 E1.1407
G1 X117.069 Y133.730 E1.1625
G1 X116.870 Y133.559 E1.1746
G1 X116.489 Y133.282 E1.1964
G1 X116.071 Y133.040 E1.2188
G1 X115.629 Y132.843 E1.2411
G1 X115.177 Y132.696 E1.2631
G1 X114.922 Y132.634 E1.2752
G1 X114.453 Y132.560 E1.2972
G1 X113.970 Y132.535 E1.3196
G1 X113.495 Y132.560 E1.3416
; outer perimeter
G1 X113.533 Y132.970 F4800
G92 E0
G1 X113.309 Y133.000 E0.0104 F1150
G1 X112.881 Y133.091 E0.0307
G1 X112.463 Y133.227 E0.0510
G1 X112.060 Y133.406 E0.0714
G1 X111.679 Y133.626 E0.0918
G1 X111.323 Y133.885 E0.1121
G1 X110.997 Y134.178 E0.1324
G1 X110.827 Y134.359 E0.1439
G1 X110.702 Y134.506 E0.1528
G1 X110.442 Y134.863 E0.1732
G1 X110.224 Y135.242 E0.1934
G1 X110.126 Y135.445 E0.2039
G1 X109.970 Y135.854 E0.2241
G1 X109.856 Y136.279 E0.2445
G1 X109.787 Y136.714 E0.2648
G1 X109.764 Y137.154 E0.2852
G1 X109.787 Y137.593 E0.3056
G1 X109.856 Y138.028 E0.3259
G1 X109.970 Y138.453 E0.3463
G1 X110.127 Y138.864 E0.3667
G1 X110.324 Y139.251 E0.3867
G1 X110.444 Y139.447 E0.3973
G1 X110.701 Y139.801 E0.4176
G1 X110.996 Y140.128 E0.4379
G1 X111.323 Y140.422 E0.4583
G1 X111.679 Y140.681 E0.4786
G1 X112.056 Y140.899 E0.4988
G1 X112.262 Y140.997 E0.5093
G1 X112.670 Y141.154 E0.5296
G1 X113.092 Y141.267 E0.5498
G1 X113.530 Y141.337 E0.5703
G1 X113.970 Y141.360 E0.5906
G1 X114.410 Y141.337 E0.6110
G1 X114.842 Y141.268 E0.6312
G1 X115.061 Y141.216 E0.6417
G1 X115.477 Y141.080 E0.6619
G1 X115.880 Y140.901 E0.6823
G1 X116.261 Y140.681 E0.7026
G1 X116.617 Y140.422 E0.7230
G1 X116.944 Y140.128 E0.7434
G1 X117.239 Y139.801 E0.7637
G1 X117.498 Y139.444 E0.7841
G1 X117.718 Y139.063 E0.8044
G1 X117.897 Y138.661 E0.8248
G1 X118.033 Y138.242 E0.8452
G1 X118.124 Y137.814 E0.8654
G1 X118.153 Y137.590 E0.8758
G1 X118.176 Y137.154 E0.8961
G1 X118.153 Y136.714 E0.9164
G1 X118.084 Y136.279 E0.9368
G1 X117.970 Y135.854 E0.9572
G1 X117.813 Y135.443 E0.9775
G1 X117.613 Y135.050 E0.9979
G1 X117.373 Y134.681 E1.0183
G1 X117.096 Y134.339 E1.0386
G1 X116.789 Y134.032 E1.0587
G1 X116.615 Y133.883 E1.0693
G1 X116.264 Y133.628 E1.0894
G1 X115.883 Y133.407 E1.1097
G1 X115.481 Y133.228 E1.1301
G1 X115.065 Y133.092 E1.1503
G1 X114.842 Y133.039 E1.1609
G1 X114.410 Y132.970 E1.1812
G1 X113.970 Y132.947 E1.2015
G1 X113.533 Y132.970 E1.2218
G92 E0
G1 E-1.0000 F1800
; solid layer
G1 X118.811 Y136.047 F4800
G1 E0.0000 F1800
G92 E0
G1 X125.502 Y142.738 E0.4376 F1840
G1 X125.502 Y143.002 E0.4498
G1 X125.183 Y143.002 E0.4645
G1 X118.918 Y136.736 E0.8743
G1 X118.940 Y137.154 E0.8937
G1 X118.930 Y137.331 E0.9019
G1 X124.601 Y143.002 E1.2728
G1 X124.018 Y143.002 E1.2997
G1 X118.886 Y137.869 E1.6354
G1 X118.876 Y137.943 E1.6389
G1 X118.788 Y138.355 E1.6583
G1 X123.435 Y143.002 E1.9623
G1 X122.853 Y143.002 E1.9892
G1 X118.653 Y138.802 E2.2639
G1 X118.609 Y138.934 E2.2704
G1 X118.484 Y139.216 E2.2846
G1 X122.270 Y143.002 E2.5323
G1 X121.687 Y143.002 E2.5592
G1 X118.287 Y139.601 E2.7816
G1 X118.138 Y139.860 E2.7954
G1 X118.064 Y139.961 E2.8012
G1 X121.105 Y143.002 E3.0001
G1 X120.522 Y143.002 E3.0270
G1 X117.817 Y140.297 E3.2039
G1 X117.541 Y140.604 E3.2230
G1 X119.939 Y143.002 E3.3798
G1 X119.357 Y143.002 E3.4068
G1 X117.241 Y140.886 E3.5452
G1 X117.097 Y141.016 E3.5541
G1 X116.918 Y141.146 E3.5644
G1 X118.774 Y143.002 E3.6857
G1 X118.192 Y143.002 E3.7127
G1 X116.572 Y141.382 E3.8186
G1 X116.226 Y141.581 E3.8371
G1 X116.200 Y141.593 E3.8384
G1 X117.609 Y143.002 E3.9305
G1 X117.026 Y143.002 E3.9575
G1 X115.797 Y141.773 E4.0379
G1 X115.751 Y141.793 E4.0402
G1 X115.361 Y141.920 E4.0592
G1 X116.444 Y143.002 E4.1299
G1 X115.861 Y143.002 E4.1569
G1 X114.891 Y142.032 E4.2203
G1 X114.490 Y142.096 E4.2391
G1 X114.378 Y142.102 E4.2443
G1 X115.278 Y143.002 E4.3032
G1 X114.696 Y143.002 E4.3301
G1 X113.808 Y142.115 E4.3881
G1 X113.450 Y142.096 E4.4047
G1 X113.161 Y142.050 E4.4183
G1 X114.113 Y143.002 E4.4805
G1 X113.530 Y143.002 E4.5075
G1 X112.392 Y141.864 E4.5819
G1 X102.460 Y143.002 F4800
G92 E0
G1 X102.438 Y142.980 E0.0014 F1840
G1 X102.438 Y142.398 E0.0284
G1 X103.042 Y143.002 E0.0679
G1 X103.625 Y143.002 E0.0948
G1 X102.438 Y141.815 E0.1725
G1 X102.438 Y141.232 E0.1994
G1 X104.208 Y143.002 E0.3151
G1 X104.790 Y143.002 E0.3421
G1 X102.438 Y140.650 E0.4959
G1 X102.438 Y140.067 E0.5229
G1 X105.373 Y143.002 E0.7148
G1 X105.956 Y143.002 E0.7418
G1 X102.438 Y139.484 E0.9719
G1 X102.438 Y138.902 E0.9988
G1 X106.538 Y143.002 E1.2670
G1 X107.121 Y143.002 E1.2939
G1 X102.438 Y138.319 E1.6002
G1 X102.438 Y137.736 E1.6271
G1 X107.704 Y143.002 E1.9715
G1 X108.286 Y143.002 E1.9985
G1 X102.438 Y137.154 E2.3810
G1 X102.438 Y136.571 E2.4079
G1 X108.869 Y143.002 E2.8285
G1 X109.452 Y143.002 E2.8555
G1 X102.438 Y135.988 E3.3142
