; G-Code generated by Simplify3D(R) Version 4.0.0
; Jan 2, 2021 at 10:21:12 PM
; Settings Summary
;   processName,Process1
;   applyToModels,keychain_number_4
;   profileName,new profile (modified)
;   profileVersion,2020-09-07 14:01:24
;   baseProfile,Default (modified)
;   printMaterial,PLA
;   printQuality,Medium
;   printExtruders,
;   extruderName,Primary Extruder
;   extruderToolheadNumber,0
;   extruderDiameter,0.4
;   extruderAutoWidth,0
;   extruderWidth,0.4
;   extrusionMultiplier,0.9
;   extruderUseRetract,1
;   extruderRetractionDistance,1
;   extruderExtraRestartDistance,0
;   extruderRetractionZLift,0
;   extruderRetractionSpeed,1800
;   extruderUseCoasting,0
;   extruderCoastingDistance,0.2
;   extruderUseWipe,0
;   extruderWipeDistance,5
;   primaryExtruder,0
;   layerHeight,0.3
;   topSolidLayers,4
;   bottomSolidLayers,3
;   perimeterOutlines,2
;   printPerimetersInsideOut,1
;   startPointOption,2
;   startPointOriginX,0
;   startPointOriginY,0
;   sequentialIslands,0
;   spiralVaseMode,0
;   firstLayerHeightPercentage,90
;   firstLayerWidthPercentage,103
;   firstLayerUnderspeed,0.5
;   useRaft,0
;   raftExtruder,0
;   raftTopLayers,2
;   raftBaseLayers,2
;   raftOffset,1.4
;   raftSeparationDistance,0.14
;   raftTopInfill,100
;   aboveRaftSpeedMultiplier,0.3
;   useSkirt,0
;   skirtExtruder,0
;   skirtLayers,1
;   skirtOutlines,2
;   skirtOffset,4
;   usePrimePillar,0
;   primePillarExtruder,999
;   primePillarWidth,12
;   primePillarLocation,7
;   primePillarSpeedMultiplier,1
;   useOozeShield,0
;   oozeShieldExtruder,999
;   oozeShieldOffset,2
;   oozeShieldOutlines,1
;   oozeShieldSidewallShape,1
;   oozeShieldSidewallAngle,30
;   oozeShieldSpeedMultiplier,1
;   infillExtruder,0
;   internalInfillPattern,Rectilinear
;   externalInfillPattern,Rectilinear
;   infillPercentage,20
;   outlineOverlapPercentage,15
;   infillExtrusionWidthPercentage,100
;   minInfillLength,5
;   infillLayerInterval,1
;   internalInfillAngles,45,-45
;   overlapInternalInfillAngles,0
;   externalInfillAngles,45,-45
;   generateSupport,0
;   supportExtruder,0
;   supportInfillPercentage,30
;   supportExtraInflation,0
;   supportBaseLayers,0
;   denseSupportExtruder,0
;   denseSupportLayers,0
;   denseSupportInfillPercentage,70
;   supportLayerInterval,1
;   supportHorizontalPartOffset,0.3
;   supportUpperSeparationLayers,1
;   supportLowerSeparationLayers,1
;   supportType,0
;   supportGridSpacing,4
;   maxOverhangAngle,45
;   supportAngles,0
;   temperatureName,Primary Extruder,Hot Bed
;   temperatureNumber,0,1
;   temperatureSetpointCount,1,1
;   temperatureSetpointLayers,1,1
;   temperatureSetpointTemperatures,210,60
;   temperatureStabilizeAtStartup,1,0
;   temperatureHeatedBed,0,1
;   temperatureRelayBetweenLayers,0,0
;   temperatureRelayBetweenLoops,0,0
;   fanLayers,1,2
;   fanSpeeds,0,100
;   blipFanToFullPower,0
;   adjustSpeedForCooling,1
;   minSpeedLayerTime,15
;   minCoolingSpeedSlowdown,20
;   increaseFanForCooling,0
;   minFanLayerTime,45
;   maxCoolingFanSpeed,100
;   increaseFanForBridging,0
;   bridgingFanSpeed,100
;   use5D,1
;   relativeEdistances,0
;   allowEaxisZeroing,1
;   independentExtruderAxes,0
;   includeM10123,0
;   stickySupport,1
;   applyToolheadOffsets,0
;   gcodeXoffset,-0.03
;   gcodeYoffset,-0.03
;   gcodeZoffset,0
;   overrideMachineDefinition,0
;   machineTypeOverride,0
;   strokeXoverride,200
;   strokeYoverride,200
;   strokeZoverride,200
;   originOffsetXoverride,0
;   originOffsetYoverride,0
;   originOffsetZoverride,0
;   homeXdirOverride,-1
;   homeYdirOverride,-1
;   homeZdirOverride,-1
;   flipXoverride,1
;   flipYoverride,-1
;   flipZoverride,1
;   toolheadOffsets,0,0|0,0|0,0|0,0|0,0|0,0
;   overrideFirmwareConfiguration,0
;   firmwareTypeOverride,RepRap (Marlin/Repetier/Sprinter)
;   GPXconfigOverride,r2
;   baudRateOverride,115200
;   overridePrinterModels,0
;   printerModelsOverride
;   startingGcode,G28 ; home all axes,G1 X3 Y5 Z0.2 F3000 ; get ready to prime,G92 E0 ; reset extrusion distance,G1 Y150 E20 F600 ; prime nozzle
;   layerChangeGcode,
;   retractionGcode,
;   toolChangeGcode,
;   endingGcode,M104 S0 ; turn off extruder,M140 S0 ; turn off bedG1 X0 Y0; home,M84 ; disable motors,M107 ; fan off,G28 X Y; Home,M18; Disable steppers
;   exportFileFormat,gcode
;   celebration,0
;   celebrationSong,Random Song
;   postProcessing,
;   defaultSpeed,4600
;   outlineUnderspeed,0.5
;   solidInfillUnderspeed,0.8
;   supportUnderspeed,0.8
;   rapidXYspeed,4800
;   rapidZspeed,1000
;   minBridgingArea,50
;   bridgingExtraInflation,0
;   bridgingExtrusionMultiplier,1
;   bridgingSpeedMultiplier,1
;   useFixedBridgingAngle,0
;   fixedBridgingAngle,0
;   applyBridgingToPerimeters,0
;   filamentDiameters,1.75|1.75|1.75|1.75|1.75|1.75
;   filamentPricesPerKg,46|46|46|46|46|46
;   filamentDensities,1.25|1.25|1.25|1.25|1.25|1.25
;   useMinPrintHeight,0
;   minPrintHeight,0
;   useMaxPrintHeight,0
;   maxPrintHeight,0
;   useDiaphragm,0
;   diaphragmLayerInterval,20
;   robustSlicing,1
;   mergeAllIntoSolid,0
;   onlyRetractWhenCrossingOutline,1
;   retractBetweenLayers,1
;   useRetractionMinTravel,0
;   retractionMinTravel,3
;   retractWhileWiping,0
;   onlyWipeOutlines,1
;   avoidCrossingOutline,0
;   maxMovementDetourFactor,3
;   toolChangeRetractionDistance,12
;   toolChangeExtraRestartDistance,-0.5
;   toolChangeRetractionSpeed,600
;   externalThinWallType,0
;   internalThinWallType,0
;   thinWallAllowedOverlapPercentage,8
;   singleExtrusionMinLength,1
;   singleExtrusionMinPrintingWidthPercentage,50
;   singleExtrusionMaxPrintingWidthPercentage,200
;   singleExtrusionEndpointExtension,0.2
;   horizontalSizeCompensation,0
G90
M82
M106 S0
M140 S60
M104 S210 T0
M109 S210 T0
G28 ; home all axes
G1 X3 Y5 Z0.2 F3000 ; get ready to prime
G92 E0 ; reset extrusion distance
G1 Y150 E20 F600 ; prime nozzle
G92 E0
G1 E-1.0000 F1800
G1 Z0.270 F1000
; process Process1
; layer 1, Z = 0.270
T0
; tool H0.300 W0.412
; inner perimeter
G1 X102.088 Y94.588 F4800
G1 E0.0000 F540
G92 E0
G1 X125.852 Y94.588 E1.0990 F1725
G1 X125.852 Y143.352 E3.3543
G1 X102.088 Y143.352 E4.4533
G1 X102.088 Y94.588 E6.7086
; outer perimeter
G1 X101.676 Y94.176 F4800
G92 E0
G1 X126.264 Y94.176 E1.1372 F1150
G1 X126.264 Y143.764 E3.4305
G1 X101.676 Y143.764 E4.5677
G1 X101.676 Y94.176 E6.8610
; inner perimeter
G1 X110.125 Y97.979 F4800
G92 E0
G1 X109.992 Y98.387 E0.0198 F1725
G1 X109.900 Y98.819 E0.0402
G1 X109.851 Y99.447 E0.0694
G1 X109.874 Y99.886 E0.0897
G1 X109.941 Y100.312 E0.1097
G1 X110.053 Y100.728 E0.1296
G1 X110.207 Y101.131 E0.1495
G1 X110.402 Y101.513 E0.1693
G1 X110.641 Y101.881 E0.1897
G1 X111.051 Y102.362 E0.2189
G1 X111.378 Y102.656 E0.2392
G1 X111.727 Y102.910 E0.2592
G1 X112.098 Y103.124 E0.2790
G1 X112.494 Y103.301 E0.2991
G1 X112.904 Y103.434 E0.3190
G1 X113.326 Y103.524 E0.3389
G1 X113.754 Y103.569 E0.3589
G1 X114.186 Y103.569 E0.3788
G1 X114.614 Y103.524 E0.3988
G1 X115.036 Y103.434 E0.4187
G1 X115.446 Y103.301 E0.4386
G1 X115.847 Y103.122 E0.4589
G1 X116.385 Y102.793 E0.4881
G1 X116.726 Y102.516 E0.5084
G1 X117.031 Y102.212 E0.5283
G1 X117.302 Y101.877 E0.5483
G1 X117.541 Y101.508 E0.5686
G1 X117.813 Y100.939 E0.5977
G1 X117.948 Y100.522 E0.6181
G1 X118.040 Y100.092 E0.6384
G1 X118.089 Y99.464 E0.6675
G1 X118.066 Y99.025 E0.6878
G1 X117.999 Y98.599 E0.7078
G1 X117.887 Y98.183 E0.7277
G1 X117.733 Y97.780 E0.7477
G1 X117.537 Y97.396 E0.7676
G1 X117.302 Y97.035 E0.7875
G1 X117.031 Y96.700 E0.8075
G1 X116.728 Y96.396 E0.8273
G1 X116.391 Y96.123 E0.8473
G1 X116.029 Y95.888 E0.8673
G1 X115.645 Y95.693 E0.8872
G1 X115.235 Y95.535 E0.9075
G1 X114.617 Y95.387 E0.9369
G1 X113.978 Y95.336 E0.9666
G1 X113.539 Y95.359 E0.9869
G1 X113.114 Y95.427 E1.0068
G1 X112.697 Y95.538 E1.0268
G1 X112.295 Y95.693 E1.0467
G1 X111.916 Y95.886 E1.0664
G1 X111.699 Y96.021 E1.0782
G1 X111.538 Y96.132 E1.0872
G1 X111.063 Y96.537 E1.1161
G1 X110.771 Y96.861 E1.1363
G1 X110.516 Y97.212 E1.1564
G1 X110.300 Y97.586 E1.1763
G1 X110.125 Y97.979 E1.1962
; outer perimeter
G1 X110.510 Y98.127 F4800
G92 E0
G1 X110.391 Y98.494 E0.0178 F1150
G1 X110.309 Y98.878 E0.0360
G1 X110.264 Y99.453 E0.0627
G1 X110.284 Y99.843 E0.0807
G1 X110.345 Y100.226 E0.0987
G1 X110.445 Y100.601 E0.1166
G1 X110.584 Y100.963 E0.1345
G1 X110.759 Y101.306 E0.1524
G1 X110.972 Y101.634 E0.1704
G1 X111.347 Y102.074 E0.1972
G1 X111.638 Y102.336 E0.2153
G1 X111.951 Y102.564 E0.2332
G1 X112.285 Y102.757 E0.2510
G1 X112.642 Y102.916 E0.2691
G1 X113.011 Y103.035 E0.2870
G1 X113.390 Y103.116 E0.3050
G1 X113.776 Y103.157 E0.3229
G1 X114.164 Y103.157 E0.3409
G1 X114.550 Y103.116 E0.3588
G1 X114.929 Y103.035 E0.3767
G1 X115.298 Y102.916 E0.3947
G1 X115.655 Y102.757 E0.4128
G1 X116.146 Y102.456 E0.4394
G1 X116.450 Y102.210 E0.4575
G1 X116.724 Y101.935 E0.4754
G1 X116.968 Y101.634 E0.4934
G1 X117.181 Y101.306 E0.5114
G1 X117.429 Y100.786 E0.5381
G1 X117.550 Y100.415 E0.5561
G1 X117.631 Y100.033 E0.5742
G1 X117.676 Y99.458 E0.6009
G1 X117.656 Y99.068 E0.6189
G1 X117.595 Y98.685 E0.6369
G1 X117.495 Y98.310 E0.6548
G1 X117.356 Y97.948 E0.6727
G1 X117.180 Y97.602 E0.6907
G1 X116.968 Y97.277 E0.7086
G1 X116.724 Y96.976 E0.7266
G1 X116.452 Y96.703 E0.7444
G1 X116.149 Y96.457 E0.7625
G1 X115.823 Y96.246 E0.7804
G1 X115.477 Y96.070 E0.7983
G1 X115.113 Y95.930 E0.8164
G1 X114.552 Y95.795 E0.8431
G1 X113.973 Y95.749 E0.8699
G1 X113.583 Y95.770 E0.8880
G1 X113.199 Y95.830 E0.9060
G1 X112.825 Y95.931 E0.9239
G1 X112.463 Y96.070 E0.9418
G1 X112.119 Y96.245 E0.9597
G1 X111.924 Y96.366 E0.9703
G1 X111.789 Y96.459 E0.9779
G1 X111.351 Y96.833 E1.0045
G1 X111.091 Y97.121 E1.0225
G1 X110.862 Y97.437 E1.0405
G1 X110.668 Y97.773 E1.0585
G1 X110.510 Y98.127 E1.0764
G92 E0
G1 E-1.0000 F1800
; inner perimeter
G1 X113.495 Y132.560 F4800
G1 E0.0000 F1800
G92 E0
G1 X113.240 Y132.593 E0.0119 F1725
G1 X112.775 Y132.692 E0.0339
G1 X112.315 Y132.841 E0.0563
G1 X111.873 Y133.038 E0.0786
G1 X111.454 Y133.280 E0.1010
G1 X111.063 Y133.564 E0.1234
G1 X110.709 Y133.883 E0.1454
G1 X110.520 Y134.084 E0.1582
G1 X110.378 Y134.250 E0.1683
G1 X110.096 Y134.638 E0.1904
G1 X109.859 Y135.050 E0.2124
G1 X109.748 Y135.282 E0.2244
G1 X109.577 Y135.726 E0.2463
G1 X109.452 Y136.193 E0.2687
G1 X109.376 Y136.671 E0.2911
G1 X109.351 Y137.154 E0.3134
G1 X109.376 Y137.636 E0.3358
G1 X109.452 Y138.114 E0.3581
G1 X109.577 Y138.581 E0.3805
G1 X109.750 Y139.032 E0.4028
G1 X109.964 Y139.452 E0.4247
G1 X110.101 Y139.676 E0.4368
G1 X110.381 Y140.060 E0.4587
G1 X110.704 Y140.420 E0.4811
G1 X111.063 Y140.743 E0.5035
G1 X111.454 Y141.027 E0.5258
G1 X111.871 Y141.268 E0.5481
G1 X112.315 Y141.466 E0.5705
G1 X112.775 Y141.615 E0.5929
G1 X113.247 Y141.716 E0.6153
G1 X113.728 Y141.766 E0.6376
G1 X114.204 Y141.766 E0.6596
G1 X114.461 Y141.746 E0.6715
G1 X114.930 Y141.671 E0.6935
G1 X115.397 Y141.546 E0.7159
G1 X115.849 Y141.373 E0.7382
G1 X116.279 Y141.154 E0.7606
G1 X116.685 Y140.890 E0.7830
G1 X117.061 Y140.586 E0.8053
G1 X117.397 Y140.250 E0.8273
G1 X117.564 Y140.054 E0.8392
G1 X117.844 Y139.669 E0.8612
G1 X118.085 Y139.250 E0.8836
G1 X118.282 Y138.809 E0.9059
G1 X118.429 Y138.357 E0.9279
G1 X118.489 Y138.106 E0.9399
G1 X118.564 Y137.636 E0.9618
G1 X118.589 Y137.154 E0.9842
G1 X118.564 Y136.671 E1.0066
G1 X118.489 Y136.201 E1.0285
G1 X118.429 Y135.950 E1.0405
G1 X118.282 Y135.498 E1.0625
G1 X118.085 Y135.057 E1.0848
G1 X117.844 Y134.638 E1.1072
G1 X117.560 Y134.247 E1.1295
G1 X117.236 Y133.888 E1.1519
G1 X116.877 Y133.564 E1.1742
G1 X116.489 Y133.282 E1.1964
G1 X116.071 Y133.040 E1.2188
G1 X115.629 Y132.843 E1.2411
G1 X115.177 Y132.696 E1.2631
G1 X114.923 Y132.634 E1.2752
G1 X114.453 Y132.560 E1.2972
G1 X113.970 Y132.535 E1.3196
G1 X113.495 Y132.560 E1.3416
; outer perimeter
G1 X113.533 Y132.970 F4800
G92 E0
G1 X113.309 Y133.000 E0.0104 F1150
G1 X112.881 Y133.091 E0.0307
G1 X112.463 Y133.227 E0.0510
G1 X112.060 Y133.406 E0.0714
G1 X111.679 Y133.626 E0.0918
G1 X111.323 Y133.885 E0.1121
G1 X110.997 Y134.178 E0.1324
G1 X110.827 Y134.359 E0.1439
G1 X110.702 Y134.506 E0.1528
G1 X110.442 Y134.863 E0.1732
G1 X110.224 Y135.242 E0.1934
G1 X110.126 Y135.445 E0.2039
G1 X109.970 Y135.854 E0.2241
G1 X109.856 Y136.279 E0.2445
G1 X109.787 Y136.714 E0.2648
G1 X109.764 Y137.154 E0.2852
G1 X109.787 Y137.593 E0.3056
G1 X109.856 Y138.028 E0.3259
G1 X109.970 Y138.453 E0.3463
G1 X110.127 Y138.864 E0.3667
G1 X110.324 Y139.251 E0.3867
G1 X110.444 Y139.447 E0.3973
G1 X110.701 Y139.801 E0.4176
G1 X110.996 Y140.128 E0.4379
G1 X111.323 Y140.422 E0.4583
G1 X111.679 Y140.681 E0.4786
G1 X112.058 Y140.900 E0.4989
G1 X112.463 Y141.080 E0.5194
G1 X112.881 Y141.216 E0.5397
G1 X113.312 Y141.308 E0.5601
G1 X113.750 Y141.354 E0.5805
G1 X114.187 Y141.354 E0.6007
G1 X114.412 Y141.336 E0.6111
G1 X114.845 Y141.268 E0.6314
G1 X115.270 Y141.154 E0.6517
G1 X115.681 Y140.996 E0.6721
G1 X116.073 Y140.796 E0.6925
G1 X116.442 Y140.556 E0.7128
G1 X116.785 Y140.279 E0.7332
G1 X117.094 Y139.970 E0.7534
G1 X117.240 Y139.798 E0.7638
G1 X117.498 Y139.444 E0.7841
G1 X117.718 Y139.063 E0.8044
G1 X117.897 Y138.661 E0.8248
G1 X118.032 Y138.245 E0.8450
G1 X118.085 Y138.025 E0.8555
G1 X118.153 Y137.593 E0.8757
G1 X118.176 Y137.154 E0.8961
G1 X118.153 Y136.714 E0.9164
G1 X118.085 Y136.282 E0.9367
G1 X118.032 Y136.062 E0.9471
G1 X117.897 Y135.646 E0.9674
G1 X117.718 Y135.244 E0.9877
G1 X117.498 Y134.863 E1.0081
G1 X117.239 Y134.506 E1.0284
G1 X116.944 Y134.179 E1.0488
G1 X116.617 Y133.885 E1.0692
G1 X116.264 Y133.628 E1.0894
G1 X115.883 Y133.407 E1.1097
G1 X115.481 Y133.228 E1.1301
G1 X115.065 Y133.092 E1.1503
G1 X114.842 Y133.039 E1.1609
G1 X114.410 Y132.970 E1.1812
G1 X113.970 Y132.947 E1.2015
G1 X113.533 Y132.970 E1.2218
G92 E0
G1 E-1.0000 F1800
; solid layer
G1 X118.813 Y136.048 F4800
G1 E0.0000 F1800
G92 E0
G1 X125.502 Y142.738 E0.4375 F1840
G1 X125.502 Y143.002 E0.4497
G1 X125.183 Y143.002 E0.4645
G1 X118.918 Y136.736 E0.8743
G1 X118.940 Y137.154 E0.8936
G1 X118.930 Y137.331 E0.9018
G1 X124.601 Y143.002 E1.2727
G1 X124.018 Y143.002 E1.2997
G1 X118.882 Y137.866 E1.6356
G1 X118.833 Y138.174 E1.6500
G1 X118.789 Y138.356 E1.6587
G1 X123.435 Y143.002 E1.9625
G1 X122.853 Y143.002 E1.9895
G1 X118.653 Y138.802 E2.2642
G1 X118.609 Y138.934 E2.2707
G1 X118.484 Y139.216 E2.2849
G1 X122.270 Y143.002 E2.5325
G1 X121.687 Y143.002 E2.5595
G1 X118.287 Y139.601 E2.7819
G1 X118.138 Y139.860 E2.7957
G1 X118.064 Y139.961 E2.8015
G1 X121.105 Y143.002 E3.0003
G1 X120.522 Y143.002 E3.0273
G1 X117.817 Y140.297 E3.2042
G1 X117.654 Y140.488 E3.2158
G1 X117.540 Y140.602 E3.2233
G1 X119.939 Y143.002 E3.3802
G1 X119.357 Y143.002 E3.4072
G1 X117.244 Y140.889 E3.5454
G1 X116.922 Y141.149 E3.5646
G1 X118.774 Y143.002 E3.6857
G1 X118.191 Y143.002 E3.7127
G1 X116.571 Y141.382 E3.8186
G1 X116.455 Y141.457 E3.8251
G1 X116.196 Y141.589 E3.8385
G1 X117.609 Y143.002 E3.9309
G1 X117.026 Y143.002 E3.9578
G1 X115.794 Y141.769 E4.0385
G1 X115.506 Y141.880 E4.0527
G1 X115.360 Y141.919 E4.0597
G1 X116.444 Y143.002 E4.1305
G1 X115.861 Y143.002 E4.1575
G1 X114.891 Y142.032 E4.2209
G1 X114.502 Y142.094 E4.2391
G1 X114.380 Y142.103 E4.2448
G1 X115.278 Y143.002 E4.3035
G1 X114.696 Y143.002 E4.3305
G1 X113.810 Y142.116 E4.3884
G1 X113.710 Y142.116 E4.3930
G1 X113.193 Y142.062 E4.4171
G1 X113.168 Y142.057 E4.4182
G1 X114.113 Y143.002 E4.4801
G1 X113.530 Y143.002 E4.5070
G1 X112.385 Y141.857 E4.5819
G1 X102.460 Y143.002 F4800
G92 E0
G1 X102.438 Y142.980 E0.0014 F1840
G1 X102.438 Y142.398 E0.0284
G1 X103.042 Y143.002 E0.0679
G1 X103.625 Y143.002 E0.0948
G1 X102.438 Y141.815 E0.1725
G1 X102.438 Y141.232 E0.1994
G1 X104.208 Y143.002 E0.3151
G1 X104.790 Y143.002 E0.3421
G1 X102.438 Y140.650 E0.4959
G1 X102.438 Y140.067 E0.5229
G1 X105.373 Y143.002 E0.7148
G1 X105.956 Y143.002 E0.7418
G1 X102.438 Y139.484 E0.9718
G1 X102.438 Y138.902 E0.9988
G1 X106.538 Y143.002 E1.2670
G1 X107.121 Y143.002 E1.2939
G1 X102.438 Y138.319 E1.6002
G1 X102.438 Y137.736 E1.6271
G1 X107.704 Y143.002 E1.9715
G1 X108.286 Y143.002 E1.9985
G1 X102.438 Y137.154 E2.3810
G1 X102.438 Y136.571 E2.4079
G1 X108.869 Y143.002 E2.8285
G1 X109.452 Y143.002 E2.8555
