; G-Code generated by Simplify3D(R) Version 4.0.0
; Jan 2, 2021 at 10:22:27 PM
; Settings Summary
;   processName,Process1
;   applyToModels,keychain_number_5
;   profileName,new profile (modified)
;   profileVersion,2020-09-07 14:01:24
;   baseProfile,Default (modified)
;   printMaterial,PLA
;   printQuality,Medium
;   printExtruders,
;   extruderName,Primary Extruder
;   extruderToolheadNumber,0
;   extruderDiameter,0.4
;   extruderAutoWidth,0
;   extruderWidth,0.4
;   extrusionMultiplier,0.9
;   extruderUseRetract,1
;   extruderRetractionDistance,1
;   extruderExtraRestartDistance,0
;   extruderRetractionZLift,0
;   extruderRetractionSpeed,1800
;   extruderUseCoasting,0
;   extruderCoastingDistance,0.2
;   extruderUseWipe,0
;   extruderWipeDistance,5
;   primaryExtruder,0
;   layerHeight,0.3
;   topSolidLayers,4
;   bottomSolidLayers,3
;   perimeterOutlines,2
;   printPerimetersInsideOut,1
;   startPointOption,2
;   startPointOriginX,0
;   startPointOriginY,0
;   sequentialIslands,0
;   spiralVaseMode,0
;   firstLayerHeightPercentage,90
;   firstLayerWidthPercentage,103
;   firstLayerUnderspeed,0.5
;   useRaft,0
;   raftExtruder,0
;   raftTopLayers,2
;   raftBaseLayers,2
;   raftOffset,1.4
;   raftSeparationDistance,0.14
;   raftTopInfill,100
;   aboveRaftSpeedMultiplier,0.3
;   useSkirt,0
;   skirtExtruder,0
;   skirtLayers,1
;   skirtOutlines,2
;   skirtOffset,4
;   usePrimePillar,0
;   primePillarExtruder,999
;   primePillarWidth,12
;   primePillarLocation,7
;   primePillarSpeedMultiplier,1
;   useOozeShield,0
;   oozeShieldExtruder,999
;   oozeShieldOffset,2
;   oozeShieldOutlines,1
;   oozeShieldSidewallShape,1
;   oozeShieldSidewallAngle,30
;   oozeShieldSpeedMultiplier,1
;   infillExtruder,0
;   internalInfillPattern,Rectilinear
;   externalInfillPattern,Rectilinear
;   infillPercentage,20
;   outlineOverlapPercentage,15
;   infillExtrusionWidthPercentage,100
;   minInfillLength,5
;   infillLayerInterval,1
;   internalInfillAngles,45,-45
;   overlapInternalInfillAngles,0
;   externalInfillAngles,45,-45
;   generateSupport,0
;   supportExtruder,0
;   supportInfillPercentage,30
;   supportExtraInflation,0
;   supportBaseLayers,0
;   denseSupportExtruder,0
;   denseSupportLayers,0
;   denseSupportInfillPercentage,70
;   supportLayerInterval,1
;   supportHorizontalPartOffset,0.3
;   supportUpperSeparationLayers,1
;   supportLowerSeparationLayers,1
;   supportType,0
;   supportGridSpacing,4
;   maxOverhangAngle,45
;   supportAngles,0
;   temperatureName,Primary Extruder,Hot Bed
;   temperatureNumber,0,1
;   temperatureSetpointCount,1,1
;   temperatureSetpointLayers,1,1
;   temperatureSetpointTemperatures,210,60
;   temperatureStabilizeAtStartup,1,0
;   temperatureHeatedBed,0,1
;   temperatureRelayBetweenLayers,0,0
;   temperatureRelayBetweenLoops,0,0
;   fanLayers,1,2
;   fanSpeeds,0,100
;   blipFanToFullPower,0
;   adjustSpeedForCooling,1
;   minSpeedLayerTime,15
;   minCoolingSpeedSlowdown,20
;   increaseFanForCooling,0
;   minFanLayerTime,45
;   maxCoolingFanSpeed,100
;   increaseFanForBridging,0
;   bridgingFanSpeed,100
;   use5D,1
;   relativeEdistances,0
;   allowEaxisZeroing,1
;   independentExtruderAxes,0
;   includeM10123,0
;   stickySupport,1
;   applyToolheadOffsets,0
;   gcodeXoffset,-0.03
;   gcodeYoffset,-0.03
;   gcodeZoffset,0
;   overrideMachineDefinition,0
;   machineTypeOverride,0
;   strokeXoverride,200
;   strokeYoverride,200
;   strokeZoverride,200
;   originOffsetXoverride,0
;   originOffsetYoverride,0
;   originOffsetZoverride,0
;   homeXdirOverride,-1
;   homeYdirOverride,-1
;   homeZdirOverride,-1
;   flipXoverride,1
;   flipYoverride,-1
;   flipZoverride,1
;   toolheadOffsets,0,0|0,0|0,0|0,0|0,0|0,0
;   overrideFirmwareConfiguration,0
;   firmwareTypeOverride,RepRap (Marlin/Repetier/Sprinter)
;   GPXconfigOverride,r2
;   baudRateOverride,115200
;   overridePrinterModels,0
;   printerModelsOverride
;   startingGcode,G28 ; home all axes,G1 X3 Y5 Z0.2 F3000 ; get ready to prime,G92 E0 ; reset extrusion distance,G1 Y150 E20 F600 ; prime nozzle
;   layerChangeGcode,
;   retractionGcode,
;   toolChangeGcode,
;   endingGcode,M104 S0 ; turn off extruder,M140 S0 ; turn off bedG1 X0 Y0; home,M84 ; disable motors,M107 ; fan off,G28 X Y; Home,M18; Disable steppers
;   exportFileFormat,gcode
;   celebration,0
;   celebrationSong,Random Song
;   postProcessing,
;   defaultSpeed,4600
;   outlineUnderspeed,0.5
;   solidInfillUnderspeed,0.8
;   supportUnderspeed,0.8
;   rapidXYspeed,4800
;   rapidZspeed,1000
;   minBridgingArea,50
;   bridgingExtraInflation,0
;   bridgingExtrusionMultiplier,1
;   bridgingSpeedMultiplier,1
;   useFixedBridgingAngle,0
;   fixedBridgingAngle,0
;   applyBridgingToPerimeters,0
;   filamentDiameters,1.75|1.75|1.75|1.75|1.75|1.75
;   filamentPricesPerKg,46|46|46|46|46|46
;   filamentDensities,1.25|1.25|1.25|1.25|1.25|1.25
;   useMinPrintHeight,0
;   minPrintHeight,0
;   useMaxPrintHeight,0
;   maxPrintHeight,0
;   useDiaphragm,0
;   diaphragmLayerInterval,20
;   robustSlicing,1
;   mergeAllIntoSolid,0
;   onlyRetractWhenCrossingOutline,1
;   retractBetweenLayers,1
;   useRetractionMinTravel,0
;   retractionMinTravel,3
;   retractWhileWiping,0
;   onlyWipeOutlines,1
;   avoidCrossingOutline,0
;   maxMovementDetourFactor,3
;   toolChangeRetractionDistance,12
;   toolChangeExtraRestartDistance,-0.5
;   toolChangeRetractionSpeed,600
;   externalThinWallType,0
;   internalThinWallType,0
;   thinWallAllowedOverlapPercentage,8
;   singleExtrusionMinLength,1
;   singleExtrusionMinPrintingWidthPercentage,50
;   singleExtrusionMaxPrintingWidthPercentage,200
;   singleExtrusionEndpointExtension,0.2
;   horizontalSizeCompensation,0
G90
M82
M106 S0
M140 S60
M104 S210 T0
M109 S210 T0
G28 ; home all axes
G1 X3 Y5 Z0.2 F3000 ; get ready to prime
G92 E0 ; reset extrusion distance
G1 Y150 E20 F600 ; prime nozzle
G92 E0
G1 E-1.0000 F1800
G1 Z0.270 F1000
; process Process1
; layer 1, Z = 0.270
T0
; tool H0.300 W0.412
; inner perimeter
G1 X102.098 Y94.588 F4800
G1 E0.0000 F540
G92 E0
G1 X125.842 Y94.588 E1.0981 F1725
G1 X125.842 Y143.352 E3.3534
G1 X102.098 Y143.352 E4.4515
G1 X102.098 Y94.588 E6.7067
; outer perimeter
G1 X101.686 Y94.176 F4800
G92 E0
G1 X126.254 Y94.176 E1.1362 F1150
G1 X126.254 Y143.764 E3.4296
G1 X101.686 Y143.764 E4.5658
G1 X101.686 Y94.176 E6.8592
; inner perimeter
G1 X110.162 Y97.857 F4800
G92 E0
G1 X110.162 Y97.904 E0.0022 F1725
G1 X110.130 Y97.968 E0.0055
G1 X109.977 Y98.403 E0.0268
G1 X109.974 Y98.422 E0.0277
G1 X109.952 Y98.444 E0.0292
G1 X109.911 Y98.785 E0.0450
G1 X109.862 Y98.834 E0.0482
G1 X109.862 Y99.292 E0.0694
G1 X109.823 Y99.378 E0.0738
G1 X109.862 Y99.651 E0.0865
G1 X109.862 Y99.887 E0.0975
G1 X109.981 Y100.530 E0.1277
G1 X110.193 Y101.121 E0.1567
G1 X110.242 Y101.209 E0.1614
G1 X110.242 Y101.268 E0.1641
G1 X110.632 Y101.883 E0.1978
G1 X110.886 Y102.213 E0.2171
G1 X110.984 Y102.298 E0.2230
G1 X110.994 Y102.318 E0.2241
G1 X111.211 Y102.535 E0.2383
G1 X111.718 Y102.927 E0.2679
G1 X112.095 Y103.139 E0.2880
G1 X112.544 Y103.348 E0.3108
G1 X112.593 Y103.348 E0.3131
G1 X112.667 Y103.380 E0.3168
G1 X112.730 Y103.394 E0.3198
G1 X112.760 Y103.424 E0.3218
G1 X113.101 Y103.485 E0.3378
G1 X113.149 Y103.533 E0.3409
G1 X113.489 Y103.553 E0.3567
G1 X113.524 Y103.588 E0.3590
G1 X114.416 Y103.588 E0.4002
G1 X114.451 Y103.553 E0.4025
G1 X114.606 Y103.544 E0.4097
G1 X115.190 Y103.414 E0.4373
G1 X115.219 Y103.385 E0.4393
G1 X115.419 Y103.331 E0.4488
G1 X115.508 Y103.287 E0.4534
G1 X115.560 Y103.286 E0.4559
G1 X116.218 Y102.930 E0.4905
G1 X116.729 Y102.535 E0.5203
G1 X117.065 Y102.199 E0.5423
G1 X117.307 Y101.885 E0.5606
G1 X117.698 Y101.269 E0.5944
G1 X117.698 Y101.210 E0.5971
G1 X117.744 Y101.127 E0.6015
G1 X117.963 Y100.521 E0.6313
G1 X117.978 Y100.414 E0.6363
G1 X118.001 Y100.367 E0.6387
G1 X118.041 Y100.049 E0.6535
G1 X118.078 Y99.971 E0.6575
G1 X118.078 Y99.039 E0.7006
G1 X118.007 Y98.612 E0.7206
G1 X117.951 Y98.359 E0.7326
G1 X117.882 Y98.200 E0.7406
G1 X117.821 Y97.995 E0.7505
G1 X117.629 Y97.565 E0.7723
G1 X117.414 Y97.205 E0.7917
G1 X117.069 Y96.745 E0.8183
G1 X116.741 Y96.417 E0.8398
G1 X116.429 Y96.153 E0.8586
G1 X116.126 Y95.963 E0.8752
G1 X116.048 Y95.887 E0.8802
G1 X115.717 Y95.745 E0.8968
G1 X115.638 Y95.693 E0.9012
G1 X115.413 Y95.613 E0.9123
G1 X115.367 Y95.570 E0.9152
G1 X114.775 Y95.422 E0.9434
G1 X114.223 Y95.353 E0.9691
G1 X113.746 Y95.352 E0.9912
G1 X113.172 Y95.420 E1.0179
G1 X112.696 Y95.539 E1.0406
G1 X112.482 Y95.619 E1.0512
G1 X111.934 Y95.871 E1.0791
G1 X111.690 Y96.041 E1.0928
G1 X111.557 Y96.130 E1.1003
G1 X111.199 Y96.415 E1.1214
G1 X110.995 Y96.637 E1.1353
G1 X110.910 Y96.695 E1.1401
G1 X110.638 Y97.050 E1.1608
G1 X110.410 Y97.390 E1.1798
G1 X110.162 Y97.857 E1.2042
; outer perimeter
G1 X110.574 Y97.960 F4800
G92 E0
G1 X110.574 Y98.001 E0.0019 F1150
G1 X110.510 Y98.129 E0.0085
G1 X110.380 Y98.500 E0.0267
G1 X110.364 Y98.614 E0.0320
G1 X110.344 Y98.635 E0.0334
G1 X110.303 Y98.975 E0.0492
G1 X110.274 Y99.005 E0.0512
G1 X110.274 Y99.381 E0.0686
G1 X110.248 Y99.439 E0.0715
G1 X110.273 Y99.621 E0.0800
G1 X110.274 Y99.849 E0.0906
G1 X110.380 Y100.422 E0.1175
G1 X110.570 Y100.951 E0.1435
G1 X110.654 Y101.103 E0.1515
G1 X110.654 Y101.149 E0.1537
G1 X110.969 Y101.646 E0.1809
G1 X111.187 Y101.929 E0.1974
G1 X111.314 Y102.038 E0.2051
G1 X111.331 Y102.073 E0.2069
G1 X111.484 Y102.225 E0.2169
G1 X111.946 Y102.582 E0.2439
G1 X112.284 Y102.772 E0.2618
G1 X112.635 Y102.936 E0.2798
G1 X112.678 Y102.936 E0.2817
G1 X112.794 Y102.986 E0.2876
G1 X112.937 Y103.018 E0.2944
G1 X112.960 Y103.041 E0.2959
G1 X113.301 Y103.102 E0.3119
G1 X113.330 Y103.131 E0.3138
G1 X113.670 Y103.151 E0.3295
G1 X113.695 Y103.176 E0.3311
G1 X114.245 Y103.176 E0.3566
G1 X114.270 Y103.151 E0.3582
G1 X114.549 Y103.135 E0.3711
G1 X114.983 Y103.038 E0.3917
G1 X115.006 Y103.015 E0.3932
G1 X115.272 Y102.944 E0.4059
G1 X115.408 Y102.876 E0.4130
G1 X115.453 Y102.875 E0.4151
G1 X115.993 Y102.583 E0.4435
G1 X116.456 Y102.225 E0.4705
G1 X116.755 Y101.927 E0.4900
G1 X116.969 Y101.648 E0.5063
G1 X117.286 Y101.149 E0.5337
G1 X117.286 Y101.103 E0.5358
G1 X117.368 Y100.956 E0.5436
G1 X117.561 Y100.420 E0.5699
G1 X117.579 Y100.292 E0.5759
G1 X117.600 Y100.249 E0.5781
G1 X117.640 Y99.931 E0.5929
G1 X117.666 Y99.877 E0.5957
G1 X117.666 Y99.073 E0.6329
G1 X117.602 Y98.691 E0.6508
G1 X117.557 Y98.486 E0.6605
G1 X117.494 Y98.341 E0.6678
G1 X117.434 Y98.138 E0.6776
G1 X117.263 Y97.755 E0.6970
G1 X117.071 Y97.435 E0.7142
G1 X116.757 Y97.016 E0.7385
G1 X116.461 Y96.720 E0.7578
G1 X116.185 Y96.486 E0.7746
G1 X115.871 Y96.289 E0.7917
G1 X115.816 Y96.236 E0.7952
G1 X115.522 Y96.109 E0.8101
G1 X115.454 Y96.065 E0.8138
G1 X115.192 Y95.971 E0.8267
G1 X115.162 Y95.943 E0.8285
G1 X114.699 Y95.828 E0.8506
G1 X114.197 Y95.765 E0.8740
G1 X113.771 Y95.764 E0.8938
G1 X113.247 Y95.826 E0.9182
G1 X112.819 Y95.933 E0.9386
G1 X112.641 Y96.000 E0.9473
G1 X112.139 Y96.230 E0.9729
G1 X111.922 Y96.381 E0.9851
G1 X111.800 Y96.462 E0.9919
G1 X111.481 Y96.717 E1.0108
G1 X111.267 Y96.950 E1.0254
G1 X111.197 Y96.998 E1.0293
G1 X110.973 Y97.290 E1.0463
G1 X110.764 Y97.602 E1.0637
G1 X110.574 Y97.960 E1.0824
G92 E0
G1 E-1.0000 F1800
; inner perimeter
G1 X113.735 Y132.552 F4800
G1 E0.0000 F1800
G92 E0
G1 X113.250 Y132.598 E0.0225 F1725
G1 X112.790 Y132.690 E0.0442
G1 X112.532 Y132.767 E0.0567
G1 X111.884 Y133.035 E0.0891
G1 X111.489 Y133.267 E0.1103
G1 X111.102 Y133.541 E0.1322
G1 X110.730 Y133.865 E0.1551
G1 X110.515 Y134.103 E0.1699
G1 X110.122 Y134.562 E0.1978
G1 X110.122 Y134.604 E0.1998
G1 X110.108 Y134.624 E0.2009
G1 X109.964 Y134.862 E0.2138
G1 X109.753 Y135.260 E0.2346
G1 X109.641 Y135.579 E0.2502
G1 X109.610 Y135.611 E0.2523
G1 X109.502 Y135.974 E0.2698
G1 X109.409 Y136.411 E0.2905
G1 X109.363 Y136.895 E0.3130
G1 X109.362 Y137.691 E0.3498
G1 X109.402 Y137.773 E0.3540
G1 X109.453 Y138.132 E0.3708
G1 X109.570 Y138.576 E0.3920
G1 X109.731 Y139.014 E0.4136
G1 X109.962 Y139.477 E0.4375
G1 X110.002 Y139.536 E0.4408
G1 X110.002 Y139.598 E0.4436
G1 X110.239 Y139.874 E0.4605
G1 X110.339 Y140.035 E0.4692
G1 X110.524 Y140.248 E0.4823
G1 X110.738 Y140.462 E0.4963
G1 X111.371 Y141.008 E0.5349
G1 X111.428 Y141.008 E0.5376
G1 X111.615 Y141.137 E0.5481
G1 X111.884 Y141.283 E0.5622
G1 X112.290 Y141.464 E0.5828
G1 X112.758 Y141.628 E0.6057
G1 X113.487 Y141.765 E0.6400
G1 X113.976 Y141.790 E0.6627
G1 X114.189 Y141.768 E0.6726
G1 X114.426 Y141.768 E0.6836
G1 X115.074 Y141.670 E0.7138
G1 X115.100 Y141.643 E0.7156
G1 X115.180 Y141.629 E0.7193
G1 X115.833 Y141.396 E0.7514
G1 X116.101 Y141.248 E0.7655
G1 X116.177 Y141.248 E0.7691
G1 X116.842 Y140.777 E0.8068
G1 X117.208 Y140.457 E0.8293
G1 X117.583 Y140.059 E0.8545
G1 X117.974 Y139.484 E0.8867
G1 X118.186 Y139.061 E0.9086
G1 X118.365 Y138.589 E0.9319
G1 X118.439 Y138.343 E0.9438
G1 X118.532 Y137.904 E0.9646
G1 X118.578 Y137.398 E0.9880
G1 X118.578 Y136.921 E1.0101
G1 X118.532 Y136.440 E1.0325
G1 X118.440 Y135.980 E1.0541
G1 X118.327 Y135.603 E1.0723
G1 X118.300 Y135.576 E1.0741
G1 X118.211 Y135.308 E1.0872
G1 X117.972 Y134.854 E1.1109
G1 X117.938 Y134.803 E1.1137
G1 X117.938 Y134.768 E1.1153
G1 X117.583 Y134.284 E1.1431
G1 X117.260 Y133.914 E1.1658
G1 X116.866 Y133.566 E1.1901
G1 X116.179 Y133.072 E1.2293
G1 X116.102 Y133.072 E1.2328
G1 X115.781 Y132.892 E1.2499
G1 X115.696 Y132.892 E1.2538
G1 X115.559 Y132.839 E1.2606
G1 X115.519 Y132.800 E1.2631
G1 X115.154 Y132.691 E1.2808
G1 X114.695 Y132.599 E1.3024
G1 X114.236 Y132.553 E1.3237
G1 X113.735 Y132.552 E1.3469
; outer perimeter
G1 X113.754 Y132.964 F4800
G92 E0
G1 X113.310 Y133.006 E0.0206 F1150
G1 X112.890 Y133.090 E0.0404
G1 X112.671 Y133.156 E0.0510
G1 X112.068 Y133.405 E0.0812
G1 X111.713 Y133.614 E0.1003
G1 X111.356 Y133.865 E0.1204
G1 X111.019 Y134.160 E0.1411
G1 X110.824 Y134.375 E0.1546
G1 X110.534 Y134.714 E0.1752
G1 X110.534 Y134.741 E0.1765
G1 X110.450 Y134.854 E0.1830
G1 X110.323 Y135.065 E0.1944
G1 X110.131 Y135.426 E0.2133
G1 X110.001 Y135.799 E0.2315
G1 X109.977 Y135.824 E0.2331
G1 X109.901 Y136.076 E0.2453
G1 X109.817 Y136.474 E0.2641
G1 X109.775 Y136.915 E0.2846
G1 X109.774 Y137.596 E0.3161
G1 X109.801 Y137.651 E0.3189
G1 X109.858 Y138.050 E0.3376
G1 X109.963 Y138.452 E0.3568
G1 X110.110 Y138.850 E0.3764
G1 X110.320 Y139.270 E0.3981
G1 X110.414 Y139.412 E0.4060
G1 X110.414 Y139.446 E0.4075
G1 X110.571 Y139.630 E0.4188
G1 X110.671 Y139.789 E0.4274
G1 X110.826 Y139.967 E0.4383
G1 X111.019 Y140.160 E0.4510
G1 X111.524 Y140.596 E0.4818
G1 X111.556 Y140.596 E0.4833
G1 X111.831 Y140.785 E0.4987
G1 X112.066 Y140.914 E0.5112
G1 X112.442 Y141.081 E0.5302
G1 X112.865 Y141.229 E0.5509
G1 X113.536 Y141.355 E0.5825
G1 X113.965 Y141.376 E0.6023
G1 X114.169 Y141.356 E0.6118
G1 X114.395 Y141.356 E0.6223
G1 X114.878 Y141.283 E0.6449
G1 X114.900 Y141.261 E0.6463
G1 X115.073 Y141.230 E0.6544
G1 X115.663 Y141.019 E0.6834
G1 X115.994 Y140.836 E0.7009
G1 X116.046 Y140.836 E0.7033
G1 X116.587 Y140.453 E0.7340
G1 X116.922 Y140.160 E0.7545
G1 X117.261 Y139.800 E0.7774
G1 X117.618 Y139.274 E0.8068
G1 X117.808 Y138.895 E0.8264
G1 X117.975 Y138.456 E0.8481
G1 X118.040 Y138.241 E0.8585
G1 X118.123 Y137.842 E0.8774
G1 X118.166 Y137.379 E0.8989
G1 X118.166 Y136.940 E0.9192
G1 X118.124 Y136.500 E0.9396
G1 X118.040 Y136.080 E0.9594
G1 X117.962 Y135.821 E0.9719
G1 X117.941 Y135.799 E0.9734
G1 X117.831 Y135.471 E0.9894
G1 X117.617 Y135.065 E1.0106
G1 X117.526 Y134.928 E1.0182
G1 X117.526 Y134.903 E1.0193
G1 X117.261 Y134.542 E1.0400
G1 X116.967 Y134.205 E1.0607
G1 X116.609 Y133.889 E1.0828
G1 X116.046 Y133.484 E1.1149
G1 X115.995 Y133.484 E1.1173
G1 X115.673 Y133.304 E1.1343
G1 X115.619 Y133.304 E1.1368
G1 X115.334 Y133.193 E1.1510
G1 X115.306 Y133.167 E1.1527
G1 X115.054 Y133.091 E1.1649
G1 X114.634 Y133.007 E1.1847
G1 X114.215 Y132.965 E1.2042
G1 X113.754 Y132.964 E1.2255
G92 E0
G1 E-1.0000 F1800
; solid layer
G1 X118.811 Y136.046 F4800
G1 E0.0000 F1800
G92 E0
G1 X125.492 Y142.728 E0.4370 F1840
G1 X125.492 Y143.002 E0.4497
G1 X125.183 Y143.002 E0.4639
G1 X118.912 Y136.730 E0.8741
G1 X118.928 Y136.904 E0.8822
G1 X118.928 Y137.329 E0.9019
