; G-Code generated by Simplify3D(R) Version 4.0.0
; Nov 6, 2020 at 8:59:49 AM
; Settings Summary
;   processName,Process1
;   applyToModels,knob
;   profileName,new profile (modified)
;   profileVersion,2020-09-07 14:01:24
;   baseProfile,Default (modified)
;   printMaterial,PLA
;   printQuality,Medium
;   printExtruders,
;   extruderName,Primary Extruder
;   extruderToolheadNumber,0
;   extruderDiameter,0.4
;   extruderAutoWidth,0
;   extruderWidth,0.4
;   extrusionMultiplier,0.9
;   extruderUseRetract,1
;   extruderRetractionDistance,1
;   extruderExtraRestartDistance,0
;   extruderRetractionZLift,0
;   extruderRetractionSpeed,1800
;   extruderUseCoasting,0
;   extruderCoastingDistance,0.2
;   extruderUseWipe,0
;   extruderWipeDistance,5
;   primaryExtruder,0
;   layerHeight,0.3
;   topSolidLayers,3
;   bottomSolidLayers,3
;   perimeterOutlines,2
;   printPerimetersInsideOut,1
;   startPointOption,2
;   startPointOriginX,0
;   startPointOriginY,0
;   sequentialIslands,0
;   spiralVaseMode,0
;   firstLayerHeightPercentage,100
;   firstLayerWidthPercentage,103
;   firstLayerUnderspeed,0.5
;   useRaft,0
;   raftExtruder,0
;   raftTopLayers,3
;   raftBaseLayers,2
;   raftOffset,3
;   raftSeparationDistance,0.14
;   raftTopInfill,100
;   aboveRaftSpeedMultiplier,0.3
;   useSkirt,0
;   skirtExtruder,0
;   skirtLayers,1
;   skirtOutlines,2
;   skirtOffset,4
;   usePrimePillar,0
;   primePillarExtruder,999
;   primePillarWidth,12
;   primePillarLocation,7
;   primePillarSpeedMultiplier,1
;   useOozeShield,0
;   oozeShieldExtruder,999
;   oozeShieldOffset,2
;   oozeShieldOutlines,1
;   oozeShieldSidewallShape,1
;   oozeShieldSidewallAngle,30
;   oozeShieldSpeedMultiplier,1
;   infillExtruder,0
;   internalInfillPattern,Rectilinear
;   externalInfillPattern,Rectilinear
;   infillPercentage,100
;   outlineOverlapPercentage,15
;   infillExtrusionWidthPercentage,100
;   minInfillLength,5
;   infillLayerInterval,1
;   internalInfillAngles,45,-45
;   overlapInternalInfillAngles,0
;   externalInfillAngles,45,-45
;   generateSupport,0
;   supportExtruder,0
;   supportInfillPercentage,30
;   supportExtraInflation,0
;   supportBaseLayers,0
;   denseSupportExtruder,0
;   denseSupportLayers,0
;   denseSupportInfillPercentage,70
;   supportLayerInterval,1
;   supportHorizontalPartOffset,0.3
;   supportUpperSeparationLayers,1
;   supportLowerSeparationLayers,1
;   supportType,1
;   supportGridSpacing,4
;   maxOverhangAngle,45
;   supportAngles,0
;   temperatureName,Primary Extruder,Hot Bed
;   temperatureNumber,0,1
;   temperatureSetpointCount,1,1
;   temperatureSetpointLayers,1,1
;   temperatureSetpointTemperatures,210,60
;   temperatureStabilizeAtStartup,1,0
;   temperatureHeatedBed,0,1
;   temperatureRelayBetweenLayers,0,0
;   temperatureRelayBetweenLoops,0,0
;   fanLayers,1,2
;   fanSpeeds,0,100
;   blipFanToFullPower,0
;   adjustSpeedForCooling,1
;   minSpeedLayerTime,15
;   minCoolingSpeedSlowdown,20
;   increaseFanForCooling,0
;   minFanLayerTime,45
;   maxCoolingFanSpeed,100
;   increaseFanForBridging,0
;   bridgingFanSpeed,100
;   use5D,1
;   relativeEdistances,0
;   allowEaxisZeroing,1
;   independentExtruderAxes,0
;   includeM10123,0
;   stickySupport,1
;   applyToolheadOffsets,0
;   gcodeXoffset,0
;   gcodeYoffset,0
;   gcodeZoffset,0
;   overrideMachineDefinition,0
;   machineTypeOverride,0
;   strokeXoverride,200
;   strokeYoverride,200
;   strokeZoverride,200
;   originOffsetXoverride,0
;   originOffsetYoverride,0
;   originOffsetZoverride,0
;   homeXdirOverride,-1
;   homeYdirOverride,-1
;   homeZdirOverride,-1
;   flipXoverride,1
;   flipYoverride,-1
;   flipZoverride,1
;   toolheadOffsets,0,0|0,0|0,0|0,0|0,0|0,0
;   overrideFirmwareConfiguration,0
;   firmwareTypeOverride,RepRap (Marlin/Repetier/Sprinter)
;   GPXconfigOverride,r2
;   baudRateOverride,115200
;   overridePrinterModels,0
;   printerModelsOverride
;   startingGcode,G28 ; home all axes,G1 X0 Y5 Z0.2 F3000 ; get ready to prime,G92 E0 ; reset extrusion distance,G1 Y150 E20 F600 ; prime nozzle
;   layerChangeGcode,
;   retractionGcode,
;   toolChangeGcode,
;   endingGcode,M104 S0 ; turn off extruder,M140 S0 ; turn off bedG1 X0 Y0; home,M84 ; disable motors,M107 ; fan off,G28 X Y; Home,M18; Disable steppers
;   exportFileFormat,gcode
;   celebration,0
;   celebrationSong,Random Song
;   postProcessing,
;   defaultSpeed,4600
;   outlineUnderspeed,0.5
;   solidInfillUnderspeed,0.8
;   supportUnderspeed,0.8
;   rapidXYspeed,4800
;   rapidZspeed,1000
;   minBridgingArea,50
;   bridgingExtraInflation,0
;   bridgingExtrusionMultiplier,1
;   bridgingSpeedMultiplier,1
;   useFixedBridgingAngle,0
;   fixedBridgingAngle,0
;   applyBridgingToPerimeters,0
;   filamentDiameters,1.75|1.75|1.75|1.75|1.75|1.75
;   filamentPricesPerKg,46|46|46|46|46|46
;   filamentDensities,1.25|1.25|1.25|1.25|1.25|1.25
;   useMinPrintHeight,0
;   minPrintHeight,0
;   useMaxPrintHeight,0
;   maxPrintHeight,0
;   useDiaphragm,0
;   diaphragmLayerInterval,20
;   robustSlicing,1
;   mergeAllIntoSolid,0
;   onlyRetractWhenCrossingOutline,1
;   retractBetweenLayers,1
;   useRetractionMinTravel,0
;   retractionMinTravel,3
;   retractWhileWiping,0
;   onlyWipeOutlines,1
;   avoidCrossingOutline,0
;   maxMovementDetourFactor,3
;   toolChangeRetractionDistance,12
;   toolChangeExtraRestartDistance,-0.5
;   toolChangeRetractionSpeed,600
;   externalThinWallType,1
;   internalThinWallType,1
;   thinWallAllowedOverlapPercentage,10
;   singleExtrusionMinLength,1
;   singleExtrusionMinPrintingWidthPercentage,50
;   singleExtrusionMaxPrintingWidthPercentage,200
;   singleExtrusionEndpointExtension,0.2
;   horizontalSizeCompensation,0
G90
M82
M106 S0
M140 S60
M104 S210 T0
M109 S210 T0
G28 ; home all axes
G1 X0 Y5 Z0.2 F3000 ; get ready to prime
G92 E0 ; reset extrusion distance
G1 Y150 E20 F600 ; prime nozzle
G92 E0
G1 E-1.0000 F1800
G1 Z0.300 F1000
; process Process1
; layer 1, Z = 0.300
T0
; tool H0.300 W0.412
; inner perimeter
G1 X103.980 Y110.309 F4800
G1 E0.0000 F540
G92 E0
G1 X104.164 Y110.101 E0.0128 F1725
G1 X104.408 Y110.205 E0.0251
G1 X104.742 Y110.267 E0.0408
G1 X105.081 Y110.257 E0.0565
G1 X105.411 Y110.175 E0.0722
G1 X105.715 Y110.024 E0.0879
G1 X105.966 Y109.824 E0.1027
G1 X106.104 Y109.671 E0.1122
G1 X106.279 Y109.401 E0.1272
G1 X106.398 Y109.083 E0.1429
G1 X106.447 Y108.747 E0.1586
G1 X106.423 Y108.408 E0.1743
G1 X106.351 Y108.163 E0.1861
G1 X106.579 Y108.006 E0.1989
G1 X106.792 Y108.165 E0.2111
G1 X107.101 Y108.305 E0.2268
G1 X107.433 Y108.377 E0.2425
G1 X107.773 Y108.376 E0.2582
G1 X108.103 Y108.302 E0.2739
G1 X108.396 Y108.168 E0.2888
G1 X108.566 Y108.053 E0.2983
G1 X108.801 Y107.832 E0.3132
G1 X108.993 Y107.552 E0.3289
G1 X109.120 Y107.237 E0.3446
G1 X109.178 Y106.903 E0.3603
G1 X109.167 Y106.648 E0.3721
G1 X109.426 Y106.550 E0.3849
G1 X109.594 Y106.755 E0.3972
G1 X109.861 Y106.965 E0.4129
G1 X110.166 Y107.114 E0.4286
G1 X110.496 Y107.194 E0.4443
G1 X110.835 Y107.202 E0.4600
G1 X111.151 Y107.142 E0.4749
G1 X111.344 Y107.070 E0.4844
G1 X111.624 Y106.912 E0.4993
G1 X111.878 Y106.686 E0.5150
G1 X112.077 Y106.411 E0.5307
G1 X112.213 Y106.100 E0.5464
G1 X112.264 Y105.850 E0.5582
G1 X112.538 Y105.817 E0.5710
G1 X112.653 Y106.056 E0.5833
G1 X112.861 Y106.324 E0.5990
G1 X113.122 Y106.542 E0.6147
G1 X113.423 Y106.699 E0.6304
G1 X113.750 Y106.788 E0.6461
G1 X114.072 Y106.804 E0.6609
G1 X114.276 Y106.781 E0.6704
G1 X114.586 Y106.695 E0.6853
G1 X114.886 Y106.536 E0.7010
G1 X115.146 Y106.317 E0.7168
G1 X115.353 Y106.047 E0.7325
G1 X115.461 Y105.817 E0.7442
G1 X115.736 Y105.850 E0.7570
G1 X115.790 Y106.110 E0.7693
G1 X115.928 Y106.420 E0.7850
G1 X116.129 Y106.694 E0.8007
G1 X116.384 Y106.918 E0.8164
G1 X116.680 Y107.083 E0.8321
G1 X116.988 Y107.176 E0.8470
G1 X117.192 Y107.202 E0.8565
G1 X117.514 Y107.193 E0.8714
G1 X117.843 Y107.110 E0.8871
G1 X118.148 Y106.960 E0.9028
G1 X118.413 Y106.747 E0.9185
G1 X118.574 Y106.549 E0.9303
G1 X118.832 Y106.648 E0.9431
G1 X118.822 Y106.913 E0.9554
G1 X118.882 Y107.247 E0.9711
G1 X119.012 Y107.561 E0.9868
G1 X119.206 Y107.840 E1.0025
G1 X119.454 Y108.070 E1.0182
G1 X119.731 Y108.235 E1.0331
G1 X119.922 Y108.309 E1.0426
G1 X120.238 Y108.377 E1.0575
G1 X120.577 Y108.376 E1.0732
G1 X120.909 Y108.302 E1.0889
G1 X121.217 Y108.160 E1.1046
G1 X121.420 Y108.006 E1.1164
G1 X121.648 Y108.163 E1.1292
G1 X121.575 Y108.418 E1.1414
G1 X121.553 Y108.757 E1.1572
G1 X121.604 Y109.093 E1.1729
G1 X121.726 Y109.410 E1.1886
G1 X121.911 Y109.693 E1.2042
G1 X122.141 Y109.919 E1.2191
G1 X122.309 Y110.037 E1.2286
G1 X122.599 Y110.178 E1.2435
G1 X122.929 Y110.258 E1.2592
G1 X123.268 Y110.266 E1.2749
G1 X123.602 Y110.202 E1.2907
G1 X123.836 Y110.101 E1.3024
G1 X124.019 Y110.308 E1.3152
G1 X123.887 Y110.538 E1.3275
G1 X123.785 Y110.862 E1.3432
G1 X123.754 Y111.200 E1.3589
G1 X123.796 Y111.537 E1.3746
G1 X123.909 Y111.857 E1.3903
G1 X124.077 Y112.131 E1.4052
G1 X124.212 Y112.286 E1.4147
G1 X124.460 Y112.492 E1.4296
G1 X124.761 Y112.649 E1.4453
G1 X125.089 Y112.738 E1.4610
G1 X125.428 Y112.755 E1.4767
G1 X125.680 Y112.713 E1.4885
G1 X125.808 Y112.958 E1.5013
G1 X125.625 Y113.150 E1.5136
G1 X125.448 Y113.440 E1.5293
G1 X125.337 Y113.761 E1.5450
G1 X125.297 Y114.099 E1.5607
G1 X125.330 Y114.436 E1.5764
G1 X125.428 Y114.742 E1.5913
G1 X125.522 Y114.925 E1.6008
G1 X125.713 Y115.185 E1.6157
G1 X125.968 Y115.409 E1.6314
G1 X126.265 Y115.574 E1.6471
G1 X126.591 Y115.672 E1.6628
G1 X126.845 Y115.691 E1.6746
G1 X126.911 Y115.960 E1.6874
G1 X126.687 Y116.102 E1.6996
G1 X126.446 Y116.342 E1.7153
G1 X126.262 Y116.627 E1.7311
G1 X126.142 Y116.945 E1.7468
G1 X126.093 Y117.280 E1.7624
G1 X126.115 Y117.601 E1.7773
G1 X126.163 Y117.801 E1.7868
G1 X126.286 Y118.099 E1.8017
G1 X126.480 Y118.378 E1.8174
G1 X126.729 Y118.609 E1.8331
G1 X127.021 Y118.781 E1.8488
G1 X127.263 Y118.861 E1.8606
G1 X127.263 Y119.138 E1.8734
G1 X127.012 Y119.223 E1.8857
G1 X126.721 Y119.397 E1.9014
G1 X126.473 Y119.630 E1.9171
G1 X126.281 Y119.910 E1.9328
G1 X126.154 Y120.224 E1.9485
G1 X126.098 Y120.541 E1.9634
G1 X126.096 Y120.746 E1.9729
G1 X126.145 Y121.065 E1.9878
G1 X126.266 Y121.382 E2.0035
G1 X126.453 Y121.666 E2.0192
G1 X126.695 Y121.904 E2.0349
G1 X126.911 Y122.039 E2.0467
G1 X126.845 Y122.308 E2.0595
G1 X126.581 Y122.330 E2.0718
G1 X126.256 Y122.430 E2.0875
G1 X125.960 Y122.597 E2.1032
G1 X125.706 Y122.823 E2.1189
G1 X125.507 Y123.097 E2.1346
G1 X125.378 Y123.392 E2.1495
G1 X125.327 Y123.590 E2.1589
G1 X125.298 Y123.912 E2.1739
G1 X125.340 Y124.249 E2.1896
G1 X125.453 Y124.569 E2.2053
G1 X125.631 Y124.858 E2.2210
G1 X125.809 Y125.041 E2.2328
G1 X125.680 Y125.286 E2.2456
G1 X125.418 Y125.244 E2.2578
G1 X125.079 Y125.263 E2.2735
G1 X124.752 Y125.355 E2.2892
G1 X124.452 Y125.513 E2.3050
G1 X124.193 Y125.732 E2.3206
G1 X123.996 Y125.987 E2.3355
G1 X123.899 Y126.168 E2.3450
G1 X123.794 Y126.473 E2.3599
G1 X123.754 Y126.810 E2.3756
G1 X123.787 Y127.148 E2.3913
G1 X123.891 Y127.471 E2.4070
G1 X124.020 Y127.691 E2.4188
G1 X123.836 Y127.899 E2.4316
G1 X123.592 Y127.795 E2.4439
G1 X123.258 Y127.733 E2.4596
G1 X122.919 Y127.743 E2.4753
G1 X122.589 Y127.825 E2.4910
G1 X122.285 Y127.976 E2.5067
G1 X122.033 Y128.176 E2.5216
G1 X121.896 Y128.329 E2.5311
G1 X121.721 Y128.599 E2.5460
G1 X121.602 Y128.917 E2.5617
G1 X121.553 Y129.253 E2.5774
G1 X121.577 Y129.592 E2.5931
G1 X121.649 Y129.837 E2.6049
G1 X121.421 Y129.994 E2.6177
G1 X121.208 Y129.835 E2.6300
G1 X120.899 Y129.695 E2.6457
G1 X120.567 Y129.623 E2.6614
G1 X120.228 Y129.624 E2.6771
G1 X119.896 Y129.698 E2.6928
G1 X119.604 Y129.832 E2.7076
G1 X119.434 Y129.947 E2.7171
G1 X119.199 Y130.168 E2.7320
G1 X119.007 Y130.448 E2.7478
G1 X118.880 Y130.763 E2.7635
G1 X118.822 Y131.097 E2.7792
G1 X118.833 Y131.352 E2.7910
G1 X118.574 Y131.450 E2.8038
G1 X118.406 Y131.245 E2.8160
G1 X118.139 Y131.035 E2.8317
G1 X117.834 Y130.886 E2.8474
G1 X117.504 Y130.806 E2.8631
G1 X117.165 Y130.798 E2.8788
G1 X116.849 Y130.858 E2.8937
G1 X116.656 Y130.929 E2.9032
G1 X116.376 Y131.088 E2.9181
G1 X116.122 Y131.314 E2.9338
G1 X115.923 Y131.589 E2.9495
G1 X115.787 Y131.900 E2.9652
G1 X115.736 Y132.150 E2.9770
G1 X115.462 Y132.183 E2.9898
G1 X115.347 Y131.944 E3.0021
G1 X115.139 Y131.676 E3.0178
G1 X114.878 Y131.458 E3.0335
G1 X114.577 Y131.301 E3.0492
G1 X114.250 Y131.212 E3.0649
G1 X113.928 Y131.196 E3.0798
G1 X113.724 Y131.219 E3.0893
G1 X113.414 Y131.305 E3.1042
G1 X113.114 Y131.464 E3.1199
G1 X112.854 Y131.683 E3.1356
G1 X112.647 Y131.953 E3.1513
G1 X112.539 Y132.183 E3.1631
G1 X112.264 Y132.150 E3.1759
G1 X112.210 Y131.890 E3.1882
G1 X112.072 Y131.580 E3.2039
G1 X111.871 Y131.306 E3.2196
G1 X111.616 Y131.082 E3.2353
G1 X111.320 Y130.917 E3.2509
G1 X111.012 Y130.824 E3.2658
G1 X110.808 Y130.798 E3.2753
G1 X110.486 Y130.807 E3.2902
G1 X110.157 Y130.890 E3.3059
G1 X109.852 Y131.040 E3.3217
G1 X109.587 Y131.252 E3.3374
G1 X109.426 Y131.451 E3.3492
G1 X109.168 Y131.352 E3.3620
G1 X109.178 Y131.087 E3.3742
G1 X109.118 Y130.753 E3.3899
G1 X108.988 Y130.439 E3.4056
G1 X108.794 Y130.160 E3.4213
G1 X108.546 Y129.930 E3.4370
G1 X108.269 Y129.765 E3.4519
G1 X108.078 Y129.691 E3.4614
G1 X107.762 Y129.623 E3.4763
G1 X107.423 Y129.624 E3.4920
G1 X107.091 Y129.698 E3.5077
G1 X106.783 Y129.840 E3.5234
G1 X106.580 Y129.994 E3.5352
G1 X106.352 Y129.837 E3.5480
G1 X106.425 Y129.582 E3.5603
G1 X106.447 Y129.243 E3.5760
G1 X106.396 Y128.907 E3.5917
G1 X106.274 Y128.590 E3.6074
G1 X106.089 Y128.307 E3.6231
G1 X105.859 Y128.081 E3.6380
G1 X105.691 Y127.963 E3.6475
G1 X105.401 Y127.822 E3.6624
G1 X105.071 Y127.742 E3.6781
G1 X104.732 Y127.734 E3.6938
G1 X104.398 Y127.798 E3.7095
G1 X104.164 Y127.899 E3.7213
G1 X103.981 Y127.692 E3.7341
G1 X104.113 Y127.462 E3.7463
G1 X104.215 Y127.138 E3.7621
G1 X104.246 Y126.800 E3.7778
G1 X104.204 Y126.463 E3.7935
G1 X104.091 Y126.143 E3.8091
G1 X103.923 Y125.869 E3.8240
G1 X103.788 Y125.714 E3.8335
G1 X103.540 Y125.508 E3.8484
G1 X103.239 Y125.351 E3.8641
G1 X102.911 Y125.262 E3.8798
G1 X102.572 Y125.245 E3.8956
G1 X102.320 Y125.287 E3.9073
G1 X102.192 Y125.042 E3.9201
G1 X102.375 Y124.850 E3.9324
G1 X102.552 Y124.560 E3.9481
G1 X102.663 Y124.239 E3.9638
G1 X102.703 Y123.901 E3.9795
G1 X102.670 Y123.564 E3.9952
G1 X102.572 Y123.258 E4.0101
G1 X102.478 Y123.075 E4.0196
G1 X102.287 Y122.815 E4.0345
G1 X102.032 Y122.591 E4.0502
G1 X101.735 Y122.426 E4.0659
G1 X101.409 Y122.328 E4.0816
G1 X101.155 Y122.309 E4.0934
G1 X101.089 Y122.040 E4.1062
G1 X101.313 Y121.898 E4.1185
G1 X101.554 Y121.658 E4.1342
G1 X101.738 Y121.373 E4.1499
G1 X101.858 Y121.055 E4.1656
G1 X101.907 Y120.720 E4.1813
G1 X101.885 Y120.399 E4.1962
G1 X101.837 Y120.199 E4.2057
G1 X101.714 Y119.901 E4.2206
G1 X101.520 Y119.622 E4.2363
G1 X101.271 Y119.391 E4.2520
G1 X100.979 Y119.219 E4.2677
G1 X100.737 Y119.139 E4.2795
G1 X100.737 Y118.862 E4.2923
G1 X100.988 Y118.777 E4.3045
G1 X101.279 Y118.603 E4.3202
G1 X101.527 Y118.370 E4.3360
G1 X101.719 Y118.090 E4.3517
G1 X101.846 Y117.776 E4.3673
G1 X101.902 Y117.459 E4.3822
G1 X101.904 Y117.254 E4.3917
G1 X101.855 Y116.935 E4.4066
G1 X101.734 Y116.618 E4.4223
G1 X101.547 Y116.334 E4.4380
G1 X101.305 Y116.096 E4.4537
G1 X101.089 Y115.961 E4.4655
G1 X101.155 Y115.692 E4.4783
G1 X101.419 Y115.670 E4.4906
G1 X101.744 Y115.570 E4.5063
G1 X102.040 Y115.403 E4.5220
G1 X102.293 Y115.177 E4.5377
G1 X102.493 Y114.903 E4.5534
G1 X102.622 Y114.608 E4.5683
G1 X102.673 Y114.409 E4.5778
G1 X102.702 Y114.088 E4.5927
G1 X102.660 Y113.751 E4.6084
G1 X102.547 Y113.431 E4.6241
G1 X102.369 Y113.142 E4.6398
G1 X102.191 Y112.959 E4.6516
G1 X102.320 Y112.714 E4.6644
G1 X102.582 Y112.756 E4.6767
G1 X102.921 Y112.737 E4.6924
G1 X103.248 Y112.645 E4.7081
G1 X103.548 Y112.487 E4.7238
G1 X103.807 Y112.268 E4.7395
G1 X104.004 Y112.013 E4.7544
G1 X104.101 Y111.832 E4.7638
G1 X104.206 Y111.527 E4.7788
G1 X104.246 Y111.190 E4.7945
G1 X104.213 Y110.852 E4.8102
G1 X104.109 Y110.529 E4.8259
G1 X103.980 Y110.309 E4.8377
; outer perimeter
G1 X103.730 Y110.698 F4800
G92 E0
G1 X103.604 Y110.481 E0.0116 F1150
G1 X103.438 Y110.300 E0.0230
G1 X104.089 Y109.564 E0.0684
G1 X104.297 Y109.710 E0.0802
