; G-Code generated by Simplify3D(R) Version 4.0.0
; Nov 6, 2020 at 11:04:53 AM
; Settings Summary
;   processName,Process1
;   applyToModels,knob,knob(2)
;   profileName,new profile (modified)
;   profileVersion,2020-09-07 14:01:24
;   baseProfile,Default (modified)
;   printMaterial,PLA
;   printQuality,Medium
;   printExtruders,
;   extruderName,Primary Extruder
;   extruderToolheadNumber,0
;   extruderDiameter,0.4
;   extruderAutoWidth,0
;   extruderWidth,0.4
;   extrusionMultiplier,0.9
;   extruderUseRetract,1
;   extruderRetractionDistance,1
;   extruderExtraRestartDistance,0
;   extruderRetractionZLift,0
;   extruderRetractionSpeed,1800
;   extruderUseCoasting,0
;   extruderCoastingDistance,0.2
;   extruderUseWipe,0
;   extruderWipeDistance,5
;   primaryExtruder,0
;   layerHeight,0.3
;   topSolidLayers,3
;   bottomSolidLayers,3
;   perimeterOutlines,2
;   printPerimetersInsideOut,1
;   startPointOption,2
;   startPointOriginX,0
;   startPointOriginY,0
;   sequentialIslands,0
;   spiralVaseMode,0
;   firstLayerHeightPercentage,100
;   firstLayerWidthPercentage,103
;   firstLayerUnderspeed,0.5
;   useRaft,0
;   raftExtruder,0
;   raftTopLayers,3
;   raftBaseLayers,2
;   raftOffset,3
;   raftSeparationDistance,0.14
;   raftTopInfill,100
;   aboveRaftSpeedMultiplier,0.3
;   useSkirt,0
;   skirtExtruder,0
;   skirtLayers,1
;   skirtOutlines,2
;   skirtOffset,4
;   usePrimePillar,0
;   primePillarExtruder,999
;   primePillarWidth,12
;   primePillarLocation,7
;   primePillarSpeedMultiplier,1
;   useOozeShield,0
;   oozeShieldExtruder,999
;   oozeShieldOffset,2
;   oozeShieldOutlines,1
;   oozeShieldSidewallShape,1
;   oozeShieldSidewallAngle,30
;   oozeShieldSpeedMultiplier,1
;   infillExtruder,0
;   internalInfillPattern,Rectilinear
;   externalInfillPattern,Rectilinear
;   infillPercentage,100
;   outlineOverlapPercentage,15
;   infillExtrusionWidthPercentage,100
;   minInfillLength,5
;   infillLayerInterval,1
;   internalInfillAngles,45,-45
;   overlapInternalInfillAngles,0
;   externalInfillAngles,45,-45
;   generateSupport,0
;   supportExtruder,0
;   supportInfillPercentage,30
;   supportExtraInflation,0
;   supportBaseLayers,0
;   denseSupportExtruder,0
;   denseSupportLayers,0
;   denseSupportInfillPercentage,70
;   supportLayerInterval,1
;   supportHorizontalPartOffset,0.3
;   supportUpperSeparationLayers,1
;   supportLowerSeparationLayers,1
;   supportType,1
;   supportGridSpacing,4
;   maxOverhangAngle,45
;   supportAngles,0
;   temperatureName,Primary Extruder,Hot Bed
;   temperatureNumber,0,1
;   temperatureSetpointCount,1,1
;   temperatureSetpointLayers,1,1
;   temperatureSetpointTemperatures,210,60
;   temperatureStabilizeAtStartup,1,0
;   temperatureHeatedBed,0,1
;   temperatureRelayBetweenLayers,0,0
;   temperatureRelayBetweenLoops,0,0
;   fanLayers,1,2
;   fanSpeeds,0,100
;   blipFanToFullPower,0
;   adjustSpeedForCooling,1
;   minSpeedLayerTime,15
;   minCoolingSpeedSlowdown,20
;   increaseFanForCooling,0
;   minFanLayerTime,45
;   maxCoolingFanSpeed,100
;   increaseFanForBridging,0
;   bridgingFanSpeed,100
;   use5D,1
;   relativeEdistances,0
;   allowEaxisZeroing,1
;   independentExtruderAxes,0
;   includeM10123,0
;   stickySupport,1
;   applyToolheadOffsets,0
;   gcodeXoffset,0
;   gcodeYoffset,0
;   gcodeZoffset,0
;   overrideMachineDefinition,0
;   machineTypeOverride,0
;   strokeXoverride,200
;   strokeYoverride,200
;   strokeZoverride,200
;   originOffsetXoverride,0
;   originOffsetYoverride,0
;   originOffsetZoverride,0
;   homeXdirOverride,-1
;   homeYdirOverride,-1
;   homeZdirOverride,-1
;   flipXoverride,1
;   flipYoverride,-1
;   flipZoverride,1
;   toolheadOffsets,0,0|0,0|0,0|0,0|0,0|0,0
;   overrideFirmwareConfiguration,0
;   firmwareTypeOverride,RepRap (Marlin/Repetier/Sprinter)
;   GPXconfigOverride,r2
;   baudRateOverride,115200
;   overridePrinterModels,0
;   printerModelsOverride
;   startingGcode,G28 ; home all axes,G1 X0 Y5 Z0.2 F3000 ; get ready to prime,G92 E0 ; reset extrusion distance,G1 Y150 E20 F600 ; prime nozzle
;   layerChangeGcode,
;   retractionGcode,
;   toolChangeGcode,
;   endingGcode,M104 S0 ; turn off extruder,M140 S0 ; turn off bedG1 X0 Y0; home,M84 ; disable motors,M107 ; fan off,G28 X Y; Home,M18; Disable steppers
;   exportFileFormat,gcode
;   celebration,0
;   celebrationSong,Random Song
;   postProcessing,
;   defaultSpeed,4600
;   outlineUnderspeed,0.5
;   solidInfillUnderspeed,0.8
;   supportUnderspeed,0.8
;   rapidXYspeed,4800
;   rapidZspeed,1000
;   minBridgingArea,50
;   bridgingExtraInflation,0
;   bridgingExtrusionMultiplier,1
;   bridgingSpeedMultiplier,1
;   useFixedBridgingAngle,0
;   fixedBridgingAngle,0
;   applyBridgingToPerimeters,0
;   filamentDiameters,1.75|1.75|1.75|1.75|1.75|1.75
;   filamentPricesPerKg,46|46|46|46|46|46
;   filamentDensities,1.25|1.25|1.25|1.25|1.25|1.25
;   useMinPrintHeight,0
;   minPrintHeight,0
;   useMaxPrintHeight,0
;   maxPrintHeight,0
;   useDiaphragm,0
;   diaphragmLayerInterval,20
;   robustSlicing,1
;   mergeAllIntoSolid,0
;   onlyRetractWhenCrossingOutline,1
;   retractBetweenLayers,1
;   useRetractionMinTravel,0
;   retractionMinTravel,3
;   retractWhileWiping,0
;   onlyWipeOutlines,1
;   avoidCrossingOutline,0
;   maxMovementDetourFactor,3
;   toolChangeRetractionDistance,12
;   toolChangeExtraRestartDistance,-0.5
;   toolChangeRetractionSpeed,600
;   externalThinWallType,1
;   internalThinWallType,1
;   thinWallAllowedOverlapPercentage,10
;   singleExtrusionMinLength,1
;   singleExtrusionMinPrintingWidthPercentage,50
;   singleExtrusionMaxPrintingWidthPercentage,200
;   singleExtrusionEndpointExtension,0.2
;   horizontalSizeCompensation,0
G90
M82
M106 S0
M140 S60
M104 S210 T0
M109 S210 T0
G28 ; home all axes
G1 X0 Y5 Z0.2 F3000 ; get ready to prime
G92 E0 ; reset extrusion distance
G1 Y150 E20 F600 ; prime nozzle
G92 E0
G1 E-1.0000 F1800
G1 Z0.300 F1000
; process Process1
; layer 1, Z = 0.300
T0
; tool H0.300 W0.412
; inner perimeter
G1 X103.980 Y93.942 F4800
G1 E0.0000 F540
G92 E0
G1 X104.164 Y93.735 E0.0128 F1725
G1 X104.408 Y93.838 E0.0251
G1 X104.742 Y93.900 E0.0408
G1 X105.081 Y93.890 E0.0565
G1 X105.411 Y93.808 E0.0722
G1 X105.715 Y93.657 E0.0879
G1 X105.966 Y93.457 E0.1027
G1 X106.104 Y93.305 E0.1122
G1 X106.279 Y93.034 E0.1272
G1 X106.398 Y92.716 E0.1429
G1 X106.447 Y92.380 E0.1586
G1 X106.423 Y92.041 E0.1743
G1 X106.351 Y91.796 E0.1861
G1 X106.579 Y91.639 E0.1989
G1 X106.792 Y91.798 E0.2111
G1 X107.101 Y91.938 E0.2268
G1 X107.433 Y92.010 E0.2425
G1 X107.772 Y92.009 E0.2582
G1 X108.104 Y91.935 E0.2739
G1 X108.396 Y91.801 E0.2888
G1 X108.566 Y91.686 E0.2983
G1 X108.801 Y91.465 E0.3132
G1 X108.993 Y91.185 E0.3289
G1 X109.120 Y90.870 E0.3446
G1 X109.178 Y90.536 E0.3603
G1 X109.167 Y90.281 E0.3721
G1 X109.426 Y90.183 E0.3849
G1 X109.594 Y90.388 E0.3972
G1 X109.861 Y90.598 E0.4129
G1 X110.166 Y90.747 E0.4286
G1 X110.496 Y90.827 E0.4443
G1 X110.835 Y90.835 E0.4600
G1 X111.151 Y90.775 E0.4749
G1 X111.344 Y90.704 E0.4844
G1 X111.624 Y90.545 E0.4993
G1 X111.878 Y90.319 E0.5150
G1 X112.077 Y90.044 E0.5307
G1 X112.213 Y89.733 E0.5464
G1 X112.264 Y89.483 E0.5582
G1 X112.538 Y89.450 E0.5710
G1 X112.653 Y89.689 E0.5833
G1 X112.861 Y89.957 E0.5990
G1 X113.122 Y90.175 E0.6147
G1 X113.423 Y90.332 E0.6304
G1 X113.750 Y90.421 E0.6461
G1 X114.072 Y90.437 E0.6609
G1 X114.276 Y90.414 E0.6704
G1 X114.586 Y90.328 E0.6853
G1 X114.886 Y90.169 E0.7010
G1 X115.146 Y89.950 E0.7168
G1 X115.353 Y89.680 E0.7325
G1 X115.461 Y89.450 E0.7443
G1 X115.736 Y89.483 E0.7571
G1 X115.790 Y89.743 E0.7693
G1 X115.928 Y90.053 E0.7850
G1 X116.129 Y90.327 E0.8007
G1 X116.384 Y90.551 E0.8164
G1 X116.680 Y90.716 E0.8321
G1 X116.988 Y90.809 E0.8470
G1 X117.192 Y90.836 E0.8565
G1 X117.514 Y90.826 E0.8714
G1 X117.843 Y90.743 E0.8871
G1 X118.148 Y90.593 E0.9028
G1 X118.413 Y90.381 E0.9185
G1 X118.574 Y90.182 E0.9303
G1 X118.832 Y90.281 E0.9431
G1 X118.822 Y90.546 E0.9554
G1 X118.882 Y90.880 E0.9711
G1 X119.012 Y91.194 E0.9868
G1 X119.206 Y91.473 E1.0025
G1 X119.454 Y91.703 E1.0182
G1 X119.731 Y91.868 E1.0331
G1 X119.922 Y91.942 E1.0426
G1 X120.238 Y92.010 E1.0575
G1 X120.577 Y92.009 E1.0732
G1 X120.909 Y91.935 E1.0889
G1 X121.217 Y91.793 E1.1046
G1 X121.420 Y91.639 E1.1164
G1 X121.648 Y91.796 E1.1292
G1 X121.575 Y92.051 E1.1414
G1 X121.553 Y92.390 E1.1572
G1 X121.604 Y92.726 E1.1729
G1 X121.726 Y93.043 E1.1886
G1 X121.911 Y93.326 E1.2042
G1 X122.141 Y93.552 E1.2191
G1 X122.309 Y93.670 E1.2286
G1 X122.599 Y93.811 E1.2435
G1 X122.929 Y93.891 E1.2592
G1 X123.268 Y93.899 E1.2749
G1 X123.602 Y93.835 E1.2907
G1 X123.836 Y93.734 E1.3024
G1 X124.019 Y93.941 E1.3152
G1 X123.887 Y94.171 E1.3275
G1 X123.785 Y94.495 E1.3432
G1 X123.754 Y94.833 E1.3589
G1 X123.796 Y95.170 E1.3746
G1 X123.909 Y95.490 E1.3903
G1 X124.078 Y95.764 E1.4052
G1 X124.212 Y95.919 E1.4147
G1 X124.460 Y96.125 E1.4296
G1 X124.761 Y96.282 E1.4453
G1 X125.089 Y96.371 E1.4610
G1 X125.428 Y96.388 E1.4767
G1 X125.680 Y96.346 E1.4885
G1 X125.808 Y96.592 E1.5013
G1 X125.625 Y96.783 E1.5136
G1 X125.448 Y97.073 E1.5293
G1 X125.337 Y97.394 E1.5450
G1 X125.297 Y97.732 E1.5607
G1 X125.330 Y98.069 E1.5764
G1 X125.428 Y98.375 E1.5913
G1 X125.522 Y98.558 E1.6008
G1 X125.713 Y98.818 E1.6157
G1 X125.968 Y99.042 E1.6314
G1 X126.265 Y99.207 E1.6471
G1 X126.591 Y99.305 E1.6628
G1 X126.845 Y99.324 E1.6746
G1 X126.911 Y99.593 E1.6874
G1 X126.687 Y99.735 E1.6996
G1 X126.446 Y99.975 E1.7153
G1 X126.262 Y100.260 E1.7311
G1 X126.142 Y100.578 E1.7468
G1 X126.093 Y100.913 E1.7624
G1 X126.115 Y101.234 E1.7773
G1 X126.163 Y101.434 E1.7868
G1 X126.286 Y101.732 E1.8017
G1 X126.480 Y102.011 E1.8174
G1 X126.729 Y102.242 E1.8331
G1 X127.021 Y102.415 E1.8488
G1 X127.263 Y102.494 E1.8606
G1 X127.263 Y102.771 E1.8734
G1 X127.012 Y102.856 E1.8857
G1 X126.721 Y103.030 E1.9014
G1 X126.473 Y103.263 E1.9171
G1 X126.281 Y103.543 E1.9328
G1 X126.154 Y103.857 E1.9485
G1 X126.098 Y104.174 E1.9634
G1 X126.096 Y104.379 E1.9729
G1 X126.145 Y104.698 E1.9878
G1 X126.266 Y105.015 E2.0035
G1 X126.453 Y105.299 E2.0192
G1 X126.695 Y105.537 E2.0349
G1 X126.911 Y105.672 E2.0467
G1 X126.845 Y105.941 E2.0595
G1 X126.581 Y105.963 E2.0718
G1 X126.256 Y106.063 E2.0875
G1 X125.960 Y106.230 E2.1032
G1 X125.707 Y106.456 E2.1189
G1 X125.507 Y106.730 E2.1346
G1 X125.378 Y107.025 E2.1494
G1 X125.327 Y107.224 E2.1589
G1 X125.298 Y107.545 E2.1739
G1 X125.340 Y107.882 E2.1896
G1 X125.453 Y108.202 E2.2053
G1 X125.631 Y108.491 E2.2210
G1 X125.809 Y108.674 E2.2328
G1 X125.680 Y108.919 E2.2456
G1 X125.418 Y108.877 E2.2578
G1 X125.079 Y108.896 E2.2735
G1 X124.752 Y108.988 E2.2892
G1 X124.452 Y109.146 E2.3049
G1 X124.193 Y109.365 E2.3206
G1 X123.996 Y109.620 E2.3355
G1 X123.899 Y109.801 E2.3450
G1 X123.794 Y110.106 E2.3599
G1 X123.754 Y110.443 E2.3756
G1 X123.787 Y110.781 E2.3913
G1 X123.891 Y111.104 E2.4070
G1 X124.020 Y111.325 E2.4188
G1 X123.836 Y111.532 E2.4316
G1 X123.592 Y111.428 E2.4439
G1 X123.258 Y111.366 E2.4596
G1 X122.919 Y111.376 E2.4753
G1 X122.589 Y111.458 E2.4910
G1 X122.285 Y111.609 E2.5067
G1 X122.033 Y111.809 E2.5216
G1 X121.896 Y111.962 E2.5311
G1 X121.721 Y112.232 E2.5460
G1 X121.602 Y112.550 E2.5617
G1 X121.553 Y112.886 E2.5774
G1 X121.577 Y113.225 E2.5931
G1 X121.649 Y113.470 E2.6049
G1 X121.421 Y113.627 E2.6177
G1 X121.208 Y113.468 E2.6300
G1 X120.899 Y113.328 E2.6457
G1 X120.567 Y113.256 E2.6614
G1 X120.227 Y113.257 E2.6771
G1 X119.897 Y113.331 E2.6928
G1 X119.604 Y113.465 E2.7076
G1 X119.434 Y113.580 E2.7171
G1 X119.199 Y113.801 E2.7320
G1 X119.007 Y114.081 E2.7477
G1 X118.880 Y114.396 E2.7635
G1 X118.822 Y114.731 E2.7792
G1 X118.833 Y114.985 E2.7910
G1 X118.574 Y115.083 E2.8038
G1 X118.406 Y114.878 E2.8160
G1 X118.139 Y114.668 E2.8317
G1 X117.834 Y114.519 E2.8474
G1 X117.504 Y114.439 E2.8631
G1 X117.165 Y114.431 E2.8788
G1 X116.849 Y114.491 E2.8937
G1 X116.656 Y114.563 E2.9032
G1 X116.376 Y114.721 E2.9181
G1 X116.122 Y114.947 E2.9338
G1 X115.923 Y115.222 E2.9495
G1 X115.787 Y115.533 E2.9652
G1 X115.736 Y115.783 E2.9770
G1 X115.462 Y115.816 E2.9898
G1 X115.347 Y115.577 E3.0021
G1 X115.139 Y115.309 E3.0178
G1 X114.878 Y115.091 E3.0335
G1 X114.577 Y114.934 E3.0492
G1 X114.250 Y114.846 E3.0649
G1 X113.928 Y114.829 E3.0798
G1 X113.724 Y114.852 E3.0893
G1 X113.414 Y114.938 E3.1042
G1 X113.114 Y115.097 E3.1199
G1 X112.854 Y115.316 E3.1356
G1 X112.647 Y115.586 E3.1513
G1 X112.539 Y115.816 E3.1631
G1 X112.264 Y115.783 E3.1759
G1 X112.210 Y115.523 E3.1882
G1 X112.072 Y115.213 E3.2039
G1 X111.871 Y114.939 E3.2196
G1 X111.616 Y114.715 E3.2353
G1 X111.320 Y114.550 E3.2509
G1 X111.012 Y114.457 E3.2658
G1 X110.808 Y114.431 E3.2753
G1 X110.486 Y114.440 E3.2902
G1 X110.157 Y114.523 E3.3059
G1 X109.852 Y114.673 E3.3216
G1 X109.587 Y114.886 E3.3374
G1 X109.426 Y115.084 E3.3491
G1 X109.168 Y114.986 E3.3619
G1 X109.178 Y114.720 E3.3742
G1 X109.118 Y114.386 E3.3899
G1 X108.988 Y114.072 E3.4056
G1 X108.794 Y113.793 E3.4213
G1 X108.546 Y113.563 E3.4370
G1 X108.269 Y113.398 E3.4519
G1 X108.078 Y113.324 E3.4614
G1 X107.762 Y113.256 E3.4763
G1 X107.423 Y113.257 E3.4920
G1 X107.091 Y113.331 E3.5077
G1 X106.783 Y113.473 E3.5234
G1 X106.580 Y113.627 E3.5352
G1 X106.352 Y113.470 E3.5480
G1 X106.425 Y113.215 E3.5603
G1 X106.447 Y112.876 E3.5760
G1 X106.396 Y112.540 E3.5917
G1 X106.274 Y112.223 E3.6074
G1 X106.089 Y111.940 E3.6231
G1 X105.859 Y111.714 E3.6380
G1 X105.691 Y111.596 E3.6475
G1 X105.401 Y111.455 E3.6624
G1 X105.071 Y111.375 E3.6781
G1 X104.732 Y111.367 E3.6938
G1 X104.398 Y111.431 E3.7095
G1 X104.164 Y111.532 E3.7213
G1 X103.981 Y111.325 E3.7341
G1 X104.113 Y111.095 E3.7463
G1 X104.215 Y110.771 E3.7620
G1 X104.246 Y110.433 E3.7778
G1 X104.204 Y110.096 E3.7935
G1 X104.091 Y109.776 E3.8091
G1 X103.922 Y109.502 E3.8240
G1 X103.788 Y109.347 E3.8335
G1 X103.540 Y109.141 E3.8484
G1 X103.239 Y108.984 E3.8641
G1 X102.911 Y108.895 E3.8798
G1 X102.572 Y108.878 E3.8955
G1 X102.320 Y108.920 E3.9073
G1 X102.192 Y108.675 E3.9201
G1 X102.375 Y108.483 E3.9324
G1 X102.552 Y108.193 E3.9481
G1 X102.663 Y107.872 E3.9638
G1 X102.703 Y107.535 E3.9795
G1 X102.670 Y107.197 E3.9952
G1 X102.572 Y106.891 E4.0101
G1 X102.478 Y106.708 E4.0196
G1 X102.287 Y106.448 E4.0345
G1 X102.032 Y106.224 E4.0502
G1 X101.735 Y106.059 E4.0659
G1 X101.409 Y105.961 E4.0816
G1 X101.155 Y105.942 E4.0934
G1 X101.089 Y105.673 E4.1062
G1 X101.313 Y105.531 E4.1185
G1 X101.554 Y105.291 E4.1342
G1 X101.738 Y105.006 E4.1499
G1 X101.858 Y104.688 E4.1656
G1 X101.907 Y104.353 E4.1813
G1 X101.885 Y104.032 E4.1962
G1 X101.837 Y103.832 E4.2056
G1 X101.714 Y103.534 E4.2206
G1 X101.520 Y103.255 E4.2363
G1 X101.271 Y103.024 E4.2520
G1 X100.979 Y102.852 E4.2677
G1 X100.737 Y102.772 E4.2795
G1 X100.737 Y102.495 E4.2923
G1 X100.988 Y102.410 E4.3045
G1 X101.279 Y102.236 E4.3202
G1 X101.527 Y102.003 E4.3359
G1 X101.719 Y101.723 E4.3517
G1 X101.846 Y101.409 E4.3673
G1 X101.902 Y101.092 E4.3822
G1 X101.904 Y100.887 E4.3917
G1 X101.855 Y100.568 E4.4066
G1 X101.734 Y100.251 E4.4223
G1 X101.547 Y99.967 E4.4380
G1 X101.305 Y99.729 E4.4537
G1 X101.089 Y99.594 E4.4655
G1 X101.155 Y99.325 E4.4783
G1 X101.419 Y99.303 E4.4906
G1 X101.744 Y99.203 E4.5063
G1 X102.040 Y99.036 E4.5220
G1 X102.293 Y98.810 E4.5377
G1 X102.493 Y98.536 E4.5534
G1 X102.622 Y98.241 E4.5683
G1 X102.673 Y98.043 E4.5778
G1 X102.702 Y97.721 E4.5927
G1 X102.660 Y97.384 E4.6084
G1 X102.547 Y97.064 E4.6241
G1 X102.369 Y96.775 E4.6398
G1 X102.191 Y96.592 E4.6516
G1 X102.320 Y96.347 E4.6644
G1 X102.582 Y96.389 E4.6767
G1 X102.921 Y96.370 E4.6924
G1 X103.248 Y96.279 E4.7081
G1 X103.548 Y96.120 E4.7238
G1 X103.807 Y95.901 E4.7395
G1 X104.004 Y95.646 E4.7543
G1 X104.101 Y95.465 E4.7638
G1 X104.206 Y95.160 E4.7787
G1 X104.246 Y94.823 E4.7945
G1 X104.213 Y94.485 E4.8102
G1 X104.109 Y94.162 E4.8259
G1 X103.980 Y93.942 E4.8377
; outer perimeter
G1 X103.730 Y94.331 F4800
G92 E0
G1 X103.604 Y94.114 E0.0116 F1150
G1 X103.438 Y93.933 E0.0230
G1 X104.089 Y93.197 E0.0684
G1 X104.297 Y93.343 E0.0802
G1 X104.528 Y93.441 E0.0918
G1 X104.774 Y93.487 E0.1034
G1 X105.025 Y93.480 E0.1150
G1 X105.268 Y93.419 E0.1265
G1 X105.493 Y93.308 E0.1381
