; G-Code generated by Simplify3D(R) Version 4.0.0
; Jun 17, 2018 at 9:27:48 PM
; Settings Summary
;   processName,Process1
;   applyToModels,Laptop_Cooling_Tap_v3.1_
;   profileName,Flyingbear p902 (modified)
;   profileVersion,2017-02-06 00:22:54
;   baseProfile,Default
;   printMaterial,PLA
;   printQuality,Medium
;   printExtruders,
;   extruderName,Extruder 1
;   extruderToolheadNumber,0
;   extruderDiameter,0.4
;   extruderAutoWidth,1
;   extruderWidth,0.48
;   extrusionMultiplier,1
;   extruderUseRetract,1
;   extruderRetractionDistance,1
;   extruderExtraRestartDistance,0
;   extruderRetractionZLift,0
;   extruderRetractionSpeed,3400
;   extruderUseCoasting,0
;   extruderCoastingDistance,0.2
;   extruderUseWipe,0
;   extruderWipeDistance,5
;   primaryExtruder,0
;   layerHeight,0.2
;   topSolidLayers,3
;   bottomSolidLayers,3
;   perimeterOutlines,2
;   printPerimetersInsideOut,0
;   startPointOption,2
;   startPointOriginX,0
;   startPointOriginY,0
;   sequentialIslands,0
;   spiralVaseMode,0
;   firstLayerHeightPercentage,90
;   firstLayerWidthPercentage,100
;   firstLayerUnderspeed,0.5
;   useRaft,0
;   raftExtruder,0
;   raftTopLayers,3
;   raftBaseLayers,1
;   raftOffset,2
;   raftSeparationDistance,0.2
;   raftTopInfill,100
;   aboveRaftSpeedMultiplier,0.3
;   useSkirt,0
;   skirtExtruder,0
;   skirtLayers,1
;   skirtOutlines,2
;   skirtOffset,4
;   usePrimePillar,0
;   primePillarExtruder,999
;   primePillarWidth,12
;   primePillarLocation,7
;   primePillarSpeedMultiplier,1
;   useOozeShield,0
;   oozeShieldExtruder,999
;   oozeShieldOffset,2
;   oozeShieldOutlines,1
;   oozeShieldSidewallShape,1
;   oozeShieldSidewallAngle,30
;   oozeShieldSpeedMultiplier,1
;   infillExtruder,0
;   internalInfillPattern,Rectilinear
;   externalInfillPattern,Rectilinear
;   infillPercentage,50
;   outlineOverlapPercentage,15
;   infillExtrusionWidthPercentage,100
;   minInfillLength,5
;   infillLayerInterval,1
;   internalInfillAngles,45,-45
;   overlapInternalInfillAngles,0
;   externalInfillAngles,45,-45
;   generateSupport,1
;   supportExtruder,0
;   supportInfillPercentage,30
;   supportExtraInflation,0
;   supportBaseLayers,0
;   denseSupportExtruder,0
;   denseSupportLayers,0
;   denseSupportInfillPercentage,70
;   supportLayerInterval,1
;   supportHorizontalPartOffset,0.3
;   supportUpperSeparationLayers,1
;   supportLowerSeparationLayers,1
;   supportType,0
;   supportGridSpacing,4
;   maxOverhangAngle,45
;   supportAngles,0
;   temperatureName,Extruder 1,Heated Bed
;   temperatureNumber,0,0
;   temperatureSetpointCount,1,1
;   temperatureSetpointLayers,1,1
;   temperatureSetpointTemperatures,210,60
;   temperatureStabilizeAtStartup,1,1
;   temperatureHeatedBed,0,1
;   temperatureRelayBetweenLayers,0,0
;   temperatureRelayBetweenLoops,0,0
;   fanLayers,1,2
;   fanSpeeds,0,100
;   blipFanToFullPower,0
;   adjustSpeedForCooling,1
;   minSpeedLayerTime,15
;   minCoolingSpeedSlowdown,20
;   increaseFanForCooling,0
;   minFanLayerTime,45
;   maxCoolingFanSpeed,100
;   increaseFanForBridging,1
;   bridgingFanSpeed,100
;   use5D,1
;   relativeEdistances,0
;   allowEaxisZeroing,1
;   independentExtruderAxes,0
;   includeM10123,0
;   stickySupport,1
;   applyToolheadOffsets,0
;   gcodeXoffset,0
;   gcodeYoffset,0
;   gcodeZoffset,0
;   overrideMachineDefinition,1
;   machineTypeOverride,0
;   strokeXoverride,220
;   strokeYoverride,220
;   strokeZoverride,280
;   originOffsetXoverride,0
;   originOffsetYoverride,0
;   originOffsetZoverride,0
;   homeXdirOverride,-1
;   homeYdirOverride,-1
;   homeZdirOverride,-1
;   flipXoverride,1
;   flipYoverride,-1
;   flipZoverride,1
;   toolheadOffsets,0,0|0,0|0,0|0,0|0,0|0,0
;   overrideFirmwareConfiguration,1
;   firmwareTypeOverride,RepRap (Marlin/Repetier/Sprinter)
;   GPXconfigOverride,r2
;   baudRateOverride,250000
;   overridePrinterModels,0
;   printerModelsOverride
;   startingGcode,G28 ; home all axes,G1 X0 Y0 Z0.2 F3000 ; get ready to prime,G92 E0 ; reset extrusion distance,G1 X200 E20 F600 ; prime nozzle
;   layerChangeGcode,
;   retractionGcode,
;   toolChangeGcode,
;   endingGcode,M104 S0 ; turn off extruder,M140 S0 ; turn off bed,G91 ; use relative coordinates,G1 Z0.6 F5000 ; lift nozzle by 0.6mm,G90 ; use absolute coordinates,G28 X0 ; home X axis,G28 Y0 ; home X axis,M84 ; disable motors,M107 ; turn off fan
;   exportFileFormat,gcode
;   celebration,0
;   celebrationSong,Random Song
;   postProcessing,
;   defaultSpeed,4200
;   outlineUnderspeed,0.9
;   solidInfillUnderspeed,1
;   supportUnderspeed,0.8
;   rapidXYspeed,4200
;   rapidZspeed,1002
;   minBridgingArea,50
;   bridgingExtraInflation,0
;   bridgingExtrusionMultiplier,1
;   bridgingSpeedMultiplier,1
;   useFixedBridgingAngle,0
;   fixedBridgingAngle,0
;   applyBridgingToPerimeters,0
;   filamentDiameters,1.75|1.75|1.75|1.75|1.75|1.75
;   filamentPricesPerKg,46|46|46|46|46|46
;   filamentDensities,1.25|1.25|1.25|1.25|1.25|1.25
;   useMinPrintHeight,0
;   minPrintHeight,0
;   useMaxPrintHeight,0
;   maxPrintHeight,0
;   useDiaphragm,0
;   diaphragmLayerInterval,20
;   robustSlicing,1
;   mergeAllIntoSolid,0
;   onlyRetractWhenCrossingOutline,1
;   retractBetweenLayers,1
;   useRetractionMinTravel,0
;   retractionMinTravel,3
;   retractWhileWiping,0
;   onlyWipeOutlines,1
;   avoidCrossingOutline,0
;   maxMovementDetourFactor,3
;   toolChangeRetractionDistance,12
;   toolChangeExtraRestartDistance,-0.5
;   toolChangeRetractionSpeed,600
;   externalThinWallType,1
;   internalThinWallType,1
;   thinWallAllowedOverlapPercentage,10
;   singleExtrusionMinLength,1
;   singleExtrusionMinPrintingWidthPercentage,50
;   singleExtrusionMaxPrintingWidthPercentage,200
;   singleExtrusionEndpointExtension,0.2
;   horizontalSizeCompensation,0
G90
M82
M106 S0
M140 S60
M190 S60
M104 S210 T0
M109 S210 T0
G28 ; home all axes
G1 X0 Y0 Z0.2 F3000 ; get ready to prime
G92 E0 ; reset extrusion distance
G1 X200 E20 F600 ; prime nozzle
G92 E0
G1 E-1.0000 F3400
G1 Z0.180 F1002
; process Process1
; layer 1, Z = 0.180
T0
; tool H0.200 W0.480
; outer perimeter
G1 X75.740 Y77.680 F4200
G1 E0.0000 F1020
G92 E0
G1 X81.415 Y77.657 E0.2265 F1890
G1 X84.714 Y77.677 E0.3582
G1 X130.786 Y77.677 E2.1970
G1 X134.085 Y77.657 E2.3287
G1 X139.760 Y77.680 E2.5552
G1 X139.760 Y86.240 E2.8968
G1 X141.740 Y86.240 E2.9759
G1 X141.740 Y77.681 E3.3175
G1 X144.260 Y77.681 E3.4180
G1 X144.259 Y97.989 E4.2286
G1 X144.232 Y98.196 E4.2369
G1 X144.156 Y98.379 E4.2448
G1 X144.036 Y98.536 E4.2527
G1 X143.879 Y98.656 E4.2606
G1 X143.696 Y98.732 E4.2685
G1 X143.484 Y98.760 E4.2770
G1 X90.629 Y98.760 E6.3866
G1 X90.207 Y98.802 E6.4035
G1 X89.766 Y98.936 E6.4219
G1 X89.523 Y99.042 E6.4325
G1 X89.157 Y99.263 E6.4496
G1 X88.792 Y99.563 E6.4684
G1 X88.632 Y99.769 E6.4788
G1 X88.432 Y99.980 E6.4904
G1 X88.243 Y100.454 E6.5108
G1 X88.244 Y108.078 E6.8151
G1 X88.162 Y108.320 E6.8253
G1 X88.075 Y108.459 E6.8318
G1 X87.959 Y108.575 E6.8384
G1 X87.821 Y108.662 E6.8449
G1 X87.579 Y108.744 E6.8551
G1 X76.386 Y108.744 E7.3019
G1 X76.347 Y108.482 E7.3124
G1 X76.340 Y99.829 E7.6578
G1 X76.277 Y99.494 E7.6714
G1 X76.154 Y99.177 E7.6850
G1 X75.975 Y98.887 E7.6986
G1 X75.740 Y98.629 E7.7125
G1 X75.740 Y77.680 E8.5486
; inner perimeter
G1 X76.220 Y78.158 F4200
G92 E0
G1 X81.414 Y78.137 E0.2073 F1995
G1 X84.713 Y78.157 E0.3390
G1 X130.787 Y78.157 E2.1779
G1 X134.086 Y78.137 E2.3096
G1 X139.280 Y78.158 E2.5169
G1 X139.280 Y86.720 E2.8586
G1 X142.220 Y86.720 E2.9759
G1 X142.220 Y78.161 E3.3175
G1 X143.780 Y78.161 E3.3798
G1 X143.779 Y97.957 E4.1699
G1 X143.764 Y98.071 E4.1745
G1 X143.737 Y98.137 E4.1773
G1 X143.694 Y98.194 E4.1802
G1 X143.637 Y98.237 E4.1830
G1 X143.571 Y98.264 E4.1859
G1 X143.453 Y98.280 E4.1907
G1 X142.729 Y98.280 E4.2196
G1 X142.610 Y98.039 E4.2303
G1 X142.745 Y97.863 E4.2391
G1 X142.917 Y97.447 E4.2571
G1 X142.970 Y97.047 E4.2732
G1 X142.970 Y89.953 E4.5563
G1 X142.917 Y89.553 E4.5724
G1 X142.745 Y89.137 E4.5904
G1 X142.471 Y88.779 E4.6084
G1 X142.113 Y88.505 E4.6264
G1 X141.697 Y88.333 E4.6444
G1 X141.297 Y88.280 E4.6605
G1 X78.703 Y88.280 E7.1587
G1 X78.303 Y88.333 E7.1748
G1 X77.887 Y88.505 E7.1928
G1 X77.529 Y88.779 E7.2108
G1 X77.255 Y89.137 E7.2288
G1 X77.083 Y89.553 E7.2468
G1 X77.030 Y89.953 E7.2629
G1 X77.030 Y97.047 E7.5460
G1 X77.083 Y97.447 E7.5621
G1 X77.255 Y97.863 E7.5801
G1 X77.529 Y98.221 E7.5981
G1 X77.887 Y98.495 E7.6161
G1 X78.303 Y98.667 E7.6340
G1 X78.703 Y98.720 E7.6501
G1 X88.611 Y98.720 E8.0456
G1 X88.714 Y99.006 E8.0577
G1 X88.446 Y99.226 E8.0715
G1 X88.268 Y99.456 E8.0831
G1 X88.020 Y99.716 E8.0975
G1 X87.763 Y100.362 E8.1252
G1 X87.764 Y107.999 E8.4301
G1 X87.726 Y108.113 E8.4348
G1 X87.698 Y108.157 E8.4369
G1 X87.658 Y108.197 E8.4392
G1 X87.613 Y108.225 E8.4413
G1 X87.500 Y108.264 E8.4461
G1 X76.826 Y108.264 E8.8721
G1 X76.820 Y99.785 E9.2105
G1 X76.741 Y99.363 E9.2276
G1 X76.586 Y98.962 E9.2448
G1 X76.359 Y98.596 E9.2619
G1 X76.220 Y98.444 E9.2702
G1 X76.220 Y78.158 E10.0798
; outer perimeter
G1 X78.429 Y88.800 F4200
G92 E0
G1 X78.129 Y88.924 E0.0129 F1890
G1 X77.872 Y89.122 E0.0259
G1 X77.674 Y89.379 E0.0388
G1 X77.550 Y89.679 E0.0518
G1 X77.510 Y89.984 E0.0641
G1 X77.510 Y97.016 E0.3447
G1 X77.550 Y97.321 E0.3570
G1 X77.674 Y97.621 E0.3700
G1 X77.872 Y97.878 E0.3829
G1 X78.129 Y98.076 E0.3958
G1 X78.429 Y98.200 E0.4088
G1 X78.734 Y98.240 E0.4211
G1 X141.266 Y98.240 E2.9169
G1 X141.571 Y98.200 E2.9292
G1 X141.871 Y98.076 E2.9421
G1 X142.128 Y97.878 E2.9551
G1 X142.326 Y97.621 E2.9680
G1 X142.450 Y97.321 E2.9809
G1 X142.490 Y97.016 E2.9932
G1 X142.490 Y89.984 E3.2739
G1 X142.450 Y89.679 E3.2862
G1 X142.326 Y89.379 E3.2991
G1 X142.128 Y89.122 E3.3121
G1 X141.871 Y88.924 E3.3250
G1 X141.571 Y88.800 E3.3380
G1 X141.266 Y88.760 E3.3503
G1 X78.734 Y88.760 E5.8460
G1 X78.429 Y88.800 E5.8583
G92 E0
G1 E-1.0000 F3400
; internal single extrusion
G1 X88.978 Y98.762 F4200
G1 E0.0000 F3400
G92 E0
; tool H0.200 W0.419
G1 X89.267 Y98.681 E0.0104 F1890
; tool H0.200 W0.368
G1 X89.363 Y98.657 E0.0135
; tool H0.200 W0.324
G1 X89.459 Y98.637 E0.0161
; tool H0.200 W0.284
G1 X89.554 Y98.617 E0.0184
; tool H0.200 W0.245
G1 X89.650 Y98.597 E0.0204
; tool H0.200 W0.240
G1 X89.746 Y98.583 E0.0224
G1 X89.938 Y98.555 E0.0262
G1 X90.130 Y98.526 E0.0301
G1 X90.226 Y98.519 E0.0320
G1 X90.618 Y98.501 E0.0399
G1 X141.263 Y98.501 F4200
; tool H0.200 W0.480
G92 E0
; tool H0.200 W0.240
G1 X141.551 Y98.482 E0.0058 F1890
G1 X141.646 Y98.476 E0.0077
G1 X141.728 Y98.460 E0.0093
G1 X141.884 Y98.429 E0.0125
G1 X141.962 Y98.413 E0.0141
G1 X142.055 Y98.394 E0.0160
; tool H0.200 W0.273
G1 X142.149 Y98.363 E0.0182
; tool H0.200 W0.331
G1 X142.227 Y98.337 E0.0205
; tool H0.200 W0.350
G1 X142.296 Y98.344 E0.0225
; tool H0.200 W0.286
G1 X142.388 Y98.401 E0.0251
; tool H0.200 W0.240
G1 X142.480 Y98.458 E0.0273
; tool H0.200 W0.480
; solid layer
G1 X143.241 Y97.731 F4200
G92 E0
G1 X143.371 Y97.861 E0.0073 F2100
G1 X143.371 Y97.182 E0.0344
G1 X143.365 Y97.175 E0.0348
G1 X143.372 Y89.715 F4200
G92 E0
G1 X143.347 Y89.691 E0.0014 F2100
G1 X143.087 Y78.569 F4200
G92 E0
G1 X143.372 Y78.854 E0.0161 F2100
G1 X143.372 Y79.533 E0.0432
G1 X142.628 Y78.789 E0.0852
G1 X142.628 Y79.468 E0.1123
G1 X143.372 Y80.212 E0.1543
G1 X143.372 Y80.891 E0.1814
G1 X142.628 Y80.147 E0.2234
G1 X142.628 Y80.826 E0.2504
G1 X143.372 Y81.570 E0.2924
G1 X143.372 Y82.248 E0.3195
G1 X142.628 Y81.505 E0.3615
G1 X142.628 Y82.183 E0.3886
G1 X143.372 Y82.927 E0.4306
G1 X143.372 Y83.606 E0.4577
G1 X142.628 Y82.862 E0.4997
G1 X142.628 Y83.541 E0.5268
G1 X143.372 Y84.285 E0.5687
G1 X143.372 Y84.964 E0.5958
G1 X142.628 Y84.220 E0.6378
G1 X142.628 Y84.899 E0.6649
G1 X143.372 Y85.642 E0.7069
G1 X143.372 Y86.321 E0.7340
G1 X142.628 Y85.577 E0.7760
G1 X142.628 Y86.256 E0.8031
G1 X143.372 Y87.000 E0.8450
G1 X143.372 Y87.679 E0.8721
G1 X142.628 Y86.935 E0.9141
G1 X142.628 Y87.128 E0.9218
G1 X142.142 Y87.128 E0.9412
G1 X143.372 Y88.358 E1.0106
G1 X143.372 Y89.036 E1.0377
G1 X141.463 Y87.128 E1.1454
G1 X140.784 Y87.128 E1.1725
G1 X141.559 Y87.903 E1.2162
G1 X141.324 Y87.872 E1.2257
G1 X140.850 Y87.872 E1.2447
G1 X140.106 Y87.128 E1.2867
G1 X139.427 Y87.128 E1.3137
G1 X140.171 Y87.872 E1.3557
G1 X139.492 Y87.872 E1.3828
G1 X130.185 Y78.565 E1.9082
G1 X130.788 Y78.565 E1.9323
G1 X130.863 Y78.564 E1.9352
G1 X138.872 Y86.573 E2.3873
G1 X138.872 Y85.894 E2.4144
G1 X131.538 Y78.560 E2.8284
G1 X132.213 Y78.556 E2.8553
G1 X138.872 Y85.216 E3.2312
G1 X138.872 Y84.537 E3.2583
G1 X132.887 Y78.552 E3.5961
G1 X133.562 Y78.548 E3.6230
G1 X138.872 Y83.858 E3.9227
G1 X138.872 Y83.179 E3.9498
G1 X134.238 Y78.545 E4.2114
G1 X134.920 Y78.548 E4.2386
G1 X138.872 Y82.500 E4.4617
G1 X138.872 Y81.821 E4.4888
G1 X135.601 Y78.551 E4.6734
G1 X136.283 Y78.554 E4.7006
G1 X138.872 Y81.143 E4.8467
G1 X138.872 Y80.464 E4.8738
G1 X136.965 Y78.557 E4.9814
G1 X137.646 Y78.559 E5.0087
G1 X138.872 Y79.785 E5.0778
G1 X138.872 Y79.106 E5.1049
G1 X138.328 Y78.562 E5.1356
G1 X129.506 Y78.565 F4200
G92 E0
G1 X138.813 Y87.872 E0.5253 F2100
G1 X138.134 Y87.872 E0.5524
G1 X128.827 Y78.565 E1.0778
G1 X128.148 Y78.565 E1.1049
G1 X137.455 Y87.872 E1.6302
G1 X136.777 Y87.872 E1.6573
G1 X127.470 Y78.565 E2.1826
G1 X126.791 Y78.565 E2.2097
G1 X136.098 Y87.872 E2.7350
G1 X135.419 Y87.872 E2.7621
G1 X126.112 Y78.565 E3.2875
G1 X125.433 Y78.565 E3.3146
G1 X134.740 Y87.872 E3.8399
G1 X134.061 Y87.872 E3.8670
G1 X124.754 Y78.565 E4.3923
G1 X124.075 Y78.565 E4.4194
G1 X133.383 Y87.872 E4.9448
G1 X132.704 Y87.872 E4.9719
G1 X123.397 Y78.565 E5.4972
G1 X122.718 Y78.565 E5.5243
G1 X132.025 Y87.872 E6.0496
G1 X131.346 Y87.872 E6.0767
G1 X122.039 Y78.565 E6.6020
G1 X121.360 Y78.565 E6.6291
G1 X130.667 Y87.872 E7.1545
G1 X129.988 Y87.872 E7.1816
G1 X120.681 Y78.565 E7.7069
G1 X120.002 Y78.565 E7.7340
G1 X129.310 Y87.872 E8.2593
G1 X128.631 Y87.872 E8.2864
G1 X119.324 Y78.565 E8.8118
G1 X118.645 Y78.565 E8.8389
G1 X127.952 Y87.872 E9.3642
G1 X127.273 Y87.872 E9.3913
G1 X117.966 Y78.565 E9.9166
G1 X117.287 Y78.565 E9.9437
G1 X126.594 Y87.872 E10.4690
G1 X125.916 Y87.872 E10.4961
G1 X116.608 Y78.565 E11.0215
G1 X115.930 Y78.565 E11.0486
G1 X125.237 Y87.872 E11.5739
G1 X124.558 Y87.872 E11.6010
G1 X115.251 Y78.565 E12.1263
G1 X114.572 Y78.565 E12.1534
G1 X123.879 Y87.872 E12.6788
G1 X123.200 Y87.872 E12.7059
G1 X113.893 Y78.565 E13.2312
G1 X113.214 Y78.565 E13.2583
G1 X122.521 Y87.872 E13.7836
G1 X121.843 Y87.872 E13.8107
G1 X112.535 Y78.565 E14.3360
G1 X111.857 Y78.565 E14.3631
G1 X121.164 Y87.872 E14.8885
G1 X120.485 Y87.872 E14.9156
G1 X111.178 Y78.565 E15.4409
G1 X110.499 Y78.565 E15.4680
G1 X119.806 Y87.872 E15.9933
G1 X119.127 Y87.872 E16.0204
G1 X109.820 Y78.565 E16.5458
G1 X109.141 Y78.565 E16.5729
G1 X118.448 Y87.872 E17.0982
G1 X117.770 Y87.872 E17.1253
G1 X108.462 Y78.565 E17.6506
G1 X107.784 Y78.565 E17.6777
G1 X117.091 Y87.872 E18.2030
G1 X116.412 Y87.872 E18.2301
G1 X107.105 Y78.565 E18.7555
G1 X106.426 Y78.565 E18.7826
G1 X115.733 Y87.872 E19.3079
G1 X115.054 Y87.872 E19.3350
G1 X105.747 Y78.565 E19.8603
G1 X105.068 Y78.565 E19.8874
G1 X114.376 Y87.872 E20.4128
G1 X113.697 Y87.872 E20.4399
G1 X104.390 Y78.565 E20.9652
G1 X103.711 Y78.565 E20.9923
G1 X113.018 Y87.872 E21.5176
G1 X112.339 Y87.872 E21.5447
G1 X103.032 Y78.565 E22.0700
G1 X102.353 Y78.565 E22.0971
G1 X111.660 Y87.872 E22.6225
G1 X110.981 Y87.872 E22.6496
G1 X101.674 Y78.565 E23.1749
G1 X100.995 Y78.565 E23.2020
G1 X110.303 Y87.872 E23.7273
G1 X109.624 Y87.872 E23.7544
G1 X100.317 Y78.565 E24.2798
G1 X99.638 Y78.565 E24.3069
G1 X108.945 Y87.872 E24.8322
G1 X108.266 Y87.872 E24.8593
G1 X98.959 Y78.565 E25.3846
G1 X98.280 Y78.565 E25.4117
G1 X107.587 Y87.872 E25.9370
G1 X106.908 Y87.872 E25.9641
G1 X97.601 Y78.565 E26.4895
G1 X96.923 Y78.565 E26.5166
G1 X106.230 Y87.872 E27.0419
G1 X105.551 Y87.872 E27.0690
G1 X96.244 Y78.565 E27.5943
G1 X95.565 Y78.565 E27.6214
G1 X104.872 Y87.872 E28.1468
G1 X104.193 Y87.872 E28.1739
G1 X94.886 Y78.565 E28.6992
G1 X94.207 Y78.565 E28.7263
G1 X103.514 Y87.872 E29.2516
G1 X102.836 Y87.872 E29.2787
G1 X93.528 Y78.565 E29.8040
G1 X92.850 Y78.565 E29.8311
