; G-Code generated by Simplify3D(R) Version 4.0.0
; Dec 13, 2018 at 5:44:10 PM
; Settings Summary
;   processName,Process1
;   applyToModels,Laptop_Cooling_Tap_v3.1_,Laptop_Cooling_Tap_v3.1_(2)
;   profileName,Flyingbear p902 (modified)
;   profileVersion,2017-02-06 00:22:54
;   baseProfile,Default
;   printMaterial,PLA
;   printQuality,Medium
;   printExtruders,
;   extruderName,Extruder 1
;   extruderToolheadNumber,0
;   extruderDiameter,0.4
;   extruderAutoWidth,1
;   extruderWidth,0.48
;   extrusionMultiplier,1
;   extruderUseRetract,1
;   extruderRetractionDistance,1
;   extruderExtraRestartDistance,0
;   extruderRetractionZLift,0
;   extruderRetractionSpeed,3400
;   extruderUseCoasting,0
;   extruderCoastingDistance,0.2
;   extruderUseWipe,0
;   extruderWipeDistance,5
;   primaryExtruder,0
;   layerHeight,0.3
;   topSolidLayers,3
;   bottomSolidLayers,2
;   perimeterOutlines,2
;   printPerimetersInsideOut,0
;   startPointOption,2
;   startPointOriginX,0
;   startPointOriginY,0
;   sequentialIslands,0
;   spiralVaseMode,0
;   firstLayerHeightPercentage,100
;   firstLayerWidthPercentage,100
;   firstLayerUnderspeed,0.5
;   useRaft,0
;   raftExtruder,0
;   raftTopLayers,3
;   raftBaseLayers,1
;   raftOffset,2
;   raftSeparationDistance,0.2
;   raftTopInfill,100
;   aboveRaftSpeedMultiplier,0.3
;   useSkirt,0
;   skirtExtruder,0
;   skirtLayers,1
;   skirtOutlines,2
;   skirtOffset,4
;   usePrimePillar,0
;   primePillarExtruder,999
;   primePillarWidth,12
;   primePillarLocation,7
;   primePillarSpeedMultiplier,1
;   useOozeShield,0
;   oozeShieldExtruder,999
;   oozeShieldOffset,2
;   oozeShieldOutlines,1
;   oozeShieldSidewallShape,1
;   oozeShieldSidewallAngle,30
;   oozeShieldSpeedMultiplier,1
;   infillExtruder,0
;   internalInfillPattern,Rectilinear
;   externalInfillPattern,Rectilinear
;   infillPercentage,50
;   outlineOverlapPercentage,15
;   infillExtrusionWidthPercentage,100
;   minInfillLength,5
;   infillLayerInterval,1
;   internalInfillAngles,45,-45
;   overlapInternalInfillAngles,0
;   externalInfillAngles,45,-45
;   generateSupport,1
;   supportExtruder,0
;   supportInfillPercentage,15
;   supportExtraInflation,0.5
;   supportBaseLayers,0
;   denseSupportExtruder,0
;   denseSupportLayers,0
;   denseSupportInfillPercentage,70
;   supportLayerInterval,1
;   supportHorizontalPartOffset,0.3
;   supportUpperSeparationLayers,1
;   supportLowerSeparationLayers,1
;   supportType,1
;   supportGridSpacing,1
;   maxOverhangAngle,60
;   supportAngles,0
;   temperatureName,Extruder 1,Heated Bed
;   temperatureNumber,0,0
;   temperatureSetpointCount,1,1
;   temperatureSetpointLayers,1,1
;   temperatureSetpointTemperatures,210,60
;   temperatureStabilizeAtStartup,1,1
;   temperatureHeatedBed,0,1
;   temperatureRelayBetweenLayers,0,0
;   temperatureRelayBetweenLoops,0,0
;   fanLayers,1,2
;   fanSpeeds,0,100
;   blipFanToFullPower,0
;   adjustSpeedForCooling,1
;   minSpeedLayerTime,15
;   minCoolingSpeedSlowdown,20
;   increaseFanForCooling,0
;   minFanLayerTime,45
;   maxCoolingFanSpeed,100
;   increaseFanForBridging,1
;   bridgingFanSpeed,100
;   use5D,1
;   relativeEdistances,0
;   allowEaxisZeroing,1
;   independentExtruderAxes,0
;   includeM10123,0
;   stickySupport,1
;   applyToolheadOffsets,0
;   gcodeXoffset,0
;   gcodeYoffset,0
;   gcodeZoffset,0
;   overrideMachineDefinition,1
;   machineTypeOverride,0
;   strokeXoverride,220
;   strokeYoverride,220
;   strokeZoverride,280
;   originOffsetXoverride,0
;   originOffsetYoverride,0
;   originOffsetZoverride,0
;   homeXdirOverride,-1
;   homeYdirOverride,-1
;   homeZdirOverride,-1
;   flipXoverride,1
;   flipYoverride,-1
;   flipZoverride,1
;   toolheadOffsets,0,0|0,0|0,0|0,0|0,0|0,0
;   overrideFirmwareConfiguration,1
;   firmwareTypeOverride,RepRap (Marlin/Repetier/Sprinter)
;   GPXconfigOverride,r2
;   baudRateOverride,250000
;   overridePrinterModels,0
;   printerModelsOverride
;   startingGcode,G28 ; home all axes,G1 X0 Y5 Z0.2 F3000 ; get ready to prime,G92 E0 ; reset extrusion distance,G1 X200 E20 F600 ; prime nozzle
;   layerChangeGcode,
;   retractionGcode,
;   toolChangeGcode,
;   endingGcode,M104 S0 ; turn off extruder,M140 S0 ; turn off bed,G91 ; use relative coordinates,G1 Z0.6 F5000 ; lift nozzle by 0.6mm,G90 ; use absolute coordinates,G28 X0 ; home X axis,G28 Y0 ; home X axis,M84 ; disable motors,M107 ; turn off fan
;   exportFileFormat,gcode
;   celebration,0
;   celebrationSong,Random Song
;   postProcessing,
;   defaultSpeed,4200
;   outlineUnderspeed,0.9
;   solidInfillUnderspeed,1
;   supportUnderspeed,0.8
;   rapidXYspeed,4200
;   rapidZspeed,1002
;   minBridgingArea,50
;   bridgingExtraInflation,0
;   bridgingExtrusionMultiplier,1
;   bridgingSpeedMultiplier,1
;   useFixedBridgingAngle,0
;   fixedBridgingAngle,0
;   applyBridgingToPerimeters,0
;   filamentDiameters,1.75|1.75|1.75|1.75|1.75|1.75
;   filamentPricesPerKg,46|46|46|46|46|46
;   filamentDensities,1.25|1.25|1.25|1.25|1.25|1.25
;   useMinPrintHeight,0
;   minPrintHeight,0
;   useMaxPrintHeight,0
;   maxPrintHeight,0
;   useDiaphragm,0
;   diaphragmLayerInterval,20
;   robustSlicing,1
;   mergeAllIntoSolid,0
;   onlyRetractWhenCrossingOutline,1
;   retractBetweenLayers,1
;   useRetractionMinTravel,0
;   retractionMinTravel,3
;   retractWhileWiping,0
;   onlyWipeOutlines,1
;   avoidCrossingOutline,0
;   maxMovementDetourFactor,3
;   toolChangeRetractionDistance,12
;   toolChangeExtraRestartDistance,-0.5
;   toolChangeRetractionSpeed,600
;   externalThinWallType,1
;   internalThinWallType,1
;   thinWallAllowedOverlapPercentage,10
;   singleExtrusionMinLength,1
;   singleExtrusionMinPrintingWidthPercentage,50
;   singleExtrusionMaxPrintingWidthPercentage,200
;   singleExtrusionEndpointExtension,0.2
;   horizontalSizeCompensation,0
G90
M82
M106 S0
M140 S60
M190 S60
M104 S210 T0
M109 S210 T0
G28 ; home all axes
G1 X0 Y5 Z0.2 F3000 ; get ready to prime
G92 E0 ; reset extrusion distance
G1 X200 E20 F600 ; prime nozzle
G92 E0
G1 E-1.0000 F3400
G1 Z0.300 F1002
; process Process1
; layer 1, Z = 0.300
T0
; tool H0.300 W0.480
; outer perimeter
G1 X75.740 Y75.009 F4200
G1 E0.0000 F1020
G92 E0
G1 X80.660 Y74.988 E0.2946 F1890
G1 X84.714 Y75.001 E0.5373
G1 X130.786 Y75.001 E3.2955
G1 X134.840 Y74.988 E3.5382
G1 X139.760 Y75.009 E3.8328
G1 X139.760 Y83.740 E4.3555
G1 X141.740 Y83.740 E4.4740
G1 X141.740 Y75.010 E4.9967
G1 X144.260 Y75.010 E5.1476
G1 X144.260 Y95.484 E6.3734
G1 X144.232 Y95.696 E6.3862
G1 X144.156 Y95.879 E6.3980
G1 X144.036 Y96.036 E6.4099
G1 X143.879 Y96.156 E6.4217
G1 X143.696 Y96.232 E6.4336
G1 X143.484 Y96.260 E6.4463
G1 X90.656 Y96.260 E9.6091
G1 X90.226 Y96.305 E9.6350
G1 X89.768 Y96.453 E9.6638
G1 X89.618 Y96.519 E9.6736
G1 X89.237 Y96.752 E9.7004
G1 X88.854 Y97.086 E9.7307
G1 X88.545 Y97.502 E9.7618
G1 X88.460 Y97.781 E9.7792
G1 X88.387 Y97.951 E9.7903
G1 X88.390 Y105.650 E10.2512
G1 X88.313 Y105.895 E10.2666
G1 X88.207 Y106.063 E10.2785
G1 X88.064 Y106.207 E10.2906
G1 X87.896 Y106.312 E10.3025
G1 X87.650 Y106.390 E10.3179
G1 X83.084 Y106.387 E10.5913
G1 X76.731 Y106.414 E10.9717
G1 X76.574 Y106.413 E10.9810
G1 X76.483 Y106.395 E10.9866
G1 X76.382 Y106.342 E10.9934
G1 X76.314 Y106.273 E10.9992
G1 X76.244 Y106.140 E11.0083
G1 X76.220 Y105.982 E11.0178
G1 X76.213 Y97.341 E11.5351
G1 X76.155 Y97.029 E11.5541
G1 X76.040 Y96.733 E11.5731
G1 X75.874 Y96.464 E11.5920
G1 X75.740 Y96.314 E11.6041
G1 X75.740 Y75.009 E12.8796
; inner perimeter
G1 X76.220 Y75.487 F4200
G92 E0
G1 X80.659 Y75.468 E0.2658 F1995
G1 X84.713 Y75.481 E0.5085
G1 X130.787 Y75.481 E3.2668
G1 X134.841 Y75.468 E3.5095
G1 X139.280 Y75.487 E3.7753
G1 X139.280 Y84.220 E4.2982
G1 X142.220 Y84.220 E4.4742
G1 X142.220 Y75.490 E4.9968
G1 X143.780 Y75.490 E5.0902
G1 X143.780 Y95.453 E6.2854
G1 X143.764 Y95.571 E6.2925
G1 X143.737 Y95.637 E6.2968
G1 X143.694 Y95.694 E6.3011
G1 X143.637 Y95.737 E6.3054
G1 X143.571 Y95.764 E6.3096
G1 X143.453 Y95.780 E6.3168
G1 X142.729 Y95.780 E6.3601
G1 X142.610 Y95.539 E6.3762
G1 X142.745 Y95.363 E6.3895
G1 X142.917 Y94.947 E6.4165
G1 X142.970 Y94.547 E6.4406
G1 X142.970 Y87.453 E6.8653
G1 X142.917 Y87.053 E6.8894
G1 X142.745 Y86.637 E6.9164
G1 X142.471 Y86.279 E6.9434
G1 X142.113 Y86.005 E6.9704
G1 X141.697 Y85.833 E6.9974
G1 X141.297 Y85.780 E7.0215
G1 X78.703 Y85.780 E10.7689
G1 X78.303 Y85.833 E10.7930
G1 X77.887 Y86.005 E10.8200
G1 X77.529 Y86.279 E10.8470
G1 X77.255 Y86.637 E10.8740
G1 X77.083 Y87.053 E10.9010
G1 X77.030 Y87.453 E10.9251
G1 X77.030 Y94.547 E11.3498
G1 X77.083 Y94.947 E11.3739
G1 X77.255 Y95.363 E11.4009
G1 X77.529 Y95.721 E11.4279
G1 X77.887 Y95.995 E11.4549
G1 X78.303 Y96.167 E11.4818
G1 X78.703 Y96.220 E11.5060
G1 X88.690 Y96.220 E12.1039
G1 X88.795 Y96.500 E12.1218
G1 X88.500 Y96.758 E12.1453
G1 X88.109 Y97.283 E12.1845
G1 X88.008 Y97.617 E12.2053
G1 X87.907 Y97.852 E12.2207
G1 X87.910 Y105.576 E12.6831
G1 X87.873 Y105.692 E12.6904
G1 X87.829 Y105.762 E12.6953
G1 X87.763 Y105.829 E12.7010
G1 X87.693 Y105.873 E12.7059
G1 X87.577 Y105.910 E12.7132
G1 X83.083 Y105.907 E12.9823
G1 X76.700 Y105.934 E13.3644
G1 X76.693 Y97.297 E13.8815
G1 X76.619 Y96.897 E13.9058
G1 X76.472 Y96.518 E13.9302
G1 X76.220 Y96.112 E13.9588
G1 X76.220 Y75.487 E15.1936
; outer perimeter
G1 X78.429 Y86.300 F4200
G92 E0
G1 X78.129 Y86.424 E0.0194 F1890
G1 X77.872 Y86.622 E0.0388
G1 X77.674 Y86.879 E0.0582
G1 X77.550 Y87.179 E0.0776
G1 X77.510 Y87.484 E0.0961
G1 X77.510 Y94.516 E0.5171
G1 X77.550 Y94.821 E0.5355
G1 X77.674 Y95.121 E0.5549
G1 X77.872 Y95.378 E0.5744
G1 X78.129 Y95.576 E0.5938
G1 X78.429 Y95.700 E0.6132
G1 X78.734 Y95.740 E0.6316
G1 X141.266 Y95.740 E4.3753
G1 X141.571 Y95.700 E4.3938
G1 X141.871 Y95.576 E4.4132
G1 X142.128 Y95.378 E4.4326
G1 X142.326 Y95.121 E4.4520
G1 X142.450 Y94.821 E4.4714
G1 X142.490 Y94.516 E4.4899
G1 X142.490 Y87.484 E4.9108
G1 X142.450 Y87.179 E4.9293
G1 X142.326 Y86.879 E4.9487
G1 X142.128 Y86.622 E4.9681
G1 X141.871 Y86.424 E4.9875
G1 X141.571 Y86.300 E5.0069
G1 X141.266 Y86.260 E5.0254
G1 X78.734 Y86.260 E8.7690
G1 X78.429 Y86.300 E8.7875
G92 E0
G1 E-1.0000 F3400
; internal single extrusion
G1 X88.959 Y96.051 F4200
G1 E0.0000 F3400
G92 E0
; tool H0.300 W0.240
G1 X89.055 Y96.118 E0.0035 F1890
; tool H0.300 W0.332
G1 X89.151 Y96.184 E0.0083
; tool H0.300 W0.417
G1 X89.247 Y96.203 E0.0134
; tool H0.300 W0.409
G1 X89.343 Y96.176 E0.0185
; tool H0.300 W0.356
G1 X89.438 Y96.150 E0.0229
; tool H0.300 W0.310
G1 X89.534 Y96.130 E0.0267
; tool H0.300 W0.270
G1 X89.630 Y96.110 E0.0300
; tool H0.300 W0.240
G1 X89.726 Y96.094 E0.0329
G1 X89.918 Y96.064 E0.0387
G1 X90.109 Y96.034 E0.0445
G1 X90.205 Y96.023 E0.0474
G1 X90.692 Y95.999 E0.0620
G1 X141.263 Y96.001 F4200
; tool H0.300 W0.480
G92 E0
; tool H0.300 W0.240
G1 X141.551 Y95.982 E0.0087 F1890
G1 X141.646 Y95.976 E0.0115
G1 X141.728 Y95.960 E0.0140
G1 X141.884 Y95.929 E0.0188
G1 X141.962 Y95.913 E0.0211
G1 X142.055 Y95.894 E0.0240
; tool H0.300 W0.273
G1 X142.149 Y95.863 E0.0274
; tool H0.300 W0.331
G1 X142.227 Y95.837 E0.0307
; tool H0.300 W0.350
G1 X142.296 Y95.844 E0.0338
; tool H0.300 W0.286
G1 X142.388 Y95.901 E0.0377
; tool H0.300 W0.240
G1 X142.480 Y95.958 E0.0409
; tool H0.300 W0.480
; solid layer
G1 X143.296 Y95.099 F4200
G92 E0
G1 X143.372 Y95.176 E0.0065 F2100
G1 X143.372 Y87.030 F4200
G92 E0
G1 X143.319 Y86.977 E0.0045 F2100
G1 X143.101 Y75.898 F4200
G92 E0
G1 X143.372 Y76.169 E0.0229 F2100
G1 X143.372 Y76.847 E0.0636
G1 X142.628 Y76.103 E0.1266
G1 X142.628 Y76.782 E0.1672
G1 X143.372 Y77.526 E0.2302
G1 X143.372 Y78.205 E0.2708
G1 X142.628 Y77.461 E0.3338
G1 X142.628 Y78.140 E0.3745
G1 X143.372 Y78.884 E0.4375
G1 X143.372 Y79.563 E0.4781
G1 X142.628 Y78.819 E0.5411
G1 X142.628 Y79.497 E0.5817
G1 X143.372 Y80.241 E0.6447
G1 X143.372 Y80.920 E0.6854
G1 X142.628 Y80.176 E0.7484
G1 X142.628 Y80.855 E0.7890
G1 X143.372 Y81.599 E0.8520
G1 X143.372 Y82.278 E0.8926
G1 X142.628 Y81.534 E0.9556
G1 X142.628 Y82.213 E0.9963
G1 X143.372 Y82.957 E1.0593
G1 X143.372 Y83.636 E1.0999
G1 X142.628 Y82.892 E1.1629
G1 X142.628 Y83.570 E1.2035
G1 X143.372 Y84.314 E1.2665
G1 X143.372 Y84.993 E1.3072
G1 X142.628 Y84.249 E1.3702
G1 X142.628 Y84.628 E1.3928
G1 X142.328 Y84.628 E1.4108
G1 X143.372 Y85.672 E1.4992
G1 X143.372 Y86.351 E1.5398
G1 X141.649 Y84.628 E1.6857
G1 X140.970 Y84.628 E1.7263
G1 X141.773 Y85.431 E1.7943
G1 X141.324 Y85.372 E1.8215
G1 X141.035 Y85.372 E1.8388
G1 X140.291 Y84.628 E1.9018
G1 X139.613 Y84.628 E1.9424
G1 X140.357 Y85.372 E2.0054
G1 X139.678 Y85.372 E2.0460
G1 X138.934 Y84.628 E2.1090
G1 X138.872 Y84.628 E2.1127
G1 X138.872 Y84.566 E2.1164
G1 X130.195 Y75.889 E2.8511
G1 X130.787 Y75.889 E2.8865
G1 X130.873 Y75.889 E2.8917
G1 X138.872 Y83.887 E3.5689
G1 X138.872 Y83.209 E3.6096
G1 X131.550 Y75.887 E4.2295
G1 X132.227 Y75.884 E4.2700
G1 X138.872 Y82.530 E4.8326
G1 X138.872 Y81.851 E4.8733
G1 X132.903 Y75.882 E5.3786
G1 X133.580 Y75.880 E5.4191
G1 X138.872 Y81.172 E5.8672
G1 X138.872 Y80.493 E5.9078
G1 X134.257 Y75.878 E6.2985
G1 X134.840 Y75.876 E6.3335
G1 X134.934 Y75.877 E6.3391
G1 X138.872 Y79.814 E6.6725
G1 X138.872 Y79.136 E6.7131
G1 X135.616 Y75.879 E6.9888
G1 X136.298 Y75.882 E7.0296
G1 X138.872 Y78.457 E7.2476
G1 X138.872 Y77.778 E7.2882
G1 X136.979 Y75.885 E7.4485
G1 X137.661 Y75.888 E7.4893
G1 X138.872 Y77.099 E7.5919
G1 X138.872 Y76.420 E7.6325
G1 X138.342 Y75.891 E7.6773
G1 X129.516 Y75.889 F4200
G92 E0
G1 X138.999 Y85.372 E0.8029 F2100
G1 X138.320 Y85.372 E0.8435
G1 X128.837 Y75.889 E1.6464
G1 X128.158 Y75.889 E1.6871
G1 X137.641 Y85.372 E2.4900
G1 X136.963 Y85.372 E2.5306
G1 X127.480 Y75.889 E3.3335
G1 X126.801 Y75.889 E3.3741
G1 X136.284 Y85.372 E4.1770
G1 X135.605 Y85.372 E4.2177
G1 X126.122 Y75.889 E5.0205
G1 X125.443 Y75.889 E5.0612
G1 X134.926 Y85.372 E5.8641
G1 X134.247 Y85.372 E5.9047
G1 X124.764 Y75.889 E6.7076
G1 X124.085 Y75.889 E6.7482
G1 X133.568 Y85.372 E7.5511
G1 X132.890 Y85.372 E7.5918
G1 X123.407 Y75.889 E8.3947
G1 X122.728 Y75.889 E8.4353
G1 X132.211 Y85.372 E9.2382
G1 X131.532 Y85.372 E9.2788
G1 X122.049 Y75.889 E10.0817
G1 X121.370 Y75.889 E10.1224
G1 X130.853 Y85.372 E10.9253
G1 X130.174 Y85.372 E10.9659
G1 X120.691 Y75.889 E11.7688
G1 X120.012 Y75.889 E11.8094
G1 X129.495 Y85.372 E12.6123
G1 X128.817 Y85.372 E12.6530
G1 X119.334 Y75.889 E13.4558
G1 X118.655 Y75.889 E13.4965
G1 X128.138 Y85.372 E14.2994
G1 X127.459 Y85.372 E14.3400
G1 X117.976 Y75.889 E15.1429
G1 X117.297 Y75.889 E15.1835
G1 X126.780 Y85.372 E15.9864
G1 X126.101 Y85.372 E16.0271
G1 X116.618 Y75.889 E16.8300
G1 X115.940 Y75.889 E16.8706
G1 X125.423 Y85.372 E17.6735
G1 X124.744 Y85.372 E17.7141
G1 X115.261 Y75.889 E18.5170
G1 X114.582 Y75.889 E18.5577
G1 X124.065 Y85.372 E19.3606
G1 X123.386 Y85.372 E19.4012
G1 X113.903 Y75.889 E20.2041
G1 X113.224 Y75.889 E20.2447
G1 X122.707 Y85.372 E21.0476
G1 X122.028 Y85.372 E21.0883
G1 X112.545 Y75.889 E21.8912
G1 X111.867 Y75.889 E21.9318
G1 X121.350 Y85.372 E22.7347
G1 X120.671 Y85.372 E22.7753
G1 X111.188 Y75.889 E23.5782
G1 X110.509 Y75.889 E23.6189
G1 X119.992 Y85.372 E24.4217
G1 X119.313 Y85.372 E24.4624
G1 X109.830 Y75.889 E25.2653
G1 X109.151 Y75.889 E25.3059
G1 X118.634 Y85.372 E26.1088
G1 X117.955 Y85.372 E26.1494
G1 X108.473 Y75.889 E26.9523
G1 X107.794 Y75.889 E26.9930
G1 X117.277 Y85.372 E27.7959
G1 X116.598 Y85.372 E27.8365
G1 X107.115 Y75.889 E28.6394
G1 X106.436 Y75.889 E28.6800
G1 X115.919 Y85.372 E29.4829
G1 X115.240 Y85.372 E29.5236
G1 X105.757 Y75.889 E30.3265
G1 X105.078 Y75.889 E30.3671
G1 X114.561 Y85.372 E31.1700
G1 X113.883 Y85.372 E31.2106
G1 X104.400 Y75.889 E32.0135
G1 X103.721 Y75.889 E32.0542
G1 X113.204 Y85.372 E32.8570
G1 X112.525 Y85.372 E32.8977
G1 X103.042 Y75.889 E33.7006
G1 X102.363 Y75.889 E33.7412
G1 X111.846 Y85.372 E34.5441
G1 X111.167 Y85.372 E34.5847
G1 X101.684 Y75.889 E35.3876
G1 X101.005 Y75.889 E35.4283
G1 X110.488 Y85.372 E36.2312
G1 X109.810 Y85.372 E36.2718
G1 X100.327 Y75.889 E37.0747
G1 X99.648 Y75.889 E37.1153
G1 X109.131 Y85.372 E37.9182
G1 X108.452 Y85.372 E37.9589
G1 X98.969 Y75.889 E38.7618
G1 X98.290 Y75.889 E38.8024
G1 X107.773 Y85.372 E39.6053
G1 X107.094 Y85.372 E39.6459
