; G-Code generated by Simplify3D(R) Version 4.0.0
; Oct 21, 2020 at 9:08:20 PM
; Settings Summary
;   processName,Process1
;   applyToModels,leyarFanMount
;   profileName,new profile (modified)
;   profileVersion,2020-09-07 14:01:24
;   baseProfile,Default (modified)
;   printMaterial,PLA
;   printQuality,Medium
;   printExtruders,
;   extruderName,Primary Extruder
;   extruderToolheadNumber,0
;   extruderDiameter,0.4
;   extruderAutoWidth,0
;   extruderWidth,0.4
;   extrusionMultiplier,0.9
;   extruderUseRetract,1
;   extruderRetractionDistance,1
;   extruderExtraRestartDistance,0
;   extruderRetractionZLift,0
;   extruderRetractionSpeed,1800
;   extruderUseCoasting,0
;   extruderCoastingDistance,0.2
;   extruderUseWipe,0
;   extruderWipeDistance,5
;   primaryExtruder,0
;   layerHeight,0.3
;   topSolidLayers,3
;   bottomSolidLayers,3
;   perimeterOutlines,2
;   printPerimetersInsideOut,1
;   startPointOption,2
;   startPointOriginX,0
;   startPointOriginY,0
;   sequentialIslands,0
;   spiralVaseMode,0
;   firstLayerHeightPercentage,100
;   firstLayerWidthPercentage,103
;   firstLayerUnderspeed,0.5
;   useRaft,0
;   raftExtruder,0
;   raftTopLayers,3
;   raftBaseLayers,2
;   raftOffset,3
;   raftSeparationDistance,0.14
;   raftTopInfill,100
;   aboveRaftSpeedMultiplier,0.3
;   useSkirt,0
;   skirtExtruder,0
;   skirtLayers,1
;   skirtOutlines,2
;   skirtOffset,4
;   usePrimePillar,0
;   primePillarExtruder,999
;   primePillarWidth,12
;   primePillarLocation,7
;   primePillarSpeedMultiplier,1
;   useOozeShield,0
;   oozeShieldExtruder,999
;   oozeShieldOffset,2
;   oozeShieldOutlines,1
;   oozeShieldSidewallShape,1
;   oozeShieldSidewallAngle,30
;   oozeShieldSpeedMultiplier,1
;   infillExtruder,0
;   internalInfillPattern,Rectilinear
;   externalInfillPattern,Rectilinear
;   infillPercentage,15
;   outlineOverlapPercentage,15
;   infillExtrusionWidthPercentage,100
;   minInfillLength,5
;   infillLayerInterval,1
;   internalInfillAngles,45,-45
;   overlapInternalInfillAngles,0
;   externalInfillAngles,45,-45
;   generateSupport,1
;   supportExtruder,0
;   supportInfillPercentage,30
;   supportExtraInflation,0
;   supportBaseLayers,0
;   denseSupportExtruder,0
;   denseSupportLayers,0
;   denseSupportInfillPercentage,70
;   supportLayerInterval,1
;   supportHorizontalPartOffset,0.3
;   supportUpperSeparationLayers,1
;   supportLowerSeparationLayers,1
;   supportType,1
;   supportGridSpacing,4
;   maxOverhangAngle,45
;   supportAngles,0
;   temperatureName,Primary Extruder,Hot Bed
;   temperatureNumber,0,1
;   temperatureSetpointCount,1,1
;   temperatureSetpointLayers,1,1
;   temperatureSetpointTemperatures,210,60
;   temperatureStabilizeAtStartup,1,0
;   temperatureHeatedBed,0,1
;   temperatureRelayBetweenLayers,0,0
;   temperatureRelayBetweenLoops,0,0
;   fanLayers,1,2
;   fanSpeeds,0,100
;   blipFanToFullPower,0
;   adjustSpeedForCooling,1
;   minSpeedLayerTime,15
;   minCoolingSpeedSlowdown,20
;   increaseFanForCooling,0
;   minFanLayerTime,45
;   maxCoolingFanSpeed,100
;   increaseFanForBridging,0
;   bridgingFanSpeed,100
;   use5D,1
;   relativeEdistances,0
;   allowEaxisZeroing,1
;   independentExtruderAxes,0
;   includeM10123,0
;   stickySupport,1
;   applyToolheadOffsets,0
;   gcodeXoffset,0
;   gcodeYoffset,0
;   gcodeZoffset,0
;   overrideMachineDefinition,0
;   machineTypeOverride,0
;   strokeXoverride,200
;   strokeYoverride,200
;   strokeZoverride,200
;   originOffsetXoverride,0
;   originOffsetYoverride,0
;   originOffsetZoverride,0
;   homeXdirOverride,-1
;   homeYdirOverride,-1
;   homeZdirOverride,-1
;   flipXoverride,1
;   flipYoverride,-1
;   flipZoverride,1
;   toolheadOffsets,0,0|0,0|0,0|0,0|0,0|0,0
;   overrideFirmwareConfiguration,0
;   firmwareTypeOverride,RepRap (Marlin/Repetier/Sprinter)
;   GPXconfigOverride,r2
;   baudRateOverride,115200
;   overridePrinterModels,0
;   printerModelsOverride
;   startingGcode,G28 ; home all axes,G1 X0 Y5 Z0.2 F3000 ; get ready to prime,G92 E0 ; reset extrusion distance,G1 Y150 E20 F600 ; prime nozzle
;   layerChangeGcode,
;   retractionGcode,
;   toolChangeGcode,
;   endingGcode,M104 S0 ; turn off extruder,M140 S0 ; turn off bedG1 X0 Y0; home,M84 ; disable motors,M107 ; fan off
;   exportFileFormat,gcode
;   celebration,0
;   celebrationSong,Random Song
;   postProcessing,
;   defaultSpeed,4600
;   outlineUnderspeed,0.5
;   solidInfillUnderspeed,0.8
;   supportUnderspeed,0.8
;   rapidXYspeed,4800
;   rapidZspeed,1000
;   minBridgingArea,50
;   bridgingExtraInflation,0
;   bridgingExtrusionMultiplier,1
;   bridgingSpeedMultiplier,1
;   useFixedBridgingAngle,0
;   fixedBridgingAngle,0
;   applyBridgingToPerimeters,0
;   filamentDiameters,1.75|1.75|1.75|1.75|1.75|1.75
;   filamentPricesPerKg,46|46|46|46|46|46
;   filamentDensities,1.25|1.25|1.25|1.25|1.25|1.25
;   useMinPrintHeight,0
;   minPrintHeight,0
;   useMaxPrintHeight,0
;   maxPrintHeight,0
;   useDiaphragm,0
;   diaphragmLayerInterval,20
;   robustSlicing,1
;   mergeAllIntoSolid,0
;   onlyRetractWhenCrossingOutline,1
;   retractBetweenLayers,1
;   useRetractionMinTravel,0
;   retractionMinTravel,3
;   retractWhileWiping,0
;   onlyWipeOutlines,1
;   avoidCrossingOutline,0
;   maxMovementDetourFactor,3
;   toolChangeRetractionDistance,12
;   toolChangeExtraRestartDistance,-0.5
;   toolChangeRetractionSpeed,600
;   externalThinWallType,1
;   internalThinWallType,1
;   thinWallAllowedOverlapPercentage,10
;   singleExtrusionMinLength,1
;   singleExtrusionMinPrintingWidthPercentage,50
;   singleExtrusionMaxPrintingWidthPercentage,200
;   singleExtrusionEndpointExtension,0.2
;   horizontalSizeCompensation,0
G90
M82
M106 S0
M140 S60
M104 S210 T0
M109 S210 T0
G28 ; home all axes
G1 X0 Y5 Z0.2 F3000 ; get ready to prime
G92 E0 ; reset extrusion distance
G1 Y150 E20 F600 ; prime nozzle
G92 E0
G1 E-1.0000 F1800
G1 Z0.300 F1000
; process Process1
; layer 1, Z = 0.300
T0
; tool H0.300 W0.412
; external single extrusion
G1 X72.840 Y64.397 F4800
G1 E0.0000 F540
G92 E0
; tool H0.300 W0.386
G1 X96.760 Y64.397 E1.0374 F1150
G92 E0
G1 E-1.0000 F1800
; tool H0.300 W0.412
; support
G1 X97.300 Y64.000 F4800
G1 E0.0000 F1800
G92 E0
G1 X98.020 Y64.000 E0.0333 F1840
G1 X98.020 Y65.333 E0.0950
G1 X97.300 Y65.333 E0.1283
G1 X97.300 Y65.830 E0.1513
G1 X73.980 Y65.830 E1.2298
G1 X73.980 Y66.667 E1.2684
G1 X98.020 Y66.667 E2.3802
G1 X98.020 Y68.000 E2.4419
G1 X73.980 Y68.000 E3.5537
G1 X73.980 Y69.333 E3.6154
G1 X98.020 Y69.333 E4.7272
G1 X98.020 Y70.667 E4.7888
G1 X73.980 Y70.667 E5.9007
G1 X73.980 Y72.000 E5.9623
G1 X102.020 Y72.000 E7.2591
G1 X102.020 Y73.333 E7.3208
G1 X73.980 Y73.333 E8.6176
G1 X73.980 Y74.667 E8.6792
G1 X102.020 Y74.667 E9.9760
G1 X102.020 Y75.980 E10.0368
G1 X122.020 Y75.980 E10.9618
G1 X122.020 Y76.000 E10.9627
G1 X73.980 Y76.000 E13.1844
G1 X73.980 Y77.333 E13.2461
G1 X122.020 Y77.333 E15.4679
G1 X122.020 Y78.667 E15.5295
G1 X73.980 Y78.667 E17.7513
G1 X73.980 Y80.000 E17.8130
G1 X122.020 Y80.000 E20.0347
G1 X122.020 Y81.333 E20.0964
G1 X101.980 Y81.333 E21.0232
G1 X101.980 Y80.020 E21.0839
G1 X98.020 Y80.020 E21.2671
G1 X98.020 Y81.333 E21.3278
G1 X73.980 Y81.333 E22.4396
G1 X73.980 Y82.667 E22.5013
G1 X98.020 Y82.667 E23.6131
G1 X98.020 Y83.980 E23.6738
G1 X101.980 Y83.980 E23.8570
G1 X101.980 Y82.667 E23.9177
G1 X122.020 Y82.667 E24.8445
G1 X122.020 Y84.000 E24.9062
G1 X73.980 Y84.000 E27.1280
G1 X73.980 Y85.333 E27.1896
G1 X122.020 Y85.333 E29.4114
G1 X122.020 Y86.667 E29.4731
G1 X73.980 Y86.667 E31.6948
G1 X73.980 Y88.000 E31.7565
G1 X126.020 Y88.000 E34.1633
G1 X126.020 Y89.333 E34.2249
G1 X73.980 Y89.333 E36.6317
G1 X73.980 Y90.667 E36.6933
G1 X126.020 Y90.667 E39.1001
G1 X126.020 Y92.000 E39.1618
G1 X73.980 Y92.000 E41.5685
G1 X73.980 Y93.333 E41.6302
G1 X118.020 Y93.333 E43.6670
G1 X118.020 Y94.667 E43.7286
G1 X73.980 Y94.667 E45.7654
G1 X73.980 Y96.000 E45.8271
G1 X126.020 Y96.000 E48.2338
G1 X126.020 Y97.333 E48.2955
G1 X73.980 Y97.333 E50.7022
G1 X73.980 Y98.667 E50.7639
G1 X126.020 Y98.667 E53.1707
G1 X126.020 Y100.000 E53.2323
G1 X73.980 Y100.000 E55.6391
G1 X73.980 Y101.333 E55.7007
G1 X126.020 Y101.333 E58.1075
G1 X126.020 Y102.667 E58.1692
G1 X73.980 Y102.667 E60.5759
G1 X73.980 Y104.000 E60.6376
G1 X126.020 Y104.000 E63.0443
G1 X126.020 Y104.020 E63.0453
G1 X122.020 Y104.020 E63.2303
G1 X122.020 Y105.333 E63.2910
G1 X73.980 Y105.333 E65.5128
G1 X73.980 Y106.667 E65.5744
G1 X122.020 Y106.667 E67.7962
G1 X122.020 Y108.000 E67.8579
G1 X73.980 Y108.000 E70.0796
G1 X73.980 Y109.333 E70.1413
G1 X94.020 Y109.333 E71.0681
G1 X94.020 Y110.667 E71.1298
G1 X73.980 Y110.667 E72.0566
G1 X73.980 Y112.000 E72.1182
G1 X94.020 Y112.000 E73.0451
G1 X94.020 Y112.020 E73.0460
G1 X90.020 Y112.020 E73.2310
G1 X90.020 Y113.333 E73.2917
G1 X73.980 Y113.333 E74.0335
G1 X73.980 Y114.667 E74.0952
G1 X90.020 Y114.667 E74.8370
G1 X90.020 Y116.000 E74.8987
G1 X73.980 Y116.000 E75.6405
G1 X73.980 Y117.333 E75.7022
G1 X90.020 Y117.333 E76.4440
G1 X90.020 Y118.667 E76.5057
G1 X73.980 Y118.667 E77.2475
G1 X73.980 Y120.000 E77.3091
G1 X90.020 Y120.000 E78.0510
G1 X90.020 Y121.333 E78.1126
G1 X73.980 Y121.333 E78.8544
G1 X73.980 Y122.667 E78.9161
G1 X90.020 Y122.667 E79.6579
G1 X90.020 Y124.000 E79.7196
G1 X73.980 Y124.000 E80.4614
G1 X73.980 Y125.333 E80.5231
G1 X90.020 Y125.333 E81.2649
G1 X90.020 Y126.667 E81.3266
G1 X73.980 Y126.667 E82.0684
G1 X73.980 Y128.000 E82.1301
G1 X90.020 Y128.000 E82.8719
G1 X90.020 Y129.333 E82.9335
G1 X81.980 Y129.333 E83.3054
G1 X81.980 Y128.020 E83.3661
G1 X78.020 Y128.020 E83.5493
G1 X78.020 Y129.333 E83.6100
G1 X73.980 Y129.333 E83.7968
G1 X73.980 Y130.667 E83.8585
G1 X78.020 Y130.667 E84.0453
G1 X78.020 Y131.980 E84.1061
G1 X81.980 Y131.980 E84.2892
G1 X81.980 Y130.667 E84.3500
G1 X90.020 Y130.667 E84.7218
G1 X90.020 Y132.000 E84.7835
G1 X73.980 Y132.000 E85.5253
G1 X73.980 Y133.333 E85.5870
G1 X86.020 Y133.333 E86.1438
G1 X86.020 Y134.667 E86.2054
G1 X73.980 Y134.667 E86.7623
G1 X73.980 Y136.000 E86.8239
G1 X86.020 Y136.000 E87.3808
G92 E0
G1 E-1.0000 F1800
G1 X121.980 Y94.667 F4800
G1 E0.0000 F1800
G92 E0
G1 X126.020 Y94.667 E0.1868 F1840
G1 X126.020 Y93.333 E0.2485
G1 X121.980 Y93.333 E0.4353
G92 E0
G1 E-1.0000 F1800
; layer 2, Z = 0.600
M106 S255
; tool H0.300 W0.400
; outer perimeter
G1 X96.600 Y65.130 F4800
G1 Z0.600 F1000
G1 E0.0000 F1800
G92 E0
G1 X73.000 Y65.130 E1.0597 F2300
G1 X73.000 Y64.371 E1.0938
G1 X96.600 Y64.371 E2.1534
G1 X96.600 Y65.130 E2.1875
; internal single extrusion
G1 X96.356 Y64.751 F4800
G92 E0
; tool H0.300 W0.351
G1 X73.244 Y64.751 E0.9109 F2300
G92 E0
G1 E-1.0000 F1800
; tool H0.300 W0.400
; support
G1 X73.980 Y68.000 F4800
G1 E0.0000 F1800
G92 E0
G1 X98.020 Y68.000 E1.0794 F3680
G1 X98.020 Y69.333 E1.1393
G1 X73.980 Y69.333 E2.2187
G1 X73.980 Y70.667 E2.2786
G1 X98.020 Y70.667 E3.3580
G1 X98.020 Y71.980 E3.4170
G1 X102.020 Y71.980 E3.5966
G1 X102.020 Y72.000 E3.5975
G1 X73.980 Y72.000 E4.8565
G1 X73.980 Y73.333 E4.9164
G1 X102.020 Y73.333 E6.1754
G1 X102.020 Y74.667 E6.2353
G1 X73.980 Y74.667 E7.4943
G1 X73.980 Y76.000 E7.5542
G1 X122.020 Y76.000 E9.7112
G1 X122.020 Y77.333 E9.7711
G1 X73.980 Y77.333 E11.9281
G1 X73.980 Y78.667 E11.9880
G1 X122.020 Y78.667 E14.1451
G1 X122.020 Y80.000 E14.2049
G1 X73.980 Y80.000 E16.3620
G1 X73.980 Y81.333 E16.4219
G1 X98.020 Y81.333 E17.5013
G1 X98.020 Y82.667 E17.5612
G1 X73.980 Y82.667 E18.6406
G1 X73.980 Y84.000 E18.7004
G1 X122.020 Y84.000 E20.8575
G1 X122.020 Y85.333 E20.9174
G1 X73.980 Y85.333 E23.0744
G1 X73.980 Y86.667 E23.1343
G1 X122.020 Y86.667 E25.2913
G1 X122.020 Y87.980 E25.3503
G1 X126.020 Y87.980 E25.5299
G1 X126.020 Y88.000 E25.5308
G1 X73.980 Y88.000 E27.8675
G1 X73.980 Y89.333 E27.9273
G1 X126.020 Y89.333 E30.2640
G1 X126.020 Y90.667 E30.3239
G1 X73.980 Y90.667 E32.6605
G1 X73.980 Y92.000 E32.7204
G1 X126.020 Y92.000 E35.0570
G1 X126.020 Y93.333 E35.1169
G1 X121.980 Y93.333 E35.2983
G1 X121.980 Y92.020 E35.3573
G1 X118.020 Y92.020 E35.5351
G1 X118.020 Y93.333 E35.5941
G1 X73.980 Y93.333 E37.5715
G1 X73.980 Y94.667 E37.6314
G1 X118.020 Y94.667 E39.6088
G1 X118.020 Y95.980 E39.6678
G1 X121.980 Y95.980 E39.8456
G1 X121.980 Y94.667 E39.9046
G1 X126.020 Y94.667 E40.0860
G1 X126.020 Y96.000 E40.1458
G1 X73.980 Y96.000 E42.4825
G1 X73.980 Y97.333 E42.5424
G1 X126.020 Y97.333 E44.8790
G1 X126.020 Y98.667 E44.9389
G1 X73.980 Y98.667 E47.2756
G1 X73.980 Y100.000 E47.3354
G1 X126.020 Y100.000 E49.6721
G1 X126.020 Y101.333 E49.7320
G1 X73.980 Y101.333 E52.0686
G1 X73.980 Y102.667 E52.1285
G1 X126.020 Y102.667 E54.4651
G1 X126.020 Y104.000 E54.5250
G1 X73.980 Y104.000 E56.8617
G1 X73.980 Y105.333 E56.9215
G1 X122.020 Y105.333 E59.0786
G1 X122.020 Y106.667 E59.1384
G1 X73.980 Y106.667 E61.2955
G1 X73.980 Y108.000 E61.3554
G1 X122.020 Y108.000 E63.5124
G1 X122.020 Y108.020 E63.5133
G1 X94.020 Y108.020 E64.7706
G1 X94.020 Y109.333 E64.8295
G1 X73.980 Y109.333 E65.7293
G1 X73.980 Y110.667 E65.7892
G1 X94.020 Y110.667 E66.6890
G1 X94.020 Y112.000 E66.7489
G1 X73.980 Y112.000 E67.6487
G1 X73.980 Y113.333 E67.7086
G1 X90.020 Y113.333 E68.4288
G1 X90.020 Y114.667 E68.4887
G1 X73.980 Y114.667 E69.2089
G1 X73.980 Y116.000 E69.2688
G1 X90.020 Y116.000 E69.9890
G1 X90.020 Y117.333 E70.0488
G1 X73.980 Y117.333 E70.7691
G1 X73.980 Y118.667 E70.8289
G1 X90.020 Y118.667 E71.5491
G1 X90.020 Y120.000 E71.6090
G1 X73.980 Y120.000 E72.3292
G1 X73.980 Y121.333 E72.3891
G1 X90.020 Y121.333 E73.1093
G1 X90.020 Y122.667 E73.1692
G1 X73.980 Y122.667 E73.8894
G1 X73.980 Y124.000 E73.9493
G1 X90.020 Y124.000 E74.6695
G1 X90.020 Y125.333 E74.7293
G1 X73.980 Y125.333 E75.4496
G1 X73.980 Y126.667 E75.5094
G1 X90.020 Y126.667 E76.2296
G1 X90.020 Y128.000 E76.2895
G1 X73.980 Y128.000 E77.0097
G1 X73.980 Y129.333 E77.0696
G1 X78.020 Y129.333 E77.2510
G1 X78.020 Y130.667 E77.3109
G1 X73.980 Y130.667 E77.4923
G1 X73.980 Y132.000 E77.5521
G1 X90.020 Y132.000 E78.2723
G1 X90.020 Y132.020 E78.2732
G1 X86.020 Y132.020 E78.4528
G1 X86.020 Y133.333 E78.5118
G1 X73.980 Y133.333 E79.0524
G1 X73.980 Y134.667 E79.1123
G1 X86.020 Y134.667 E79.6529
G1 X86.020 Y136.000 E79.7128
G1 X73.980 Y136.000 E80.2534
G92 E0
G1 E-1.0000 F1800
G1 X81.980 Y130.667 F4800
G1 E0.0000 F1800
G92 E0
G1 X90.020 Y130.667 E0.3610 F3680
G1 X90.020 Y129.333 E0.4209
G1 X81.980 Y129.333 E0.7819
G92 E0
G1 E-1.0000 F1800
G1 X101.980 Y82.667 F4800
G1 E0.0000 F1800
G92 E0
G1 X122.020 Y82.667 E0.8998 F3680
G1 X122.020 Y81.333 E0.9597
G1 X101.980 Y81.333 E1.8595
G92 E0
G1 E-1.0000 F1800
; layer 3, Z = 0.900
; inner perimeter
G1 X96.200 Y65.470 F4800
G1 Z0.900 F1000
G1 E0.0000 F1800
G92 E0
G1 X73.400 Y65.470 E1.0237 F1317
G1 X73.400 Y64.739 E1.0566
G1 X96.200 Y64.739 E2.0804
G1 X96.200 Y65.470 E2.1132
; outer perimeter
G1 X96.600 Y65.870 F4800
G92 E0
G1 X73.000 Y65.871 E1.0597 F878
G1 X73.000 Y64.339 E1.1285
G1 X96.600 Y64.339 E2.1881
G1 X96.600 Y65.871 E2.2569
; solid layer
G1 X95.626 Y65.079 F4800
G92 E0
G1 X95.678 Y65.130 E0.0033 F1405
G1 X95.112 Y65.130 E0.0287
G1 X95.060 Y65.079 E0.0320
G1 X94.494 Y65.079 E0.0574
G1 X94.546 Y65.130 E0.0607
G1 X93.980 Y65.130 E0.0861
G1 X93.929 Y65.079 E0.0894
G1 X93.363 Y65.079 E0.1148
G1 X93.415 Y65.130 E0.1181
G1 X92.849 Y65.130 E0.1435
G1 X92.797 Y65.079 E0.1468
G1 X92.232 Y65.079 E0.1722
G1 X92.283 Y65.130 E0.1755
G1 X91.718 Y65.130 E0.2009
G1 X91.666 Y65.079 E0.2042
G1 X91.100 Y65.079 E0.2296
G1 X91.152 Y65.130 E0.2329
G1 X90.586 Y65.130 E0.2583
G1 X90.534 Y65.079 E0.2616
G1 X89.969 Y65.079 E0.2870
G1 X90.021 Y65.130 E0.2903
G1 X89.455 Y65.130 E0.3157
G1 X89.403 Y65.079 E0.3189
G1 X88.837 Y65.079 E0.3443
G1 X88.889 Y65.130 E0.3476
G1 X88.324 Y65.130 E0.3730
G1 X88.272 Y65.079 E0.3763
G1 X87.706 Y65.079 E0.4017
G1 X87.758 Y65.130 E0.4050
G1 X87.192 Y65.130 E0.4304
G1 X87.140 Y65.079 E0.4337
G1 X86.575 Y65.079 E0.4591
G1 X86.627 Y65.130 E0.4624
G1 X86.061 Y65.130 E0.4878
G1 X86.009 Y65.079 E0.4911
G1 X85.443 Y65.079 E0.5165
G1 X85.495 Y65.130 E0.5198
G1 X84.929 Y65.130 E0.5452
G1 X84.878 Y65.079 E0.5485
G1 X84.312 Y65.079 E0.5739
G1 X84.364 Y65.130 E0.5772
G1 X83.798 Y65.130 E0.6026
G1 X83.746 Y65.079 E0.6059
