; G-Code generated by Simplify3D(R) Version 4.0.0
; Jan 15, 2021 at 2:45:17 PM
; Settings Summary
;   processName,Process1
;   applyToModels,Deckelhalter_Kochtopf_2_v2,Deckelhalter_Kochtopf_3_v4,Deckelhalter_Kochtopf_2_v2(2)
;   profileName,def (modified)
;   profileVersion,2020-09-07 14:01:24
;   baseProfile,Default (modified)
;   printMaterial,PLA
;   printQuality,Medium
;   printExtruders,
;   extruderName,Primary Extruder
;   extruderToolheadNumber,0
;   extruderDiameter,0.4
;   extruderAutoWidth,0
;   extruderWidth,0.4
;   extrusionMultiplier,0.9
;   extruderUseRetract,1
;   extruderRetractionDistance,1
;   extruderExtraRestartDistance,0
;   extruderRetractionZLift,0
;   extruderRetractionSpeed,1800
;   extruderUseCoasting,0
;   extruderCoastingDistance,0.2
;   extruderUseWipe,0
;   extruderWipeDistance,5
;   primaryExtruder,0
;   layerHeight,0.3
;   topSolidLayers,3
;   bottomSolidLayers,2
;   perimeterOutlines,2
;   printPerimetersInsideOut,1
;   startPointOption,2
;   startPointOriginX,0
;   startPointOriginY,0
;   sequentialIslands,0
;   spiralVaseMode,0
;   firstLayerHeightPercentage,90
;   firstLayerWidthPercentage,103
;   firstLayerUnderspeed,0.3
;   useRaft,0
;   raftExtruder,0
;   raftTopLayers,2
;   raftBaseLayers,2
;   raftOffset,1.4
;   raftSeparationDistance,0.14
;   raftTopInfill,100
;   aboveRaftSpeedMultiplier,0.3
;   useSkirt,0
;   skirtExtruder,0
;   skirtLayers,1
;   skirtOutlines,2
;   skirtOffset,4
;   usePrimePillar,0
;   primePillarExtruder,999
;   primePillarWidth,12
;   primePillarLocation,7
;   primePillarSpeedMultiplier,1
;   useOozeShield,0
;   oozeShieldExtruder,999
;   oozeShieldOffset,2
;   oozeShieldOutlines,1
;   oozeShieldSidewallShape,1
;   oozeShieldSidewallAngle,30
;   oozeShieldSpeedMultiplier,1
;   infillExtruder,0
;   internalInfillPattern,Rectilinear
;   externalInfillPattern,Rectilinear
;   infillPercentage,10
;   outlineOverlapPercentage,15
;   infillExtrusionWidthPercentage,100
;   minInfillLength,5
;   infillLayerInterval,1
;   internalInfillAngles,45,-45
;   overlapInternalInfillAngles,0
;   externalInfillAngles,45,-45
;   generateSupport,1
;   supportExtruder,0
;   supportInfillPercentage,30
;   supportExtraInflation,0
;   supportBaseLayers,0
;   denseSupportExtruder,0
;   denseSupportLayers,0
;   denseSupportInfillPercentage,70
;   supportLayerInterval,1
;   supportHorizontalPartOffset,0.2
;   supportUpperSeparationLayers,1
;   supportLowerSeparationLayers,1
;   supportType,0
;   supportGridSpacing,4
;   maxOverhangAngle,45
;   supportAngles,0
;   temperatureName,Primary Extruder,Hot Bed
;   temperatureNumber,0,1
;   temperatureSetpointCount,1,1
;   temperatureSetpointLayers,1,1
;   temperatureSetpointTemperatures,210,60
;   temperatureStabilizeAtStartup,1,0
;   temperatureHeatedBed,0,1
;   temperatureRelayBetweenLayers,0,0
;   temperatureRelayBetweenLoops,0,0
;   fanLayers,1,2
;   fanSpeeds,0,100
;   blipFanToFullPower,0
;   adjustSpeedForCooling,1
;   minSpeedLayerTime,15
;   minCoolingSpeedSlowdown,20
;   increaseFanForCooling,0
;   minFanLayerTime,45
;   maxCoolingFanSpeed,100
;   increaseFanForBridging,0
;   bridgingFanSpeed,100
;   use5D,1
;   relativeEdistances,0
;   allowEaxisZeroing,1
;   independentExtruderAxes,0
;   includeM10123,0
;   stickySupport,1
;   applyToolheadOffsets,0
;   gcodeXoffset,-0.09
;   gcodeYoffset,-0.03
;   gcodeZoffset,0
;   overrideMachineDefinition,0
;   machineTypeOverride,0
;   strokeXoverride,200
;   strokeYoverride,200
;   strokeZoverride,200
;   originOffsetXoverride,0
;   originOffsetYoverride,0
;   originOffsetZoverride,0
;   homeXdirOverride,-1
;   homeYdirOverride,-1
;   homeZdirOverride,-1
;   flipXoverride,1
;   flipYoverride,-1
;   flipZoverride,1
;   toolheadOffsets,0,0|0,0|0,0|0,0|0,0|0,0
;   overrideFirmwareConfiguration,0
;   firmwareTypeOverride,RepRap (Marlin/Repetier/Sprinter)
;   GPXconfigOverride,r2
;   baudRateOverride,115200
;   overridePrinterModels,0
;   printerModelsOverride
;   startingGcode,G28 ; home all axes,G1 X3 Y5 Z0.2 F3000 ; get ready to prime,G92 E0 ; reset extrusion distance,G1 Y150 E20 F600 ; prime nozzle
;   layerChangeGcode,
;   retractionGcode,
;   toolChangeGcode,
;   endingGcode,M104 S0 ; turn off extruder,M140 S0 ; turn off bedG1 X0 Y0; home,M84 ; disable motors,M107 ; fan off,G28 X Y; Home,M18; Disable steppers
;   exportFileFormat,gcode
;   celebration,0
;   celebrationSong,Random Song
;   postProcessing,
;   defaultSpeed,3800
;   outlineUnderspeed,0.5
;   solidInfillUnderspeed,0.8
;   supportUnderspeed,0.8
;   rapidXYspeed,4600
;   rapidZspeed,1000
;   minBridgingArea,50
;   bridgingExtraInflation,0
;   bridgingExtrusionMultiplier,1
;   bridgingSpeedMultiplier,1
;   useFixedBridgingAngle,0
;   fixedBridgingAngle,0
;   applyBridgingToPerimeters,0
;   filamentDiameters,1.75|1.75|1.75|1.75|1.75|1.75
;   filamentPricesPerKg,46|46|46|46|46|46
;   filamentDensities,1.25|1.25|1.25|1.25|1.25|1.25
;   useMinPrintHeight,0
;   minPrintHeight,0
;   useMaxPrintHeight,0
;   maxPrintHeight,0
;   useDiaphragm,0
;   diaphragmLayerInterval,20
;   robustSlicing,1
;   mergeAllIntoSolid,0
;   onlyRetractWhenCrossingOutline,1
;   retractBetweenLayers,1
;   useRetractionMinTravel,0
;   retractionMinTravel,3
;   retractWhileWiping,0
;   onlyWipeOutlines,1
;   avoidCrossingOutline,0
;   maxMovementDetourFactor,3
;   toolChangeRetractionDistance,12
;   toolChangeExtraRestartDistance,-0.5
;   toolChangeRetractionSpeed,600
;   externalThinWallType,1
;   internalThinWallType,2
;   thinWallAllowedOverlapPercentage,8
;   singleExtrusionMinLength,1
;   singleExtrusionMinPrintingWidthPercentage,50
;   singleExtrusionMaxPrintingWidthPercentage,200
;   singleExtrusionEndpointExtension,0.2
;   horizontalSizeCompensation,0
G90
M82
M106 S0
M140 S60
M104 S210 T0
M109 S210 T0
G28 ; home all axes
G1 X3 Y5 Z0.2 F3000 ; get ready to prime
G92 E0 ; reset extrusion distance
G1 Y150 E20 F600 ; prime nozzle
G92 E0
G1 E-1.0000 F1800
G1 Z0.270 F1000
; process Process1
; layer 1, Z = 0.270
T0
; tool H0.300 W0.412
; inner perimeter
G1 X74.426 Y70.679 F4600
G1 E0.0000 F540
G92 E0
G1 X74.886 Y70.264 E0.0286 F855
G1 X75.414 Y69.940 E0.0573
G1 X75.992 Y69.718 E0.0859
G1 X76.600 Y69.605 E0.1145
G1 X77.220 Y69.605 E0.1432
G1 X77.828 Y69.718 E0.1718
G1 X78.406 Y69.940 E0.2005
G1 X78.934 Y70.264 E0.2291
G1 X79.394 Y70.679 E0.2577
G1 X79.770 Y71.170 E0.2864
G1 X80.051 Y71.722 E0.3150
G1 X80.226 Y72.316 E0.3436
G1 X80.289 Y72.932 E0.3723
G1 X80.239 Y73.549 E0.4009
G1 X80.078 Y74.147 E0.4295
G1 X79.810 Y74.705 E0.4582
G1 X79.292 Y75.414 E0.4988
G1 X79.292 Y81.588 E0.7843
G1 X158.528 Y81.588 E4.4488
G1 X158.528 Y75.414 E4.7344
G1 X158.010 Y74.705 E4.7750
G1 X157.742 Y74.147 E4.8036
G1 X157.581 Y73.549 E4.8322
G1 X157.531 Y72.932 E4.8609
G1 X157.594 Y72.316 E4.8895
G1 X157.769 Y71.722 E4.9181
G1 X158.050 Y71.170 E4.9468
G1 X158.426 Y70.679 E4.9754
G1 X158.886 Y70.264 E5.0041
G1 X159.414 Y69.940 E5.0327
G1 X159.992 Y69.718 E5.0613
G1 X160.600 Y69.605 E5.0900
G1 X161.220 Y69.605 E5.1186
G1 X161.828 Y69.718 E5.1472
G1 X162.406 Y69.940 E5.1759
G1 X162.934 Y70.264 E5.2045
G1 X163.394 Y70.679 E5.2331
G1 X163.770 Y71.170 E5.2618
G1 X164.051 Y71.722 E5.2904
G1 X164.226 Y72.316 E5.3191
G1 X164.289 Y72.932 E5.3477
G1 X164.239 Y73.549 E5.3763
G1 X164.078 Y74.147 E5.4050
G1 X163.810 Y74.705 E5.4336
G1 X163.292 Y75.414 E5.4742
G1 X163.292 Y81.588 E5.7597
G1 X168.292 Y81.588 E5.9910
G1 X168.292 Y90.352 E6.3963
G1 X163.292 Y90.352 E6.6275
G1 X163.292 Y96.526 E6.9131
G1 X163.810 Y97.235 E6.9537
G1 X164.078 Y97.793 E6.9823
G1 X164.239 Y98.391 E7.0109
G1 X164.289 Y99.008 E7.0396
G1 X164.226 Y99.624 E7.0682
G1 X164.051 Y100.218 E7.0968
G1 X163.770 Y100.770 E7.1255
G1 X163.394 Y101.261 E7.1541
G1 X162.934 Y101.676 E7.1828
G1 X162.406 Y102.000 E7.2114
G1 X161.828 Y102.222 E7.2400
G1 X161.220 Y102.335 E7.2687
G1 X160.600 Y102.335 E7.2973
G1 X159.992 Y102.222 E7.3259
G1 X159.414 Y102.000 E7.3546
G1 X158.886 Y101.676 E7.3832
G1 X158.426 Y101.261 E7.4118
G1 X158.050 Y100.770 E7.4405
G1 X157.769 Y100.218 E7.4691
G1 X157.594 Y99.624 E7.4978
G1 X157.531 Y99.008 E7.5264
G1 X157.581 Y98.391 E7.5550
G1 X157.742 Y97.793 E7.5837
G1 X158.010 Y97.235 E7.6123
G1 X158.528 Y96.526 E7.6529
G1 X158.528 Y90.352 E7.9384
G1 X79.292 Y90.352 E11.6030
G1 X79.292 Y96.526 E11.8885
G1 X79.810 Y97.235 E11.9291
G1 X80.078 Y97.793 E11.9577
G1 X80.239 Y98.391 E11.9864
G1 X80.289 Y99.008 E12.0150
G1 X80.226 Y99.624 E12.0436
G1 X80.051 Y100.218 E12.0723
G1 X79.770 Y100.770 E12.1009
G1 X79.394 Y101.261 E12.1295
G1 X78.934 Y101.676 E12.1582
G1 X78.406 Y102.000 E12.1868
G1 X77.828 Y102.222 E12.2154
G1 X77.220 Y102.335 E12.2441
G1 X76.600 Y102.335 E12.2727
G1 X75.992 Y102.222 E12.3014
G1 X75.414 Y102.000 E12.3300
G1 X74.886 Y101.676 E12.3586
G1 X74.426 Y101.261 E12.3873
G1 X74.050 Y100.770 E12.4159
G1 X73.769 Y100.218 E12.4445
G1 X73.594 Y99.624 E12.4732
G1 X73.531 Y99.008 E12.5018
G1 X73.581 Y98.391 E12.5304
G1 X73.742 Y97.793 E12.5591
G1 X74.010 Y97.235 E12.5877
G1 X74.528 Y96.526 E12.6283
G1 X74.528 Y90.352 E12.9139
G1 X69.528 Y90.352 E13.1451
G1 X69.528 Y81.588 E13.5504
G1 X74.528 Y81.588 E13.7817
G1 X74.528 Y75.414 E14.0672
G1 X74.010 Y74.705 E14.1078
G1 X73.742 Y74.147 E14.1364
G1 X73.581 Y73.549 E14.1651
G1 X73.531 Y72.932 E14.1937
G1 X73.594 Y72.316 E14.2223
G1 X73.769 Y71.722 E14.2510
G1 X74.050 Y71.170 E14.2796
G1 X74.426 Y70.679 E14.3082
; outer perimeter
G1 X74.122 Y70.398 F4600
G92 E0
G1 X74.638 Y69.933 E0.0321 F570
G1 X75.230 Y69.569 E0.0643
G1 X75.879 Y69.320 E0.0964
G1 X76.562 Y69.193 E0.1286
G1 X77.257 Y69.193 E0.1607
G1 X77.941 Y69.320 E0.1929
G1 X78.590 Y69.569 E0.2250
G1 X79.182 Y69.933 E0.2571
G1 X79.698 Y70.398 E0.2893
G1 X80.120 Y70.950 E0.3214
G1 X80.435 Y71.570 E0.3536
G1 X80.631 Y72.236 E0.3857
G1 X80.703 Y72.928 E0.4179
G1 X80.647 Y73.620 E0.4500
G1 X80.466 Y74.291 E0.4821
G1 X80.165 Y74.918 E0.5143
G1 X79.704 Y75.549 E0.5504
G1 X79.704 Y81.176 E0.8107
G1 X158.116 Y81.176 E4.4371
G1 X158.116 Y75.549 E4.6973
G1 X157.655 Y74.918 E4.7335
G1 X157.354 Y74.291 E4.7656
G1 X157.173 Y73.620 E4.7978
G1 X157.117 Y72.928 E4.8299
G1 X157.189 Y72.236 E4.8620
G1 X157.385 Y71.570 E4.8942
G1 X157.700 Y70.950 E4.9263
G1 X158.122 Y70.398 E4.9585
G1 X158.638 Y69.932 E4.9906
G1 X159.230 Y69.569 E5.0228
G1 X159.879 Y69.320 E5.0549
G1 X160.562 Y69.193 E5.0870
G1 X161.257 Y69.193 E5.1192
G1 X161.941 Y69.320 E5.1513
G1 X162.590 Y69.569 E5.1835
G1 X163.182 Y69.932 E5.2156
G1 X163.698 Y70.398 E5.2478
G1 X164.120 Y70.950 E5.2799
G1 X164.435 Y71.569 E5.3120
G1 X164.631 Y72.236 E5.3442
G1 X164.703 Y72.928 E5.3763
G1 X164.647 Y73.620 E5.4085
G1 X164.466 Y74.291 E5.4406
G1 X164.165 Y74.918 E5.4727
G1 X163.704 Y75.549 E5.5089
G1 X163.704 Y81.176 E5.7691
G1 X168.704 Y81.176 E6.0004
G1 X168.704 Y90.764 E6.4438
G1 X163.704 Y90.764 E6.6750
G1 X163.704 Y96.391 E6.9353
G1 X164.165 Y97.022 E6.9714
G1 X164.466 Y97.649 E7.0036
G1 X164.647 Y98.320 E7.0357
G1 X164.703 Y99.012 E7.0679
G1 X164.631 Y99.704 E7.1000
G1 X164.435 Y100.371 E7.1322
G1 X164.120 Y100.990 E7.1643
G1 X163.698 Y101.542 E7.1964
G1 X163.182 Y102.007 E7.2286
G1 X162.590 Y102.371 E7.2607
G1 X161.941 Y102.620 E7.2929
G1 X161.257 Y102.747 E7.3250
G1 X160.562 Y102.747 E7.3571
G1 X159.879 Y102.620 E7.3893
G1 X159.230 Y102.371 E7.4214
G1 X158.638 Y102.007 E7.4536
G1 X158.122 Y101.542 E7.4857
G1 X157.700 Y100.990 E7.5179
G1 X157.385 Y100.370 E7.5500
G1 X157.189 Y99.704 E7.5821
G1 X157.117 Y99.012 E7.6143
G1 X157.173 Y98.320 E7.6464
G1 X157.354 Y97.649 E7.6786
G1 X157.655 Y97.022 E7.7107
G1 X158.116 Y96.391 E7.7468
G1 X158.116 Y90.764 E8.0071
G1 X79.704 Y90.764 E11.6335
G1 X79.704 Y96.391 E11.8938
G1 X80.165 Y97.022 E11.9299
G1 X80.466 Y97.649 E11.9620
G1 X80.647 Y98.320 E11.9942
G1 X80.703 Y99.012 E12.0263
G1 X80.631 Y99.704 E12.0585
G1 X80.435 Y100.370 E12.0906
G1 X80.120 Y100.990 E12.1228
G1 X79.698 Y101.542 E12.1549
G1 X79.182 Y102.007 E12.1870
G1 X78.590 Y102.371 E12.2192
G1 X77.941 Y102.620 E12.2513
G1 X77.257 Y102.747 E12.2835
G1 X76.562 Y102.747 E12.3156
G1 X75.879 Y102.620 E12.3478
G1 X75.230 Y102.371 E12.3799
G1 X74.638 Y102.007 E12.4120
G1 X74.122 Y101.542 E12.4442
G1 X73.700 Y100.990 E12.4763
G1 X73.385 Y100.370 E12.5085
G1 X73.189 Y99.704 E12.5406
G1 X73.117 Y99.012 E12.5728
G1 X73.173 Y98.320 E12.6049
G1 X73.354 Y97.649 E12.6370
G1 X73.655 Y97.022 E12.6692
G1 X74.116 Y96.391 E12.7053
G1 X74.116 Y90.764 E12.9656
G1 X69.116 Y90.764 E13.1968
G1 X69.116 Y81.176 E13.6402
G1 X74.116 Y81.176 E13.8715
G1 X74.116 Y75.549 E14.1317
G1 X73.655 Y74.918 E14.1679
G1 X73.354 Y74.291 E14.2000
G1 X73.173 Y73.620 E14.2322
G1 X73.117 Y72.928 E14.2643
G1 X73.189 Y72.236 E14.2964
G1 X73.385 Y71.570 E14.3286
G1 X73.700 Y70.950 E14.3607
G1 X74.122 Y70.398 E14.3929
; solid layer
G1 X77.751 Y70.063 F4600
G92 E0
G1 X79.800 Y72.112 E0.1340 F912
G1 X79.880 Y72.384 E0.1471
G1 X79.926 Y72.820 E0.1674
G1 X77.060 Y69.955 E0.3548
G1 X76.633 Y69.955 E0.3746
G1 X76.502 Y69.979 E0.3807
G1 X79.902 Y73.379 E0.6031
G1 X79.893 Y73.489 E0.6082
G1 X79.794 Y73.854 E0.6257
G1 X76.021 Y70.081 E0.8724
G1 X75.601 Y70.243 E0.8933
G1 X79.629 Y74.272 E1.1568
G1 X79.508 Y74.525 E1.1698
G1 X79.420 Y74.645 E1.1767
G1 X75.235 Y70.460 E1.4504
G1 X75.097 Y70.545 E1.4579
G1 X74.908 Y70.716 E1.4696
G1 X79.174 Y74.982 E1.7487
G1 X78.942 Y75.300 E1.7669
G1 X78.942 Y75.332 E1.7684
G1 X74.616 Y71.007 E2.0513
G1 X74.363 Y71.337 E2.0705
G1 X78.942 Y75.915 E2.3700
G1 X78.942 Y76.498 E2.3969
G1 X74.164 Y71.719 E2.7095
G1 X74.096 Y71.852 E2.7163
G1 X74.009 Y72.148 E2.7306
G1 X78.942 Y77.080 E3.0532
G1 X78.942 Y77.663 E3.0802
G1 X73.914 Y72.635 E3.4090
G1 X73.882 Y72.936 E3.4230
G1 X73.904 Y73.208 E3.4357
G1 X78.942 Y78.246 E3.7651
G1 X78.942 Y78.828 E3.7921
G1 X74.047 Y73.934 E4.1122
G1 X74.072 Y74.025 E4.1165
G1 X74.312 Y74.525 E4.1422
G1 X74.878 Y75.300 E4.1866
G1 X74.878 Y75.347 E4.1888
G1 X78.942 Y79.411 E4.4546
G1 X78.942 Y79.994 E4.4815
G1 X74.878 Y75.930 E4.7473
G1 X74.878 Y76.513 E4.7742
G1 X78.942 Y80.576 E5.0400
G1 X78.942 Y81.159 E5.0670
G1 X74.878 Y77.095 E5.3327
G1 X74.878 Y77.678 E5.3597
G1 X78.942 Y81.742 E5.6255
G1 X78.942 Y81.938 E5.6346
G1 X79.138 Y81.938 E5.6437
G1 X87.202 Y90.002 E6.1711
G1 X87.785 Y90.002 E6.1980
G1 X79.721 Y81.938 E6.7254
G1 X80.304 Y81.938 E6.7523
G1 X88.367 Y90.002 E7.2797
G1 X88.950 Y90.002 E7.3067
G1 X80.886 Y81.938 E7.8341
G1 X81.469 Y81.938 E7.8610
G1 X89.533 Y90.002 E8.3884
G1 X90.115 Y90.002 E8.4154
G1 X82.052 Y81.938 E8.9428
G1 X82.634 Y81.938 E8.9697
G1 X90.698 Y90.002 E9.4971
G1 X91.281 Y90.002 E9.5241
G1 X83.217 Y81.938 E10.0515
G1 X83.800 Y81.938 E10.0784
G1 X91.863 Y90.002 E10.6058
G1 X92.446 Y90.002 E10.6328
G1 X84.382 Y81.938 E11.1602
G1 X84.965 Y81.938 E11.1871
G1 X93.029 Y90.002 E11.7145
G1 X93.611 Y90.002 E11.7415
G1 X85.548 Y81.938 E12.2689
G1 X86.130 Y81.938 E12.2958
G1 X94.194 Y90.002 E12.8232
G1 X94.777 Y90.002 E12.8501
G1 X86.713 Y81.938 E13.3775
G1 X87.296 Y81.938 E13.4045
G1 X95.359 Y90.002 E13.9319
G1 X95.942 Y90.002 E13.9588
G1 X87.878 Y81.938 E14.4862
G1 X88.461 Y81.938 E14.5132
G1 X96.524 Y90.002 E15.0406
G1 X97.107 Y90.002 E15.0675
G1 X89.044 Y81.938 E15.5949
G1 X89.626 Y81.938 E15.6219
G1 X97.690 Y90.002 E16.1493
G1 X98.272 Y90.002 E16.1762
G1 X90.209 Y81.938 E16.7036
G1 X90.791 Y81.938 E16.7306
G1 X98.855 Y90.002 E17.2580
G1 X99.438 Y90.002 E17.2849
G1 X91.374 Y81.938 E17.8123
G1 X91.957 Y81.938 E17.8393
G1 X100.020 Y90.002 E18.3667
G1 X100.603 Y90.002 E18.3936
G1 X92.539 Y81.938 E18.9210
G1 X93.122 Y81.938 E18.9479
G1 X101.186 Y90.002 E19.4753
G1 X101.768 Y90.002 E19.5023
G1 X93.705 Y81.938 E20.0297
G1 X94.287 Y81.938 E20.0566
G1 X102.351 Y90.002 E20.5840
G1 X102.934 Y90.002 E20.6110
G1 X94.870 Y81.938 E21.1384
G1 X95.453 Y81.938 E21.1653
G1 X103.516 Y90.002 E21.6927
G1 X104.099 Y90.002 E21.7197
G1 X96.035 Y81.938 E22.2471
G1 X96.618 Y81.938 E22.2740
G1 X104.682 Y90.002 E22.8014
G1 X105.264 Y90.002 E22.8284
G1 X97.201 Y81.938 E23.3558
G1 X97.783 Y81.938 E23.3827
G1 X105.847 Y90.002 E23.9101
G1 X106.430 Y90.002 E23.9371
G1 X98.366 Y81.938 E24.4645
G1 X98.949 Y81.938 E24.4914
G1 X107.012 Y90.002 E25.0188
