; G-Code generated by Simplify3D(R) Version 4.0.0
; May 1, 2018 at 6:00:17 PM
; Settings Summary
;   processName,nozzle 0.4
;   applyToModels,maslul2
;   profileName,Flying Bear 902 Update 7-2017 (modified)
;   profileVersion,2017-07-10 09:45:20
;   baseProfile,Default
;   printMaterial,PLA
;   printQuality,Medium
;   printExtruders,
;   extruderName,Extruder 1
;   extruderToolheadNumber,0
;   extruderDiameter,0.4
;   extruderAutoWidth,1
;   extruderWidth,0.48
;   extrusionMultiplier,0.9
;   extruderUseRetract,1
;   extruderRetractionDistance,2
;   extruderExtraRestartDistance,0
;   extruderRetractionZLift,0
;   extruderRetractionSpeed,3000
;   extruderUseCoasting,0
;   extruderCoastingDistance,0.2
;   extruderUseWipe,1
;   extruderWipeDistance,5
;   primaryExtruder,0
;   layerHeight,0.3
;   topSolidLayers,4
;   bottomSolidLayers,4
;   perimeterOutlines,3
;   printPerimetersInsideOut,0
;   startPointOption,2
;   startPointOriginX,0
;   startPointOriginY,0
;   sequentialIslands,0
;   spiralVaseMode,0
;   firstLayerHeightPercentage,20
;   firstLayerWidthPercentage,100
;   firstLayerUnderspeed,0.5
;   useRaft,0
;   raftExtruder,0
;   raftTopLayers,2
;   raftBaseLayers,2
;   raftOffset,2
;   raftSeparationDistance,0.55
;   raftTopInfill,100
;   aboveRaftSpeedMultiplier,0.3
;   useSkirt,0
;   skirtExtruder,0
;   skirtLayers,1
;   skirtOutlines,2
;   skirtOffset,4
;   usePrimePillar,0
;   primePillarExtruder,999
;   primePillarWidth,12
;   primePillarLocation,7
;   primePillarSpeedMultiplier,1
;   useOozeShield,0
;   oozeShieldExtruder,999
;   oozeShieldOffset,2
;   oozeShieldOutlines,1
;   oozeShieldSidewallShape,1
;   oozeShieldSidewallAngle,30
;   oozeShieldSpeedMultiplier,1
;   infillExtruder,0
;   internalInfillPattern,Rectilinear
;   externalInfillPattern,Rectilinear
;   infillPercentage,12
;   outlineOverlapPercentage,60
;   infillExtrusionWidthPercentage,100
;   minInfillLength,5
;   infillLayerInterval,1
;   internalInfillAngles,45,-45
;   overlapInternalInfillAngles,0
;   externalInfillAngles,45,-45
;   generateSupport,1
;   supportExtruder,0
;   supportInfillPercentage,30
;   supportExtraInflation,0
;   supportBaseLayers,0
;   denseSupportExtruder,0
;   denseSupportLayers,0
;   denseSupportInfillPercentage,50
;   supportLayerInterval,1
;   supportHorizontalPartOffset,0.3
;   supportUpperSeparationLayers,1
;   supportLowerSeparationLayers,1
;   supportType,0
;   supportGridSpacing,4
;   maxOverhangAngle,70
;   supportAngles,0
;   temperatureName,Extruder 1,Heated Bed
;   temperatureNumber,0,0
;   temperatureSetpointCount,1,1
;   temperatureSetpointLayers,1,1
;   temperatureSetpointTemperatures,210,60
;   temperatureStabilizeAtStartup,1,0
;   temperatureHeatedBed,0,1
;   temperatureRelayBetweenLayers,0,0
;   temperatureRelayBetweenLoops,0,0
;   fanLayers,1
;   fanSpeeds,255
;   blipFanToFullPower,0
;   adjustSpeedForCooling,1
;   minSpeedLayerTime,15
;   minCoolingSpeedSlowdown,20
;   increaseFanForCooling,0
;   minFanLayerTime,45
;   maxCoolingFanSpeed,100
;   increaseFanForBridging,0
;   bridgingFanSpeed,100
;   use5D,1
;   relativeEdistances,0
;   allowEaxisZeroing,1
;   independentExtruderAxes,0
;   includeM10123,0
;   stickySupport,1
;   applyToolheadOffsets,0
;   gcodeXoffset,0
;   gcodeYoffset,0
;   gcodeZoffset,0
;   overrideMachineDefinition,1
;   machineTypeOverride,0
;   strokeXoverride,220
;   strokeYoverride,220
;   strokeZoverride,280
;   originOffsetXoverride,0
;   originOffsetYoverride,0
;   originOffsetZoverride,0
;   homeXdirOverride,-1
;   homeYdirOverride,-1
;   homeZdirOverride,-1
;   flipXoverride,1
;   flipYoverride,-1
;   flipZoverride,1
;   toolheadOffsets,0,0|0,0|0,0|0,0|0,0|0,0
;   overrideFirmwareConfiguration,1
;   firmwareTypeOverride,RepRap (Marlin/Repetier/Sprinter)
;   GPXconfigOverride,r2
;   baudRateOverride,250000
;   overridePrinterModels,0
;   printerModelsOverride
;   startingGcode,G28 ; home all axes,G1 X0 Y20 Z0.2 F3000 ; get ready to prime,G92 E0 ; reset extrusion distance,G1 X200 E20 F600 ; prime nozzle
;   layerChangeGcode,
;   retractionGcode,
;   toolChangeGcode,
;   endingGcode,M104 S0 ; turn off extruder,M140 S0 ; turn off bed,G28 X Y ; home x and y axes,M84 ; disable motors
;   exportFileFormat,gcode
;   celebration,0
;   celebrationSong,Random Song
;   postProcessing,
;   defaultSpeed,5000
;   outlineUnderspeed,0.6
;   solidInfillUnderspeed,0.85
;   supportUnderspeed,0.8
;   rapidXYspeed,5200
;   rapidZspeed,1002
;   minBridgingArea,50
;   bridgingExtraInflation,0
;   bridgingExtrusionMultiplier,1
;   bridgingSpeedMultiplier,1
;   useFixedBridgingAngle,0
;   fixedBridgingAngle,0
;   applyBridgingToPerimeters,0
;   filamentDiameters,1.75|1.75|1.75|1.75|1.75|1.75
;   filamentPricesPerKg,46|46|46|46|46|46
;   filamentDensities,1.25|1.25|1.25|1.25|1.25|1.25
;   useMinPrintHeight,0
;   minPrintHeight,0
;   useMaxPrintHeight,0
;   maxPrintHeight,2.3
;   useDiaphragm,0
;   diaphragmLayerInterval,20
;   robustSlicing,1
;   mergeAllIntoSolid,0
;   onlyRetractWhenCrossingOutline,1
;   retractBetweenLayers,1
;   useRetractionMinTravel,0
;   retractionMinTravel,3
;   retractWhileWiping,0
;   onlyWipeOutlines,1
;   avoidCrossingOutline,0
;   maxMovementDetourFactor,3
;   toolChangeRetractionDistance,12
;   toolChangeExtraRestartDistance,-0.5
;   toolChangeRetractionSpeed,600
;   externalThinWallType,1
;   internalThinWallType,0
;   thinWallAllowedOverlapPercentage,15
;   singleExtrusionMinLength,1
;   singleExtrusionMinPrintingWidthPercentage,50
;   singleExtrusionMaxPrintingWidthPercentage,200
;   singleExtrusionEndpointExtension,0.2
;   horizontalSizeCompensation,0
G90
M82
M106 S650
M140 S60
M104 S210 T0
M109 S210 T0
G28 ; home all axes
G1 X0 Y20 Z0.2 F3000 ; get ready to prime
G92 E0 ; reset extrusion distance
G1 X200 E20 F600 ; prime nozzle
G92 E0
G1 E-2.0000 F3000
G1 Z0.060 F1002
; process nozzle 0.4
; layer 1, Z = 0.060
T0
; tool H0.300 W0.480
; outer perimeter
G1 X99.405 Y100.597 F5200
G1 E0.0000 F900
G92 E0
G1 X107.440 Y100.597 E0.4330 F1066
G1 X107.440 Y97.149 E0.6188
G1 X112.560 Y96.996 E0.8948
G1 X112.560 Y100.597 E1.0888
G1 X120.595 Y100.597 E1.5218
G1 X120.595 Y109.760 E2.0155
G1 X116.240 Y109.760 E2.2501
G1 X116.240 Y102.760 E2.6273
G1 X103.760 Y102.760 E3.2997
G1 X103.760 Y109.760 E3.6769
G1 X99.405 Y109.760 E3.9116
G1 X99.405 Y100.597 E4.4053
G1 X104.405 Y100.597 F5000
; inner perimeter
G1 X103.280 Y102.280 F5200
G92 E0
G1 X103.280 Y109.280 E0.3772 F1421
G1 X99.885 Y109.280 E0.5601
G1 X99.885 Y101.077 E1.0021
G1 X107.920 Y101.077 E1.4350
G1 X107.920 Y97.615 E1.6216
G1 X112.080 Y97.490 E1.8458
G1 X112.080 Y101.077 E2.0391
G1 X120.115 Y101.077 E2.4721
G1 X120.115 Y109.280 E2.9140
G1 X116.720 Y109.280 E3.0970
G1 X116.720 Y102.280 E3.4742
G1 X103.280 Y102.280 E4.1983
G1 X102.800 Y101.800 F5200
G92 E0
G1 X102.800 Y108.800 E0.3772 F1421
G1 X100.365 Y108.800 E0.5084
G1 X100.365 Y101.557 E0.8986
G1 X108.400 Y101.557 E1.3316
G1 X108.400 Y98.081 E1.5189
G1 X111.600 Y97.985 E1.6914
G1 X111.600 Y101.557 E1.8839
G1 X119.635 Y101.557 E2.3168
G1 X119.635 Y108.800 E2.7071
G1 X117.200 Y108.800 E2.8383
G1 X117.200 Y101.800 E3.2155
G1 X102.800 Y101.800 E3.9914
; solid layer
G1 X102.266 Y101.749 F5200
G92 E0
G1 X102.608 Y102.092 E0.0261 F1510
G1 X102.608 Y102.770 E0.0627
G1 X101.587 Y101.749 E0.1405
G1 X100.908 Y101.749 E0.1771
G1 X102.608 Y103.449 E0.3066
G1 X102.608 Y104.128 E0.3432
G1 X100.557 Y102.077 E0.4995
G1 X100.557 Y102.756 E0.5360
G1 X102.608 Y104.807 E0.6924
G1 X102.608 Y105.486 E0.7289
G1 X100.557 Y103.434 E0.8852
G1 X100.557 Y104.113 E0.9218
G1 X102.608 Y106.165 E1.0781
G1 X102.608 Y106.843 E1.1147
G1 X100.557 Y104.792 E1.2710
G1 X100.557 Y105.471 E1.3076
G1 X102.608 Y107.522 E1.4639
G1 X102.608 Y108.201 E1.5004
G1 X100.557 Y106.150 E1.6567
G1 X100.557 Y106.829 E1.6933
G1 X102.336 Y108.608 E1.8289
G1 X101.657 Y108.608 E1.8655
G1 X100.557 Y107.507 E1.9493
G1 X100.557 Y108.186 E1.9859
G1 X100.979 Y108.608 E2.0181
G92 E0
G1 E-2.0000 F3000
G1 X108.913 Y101.608 F5200
G1 E0.0000 F3000
G92 E0
G1 X108.592 Y101.287 E0.0244 F1510
G1 X108.592 Y100.609 E0.0610
G1 X109.591 Y101.608 E0.1372
G1 X110.270 Y101.608 E0.1737
G1 X108.592 Y99.930 E0.3016
G1 X108.592 Y99.251 E0.3382
G1 X110.949 Y101.608 E0.5178
G1 X111.408 Y101.608 E0.5425
G1 X111.408 Y101.388 E0.5544
G1 X108.592 Y98.572 E0.7690
G1 X108.592 Y98.267 E0.7854
G1 X108.955 Y98.256 E0.8050
G1 X111.408 Y100.709 E0.9919
G1 X111.408 Y100.030 E1.0285
G1 X109.614 Y98.236 E1.1652
G1 X110.273 Y98.217 E1.2007
G1 X111.408 Y99.352 E1.2872
G1 X111.408 Y98.673 E1.3238
G1 X110.932 Y98.197 E1.3600
G92 E0
G1 E-2.0000 F3000
G1 X119.236 Y101.749 F5200
G1 E0.0000 F3000
G92 E0
G1 X119.443 Y101.956 E0.0158 F1510
G1 X119.443 Y102.635 E0.0524
G1 X118.557 Y101.749 E0.1199
G1 X117.879 Y101.749 E0.1564
G1 X119.443 Y103.314 E0.2757
G1 X119.443 Y103.993 E0.3122
G1 X117.392 Y101.942 E0.4685
G1 X117.392 Y102.620 E0.5051
G1 X119.443 Y104.672 E0.6614
G1 X119.443 Y105.350 E0.6980
G1 X117.392 Y103.299 E0.8543
G1 X117.392 Y103.978 E0.8909
G1 X119.443 Y106.029 E1.0472
G1 X119.443 Y106.708 E1.0838
G1 X117.392 Y104.657 E1.2401
G1 X117.392 Y105.336 E1.2766
G1 X119.443 Y107.387 E1.4329
G1 X119.443 Y108.066 E1.4695
G1 X117.392 Y106.014 E1.6258
G1 X117.392 Y106.693 E1.6624
G1 X119.307 Y108.608 E1.8083
G1 X118.628 Y108.608 E1.8449
G1 X117.392 Y107.372 E1.9390
G1 X117.392 Y108.051 E1.9756
G1 X117.949 Y108.608 E2.0181
G92 E0
G1 E-2.0000 F3000
; layer 2, Z = 0.360
; outer perimeter
G1 X116.240 Y109.760 F5200
G1 Z0.360 F1002
G1 E0.0000 F3000
G92 E0
G1 X116.240 Y102.760 E0.3772 F1137
G1 X103.760 Y102.760 E1.0496
G1 X103.760 Y109.760 E1.4268
G1 X98.851 Y109.760 E1.6913
G1 X98.851 Y100.597 E2.1850
G1 X107.440 Y100.597 E2.6477
G1 X107.440 Y97.149 E2.8335
G1 X112.560 Y96.996 E3.1095
G1 X112.560 Y100.597 E3.3036
G1 X121.149 Y100.597 E3.7664
G1 X121.149 Y109.760 E4.2601
G1 X116.240 Y109.760 E4.5246
G1 X116.240 Y104.760 F5000
; inner perimeter
G1 X116.720 Y102.280 F5200
G92 E0
G1 X103.280 Y102.280 E0.7242 F1516
G1 X103.280 Y109.280 E1.1013
G1 X99.331 Y109.280 E1.3141
G1 X99.331 Y101.077 E1.7561
G1 X107.920 Y101.077 E2.2188
G1 X107.920 Y97.615 E2.4054
G1 X112.080 Y97.490 E2.6297
G1 X112.080 Y101.077 E2.8229
G1 X120.669 Y101.077 E3.2857
G1 X120.669 Y109.280 E3.7277
G1 X116.720 Y109.280 E3.9404
G1 X116.720 Y102.280 E4.3176
G1 X117.200 Y101.800 F5200
G92 E0
G1 X102.800 Y101.800 E0.7759 F1516
G1 X102.800 Y108.800 E1.1531
G1 X99.811 Y108.800 E1.3141
G1 X99.811 Y101.557 E1.7043
G1 X108.400 Y101.557 E2.1671
G1 X108.400 Y98.081 E2.3544
G1 X111.600 Y97.985 E2.5269
G1 X111.600 Y101.557 E2.7194
G1 X120.189 Y101.557 E3.1822
G1 X120.189 Y108.800 E3.5725
G1 X117.200 Y108.800 E3.7335
G1 X117.200 Y101.800 E4.1107
; solid layer
G1 X117.392 Y102.092 F5200
G92 E0
G1 X117.734 Y101.749 E0.0261 F1610
G1 X118.413 Y101.749 E0.0627
G1 X117.392 Y102.770 E0.1405
G1 X117.392 Y103.449 E0.1771
G1 X119.092 Y101.749 E0.3066
G1 X119.771 Y101.749 E0.3432
G1 X117.392 Y104.128 E0.5244
G1 X117.392 Y104.807 E0.5610
G1 X119.997 Y102.202 E0.7595
G1 X119.997 Y102.881 E0.7961
G1 X117.392 Y105.486 E0.9946
G1 X117.392 Y106.165 E1.0311
G1 X119.997 Y103.560 E1.2296
G1 X119.997 Y104.239 E1.2662
G1 X117.392 Y106.843 E1.4647
G1 X117.392 Y107.522 E1.5012
G1 X119.997 Y104.918 E1.6997
G1 X119.997 Y105.596 E1.7363
G1 X117.392 Y108.201 E1.9348
G1 X117.392 Y108.608 E1.9567
G1 X117.664 Y108.608 E1.9713
G1 X119.997 Y106.275 E2.1491
G1 X119.997 Y106.954 E2.1857
G1 X118.343 Y108.608 E2.3117
G1 X119.022 Y108.608 E2.3483
G1 X119.997 Y107.633 E2.4226
G1 X119.997 Y108.312 E2.4592
G1 X119.700 Y108.608 E2.4817
G92 E0
G1 E-2.0000 F3000
G1 X111.408 Y101.287 F5200
G1 E0.0000 F3000
G92 E0
G1 X111.087 Y101.608 E0.0244 F1610
G1 X110.409 Y101.608 E0.0610
G1 X111.408 Y100.609 E0.1372
G1 X111.408 Y99.930 E0.1737
G1 X109.730 Y101.608 E0.3016
G1 X109.051 Y101.608 E0.3382
G1 X111.408 Y99.251 E0.5178
G1 X111.408 Y98.572 E0.5544
G1 X108.592 Y101.388 E0.7690
G1 X108.592 Y100.709 E0.8055
G1 X111.110 Y98.192 E0.9974
G1 X110.410 Y98.213 E1.0351
G1 X108.592 Y100.030 E1.1736
G1 X108.592 Y99.352 E1.2102
G1 X109.710 Y98.233 E1.2954
G1 X109.010 Y98.254 E1.3331
G1 X108.592 Y98.673 E1.3650
G92 E0
G1 E-2.0000 F3000
G1 X100.003 Y101.831 F5200
G1 E0.0000 F3000
G92 E0
G1 X100.085 Y101.749 E0.0062 F1610
G1 X100.764 Y101.749 E0.0428
G1 X100.003 Y102.510 E0.1008
G1 X100.003 Y103.189 E0.1373
G1 X101.443 Y101.749 E0.2470
G1 X102.121 Y101.749 E0.2836
G1 X100.003 Y103.867 E0.4450
G1 X100.003 Y104.546 E0.4816
G1 X102.608 Y101.942 E0.6800
G1 X102.608 Y102.620 E0.7166
G1 X100.003 Y105.225 E0.9151
G1 X100.003 Y105.904 E0.9517
G1 X102.608 Y103.299 E1.1501
G1 X102.608 Y103.978 E1.1867
G1 X100.003 Y106.583 E1.3852
G1 X100.003 Y107.262 E1.4218
G1 X102.608 Y104.657 E1.6202
G1 X102.608 Y105.336 E1.6568
G1 X100.003 Y107.940 E1.8553
G1 X100.003 Y108.608 E1.8913
G1 X100.014 Y108.608 E1.8919
G1 X102.608 Y106.014 E2.0895
G1 X102.608 Y106.693 E2.1261
G1 X100.693 Y108.608 E2.2720
G1 X101.372 Y108.608 E2.3085
G1 X102.608 Y107.372 E2.4027
G1 X102.608 Y108.051 E2.4393
G1 X102.051 Y108.608 E2.4817
G92 E0
G1 E-2.0000 F3000
; layer 3, Z = 0.660
; outer perimeter
G1 X103.760 Y109.760 F5200
G1 Z0.660 F1002
G1 E0.0000 F3000
G92 E0
G1 X98.415 Y109.760 E0.2880 F1191
G1 X98.415 Y100.597 E0.7817
G1 X107.440 Y100.597 E1.2680
G1 X107.440 Y97.149 E1.4538
G1 X112.560 Y96.996 E1.7298
G1 X112.560 Y100.597 E1.9239
G1 X121.585 Y100.597 E2.4102
G1 X121.585 Y109.760 E2.9039
G1 X116.240 Y109.760 E3.1919
G1 X116.240 Y102.760 E3.5691
G1 X103.760 Y102.760 E4.2415
G1 X103.760 Y109.760 E4.6187
G1 X98.760 Y109.760 F5000
; inner perimeter
G1 X98.895 Y109.280 F5200
G92 E0
G1 X98.895 Y101.077 E0.4420 F1588
G1 X107.920 Y101.077 E0.9283
G1 X107.920 Y97.615 E1.1148
G1 X112.080 Y97.490 E1.3391
G1 X112.080 Y101.077 E1.5324
G1 X121.105 Y101.077 E2.0187
G1 X121.105 Y109.280 E2.4606
G1 X116.720 Y109.280 E2.6969
G1 X116.720 Y102.280 E3.0741
G1 X103.280 Y102.280 E3.7983
G1 X103.280 Y109.280 E4.1754
G1 X98.895 Y109.280 E4.4117
G1 X99.375 Y108.800 F5200
G92 E0
G1 X99.375 Y101.557 E0.3902 F1588
G1 X108.400 Y101.557 E0.8766
G1 X108.400 Y98.081 E1.0639
G1 X111.600 Y97.985 E1.2364
G1 X111.600 Y101.557 E1.4289
G1 X120.625 Y101.557 E1.9152
G1 X120.625 Y108.800 E2.3054
G1 X117.200 Y108.800 E2.4900
G1 X117.200 Y101.800 E2.8672
G1 X102.800 Y101.800 E3.6431
G1 X102.800 Y108.800 E4.0202
G1 X99.375 Y108.800 E4.2048
; solid layer
G1 X99.621 Y108.608 F5200
G92 E0
G1 X99.567 Y108.554 E0.0041 F1687
G1 X99.567 Y107.875 E0.0407
G1 X100.300 Y108.608 E0.0966
G1 X100.979 Y108.608 E0.1332
G1 X99.567 Y107.196 E0.2408
G1 X99.567 Y106.517 E0.2773
G1 X101.657 Y108.608 E0.4366
G1 X102.336 Y108.608 E0.4732
G1 X99.567 Y105.838 E0.6843
G1 X99.567 Y105.160 E0.7208
G1 X102.608 Y108.201 E0.9526
G1 X102.608 Y107.522 E0.9892
G1 X99.567 Y104.481 E1.2209
G1 X99.567 Y103.802 E1.2575
G1 X102.608 Y106.843 E1.4893
G1 X102.608 Y106.165 E1.5259
G1 X99.567 Y103.123 E1.7576
G1 X99.567 Y102.444 E1.7942
G1 X102.608 Y105.486 E2.0260
G1 X102.608 Y104.807 E2.0625
G1 X99.567 Y101.765 E2.2943
G1 X99.567 Y101.749 E2.2952
G1 X100.229 Y101.749 E2.3309
G1 X102.608 Y104.128 E2.5121
G1 X102.608 Y103.449 E2.5487
G1 X100.908 Y101.749 E2.6782
G1 X101.587 Y101.749 E2.7148
G1 X102.608 Y102.770 E2.7926
G1 X102.608 Y102.092 E2.8292
G1 X102.266 Y101.749 E2.8553
G1 X108.913 Y101.608 F5200
G92 E0
G1 X108.592 Y101.287 E0.0244 F1687
G1 X108.592 Y100.609 E0.0610
G1 X109.591 Y101.608 E0.1372
G1 X110.270 Y101.608 E0.1737
G1 X108.592 Y99.930 E0.3016
G1 X108.592 Y99.251 E0.3382
G1 X110.949 Y101.608 E0.5178
G1 X111.408 Y101.608 E0.5425
G1 X111.408 Y101.388 E0.5544
G1 X108.592 Y98.572 E0.7690
G1 X108.592 Y98.267 E0.7854
G1 X108.955 Y98.256 E0.8050
G1 X111.408 Y100.709 E0.9919
G1 X111.408 Y100.030 E1.0285
G1 X109.614 Y98.236 E1.1652
G1 X110.273 Y98.217 E1.2007
G1 X111.408 Y99.352 E1.2872
G1 X111.408 Y98.673 E1.3238
G1 X110.932 Y98.197 E1.3600
G92 E0
G1 E-2.0000 F3000
G1 X119.915 Y101.749 F5200
G1 E0.0000 F3000
G92 E0
G1 X120.433 Y102.268 E0.0395 F1687
G1 X120.433 Y102.947 E0.0761
G1 X119.236 Y101.749 E0.1673
G1 X118.557 Y101.749 E0.2039
G1 X120.433 Y103.625 E0.3468
G1 X120.433 Y104.304 E0.3834
