; G-Code generated by Simplify3D(R) Version 4.0.0
; May 4, 2018 at 1:24:40 PM
; Settings Summary
;   processName,nozzle 0.4
;   applyToModels,metaem_final,metaem_final(2)
;   profileName,Flying Bear 902 Update 7-2017 (modified)
;   profileVersion,2017-07-10 09:45:20
;   baseProfile,Default
;   printMaterial,PLA
;   printQuality,Medium
;   printExtruders,
;   extruderName,Extruder 1
;   extruderToolheadNumber,0
;   extruderDiameter,0.4
;   extruderAutoWidth,1
;   extruderWidth,0.48
;   extrusionMultiplier,0.9
;   extruderUseRetract,1
;   extruderRetractionDistance,2
;   extruderExtraRestartDistance,0
;   extruderRetractionZLift,0
;   extruderRetractionSpeed,3000
;   extruderUseCoasting,0
;   extruderCoastingDistance,0.2
;   extruderUseWipe,1
;   extruderWipeDistance,5
;   primaryExtruder,0
;   layerHeight,0.2
;   topSolidLayers,2
;   bottomSolidLayers,2
;   perimeterOutlines,4
;   printPerimetersInsideOut,0
;   startPointOption,2
;   startPointOriginX,0
;   startPointOriginY,0
;   sequentialIslands,0
;   spiralVaseMode,0
;   firstLayerHeightPercentage,20
;   firstLayerWidthPercentage,115
;   firstLayerUnderspeed,0.3
;   useRaft,0
;   raftExtruder,0
;   raftTopLayers,2
;   raftBaseLayers,2
;   raftOffset,2
;   raftSeparationDistance,0.3
;   raftTopInfill,100
;   aboveRaftSpeedMultiplier,0.3
;   useSkirt,0
;   skirtExtruder,0
;   skirtLayers,1
;   skirtOutlines,2
;   skirtOffset,4
;   usePrimePillar,0
;   primePillarExtruder,999
;   primePillarWidth,12
;   primePillarLocation,7
;   primePillarSpeedMultiplier,1
;   useOozeShield,0
;   oozeShieldExtruder,999
;   oozeShieldOffset,2
;   oozeShieldOutlines,1
;   oozeShieldSidewallShape,1
;   oozeShieldSidewallAngle,30
;   oozeShieldSpeedMultiplier,1
;   infillExtruder,0
;   internalInfillPattern,Rectilinear
;   externalInfillPattern,Concentric
;   infillPercentage,100
;   outlineOverlapPercentage,60
;   infillExtrusionWidthPercentage,100
;   minInfillLength,5
;   infillLayerInterval,1
;   internalInfillAngles,45,-45
;   overlapInternalInfillAngles,0
;   externalInfillAngles,45,-45
;   generateSupport,0
;   supportExtruder,0
;   supportInfillPercentage,30
;   supportExtraInflation,0
;   supportBaseLayers,0
;   denseSupportExtruder,0
;   denseSupportLayers,0
;   denseSupportInfillPercentage,50
;   supportLayerInterval,1
;   supportHorizontalPartOffset,0.3
;   supportUpperSeparationLayers,1
;   supportLowerSeparationLayers,1
;   supportType,0
;   supportGridSpacing,4
;   maxOverhangAngle,70
;   supportAngles,0
;   temperatureName,Extruder 1,Heated Bed
;   temperatureNumber,0,0
;   temperatureSetpointCount,1,1
;   temperatureSetpointLayers,1,1
;   temperatureSetpointTemperatures,210,60
;   temperatureStabilizeAtStartup,1,0
;   temperatureHeatedBed,0,1
;   temperatureRelayBetweenLayers,0,0
;   temperatureRelayBetweenLoops,0,0
;   fanLayers,1
;   fanSpeeds,255
;   blipFanToFullPower,0
;   adjustSpeedForCooling,1
;   minSpeedLayerTime,15
;   minCoolingSpeedSlowdown,20
;   increaseFanForCooling,0
;   minFanLayerTime,45
;   maxCoolingFanSpeed,100
;   increaseFanForBridging,0
;   bridgingFanSpeed,100
;   use5D,1
;   relativeEdistances,0
;   allowEaxisZeroing,1
;   independentExtruderAxes,0
;   includeM10123,0
;   stickySupport,1
;   applyToolheadOffsets,0
;   gcodeXoffset,0
;   gcodeYoffset,0
;   gcodeZoffset,0
;   overrideMachineDefinition,1
;   machineTypeOverride,0
;   strokeXoverride,220
;   strokeYoverride,220
;   strokeZoverride,280
;   originOffsetXoverride,0
;   originOffsetYoverride,0
;   originOffsetZoverride,0
;   homeXdirOverride,-1
;   homeYdirOverride,-1
;   homeZdirOverride,-1
;   flipXoverride,1
;   flipYoverride,-1
;   flipZoverride,1
;   toolheadOffsets,0,0|0,0|0,0|0,0|0,0|0,0
;   overrideFirmwareConfiguration,1
;   firmwareTypeOverride,RepRap (Marlin/Repetier/Sprinter)
;   GPXconfigOverride,r2
;   baudRateOverride,250000
;   overridePrinterModels,0
;   printerModelsOverride
;   startingGcode,G28 ; home all axes,G1 X0 Y20 Z0.2 F3000 ; get ready to prime,G92 E0 ; reset extrusion distance,G1 X200 E20 F600 ; prime nozzle
;   layerChangeGcode,
;   retractionGcode,
;   toolChangeGcode,
;   endingGcode,M104 S0 ; turn off extruder,M140 S0 ; turn off bed,G28 X Y ; home x and y axes,M84 ; disable motors
;   exportFileFormat,gcode
;   celebration,0
;   celebrationSong,Random Song
;   postProcessing,
;   defaultSpeed,4400
;   outlineUnderspeed,0.6
;   solidInfillUnderspeed,0.85
;   supportUnderspeed,0.8
;   rapidXYspeed,5200
;   rapidZspeed,1002
;   minBridgingArea,50
;   bridgingExtraInflation,0
;   bridgingExtrusionMultiplier,1
;   bridgingSpeedMultiplier,1
;   useFixedBridgingAngle,0
;   fixedBridgingAngle,0
;   applyBridgingToPerimeters,0
;   filamentDiameters,1.75|1.75|1.75|1.75|1.75|1.75
;   filamentPricesPerKg,46|46|46|46|46|46
;   filamentDensities,1.25|1.25|1.25|1.25|1.25|1.25
;   useMinPrintHeight,0
;   minPrintHeight,0
;   useMaxPrintHeight,0
;   maxPrintHeight,4.3
;   useDiaphragm,0
;   diaphragmLayerInterval,20
;   robustSlicing,1
;   mergeAllIntoSolid,0
;   onlyRetractWhenCrossingOutline,1
;   retractBetweenLayers,1
;   useRetractionMinTravel,0
;   retractionMinTravel,3
;   retractWhileWiping,0
;   onlyWipeOutlines,1
;   avoidCrossingOutline,0
;   maxMovementDetourFactor,3
;   toolChangeRetractionDistance,12
;   toolChangeExtraRestartDistance,-0.5
;   toolChangeRetractionSpeed,600
;   externalThinWallType,1
;   internalThinWallType,1
;   thinWallAllowedOverlapPercentage,20
;   singleExtrusionMinLength,1
;   singleExtrusionMinPrintingWidthPercentage,50
;   singleExtrusionMaxPrintingWidthPercentage,200
;   singleExtrusionEndpointExtension,0.2
;   horizontalSizeCompensation,0
G90
M82
M106 S650
M140 S60
M104 S210 T0
M109 S210 T0
G28 ; home all axes
G1 X0 Y20 Z0.2 F3000 ; get ready to prime
G92 E0 ; reset extrusion distance
G1 X200 E20 F600 ; prime nozzle
G92 E0
G1 E-2.0000 F3000
G1 Z0.040 F1002
; process nozzle 0.4
; layer 1, Z = 0.040
T0
; tool H0.200 W0.552
; outer perimeter
G1 X108.038 Y106.215 F5200
G1 E0.0000 F900
G92 E0
G1 X109.464 Y106.214 E0.0589 F528
G1 X109.466 Y104.789 E0.1178
G1 X110.535 Y104.790 E0.1620
G1 X110.536 Y106.214 E0.2208
G1 X111.961 Y106.216 E0.2797
G1 X111.960 Y107.285 E0.3239
G1 X110.536 Y107.286 E0.3827
G1 X110.534 Y108.711 E0.4416
G1 X109.465 Y108.710 E0.4858
G1 X109.464 Y107.286 E0.5446
G1 X108.032 Y107.284 E0.6038
G1 X108.038 Y106.215 E0.6480
G1 X109.464 Y106.214 F4400
G1 X109.466 Y104.789 F4400
G1 X110.535 Y104.790 F4400
G1 X110.535 Y105.869 F4400
; internal single extrusion
G1 X108.401 Y106.750 F5200
G92 E0
; tool H0.200 W0.508
G1 X109.651 Y106.750 E0.0475 F528
G1 X109.746 Y106.750 E0.0511
; tool H0.200 W0.530
G1 X109.851 Y106.750 E0.0553
; tool H0.200 W0.635
G1 X110.000 Y106.750 E0.0623
G1 X110.000 Y106.899 E0.0694
; tool H0.200 W0.530
G1 X110.000 Y107.004 E0.0736
; tool H0.200 W0.509
G1 X110.000 Y107.099 E0.0772
G1 X110.000 Y108.344 E0.1246
G92 E0
G1 E-2.0000 F3000
; tool H0.200 W0.552
; outer perimeter
G1 X120.532 Y107.284 F5200
G1 E0.0000 F3000
G92 E0
G1 X120.538 Y106.215 E0.0442 F528
G1 X121.964 Y106.214 E0.1031
G1 X121.966 Y104.789 E0.1620
G1 X123.035 Y104.790 E0.2061
G1 X123.036 Y106.214 E0.2650
G1 X124.461 Y106.216 E0.3239
G1 X124.460 Y107.285 E0.3680
G1 X123.036 Y107.286 E0.4269
G1 X123.034 Y108.711 E0.4858
G1 X121.965 Y108.710 E0.5299
G1 X121.964 Y107.286 E0.5888
G1 X120.532 Y107.284 E0.6480
G1 X120.538 Y106.215 F4400
G1 X121.964 Y106.214 F4400
G1 X121.966 Y104.789 F4400
G1 X123.035 Y104.790 F4400
G1 X123.035 Y104.800 F4400
; internal single extrusion
G1 X120.901 Y106.750 F5200
G92 E0
; tool H0.200 W0.508
G1 X122.151 Y106.750 E0.0475 F528
G1 X122.246 Y106.750 E0.0511
; tool H0.200 W0.530
G1 X122.351 Y106.750 E0.0553
; tool H0.200 W0.635
G1 X122.500 Y106.750 E0.0623
G1 X122.500 Y106.899 E0.0694
; tool H0.200 W0.530
G1 X122.500 Y107.004 E0.0736
; tool H0.200 W0.509
G1 X122.500 Y107.099 E0.0772
G1 X122.500 Y108.344 E0.1246
G92 E0
G1 E-2.0000 F3000
; layer 2, Z = 0.240
; tool H0.200 W0.480
; outer perimeter
G1 X123.173 Y108.852 F5200
G1 Z0.240 F1002
G1 E0.0000 F3000
G92 E0
G1 X121.824 Y108.860 E0.0485 F528
G1 X121.824 Y107.426 E0.1000
G1 X120.389 Y107.423 E0.1515
G1 X120.389 Y106.074 E0.2000
G1 X121.824 Y106.074 E0.2515
G1 X121.827 Y104.648 E0.3027
G1 X123.176 Y104.640 E0.3512
G1 X123.176 Y106.074 E0.4027
G1 X124.602 Y106.077 E0.4539
G1 X124.610 Y107.426 E0.5024
G1 X123.176 Y107.426 E0.5539
G1 X123.173 Y108.852 E0.6052
G1 X121.824 Y108.860 F4400
G1 X121.824 Y107.426 F4400
G1 X120.389 Y107.423 F4400
G1 X120.389 Y106.642 F4400
; inner perimeter
G1 X120.869 Y106.554 F5200
G92 E0
G1 X122.303 Y106.554 E0.0515 F704
G1 X122.306 Y105.125 E0.1028
G1 X122.696 Y105.123 E0.1168
G1 X122.696 Y106.553 E0.1682
G1 X124.125 Y106.556 E0.2196
G1 X124.127 Y106.946 E0.2336
G1 X122.697 Y106.946 E0.2849
G1 X122.694 Y108.375 E0.3363
G1 X122.304 Y108.377 E0.3503
G1 X122.304 Y106.947 E0.4017
G1 X120.869 Y106.944 E0.4532
G1 X120.869 Y106.554 E0.4672
G92 E0
G1 E-2.0000 F3000
; outer perimeter
G1 X112.102 Y106.077 F5200
G1 E0.0000 F3000
G92 E0
G1 X112.110 Y107.426 E0.0485 F528
G1 X110.676 Y107.426 E0.1000
G1 X110.673 Y108.852 E0.1512
G1 X109.324 Y108.860 E0.1997
G1 X109.324 Y107.426 E0.2512
G1 X107.889 Y107.423 E0.3027
G1 X107.889 Y106.074 E0.3512
G1 X109.324 Y106.074 E0.4027
G1 X109.327 Y104.648 E0.4539
G1 X110.676 Y104.640 E0.5024
G1 X110.676 Y106.074 E0.5539
G1 X112.102 Y106.077 E0.6052
G1 X112.110 Y107.426 F4400
G1 X110.676 Y107.426 F4400
G1 X110.673 Y108.852 F4400
G1 X109.883 Y108.857 F4400
; inner perimeter
G1 X109.804 Y108.377 F5200
G92 E0
G1 X109.804 Y106.947 E0.0514 F704
G1 X108.369 Y106.944 E0.1029
G1 X108.369 Y106.554 E0.1169
G1 X109.803 Y106.554 E0.1684
G1 X109.806 Y105.125 E0.2198
G1 X110.196 Y105.123 E0.2338
G1 X110.196 Y106.553 E0.2851
G1 X111.625 Y106.556 E0.3365
G1 X111.627 Y106.946 E0.3505
G1 X110.197 Y106.946 E0.4019
G1 X110.194 Y108.375 E0.4532
G1 X109.804 Y108.377 E0.4672
G92 E0
G1 E-2.0000 F3000
; layer 3, Z = 0.440
; outer perimeter
G1 X109.317 Y108.861 F5200
G1 Z0.440 F1002
G1 E0.0000 F3000
G92 E0
G1 X109.314 Y107.435 E0.0512 F528
G1 X107.880 Y107.435 E0.1027
G1 X107.889 Y106.067 E0.1519
G1 X109.315 Y106.064 E0.2031
G1 X109.315 Y104.630 E0.2546
G1 X110.683 Y104.630 E0.3037
G1 X110.686 Y106.065 E0.3553
G1 X112.120 Y106.065 E0.4068
G1 X112.111 Y107.433 E0.4559
G1 X110.685 Y107.436 E0.5072
G1 X110.685 Y108.870 E0.5587
G1 X109.317 Y108.861 E0.6078
G1 X109.314 Y107.435 F4400
G1 X107.880 Y107.435 F4400
G1 X107.889 Y106.067 F4400
G1 X108.661 Y106.066 F4400
; inner perimeter
G1 X108.366 Y106.546 F5200
G92 E0
G1 X109.795 Y106.544 E0.0513 F704
G1 X109.795 Y105.110 E0.1028
G1 X110.204 Y105.110 E0.1175
G1 X110.206 Y106.545 E0.1690
G1 X111.637 Y106.545 E0.2204
G1 X111.634 Y106.954 E0.2351
G1 X110.205 Y106.956 E0.2864
G1 X110.205 Y108.387 E0.3378
G1 X109.796 Y108.384 E0.3525
G1 X109.794 Y106.955 E0.4038
G1 X108.363 Y106.955 E0.4552
G1 X108.366 Y106.546 E0.4699
G92 E0
G1 E-2.0000 F3000
; outer perimeter
G1 X120.389 Y106.067 F5200
G1 E0.0000 F3000
G92 E0
G1 X121.815 Y106.064 E0.0512 F528
G1 X121.815 Y104.630 E0.1028
G1 X123.183 Y104.630 E0.1519
G1 X123.186 Y106.065 E0.2034
G1 X124.620 Y106.065 E0.2549
G1 X124.611 Y107.433 E0.3041
G1 X123.185 Y107.436 E0.3553
G1 X123.185 Y108.870 E0.4068
G1 X121.817 Y108.861 E0.4559
G1 X121.814 Y107.435 E0.5072
G1 X120.380 Y107.435 E0.5587
G1 X120.389 Y106.067 E0.6078
G1 X121.815 Y106.064 F4400
G1 X121.815 Y104.630 F4400
G1 X123.183 Y104.630 F4400
G1 X123.184 Y105.402 F4400
; inner perimeter
G1 X122.704 Y105.110 F5200
G92 E0
G1 X122.706 Y106.545 E0.0515 F704
G1 X124.137 Y106.545 E0.1029
G1 X124.134 Y106.954 E0.1176
G1 X122.705 Y106.956 E0.1689
G1 X122.705 Y108.387 E0.2203
G1 X122.296 Y108.384 E0.2350
G1 X122.294 Y106.955 E0.2863
G1 X120.863 Y106.955 E0.3377
G1 X120.866 Y106.546 E0.3524
G1 X122.295 Y106.544 E0.4037
G1 X122.295 Y105.110 E0.4552
G1 X122.704 Y105.110 E0.4699
G92 E0
G1 E-2.0000 F3000
; layer 4, Z = 0.640
; outer perimeter
G1 X123.182 Y104.630 F5200
G1 Z0.640 F1002
G1 E0.0000 F3000
G92 E0
G1 X123.186 Y106.065 E0.0515 F528
G1 X124.620 Y106.065 E0.1031
G1 X124.611 Y107.432 E0.1522
G1 X123.185 Y107.436 E0.2034
G1 X123.185 Y108.870 E0.2549
G1 X121.818 Y108.861 E0.3040
G1 X121.814 Y107.435 E0.3553
G1 X120.380 Y107.435 E0.4068
G1 X120.389 Y106.068 E0.4559
G1 X121.815 Y106.064 E0.5071
G1 X121.815 Y104.630 E0.5587
G1 X123.182 Y104.630 E0.6078
G1 X123.186 Y106.065 F4400
G1 X124.620 Y106.065 F4400
G1 X124.611 Y107.432 F4400
G1 X123.848 Y107.434 F4400
; inner perimeter
G1 X124.134 Y106.953 F5200
G92 E0
G1 X122.705 Y106.957 E0.0513 F704
G1 X122.705 Y108.387 E0.1027
G1 X122.297 Y108.384 E0.1174
G1 X122.293 Y106.955 E0.1687
G1 X120.863 Y106.955 E0.2201
G1 X120.866 Y106.547 E0.2348
G1 X122.295 Y106.543 E0.2861
G1 X122.295 Y105.110 E0.3376
G1 X122.703 Y105.110 E0.3522
G1 X122.707 Y106.545 E0.4038
G1 X124.137 Y106.545 E0.4552
G1 X124.134 Y106.953 E0.4698
G92 E0
G1 E-2.0000 F3000
; outer perimeter
G1 X112.111 Y107.432 F5200
G1 E0.0000 F3000
G92 E0
G1 X110.685 Y107.436 E0.0512 F528
G1 X110.685 Y108.870 E0.1027
G1 X109.318 Y108.861 E0.1519
G1 X109.314 Y107.435 E0.2031
G1 X107.880 Y107.435 E0.2546
G1 X107.889 Y106.068 E0.3037
G1 X109.315 Y106.064 E0.3550
G1 X109.315 Y104.630 E0.4065
G1 X110.682 Y104.630 E0.4556
G1 X110.686 Y106.065 E0.5071
G1 X112.120 Y106.065 E0.5587
G1 X112.111 Y107.432 E0.6078
G1 X110.685 Y107.436 F4400
G1 X110.685 Y108.870 F4400
G1 X109.318 Y108.861 F4400
G1 X109.316 Y108.089 F4400
; inner perimeter
G1 X109.797 Y108.384 F5200
G92 E0
G1 X109.793 Y106.955 E0.0513 F704
G1 X108.363 Y106.955 E0.1027
G1 X108.366 Y106.547 E0.1174
G1 X109.795 Y106.543 E0.1687
G1 X109.795 Y105.110 E0.2202
G1 X110.203 Y105.110 E0.2349
G1 X110.207 Y106.545 E0.2864
G1 X111.637 Y106.545 E0.3378
G1 X111.634 Y106.953 E0.3525
G1 X110.205 Y106.957 E0.4038
G1 X110.205 Y108.387 E0.4552
G1 X109.797 Y108.384 E0.4698
G92 E0
G1 E-2.0000 F3000
; layer 5, Z = 0.840
; outer perimeter
G1 X109.318 Y108.861 F5200
G1 Z0.840 F1002
G1 E0.0000 F3000
G92 E0
G1 X109.314 Y107.435 E0.0512 F528
G1 X107.880 Y107.435 E0.1027
G1 X107.889 Y106.068 E0.1519
G1 X109.315 Y106.064 E0.2031
G1 X109.315 Y104.630 E0.2546
G1 X110.682 Y104.630 E0.3037
G1 X110.686 Y106.065 E0.3553
G1 X112.120 Y106.065 E0.4068
G1 X112.111 Y107.432 E0.4559
G1 X110.685 Y107.436 E0.5071
G1 X110.685 Y108.870 E0.5586
G1 X109.318 Y108.861 E0.6078
G1 X109.314 Y107.435 F4400
G1 X107.880 Y107.435 F4400
G1 X107.889 Y106.068 F4400
G1 X108.661 Y106.066 F4400
; inner perimeter
G1 X108.366 Y106.547 F5200
G92 E0
G1 X109.795 Y106.543 E0.0513 F704
G1 X109.795 Y105.110 E0.1028
G1 X110.203 Y105.110 E0.1175
G1 X110.207 Y106.545 E0.1690
G1 X111.637 Y106.545 E0.2204
G1 X111.634 Y106.953 E0.2351
G1 X110.205 Y106.957 E0.2864
G1 X110.205 Y108.387 E0.3378
G1 X109.797 Y108.384 E0.3524
G1 X109.793 Y106.955 E0.4038
G1 X108.363 Y106.955 E0.4551
G1 X108.366 Y106.547 E0.4698
G92 E0
G1 E-2.0000 F3000
; outer perimeter
G1 X120.389 Y106.068 F5200
G1 E0.0000 F3000
G92 E0
G1 X121.815 Y106.064 E0.0512 F528
G1 X121.815 Y104.630 E0.1028
G1 X123.182 Y104.630 E0.1519
G1 X123.186 Y106.065 E0.2034
G1 X124.620 Y106.065 E0.2549
G1 X124.611 Y107.432 E0.3040
G1 X123.185 Y107.436 E0.3553
G1 X123.185 Y108.870 E0.4068
G1 X121.818 Y108.861 E0.4559
G1 X121.814 Y107.435 E0.5071
G1 X120.380 Y107.435 E0.5586
G1 X120.389 Y106.068 E0.6078
G1 X121.815 Y106.064 F4400
G1 X121.815 Y104.630 F4400
G1 X123.182 Y104.630 F4400
G1 X123.184 Y105.402 F4400
; inner perimeter
G1 X122.703 Y105.110 F5200
G92 E0
G1 X122.707 Y106.545 E0.0515 F704
G1 X124.137 Y106.545 E0.1029
G1 X124.134 Y106.953 E0.1176
G1 X122.705 Y106.957 E0.1689
G1 X122.705 Y108.387 E0.2203
G1 X122.297 Y108.384 E0.2350
G1 X122.293 Y106.955 E0.2863
G1 X120.863 Y106.955 E0.3377
G1 X120.866 Y106.547 E0.3523
G1 X122.295 Y106.543 E0.4037
G1 X122.295 Y105.110 E0.4551
G1 X122.703 Y105.110 E0.4698
G92 E0
G1 E-2.0000 F3000
; layer 6, Z = 1.040
; outer perimeter
G1 X123.182 Y104.630 F5200
G1 Z1.040 F1002
G1 E0.0000 F3000
G92 E0
G1 X123.186 Y106.065 E0.0515 F528
G1 X124.620 Y106.065 E0.1031
G1 X124.611 Y107.432 E0.1522
G1 X123.185 Y107.436 E0.2034
G1 X123.185 Y108.870 E0.2549
