; G-Code generated by Simplify3D(R) Version 4.0.0
; Jan 13, 2021 at 3:54:09 PM
; Settings Summary
;   processName,Process1
;   applyToModels,MobileHolderV7_cable2
;   profileName,def (modified)
;   profileVersion,2020-09-07 14:01:24
;   baseProfile,Default (modified)
;   printMaterial,PLA
;   printQuality,Medium
;   printExtruders,
;   extruderName,Primary Extruder
;   extruderToolheadNumber,0
;   extruderDiameter,0.4
;   extruderAutoWidth,0
;   extruderWidth,0.4
;   extrusionMultiplier,0.9
;   extruderUseRetract,1
;   extruderRetractionDistance,1
;   extruderExtraRestartDistance,0
;   extruderRetractionZLift,0
;   extruderRetractionSpeed,1800
;   extruderUseCoasting,0
;   extruderCoastingDistance,0.2
;   extruderUseWipe,0
;   extruderWipeDistance,5
;   primaryExtruder,0
;   layerHeight,0.3
;   topSolidLayers,3
;   bottomSolidLayers,2
;   perimeterOutlines,2
;   printPerimetersInsideOut,1
;   startPointOption,2
;   startPointOriginX,0
;   startPointOriginY,0
;   sequentialIslands,0
;   spiralVaseMode,0
;   firstLayerHeightPercentage,90
;   firstLayerWidthPercentage,103
;   firstLayerUnderspeed,0.3
;   useRaft,0
;   raftExtruder,0
;   raftTopLayers,2
;   raftBaseLayers,2
;   raftOffset,1.4
;   raftSeparationDistance,0.14
;   raftTopInfill,100
;   aboveRaftSpeedMultiplier,0.3
;   useSkirt,0
;   skirtExtruder,0
;   skirtLayers,1
;   skirtOutlines,2
;   skirtOffset,4
;   usePrimePillar,0
;   primePillarExtruder,999
;   primePillarWidth,12
;   primePillarLocation,7
;   primePillarSpeedMultiplier,1
;   useOozeShield,0
;   oozeShieldExtruder,999
;   oozeShieldOffset,2
;   oozeShieldOutlines,1
;   oozeShieldSidewallShape,1
;   oozeShieldSidewallAngle,30
;   oozeShieldSpeedMultiplier,1
;   infillExtruder,0
;   internalInfillPattern,Rectilinear
;   externalInfillPattern,Rectilinear
;   infillPercentage,10
;   outlineOverlapPercentage,15
;   infillExtrusionWidthPercentage,100
;   minInfillLength,5
;   infillLayerInterval,1
;   internalInfillAngles,45,-45
;   overlapInternalInfillAngles,0
;   externalInfillAngles,45,-45
;   generateSupport,0
;   supportExtruder,0
;   supportInfillPercentage,30
;   supportExtraInflation,0
;   supportBaseLayers,0
;   denseSupportExtruder,0
;   denseSupportLayers,0
;   denseSupportInfillPercentage,70
;   supportLayerInterval,1
;   supportHorizontalPartOffset,0.2
;   supportUpperSeparationLayers,1
;   supportLowerSeparationLayers,1
;   supportType,0
;   supportGridSpacing,4
;   maxOverhangAngle,45
;   supportAngles,0
;   temperatureName,Primary Extruder,Hot Bed
;   temperatureNumber,0,1
;   temperatureSetpointCount,1,1
;   temperatureSetpointLayers,1,1
;   temperatureSetpointTemperatures,210,60
;   temperatureStabilizeAtStartup,1,0
;   temperatureHeatedBed,0,1
;   temperatureRelayBetweenLayers,0,0
;   temperatureRelayBetweenLoops,0,0
;   fanLayers,1,2
;   fanSpeeds,0,100
;   blipFanToFullPower,0
;   adjustSpeedForCooling,1
;   minSpeedLayerTime,15
;   minCoolingSpeedSlowdown,20
;   increaseFanForCooling,0
;   minFanLayerTime,45
;   maxCoolingFanSpeed,100
;   increaseFanForBridging,0
;   bridgingFanSpeed,100
;   use5D,1
;   relativeEdistances,0
;   allowEaxisZeroing,1
;   independentExtruderAxes,0
;   includeM10123,0
;   stickySupport,1
;   applyToolheadOffsets,0
;   gcodeXoffset,-0.09
;   gcodeYoffset,-0.03
;   gcodeZoffset,0
;   overrideMachineDefinition,0
;   machineTypeOverride,0
;   strokeXoverride,200
;   strokeYoverride,200
;   strokeZoverride,200
;   originOffsetXoverride,0
;   originOffsetYoverride,0
;   originOffsetZoverride,0
;   homeXdirOverride,-1
;   homeYdirOverride,-1
;   homeZdirOverride,-1
;   flipXoverride,1
;   flipYoverride,-1
;   flipZoverride,1
;   toolheadOffsets,0,0|0,0|0,0|0,0|0,0|0,0
;   overrideFirmwareConfiguration,0
;   firmwareTypeOverride,RepRap (Marlin/Repetier/Sprinter)
;   GPXconfigOverride,r2
;   baudRateOverride,115200
;   overridePrinterModels,0
;   printerModelsOverride
;   startingGcode,G28 ; home all axes,G1 X3 Y5 Z0.2 F3000 ; get ready to prime,G92 E0 ; reset extrusion distance,G1 Y150 E20 F600 ; prime nozzle
;   layerChangeGcode,
;   retractionGcode,
;   toolChangeGcode,
;   endingGcode,M104 S0 ; turn off extruder,M140 S0 ; turn off bedG1 X0 Y0; home,M84 ; disable motors,M107 ; fan off,G28 X Y; Home,M18; Disable steppers
;   exportFileFormat,gcode
;   celebration,0
;   celebrationSong,Random Song
;   postProcessing,
;   defaultSpeed,3800
;   outlineUnderspeed,0.5
;   solidInfillUnderspeed,0.8
;   supportUnderspeed,0.8
;   rapidXYspeed,4800
;   rapidZspeed,1000
;   minBridgingArea,50
;   bridgingExtraInflation,0
;   bridgingExtrusionMultiplier,1
;   bridgingSpeedMultiplier,1
;   useFixedBridgingAngle,0
;   fixedBridgingAngle,0
;   applyBridgingToPerimeters,0
;   filamentDiameters,1.75|1.75|1.75|1.75|1.75|1.75
;   filamentPricesPerKg,46|46|46|46|46|46
;   filamentDensities,1.25|1.25|1.25|1.25|1.25|1.25
;   useMinPrintHeight,0
;   minPrintHeight,0
;   useMaxPrintHeight,0
;   maxPrintHeight,0
;   useDiaphragm,0
;   diaphragmLayerInterval,20
;   robustSlicing,1
;   mergeAllIntoSolid,0
;   onlyRetractWhenCrossingOutline,1
;   retractBetweenLayers,1
;   useRetractionMinTravel,0
;   retractionMinTravel,3
;   retractWhileWiping,0
;   onlyWipeOutlines,1
;   avoidCrossingOutline,0
;   maxMovementDetourFactor,3
;   toolChangeRetractionDistance,12
;   toolChangeExtraRestartDistance,-0.5
;   toolChangeRetractionSpeed,600
;   externalThinWallType,1
;   internalThinWallType,2
;   thinWallAllowedOverlapPercentage,8
;   singleExtrusionMinLength,1
;   singleExtrusionMinPrintingWidthPercentage,50
;   singleExtrusionMaxPrintingWidthPercentage,200
;   singleExtrusionEndpointExtension,0.2
;   horizontalSizeCompensation,0
G90
M82
M106 S0
M140 S60
M104 S210 T0
M109 S210 T0
G28 ; home all axes
G1 X3 Y5 Z0.2 F3000 ; get ready to prime
G92 E0 ; reset extrusion distance
G1 Y150 E20 F600 ; prime nozzle
G92 E0
G1 E-1.0000 F1800
G1 Z0.270 F1000
; process Process1
; layer 1, Z = 0.270
T0
; tool H0.300 W0.412
; inner perimeter
G1 X113.803 Y94.688 F4800
G1 E0.0000 F540
G92 E0
G1 X127.379 Y94.688 E0.6278 F855
G1 X127.623 Y94.707 E0.6392
G1 X127.840 Y94.758 E0.6495
G1 X128.045 Y94.842 E0.6597
G1 X128.234 Y94.956 E0.6699
G1 X128.402 Y95.097 E0.6801
G1 X128.544 Y95.261 E0.6901
G1 X128.659 Y95.446 E0.7002
G1 X128.743 Y95.645 E0.7102
G1 X128.795 Y95.855 E0.7202
G1 X128.814 Y96.093 E0.7312
G1 X128.814 Y129.845 E2.2922
G1 X128.795 Y130.084 E2.3033
G1 X128.744 Y130.294 E2.3133
G1 X128.660 Y130.493 E2.3233
G1 X128.545 Y130.678 E2.3333
G1 X128.402 Y130.843 E2.3434
G1 X128.235 Y130.983 E2.3535
G1 X128.046 Y131.097 E2.3637
G1 X127.841 Y131.181 E2.3740
G1 X127.624 Y131.233 E2.3843
G1 X127.378 Y131.252 E2.3957
G1 X113.803 Y131.252 E3.0235
G1 X113.803 Y116.338 E3.7133
G1 X120.002 Y116.338 E4.0000
G1 X120.178 Y116.415 E4.0088
G1 X120.926 Y116.572 E4.0442
G1 X121.691 Y116.572 E4.0795
G1 X122.439 Y116.415 E4.1149
G1 X123.139 Y116.108 E4.1502
G1 X123.759 Y115.664 E4.1855
G1 X124.273 Y115.102 E4.2207
G1 X124.658 Y114.446 E4.2559
G1 X124.896 Y113.725 E4.2910
G1 X124.976 Y112.970 E4.3261
G1 X124.896 Y112.215 E4.3613
G1 X124.658 Y111.494 E4.3964
G1 X124.273 Y110.838 E4.4316
G1 X123.759 Y110.276 E4.4668
G1 X123.139 Y109.832 E4.5021
G1 X122.439 Y109.525 E4.5374
G1 X121.691 Y109.368 E4.5727
G1 X120.926 Y109.368 E4.6081
G1 X120.178 Y109.525 E4.6435
G1 X120.002 Y109.602 E4.6523
G1 X113.803 Y109.602 E4.9390
G1 X113.803 Y94.688 E5.6288
; outer perimeter
G1 X113.391 Y94.276 F4800
G92 E0
G1 X127.394 Y94.276 E0.6476 F570
G1 X127.687 Y94.299 E0.6612
G1 X127.966 Y94.365 E0.6744
G1 X128.230 Y94.473 E0.6877
G1 X128.475 Y94.620 E0.7009
G1 X128.692 Y94.803 E0.7140
G1 X128.877 Y95.016 E0.7270
G1 X129.026 Y95.256 E0.7401
G1 X129.136 Y95.516 E0.7531
G1 X129.203 Y95.789 E0.7661
G1 X129.226 Y96.077 E0.7795
G1 X129.226 Y129.862 E2.3420
G1 X129.203 Y130.150 E2.3554
G1 X129.136 Y130.423 E2.3684
G1 X129.027 Y130.683 E2.3814
G1 X128.878 Y130.923 E2.3945
G1 X128.692 Y131.137 E2.4076
G1 X128.476 Y131.319 E2.4207
G1 X128.231 Y131.467 E2.4339
G1 X127.967 Y131.575 E2.4471
G1 X127.688 Y131.641 E2.4603
G1 X127.394 Y131.664 E2.4740
G1 X113.391 Y131.664 E3.1216
G1 X113.391 Y115.926 E3.8494
G1 X120.089 Y115.926 E4.1592
G1 X120.304 Y116.020 E4.1701
G1 X120.969 Y116.160 E4.2015
G1 X121.648 Y116.160 E4.2329
G1 X122.313 Y116.020 E4.2643
G1 X122.934 Y115.748 E4.2957
G1 X123.484 Y115.354 E4.3270
G1 X123.940 Y114.856 E4.3582
G1 X124.280 Y114.276 E4.3893
G1 X124.491 Y113.637 E4.4204
G1 X124.562 Y112.970 E4.4514
G1 X124.491 Y112.303 E4.4825
G1 X124.280 Y111.664 E4.5136
G1 X123.940 Y111.084 E4.5447
G1 X123.484 Y110.586 E4.5759
G1 X122.934 Y110.192 E4.6072
G1 X122.313 Y109.920 E4.6386
G1 X121.648 Y109.780 E4.6700
G1 X120.969 Y109.780 E4.7014
G1 X120.304 Y109.920 E4.7328
G1 X120.089 Y110.014 E4.7437
G1 X113.391 Y110.014 E5.0534
G1 X113.391 Y94.276 E5.7813
; solid layer
G1 X114.153 Y108.796 F4800
G92 E0
G1 X114.609 Y109.252 E0.0298 F912
G1 X115.192 Y109.252 E0.0568
G1 X114.153 Y108.213 E0.1247
G1 X114.153 Y107.631 E0.1516
G1 X115.774 Y109.252 E0.2577
G1 X116.357 Y109.252 E0.2846
G1 X114.153 Y107.048 E0.4287
G1 X114.153 Y106.465 E0.4557
G1 X116.940 Y109.252 E0.6379
G1 X117.522 Y109.252 E0.6649
G1 X114.153 Y105.883 E0.8852
G1 X114.153 Y105.300 E0.9122
G1 X118.105 Y109.252 E1.1706
G1 X118.688 Y109.252 E1.1976
G1 X114.153 Y104.717 E1.4942
G1 X114.153 Y104.135 E1.5211
G1 X119.270 Y109.252 E1.8558
G1 X119.853 Y109.252 E1.8827
G1 X114.153 Y103.552 E2.2555
G1 X114.153 Y102.969 E2.2825
G1 X120.321 Y109.137 E2.6859
G1 X120.803 Y109.036 E2.7086
G1 X114.153 Y102.387 E3.1436
G1 X114.153 Y101.804 E3.1705
G1 X121.367 Y109.018 E3.6424
G1 X121.727 Y109.018 E3.6590
G1 X122.009 Y109.077 E3.6723
G1 X114.153 Y101.221 E4.1861
G1 X114.153 Y100.639 E4.2131
G1 X122.827 Y109.313 E4.7804
G1 X123.313 Y109.526 E4.8049
G1 X123.993 Y110.012 E4.8436
G1 X124.557 Y110.629 E4.8822
G1 X124.979 Y111.349 E4.9208
G1 X125.035 Y111.521 E4.9292
G1 X128.464 Y114.949 E5.1534
G1 X128.464 Y114.366 E5.1804
G1 X114.153 Y100.056 E6.1163
G1 X114.153 Y99.473 E6.1433
G1 X128.464 Y113.784 E7.0792
G1 X128.464 Y113.201 E7.1062
G1 X114.153 Y98.891 E8.0422
G1 X114.153 Y98.308 E8.0691
G1 X128.464 Y112.619 E9.0051
G1 X128.464 Y112.036 E9.0320
G1 X114.153 Y97.726 E9.9680
G1 X114.153 Y97.143 E9.9949
G1 X128.464 Y111.453 E10.9309
G1 X128.464 Y110.871 E10.9578
G1 X114.153 Y96.560 E11.8938
G1 X114.153 Y95.978 E11.9208
G1 X128.464 Y110.288 E12.8567
G1 X128.464 Y109.705 E12.8837
G1 X114.153 Y95.395 E13.8196
G1 X114.153 Y95.038 E13.8361
G1 X114.379 Y95.038 E13.8466
G1 X128.464 Y109.123 E14.7678
G1 X128.464 Y108.540 E14.7947
G1 X114.962 Y95.038 E15.6778
G1 X115.545 Y95.038 E15.7047
G1 X128.464 Y107.957 E16.5497
G1 X128.464 Y107.375 E16.5766
G1 X116.127 Y95.038 E17.3835
G1 X116.710 Y95.038 E17.4105
G1 X128.464 Y106.792 E18.1792
G1 X128.464 Y106.209 E18.2062
G1 X117.293 Y95.038 E18.9368
G1 X117.875 Y95.038 E18.9637
G1 X128.464 Y105.627 E19.6563
G1 X128.464 Y105.044 E19.6832
G1 X118.458 Y95.038 E20.3376
G1 X119.041 Y95.038 E20.3646
G1 X128.464 Y104.461 E20.9809
G1 X128.464 Y103.879 E21.0079
G1 X119.623 Y95.038 E21.5861
G1 X120.206 Y95.038 E21.6130
G1 X128.464 Y103.296 E22.1531
G1 X128.464 Y102.713 E22.1801
G1 X120.789 Y95.038 E22.6820
G1 X121.371 Y95.038 E22.7090
G1 X128.464 Y102.131 E23.1729
G1 X128.464 Y101.548 E23.1998
G1 X121.954 Y95.038 E23.6256
G1 X122.537 Y95.038 E23.6525
G1 X128.464 Y100.965 E24.0402
G1 X128.464 Y100.383 E24.0671
G1 X123.119 Y95.038 E24.4167
G1 X123.702 Y95.038 E24.4436
G1 X128.464 Y99.800 E24.7551
G1 X128.464 Y99.217 E24.7820
G1 X124.285 Y95.038 E25.0554
G1 X124.867 Y95.038 E25.0823
G1 X128.464 Y98.635 E25.3175
G1 X128.464 Y98.052 E25.3445
G1 X125.450 Y95.038 E25.5416
G1 X126.033 Y95.038 E25.5685
G1 X128.464 Y97.469 E25.7276
G1 X128.464 Y96.887 E25.7545
G1 X126.615 Y95.038 E25.8754
G1 X127.198 Y95.038 E25.9023
G1 X128.464 Y96.304 E25.9851
G1 X128.464 Y96.108 E25.9942
G1 X128.448 Y95.911 E26.0034
G1 X128.410 Y95.756 E26.0107
G1 X128.347 Y95.608 E26.0182
G1 X128.343 Y95.601 E26.0185
G1 X127.914 Y95.172 E26.0466
G1 X125.260 Y112.328 F4800
G92 E0
G1 X128.464 Y115.532 E0.2095 F912
G1 X128.464 Y116.114 E0.2365
G1 X125.328 Y112.978 E0.4416
G1 X125.271 Y113.505 E0.4661
G1 X128.464 Y116.697 E0.6749
G1 X128.464 Y117.280 E0.7018
G1 X125.176 Y113.992 E0.9168
G1 X125.032 Y114.430 E0.9382
G1 X128.464 Y117.862 E1.1626
G1 X128.464 Y118.445 E1.1896
G1 X124.842 Y114.824 E1.4264
G1 X124.627 Y115.191 E1.4461
G1 X128.464 Y119.028 E1.6971
G1 X128.464 Y119.610 E1.7240
G1 X124.369 Y115.516 E1.9918
G1 X124.091 Y115.820 E2.0109
G1 X128.464 Y120.193 E2.2969
G1 X128.464 Y120.776 E2.3238
G1 X123.773 Y116.085 E2.6306
G1 X123.433 Y116.328 E2.6499
G1 X128.464 Y121.358 E2.9789
G1 X128.464 Y121.941 E3.0059
G1 X123.052 Y116.529 E3.3599
G1 X122.646 Y116.706 E3.3803
G1 X128.464 Y122.524 E3.7608
G1 X128.464 Y123.106 E3.7878
G1 X122.184 Y116.826 E4.1985
G1 X121.727 Y116.922 E4.2201
G1 X121.696 Y116.922 E4.2215
G1 X128.464 Y123.689 E4.6641
G1 X128.464 Y124.272 E4.6910
G1 X121.114 Y116.922 E5.1718
G1 X120.890 Y116.922 E5.1821
G1 X120.436 Y116.827 E5.2036
G1 X128.464 Y124.854 E5.7286
G1 X128.464 Y125.437 E5.7555
G1 X119.715 Y116.688 E6.3278
G1 X119.132 Y116.688 E6.3547
G1 X128.464 Y126.020 E6.9650
G1 X128.464 Y126.602 E6.9920
G1 X118.550 Y116.688 E7.6404
G1 X117.967 Y116.688 E7.6674
G1 X128.464 Y127.185 E8.3539
G1 X128.464 Y127.768 E8.3808
G1 X117.384 Y116.688 E9.1055
G1 X116.802 Y116.688 E9.1324
G1 X128.464 Y128.350 E9.8952
G1 X128.464 Y128.933 E9.9221
G1 X116.219 Y116.688 E10.7230
G1 X115.636 Y116.688 E10.7500
G1 X128.464 Y129.516 E11.5889
G1 X128.464 Y129.831 E11.6035
G1 X128.448 Y130.029 E11.6127
G1 X128.437 Y130.072 E11.6147
G1 X115.054 Y116.688 E12.4901
G1 X114.471 Y116.688 E12.5171
G1 X128.258 Y130.475 E13.4188
G1 X128.156 Y130.592 E13.4260
G1 X128.031 Y130.697 E13.4335
G1 X127.948 Y130.748 E13.4380
G1 X114.153 Y116.953 E14.3402
G1 X114.153 Y117.536 E14.3672
G1 X127.508 Y130.890 E15.2406
G1 X127.365 Y130.902 E15.2473
G1 X126.937 Y130.902 E15.2671
G1 X114.153 Y118.118 E16.1031
G1 X114.153 Y118.701 E16.1301
G1 X126.354 Y130.902 E16.9281
G1 X125.771 Y130.902 E16.9550
G1 X114.153 Y119.284 E17.7149
G1 X114.153 Y119.866 E17.7418
G1 X125.189 Y130.902 E18.4636
G1 X124.606 Y130.902 E18.4905
G1 X114.153 Y120.449 E19.1742
G1 X114.153 Y121.032 E19.2011
G1 X124.023 Y130.902 E19.8467
G1 X123.441 Y130.902 E19.8736
G1 X114.153 Y121.614 E20.4811
G1 X114.153 Y122.197 E20.5080
G1 X122.858 Y130.902 E21.0773
G1 X122.275 Y130.902 E21.1043
G1 X114.153 Y122.780 E21.6355
G1 X114.153 Y123.362 E21.6624
G1 X121.693 Y130.902 E22.1555
G1 X121.110 Y130.902 E22.1825
G1 X114.153 Y123.945 E22.6375
G1 X114.153 Y124.528 E22.6644
G1 X120.527 Y130.902 E23.0813
G1 X119.945 Y130.902 E23.1083
G1 X114.153 Y125.110 E23.4871
G1 X114.153 Y125.693 E23.5140
G1 X119.362 Y130.902 E23.8547
G1 X118.779 Y130.902 E23.8816
G1 X114.153 Y126.276 E24.1842
G1 X114.153 Y126.858 E24.2112
G1 X118.197 Y130.902 E24.4756
G1 X117.614 Y130.902 E24.5026
G1 X114.153 Y127.441 E24.7289
G1 X114.153 Y128.024 E24.7559
G1 X117.031 Y130.902 E24.9441
G1 X116.449 Y130.902 E24.9710
G1 X114.153 Y128.606 E25.1212
G1 X114.153 Y129.189 E25.1481
G1 X115.866 Y130.902 E25.2602
G1 X115.284 Y130.902 E25.2871
G1 X114.153 Y129.772 E25.3610
G1 X114.153 Y130.354 E25.3880
G1 X114.701 Y130.902 E25.4238
G92 E0
G1 E-1.0000 F1800
; layer 2, Z = 0.570
M106 S255
; tool H0.300 W0.400
; inner perimeter
G1 X113.735 Y131.270 F4800
G1 Z0.570 F1000
G1 E0.0000 F1800
G92 E0
G1 X113.735 Y116.320 E0.6713 F2850
G1 X119.956 Y116.320 E0.9506
G1 X120.133 Y116.398 E0.9593
G1 X120.878 Y116.554 E0.9935
G1 X121.639 Y116.554 E1.0276
G1 X122.384 Y116.398 E1.0618
G1 X123.080 Y116.092 E1.0959
G1 X123.697 Y115.651 E1.1300
G1 X124.208 Y115.091 E1.1640
G1 X124.591 Y114.439 E1.1980
G1 X124.828 Y113.721 E1.2319
G1 X124.908 Y112.970 E1.2658
G1 X124.828 Y112.219 E1.2998
G1 X124.591 Y111.501 E1.3337
G1 X124.208 Y110.849 E1.3677
G1 X123.697 Y110.289 E1.4017
G1 X123.080 Y109.848 E1.4358
G1 X122.384 Y109.542 E1.4699
G1 X121.639 Y109.386 E1.5041
G1 X120.878 Y109.386 E1.5382
G1 X120.133 Y109.542 E1.5724
G1 X119.956 Y109.620 E1.5811
