; G-Code generated by Simplify3D(R) Version 4.0.0
; Jan 8, 2021 at 5:31:32 PM
; Settings Summary
;   processName,slow
;   applyToModels,MobileHolderV7,MobileHolderV7_cable
;   profileName,def
;   profileVersion,2021-01-08 17:30:32
;   baseProfile,Default (modified)
;   printMaterial,PLA
;   printQuality,Medium
;   printExtruders,
;   extruderName,Primary Extruder
;   extruderToolheadNumber,0
;   extruderDiameter,0.4
;   extruderAutoWidth,0
;   extruderWidth,0.4
;   extrusionMultiplier,0.9
;   extruderUseRetract,1
;   extruderRetractionDistance,1
;   extruderExtraRestartDistance,0
;   extruderRetractionZLift,0
;   extruderRetractionSpeed,1800
;   extruderUseCoasting,0
;   extruderCoastingDistance,0.2
;   extruderUseWipe,0
;   extruderWipeDistance,5
;   primaryExtruder,0
;   layerHeight,0.3
;   topSolidLayers,3
;   bottomSolidLayers,2
;   perimeterOutlines,2
;   printPerimetersInsideOut,1
;   startPointOption,2
;   startPointOriginX,0
;   startPointOriginY,0
;   sequentialIslands,0
;   spiralVaseMode,0
;   firstLayerHeightPercentage,90
;   firstLayerWidthPercentage,103
;   firstLayerUnderspeed,0.3
;   useRaft,0
;   raftExtruder,0
;   raftTopLayers,2
;   raftBaseLayers,2
;   raftOffset,1.4
;   raftSeparationDistance,0.14
;   raftTopInfill,100
;   aboveRaftSpeedMultiplier,0.3
;   useSkirt,0
;   skirtExtruder,0
;   skirtLayers,1
;   skirtOutlines,2
;   skirtOffset,4
;   usePrimePillar,0
;   primePillarExtruder,999
;   primePillarWidth,12
;   primePillarLocation,7
;   primePillarSpeedMultiplier,1
;   useOozeShield,0
;   oozeShieldExtruder,999
;   oozeShieldOffset,2
;   oozeShieldOutlines,1
;   oozeShieldSidewallShape,1
;   oozeShieldSidewallAngle,30
;   oozeShieldSpeedMultiplier,1
;   infillExtruder,0
;   internalInfillPattern,Rectilinear
;   externalInfillPattern,Rectilinear
;   infillPercentage,23
;   outlineOverlapPercentage,15
;   infillExtrusionWidthPercentage,100
;   minInfillLength,5
;   infillLayerInterval,1
;   internalInfillAngles,45,-45
;   overlapInternalInfillAngles,0
;   externalInfillAngles,45,-45
;   generateSupport,1
;   supportExtruder,0
;   supportInfillPercentage,30
;   supportExtraInflation,0
;   supportBaseLayers,0
;   denseSupportExtruder,0
;   denseSupportLayers,0
;   denseSupportInfillPercentage,70
;   supportLayerInterval,1
;   supportHorizontalPartOffset,0.2
;   supportUpperSeparationLayers,1
;   supportLowerSeparationLayers,1
;   supportType,0
;   supportGridSpacing,4
;   maxOverhangAngle,45
;   supportAngles,0
;   temperatureName,Primary Extruder,Hot Bed
;   temperatureNumber,0,1
;   temperatureSetpointCount,1,1
;   temperatureSetpointLayers,1,1
;   temperatureSetpointTemperatures,210,60
;   temperatureStabilizeAtStartup,1,0
;   temperatureHeatedBed,0,1
;   temperatureRelayBetweenLayers,0,0
;   temperatureRelayBetweenLoops,0,0
;   fanLayers,1,2
;   fanSpeeds,0,100
;   blipFanToFullPower,0
;   adjustSpeedForCooling,1
;   minSpeedLayerTime,15
;   minCoolingSpeedSlowdown,20
;   increaseFanForCooling,0
;   minFanLayerTime,45
;   maxCoolingFanSpeed,100
;   increaseFanForBridging,0
;   bridgingFanSpeed,100
;   use5D,1
;   relativeEdistances,0
;   allowEaxisZeroing,1
;   independentExtruderAxes,0
;   includeM10123,0
;   stickySupport,1
;   applyToolheadOffsets,0
;   gcodeXoffset,-0.03
;   gcodeYoffset,-0.03
;   gcodeZoffset,0
;   overrideMachineDefinition,0
;   machineTypeOverride,0
;   strokeXoverride,200
;   strokeYoverride,200
;   strokeZoverride,200
;   originOffsetXoverride,0
;   originOffsetYoverride,0
;   originOffsetZoverride,0
;   homeXdirOverride,-1
;   homeYdirOverride,-1
;   homeZdirOverride,-1
;   flipXoverride,1
;   flipYoverride,-1
;   flipZoverride,1
;   toolheadOffsets,0,0|0,0|0,0|0,0|0,0|0,0
;   overrideFirmwareConfiguration,0
;   firmwareTypeOverride,RepRap (Marlin/Repetier/Sprinter)
;   GPXconfigOverride,r2
;   baudRateOverride,115200
;   overridePrinterModels,0
;   printerModelsOverride
;   startingGcode,G28 ; home all axes,G1 X3 Y5 Z0.2 F3000 ; get ready to prime,G92 E0 ; reset extrusion distance,G1 Y150 E20 F600 ; prime nozzle
;   layerChangeGcode,
;   retractionGcode,
;   toolChangeGcode,
;   endingGcode,M104 S0 ; turn off extruder,M140 S0 ; turn off bed,M107 ; fan off,M91; relative pozitioning,G1 Z5 ; lift Z,M90 ; absolute psotioning,G28 X Y; Home X Y,M18; Disable steppers
;   exportFileFormat,gcode
;   celebration,0
;   celebrationSong,Random Song
;   postProcessing,
;   defaultSpeed,4600
;   outlineUnderspeed,0.5
;   solidInfillUnderspeed,0.8
;   supportUnderspeed,0.8
;   rapidXYspeed,4800
;   rapidZspeed,1000
;   minBridgingArea,50
;   bridgingExtraInflation,0
;   bridgingExtrusionMultiplier,1
;   bridgingSpeedMultiplier,1
;   useFixedBridgingAngle,0
;   fixedBridgingAngle,0
;   applyBridgingToPerimeters,0
;   filamentDiameters,1.75|1.75|1.75|1.75|1.75|1.75
;   filamentPricesPerKg,46|46|46|46|46|46
;   filamentDensities,1.25|1.25|1.25|1.25|1.25|1.25
;   useMinPrintHeight,0
;   minPrintHeight,0
;   useMaxPrintHeight,0
;   maxPrintHeight,0
;   useDiaphragm,0
;   diaphragmLayerInterval,20
;   robustSlicing,1
;   mergeAllIntoSolid,0
;   onlyRetractWhenCrossingOutline,1
;   retractBetweenLayers,1
;   useRetractionMinTravel,0
;   retractionMinTravel,3
;   retractWhileWiping,0
;   onlyWipeOutlines,1
;   avoidCrossingOutline,0
;   maxMovementDetourFactor,3
;   toolChangeRetractionDistance,12
;   toolChangeExtraRestartDistance,-0.5
;   toolChangeRetractionSpeed,600
;   externalThinWallType,1
;   internalThinWallType,2
;   thinWallAllowedOverlapPercentage,8
;   singleExtrusionMinLength,1
;   singleExtrusionMinPrintingWidthPercentage,50
;   singleExtrusionMaxPrintingWidthPercentage,200
;   singleExtrusionEndpointExtension,0.2
;   horizontalSizeCompensation,0
G90
M82
M106 S0
M140 S60
M104 S210 T0
M109 S210 T0
G28 ; home all axes
G1 X3 Y5 Z0.2 F3000 ; get ready to prime
G92 E0 ; reset extrusion distance
G1 Y150 E20 F600 ; prime nozzle
G92 E0
G1 E-1.0000 F1800
G1 Z0.270 F1000
; process slow
; layer 1, Z = 0.270
T0
; tool H0.300 W0.412
; inner perimeter
G1 X92.808 Y71.159 F4800
G1 E0.0000 F540
G92 E0
G1 X92.949 Y70.994 E0.0101 F1035
G1 X93.114 Y70.853 E0.0201
G1 X93.299 Y70.740 E0.0301
G1 X93.499 Y70.657 E0.0401
G1 X93.710 Y70.607 E0.0501
G1 X93.949 Y70.588 E0.0612
G1 X106.903 Y70.588 E0.6603
G1 X107.455 Y70.632 E0.6860
G1 X107.971 Y70.756 E0.7105
G1 X108.461 Y70.960 E0.7350
G1 X108.913 Y71.237 E0.7596
G1 X109.314 Y71.580 E0.7840
G1 X109.659 Y71.983 E0.8085
G1 X109.936 Y72.435 E0.8330
G1 X110.139 Y72.925 E0.8576
G1 X110.263 Y73.441 E0.8821
G1 X110.306 Y73.994 E0.9078
G1 X110.306 Y88.588 E1.5827
G1 X115.903 Y88.588 E1.8415
G1 X116.455 Y88.632 E1.8671
G1 X116.971 Y88.756 E1.8917
G1 X117.461 Y88.960 E1.9162
G1 X117.913 Y89.237 E1.9407
G1 X118.314 Y89.580 E1.9652
G1 X118.659 Y89.983 E1.9897
G1 X118.936 Y90.435 E2.0142
G1 X119.139 Y90.925 E2.0387
G1 X119.263 Y91.441 E2.0633
G1 X119.306 Y91.994 E2.0889
G1 X119.306 Y133.946 E4.0291
G1 X119.263 Y134.499 E4.0548
G1 X119.139 Y135.014 E4.0793
G1 X118.936 Y135.505 E4.1038
G1 X118.659 Y135.957 E4.1283
G1 X118.312 Y136.362 E4.1530
G1 X117.909 Y136.706 E4.1775
G1 X117.457 Y136.983 E4.2020
G1 X116.966 Y137.185 E4.2266
G1 X116.450 Y137.309 E4.2511
G1 X115.900 Y137.352 E4.2767
G1 X110.306 Y137.352 E4.5354
G1 X110.306 Y151.946 E5.2103
G1 X110.263 Y152.499 E5.2359
G1 X110.139 Y153.014 E5.2605
G1 X109.936 Y153.505 E5.2850
G1 X109.659 Y153.957 E5.3095
G1 X109.312 Y154.362 E5.3342
G1 X108.909 Y154.706 E5.3587
G1 X108.457 Y154.983 E5.3832
G1 X107.966 Y155.185 E5.4078
G1 X107.450 Y155.309 E5.4323
G1 X106.900 Y155.352 E5.4578
G1 X93.947 Y155.352 E6.0569
G1 X93.707 Y155.333 E6.0680
G1 X93.497 Y155.282 E6.0780
G1 X93.297 Y155.199 E6.0880
G1 X93.112 Y155.086 E6.0981
G1 X92.948 Y154.946 E6.1080
G1 X92.808 Y154.781 E6.1180
G1 X92.695 Y154.597 E6.1280
G1 X92.612 Y154.396 E6.1381
G1 X92.561 Y154.186 E6.1481
G1 X92.544 Y153.970 E6.1581
G1 X92.561 Y153.754 E6.1681
G1 X92.612 Y153.544 E6.1781
G1 X92.695 Y153.343 E6.1881
G1 X92.808 Y153.159 E6.1981
G1 X92.949 Y152.994 E6.2082
G1 X93.114 Y152.853 E6.2182
G1 X93.299 Y152.740 E6.2282
G1 X93.499 Y152.657 E6.2383
G1 X93.710 Y152.607 E6.2483
G1 X93.949 Y152.588 E6.2594
G1 X107.542 Y152.588 E6.8881
G1 X107.542 Y73.352 E10.5526
G1 X93.947 Y73.352 E11.1813
G1 X93.707 Y73.333 E11.1924
G1 X93.497 Y73.282 E11.2025
G1 X93.297 Y73.199 E11.2125
G1 X93.112 Y73.086 E11.2225
G1 X92.948 Y72.946 E11.2325
G1 X92.808 Y72.781 E11.2425
G1 X92.695 Y72.597 E11.2525
G1 X92.612 Y72.396 E11.2625
G1 X92.561 Y72.186 E11.2725
G1 X92.544 Y71.970 E11.2825
G1 X92.561 Y71.754 E11.2926
G1 X92.612 Y71.544 E11.3026
G1 X92.695 Y71.343 E11.3126
G1 X92.808 Y71.159 E11.3226
; outer perimeter
G1 X92.473 Y70.916 F4800
G92 E0
G1 X92.657 Y70.701 E0.0131 F690
G1 X92.871 Y70.519 E0.0261
G1 X93.111 Y70.372 E0.0391
G1 X93.371 Y70.264 E0.0521
G1 X93.645 Y70.199 E0.0651
G1 X93.932 Y70.176 E0.0785
G1 X106.919 Y70.176 E0.6791
G1 X107.520 Y70.224 E0.7070
G1 X108.099 Y70.363 E0.7345
G1 X108.649 Y70.591 E0.7620
G1 X109.156 Y70.903 E0.7896
G1 X109.607 Y71.288 E0.8170
G1 X109.993 Y71.740 E0.8445
G1 X110.304 Y72.248 E0.8720
G1 X110.532 Y72.798 E0.8995
G1 X110.671 Y73.377 E0.9271
G1 X110.718 Y73.978 E0.9550
G1 X110.718 Y88.176 E1.6116
G1 X115.919 Y88.176 E1.8521
G1 X116.520 Y88.224 E1.8800
G1 X117.099 Y88.363 E1.9076
G1 X117.649 Y88.592 E1.9351
G1 X118.156 Y88.903 E1.9626
G1 X118.607 Y89.288 E1.9900
G1 X118.993 Y89.740 E2.0175
G1 X119.304 Y90.248 E2.0451
G1 X119.532 Y90.798 E2.0726
G1 X119.671 Y91.377 E2.1001
G1 X119.718 Y91.978 E2.1280
G1 X119.718 Y133.962 E4.0697
G1 X119.671 Y134.563 E4.0976
G1 X119.532 Y135.142 E4.1251
G1 X119.304 Y135.692 E4.1527
G1 X118.993 Y136.200 E4.1802
G1 X118.604 Y136.654 E4.2079
G1 X118.152 Y137.040 E4.2354
G1 X117.644 Y137.351 E4.2629
G1 X117.094 Y137.578 E4.2904
G1 X116.515 Y137.717 E4.3180
G1 X115.916 Y137.764 E4.3457
G1 X110.718 Y137.764 E4.5861
G1 X110.718 Y151.962 E5.2428
G1 X110.671 Y152.563 E5.2707
G1 X110.532 Y153.142 E5.2982
G1 X110.304 Y153.692 E5.3257
G1 X109.993 Y154.200 E5.3533
G1 X109.605 Y154.654 E5.3809
G1 X109.152 Y155.040 E5.4084
G1 X108.644 Y155.351 E5.4360
G1 X108.094 Y155.578 E5.4635
G1 X107.515 Y155.717 E5.4910
G1 X106.916 Y155.764 E5.5188
G1 X93.931 Y155.764 E6.1193
G1 X93.642 Y155.741 E6.1327
G1 X93.369 Y155.675 E6.1457
G1 X93.109 Y155.567 E6.1588
G1 X92.869 Y155.420 E6.1718
G1 X92.656 Y155.238 E6.1847
G1 X92.473 Y155.024 E6.1977
G1 X92.326 Y154.784 E6.2108
G1 X92.219 Y154.524 E6.2238
G1 X92.153 Y154.251 E6.2368
G1 X92.131 Y153.970 E6.2498
G1 X92.153 Y153.689 E6.2628
G1 X92.219 Y153.416 E6.2758
G1 X92.326 Y153.156 E6.2888
G1 X92.473 Y152.916 E6.3019
G1 X92.657 Y152.701 E6.3149
G1 X92.871 Y152.519 E6.3279
G1 X93.111 Y152.372 E6.3410
G1 X93.371 Y152.264 E6.3540
G1 X93.645 Y152.199 E6.3670
G1 X93.932 Y152.176 E6.3803
G1 X107.130 Y152.176 E6.9907
G1 X107.130 Y73.764 E10.6171
G1 X93.931 Y73.764 E11.2276
G1 X93.642 Y73.741 E11.2409
G1 X93.369 Y73.675 E11.2540
G1 X93.109 Y73.567 E11.2670
G1 X92.869 Y73.420 E11.2800
G1 X92.656 Y73.238 E11.2929
G1 X92.473 Y73.024 E11.3060
G1 X92.326 Y72.784 E11.3190
G1 X92.219 Y72.524 E11.3320
G1 X92.153 Y72.251 E11.3450
G1 X92.131 Y71.970 E11.3580
G1 X92.153 Y71.689 E11.3710
G1 X92.219 Y71.416 E11.3840
G1 X92.326 Y71.156 E11.3971
G1 X92.473 Y70.916 E11.4101
; solid layer
G1 X93.446 Y72.880 F4800
G92 E0
G1 X93.014 Y72.448 E0.0283 F1104
G1 X93.008 Y72.437 E0.0288
G1 X92.946 Y72.288 E0.0363
G1 X92.908 Y72.131 E0.0438
G1 X92.895 Y71.970 E0.0512
G1 X92.908 Y71.809 E0.0587
G1 X92.918 Y71.769 E0.0606
G1 X94.151 Y73.002 E0.1413
G1 X94.733 Y73.002 E0.1682
G1 X93.094 Y71.363 E0.2754
G1 X93.197 Y71.242 E0.2828
G1 X93.320 Y71.137 E0.2902
G1 X93.402 Y71.087 E0.2946
G1 X95.316 Y73.002 E0.4199
G1 X95.899 Y73.002 E0.4468
G1 X93.845 Y70.947 E0.5812
G1 X93.962 Y70.938 E0.5866
G1 X94.418 Y70.938 E0.6077
G1 X96.481 Y73.002 E0.7427
G1 X97.064 Y73.002 E0.7696
G1 X95.001 Y70.938 E0.9046
G1 X95.583 Y70.938 E0.9315
G1 X97.647 Y73.002 E1.0665
G1 X98.229 Y73.002 E1.0934
G1 X96.166 Y70.938 E1.2284
G1 X96.749 Y70.938 E1.2553
G1 X98.812 Y73.002 E1.3903
G1 X99.395 Y73.002 E1.4172
G1 X97.331 Y70.938 E1.5522
G1 X97.914 Y70.938 E1.5791
G1 X99.977 Y73.002 E1.7141
G1 X100.560 Y73.002 E1.7411
G1 X98.497 Y70.938 E1.8760
G1 X99.079 Y70.938 E1.9030
G1 X101.143 Y73.002 E2.0379
G1 X101.725 Y73.002 E2.0649
G1 X99.662 Y70.938 E2.1998
G1 X100.245 Y70.938 E2.2268
G1 X102.308 Y73.002 E2.3617
G1 X102.891 Y73.002 E2.3887
G1 X100.827 Y70.938 E2.5236
G1 X101.410 Y70.938 E2.5506
G1 X103.473 Y73.002 E2.6855
G1 X104.056 Y73.002 E2.7125
G1 X101.993 Y70.938 E2.8475
G1 X102.575 Y70.938 E2.8744
G1 X104.639 Y73.002 E3.0094
G1 X105.221 Y73.002 E3.0363
G1 X103.158 Y70.938 E3.1713
G1 X103.741 Y70.938 E3.1982
G1 X105.804 Y73.002 E3.3332
G1 X106.387 Y73.002 E3.3601
G1 X104.323 Y70.938 E3.4951
G1 X104.906 Y70.938 E3.5220
G1 X106.969 Y73.002 E3.6570
G1 X107.552 Y73.002 E3.6839
G1 X105.489 Y70.938 E3.8189
G1 X106.071 Y70.938 E3.8458
G1 X109.956 Y74.823 E4.0999
G1 X109.956 Y74.241 E4.1269
G1 X106.654 Y70.938 E4.3428
G1 X106.889 Y70.938 E4.3537
G1 X107.266 Y70.968 E4.3712
G1 X109.926 Y73.628 E4.5452
G1 X109.916 Y73.496 E4.5513
G1 X109.805 Y73.034 E4.5733
G1 X109.727 Y72.846 E4.5827
G1 X108.048 Y71.168 E4.6925
G1 X107.892 Y73.342 F4800
G92 E0
G1 X109.956 Y75.406 E0.1350 F1104
G1 X109.956 Y75.989 E0.1619
G1 X107.892 Y73.925 E0.2969
G1 X107.892 Y74.508 E0.3238
G1 X109.956 Y76.571 E0.4588
G1 X109.956 Y77.154 E0.4857
G1 X107.892 Y75.090 E0.6207
G1 X107.892 Y75.673 E0.6477
G1 X109.956 Y77.737 E0.7826
G1 X109.956 Y78.319 E0.8096
G1 X107.892 Y76.256 E0.9446
G1 X107.892 Y76.838 E0.9715
G1 X109.956 Y78.902 E1.1065
G1 X109.956 Y79.484 E1.1334
G1 X107.892 Y77.421 E1.2684
G1 X107.892 Y78.004 E1.2953
G1 X109.956 Y80.067 E1.4303
G1 X109.956 Y80.650 E1.4572
G1 X107.892 Y78.586 E1.5922
G1 X107.892 Y79.169 E1.6192
G1 X109.956 Y81.232 E1.7541
G1 X109.956 Y81.815 E1.7811
G1 X107.892 Y79.752 E1.9160
G1 X107.892 Y80.334 E1.9430
G1 X109.956 Y82.398 E2.0780
G1 X109.956 Y82.980 E2.1049
G1 X107.892 Y80.917 E2.2399
G1 X107.892 Y81.499 E2.2668
G1 X109.956 Y83.563 E2.4018
G1 X109.956 Y84.146 E2.4287
G1 X107.892 Y82.082 E2.5637
G1 X107.892 Y82.665 E2.5907
G1 X109.956 Y84.728 E2.7256
G1 X109.956 Y85.311 E2.7526
G1 X107.892 Y83.247 E2.8875
G1 X107.892 Y83.830 E2.9145
G1 X109.956 Y85.894 E3.0495
G1 X109.956 Y86.476 E3.0764
G1 X107.892 Y84.413 E3.2114
G1 X107.892 Y84.995 E3.2383
G1 X109.956 Y87.059 E3.3733
G1 X109.956 Y87.642 E3.4002
G1 X107.892 Y85.578 E3.5352
G1 X107.892 Y86.161 E3.5622
G1 X109.956 Y88.224 E3.6971
G1 X109.956 Y88.807 E3.7241
G1 X107.892 Y86.743 E3.8590
G1 X107.892 Y87.326 E3.8860
G1 X118.956 Y98.390 E4.6096
G1 X118.956 Y98.972 E4.6366
G1 X107.892 Y87.909 E5.3602
G1 X107.892 Y88.491 E5.3871
G1 X118.956 Y99.555 E6.1107
G1 X118.956 Y100.138 E6.1377
G1 X107.892 Y89.074 E6.8613
G1 X107.892 Y89.657 E6.8882
G1 X118.956 Y100.720 E7.6118
G1 X118.956 Y101.303 E7.6388
G1 X107.892 Y90.239 E8.3624
G1 X107.892 Y90.822 E8.3894
G1 X118.956 Y101.886 E9.1130
G1 X118.956 Y102.468 E9.1399
G1 X107.892 Y91.405 E9.8635
G1 X107.892 Y91.987 E9.8905
G1 X118.956 Y103.051 E10.6141
G1 X118.956 Y103.634 E10.6410
G1 X107.892 Y92.570 E11.3646
G1 X107.892 Y93.153 E11.3916
G1 X118.956 Y104.216 E12.1152
G1 X118.956 Y104.799 E12.1422
G1 X107.892 Y93.735 E12.8658
G1 X107.892 Y94.318 E12.8927
G1 X118.956 Y105.382 E13.6163
G1 X118.956 Y105.964 E13.6433
G1 X107.892 Y94.901 E14.3669
G1 X107.892 Y95.483 E14.3938
G1 X118.956 Y106.547 E15.1174
G1 X118.956 Y107.129 E15.1444
G1 X107.892 Y96.066 E15.8680
G1 X107.892 Y96.649 E15.8949
G1 X118.956 Y107.712 E16.6186
G1 X118.956 Y108.295 E16.6455
G1 X107.892 Y97.231 E17.3691
G1 X107.892 Y97.814 E17.3961
G1 X118.956 Y108.877 E18.1197
G1 X118.956 Y109.460 E18.1466
G1 X107.892 Y98.396 E18.8702
G1 X107.892 Y98.979 E18.8972
G1 X118.956 Y110.043 E19.6208
G1 X118.956 Y110.625 E19.6477
G1 X107.892 Y99.562 E20.3714
G1 X107.892 Y100.144 E20.3983
G1 X118.956 Y111.208 E21.1219
G1 X118.956 Y111.791 E21.1489
G1 X107.892 Y100.727 E21.8725
G1 X107.892 Y101.310 E21.8994
G1 X118.956 Y112.373 E22.6230
G1 X118.956 Y112.956 E22.6500
G1 X107.892 Y101.892 E23.3736
