; G-Code generated by Simplify3D(R) Version 4.0.0
; Jan 7, 2021 at 6:55:40 PM
; Settings Summary
;   processName,Process1
;   applyToModels,MobileHolderV7
;   profileName,new profile (modified)
;   profileVersion,2020-09-07 14:01:24
;   baseProfile,Default (modified)
;   printMaterial,PLA
;   printQuality,Medium
;   printExtruders,
;   extruderName,Primary Extruder
;   extruderToolheadNumber,0
;   extruderDiameter,0.4
;   extruderAutoWidth,0
;   extruderWidth,0.4
;   extrusionMultiplier,0.9
;   extruderUseRetract,1
;   extruderRetractionDistance,1
;   extruderExtraRestartDistance,0
;   extruderRetractionZLift,0
;   extruderRetractionSpeed,1800
;   extruderUseCoasting,0
;   extruderCoastingDistance,0.2
;   extruderUseWipe,0
;   extruderWipeDistance,5
;   primaryExtruder,0
;   layerHeight,0.3
;   topSolidLayers,3
;   bottomSolidLayers,2
;   perimeterOutlines,2
;   printPerimetersInsideOut,1
;   startPointOption,2
;   startPointOriginX,0
;   startPointOriginY,0
;   sequentialIslands,0
;   spiralVaseMode,0
;   firstLayerHeightPercentage,90
;   firstLayerWidthPercentage,103
;   firstLayerUnderspeed,0.3
;   useRaft,0
;   raftExtruder,0
;   raftTopLayers,2
;   raftBaseLayers,2
;   raftOffset,1.4
;   raftSeparationDistance,0.14
;   raftTopInfill,100
;   aboveRaftSpeedMultiplier,0.3
;   useSkirt,0
;   skirtExtruder,0
;   skirtLayers,1
;   skirtOutlines,2
;   skirtOffset,4
;   usePrimePillar,0
;   primePillarExtruder,999
;   primePillarWidth,12
;   primePillarLocation,7
;   primePillarSpeedMultiplier,1
;   useOozeShield,0
;   oozeShieldExtruder,999
;   oozeShieldOffset,2
;   oozeShieldOutlines,1
;   oozeShieldSidewallShape,1
;   oozeShieldSidewallAngle,30
;   oozeShieldSpeedMultiplier,1
;   infillExtruder,0
;   internalInfillPattern,Rectilinear
;   externalInfillPattern,Rectilinear
;   infillPercentage,23
;   outlineOverlapPercentage,15
;   infillExtrusionWidthPercentage,100
;   minInfillLength,5
;   infillLayerInterval,1
;   internalInfillAngles,45,-45
;   overlapInternalInfillAngles,0
;   externalInfillAngles,45,-45
;   generateSupport,1
;   supportExtruder,0
;   supportInfillPercentage,30
;   supportExtraInflation,0
;   supportBaseLayers,0
;   denseSupportExtruder,0
;   denseSupportLayers,0
;   denseSupportInfillPercentage,70
;   supportLayerInterval,1
;   supportHorizontalPartOffset,0.2
;   supportUpperSeparationLayers,1
;   supportLowerSeparationLayers,1
;   supportType,0
;   supportGridSpacing,4
;   maxOverhangAngle,45
;   supportAngles,0
;   temperatureName,Primary Extruder,Hot Bed
;   temperatureNumber,0,1
;   temperatureSetpointCount,1,1
;   temperatureSetpointLayers,1,1
;   temperatureSetpointTemperatures,210,60
;   temperatureStabilizeAtStartup,1,0
;   temperatureHeatedBed,0,1
;   temperatureRelayBetweenLayers,0,0
;   temperatureRelayBetweenLoops,0,0
;   fanLayers,1,2
;   fanSpeeds,0,100
;   blipFanToFullPower,0
;   adjustSpeedForCooling,1
;   minSpeedLayerTime,15
;   minCoolingSpeedSlowdown,20
;   increaseFanForCooling,0
;   minFanLayerTime,45
;   maxCoolingFanSpeed,100
;   increaseFanForBridging,0
;   bridgingFanSpeed,100
;   use5D,1
;   relativeEdistances,0
;   allowEaxisZeroing,1
;   independentExtruderAxes,0
;   includeM10123,0
;   stickySupport,1
;   applyToolheadOffsets,0
;   gcodeXoffset,-0.03
;   gcodeYoffset,-0.03
;   gcodeZoffset,0
;   overrideMachineDefinition,0
;   machineTypeOverride,0
;   strokeXoverride,200
;   strokeYoverride,200
;   strokeZoverride,200
;   originOffsetXoverride,0
;   originOffsetYoverride,0
;   originOffsetZoverride,0
;   homeXdirOverride,-1
;   homeYdirOverride,-1
;   homeZdirOverride,-1
;   flipXoverride,1
;   flipYoverride,-1
;   flipZoverride,1
;   toolheadOffsets,0,0|0,0|0,0|0,0|0,0|0,0
;   overrideFirmwareConfiguration,0
;   firmwareTypeOverride,RepRap (Marlin/Repetier/Sprinter)
;   GPXconfigOverride,r2
;   baudRateOverride,115200
;   overridePrinterModels,0
;   printerModelsOverride
;   startingGcode,G28 ; home all axes,G1 X3 Y5 Z0.2 F3000 ; get ready to prime,G92 E0 ; reset extrusion distance,G1 Y150 E20 F600 ; prime nozzle
;   layerChangeGcode,
;   retractionGcode,
;   toolChangeGcode,
;   endingGcode,M104 S0 ; turn off extruder,M140 S0 ; turn off bedG1 X0 Y0; home,M84 ; disable motors,M107 ; fan off,G28 X Y; Home,M18; Disable steppers
;   exportFileFormat,gcode
;   celebration,0
;   celebrationSong,Random Song
;   postProcessing,
;   defaultSpeed,4600
;   outlineUnderspeed,0.5
;   solidInfillUnderspeed,0.8
;   supportUnderspeed,0.8
;   rapidXYspeed,4800
;   rapidZspeed,1000
;   minBridgingArea,50
;   bridgingExtraInflation,0
;   bridgingExtrusionMultiplier,1
;   bridgingSpeedMultiplier,1
;   useFixedBridgingAngle,0
;   fixedBridgingAngle,0
;   applyBridgingToPerimeters,0
;   filamentDiameters,1.75|1.75|1.75|1.75|1.75|1.75
;   filamentPricesPerKg,46|46|46|46|46|46
;   filamentDensities,1.25|1.25|1.25|1.25|1.25|1.25
;   useMinPrintHeight,0
;   minPrintHeight,0
;   useMaxPrintHeight,0
;   maxPrintHeight,0
;   useDiaphragm,0
;   diaphragmLayerInterval,20
;   robustSlicing,1
;   mergeAllIntoSolid,0
;   onlyRetractWhenCrossingOutline,1
;   retractBetweenLayers,1
;   useRetractionMinTravel,0
;   retractionMinTravel,3
;   retractWhileWiping,0
;   onlyWipeOutlines,1
;   avoidCrossingOutline,0
;   maxMovementDetourFactor,3
;   toolChangeRetractionDistance,12
;   toolChangeExtraRestartDistance,-0.5
;   toolChangeRetractionSpeed,600
;   externalThinWallType,1
;   internalThinWallType,2
;   thinWallAllowedOverlapPercentage,8
;   singleExtrusionMinLength,1
;   singleExtrusionMinPrintingWidthPercentage,50
;   singleExtrusionMaxPrintingWidthPercentage,200
;   singleExtrusionEndpointExtension,0.2
;   horizontalSizeCompensation,0
G90
M82
M106 S0
M140 S60
M104 S210 T0
M109 S210 T0
G28 ; home all axes
G1 X3 Y5 Z0.2 F3000 ; get ready to prime
G92 E0 ; reset extrusion distance
G1 Y150 E20 F600 ; prime nozzle
G92 E0
G1 E-1.0000 F1800
G1 Z0.270 F1000
; process Process1
; layer 1, Z = 0.270
T0
; tool H0.300 W0.412
; inner perimeter
G1 X115.234 Y71.985 F4800
G1 E0.0000 F540
G92 E0
G1 X115.578 Y71.582 E0.0245 F1035
G1 X115.983 Y71.235 E0.0492
G1 X116.435 Y70.958 E0.0737
G1 X116.926 Y70.755 E0.0982
G1 X117.441 Y70.631 E0.1228
G1 X117.994 Y70.588 E0.1484
G1 X130.946 Y70.588 E0.7474
G1 X131.186 Y70.607 E0.7585
G1 X131.396 Y70.657 E0.7685
G1 X131.597 Y70.740 E0.7786
G1 X131.781 Y70.853 E0.7886
G1 X131.946 Y70.994 E0.7986
G1 X132.086 Y71.158 E0.8086
G1 X132.199 Y71.343 E0.8186
G1 X132.282 Y71.543 E0.8286
G1 X132.333 Y71.753 E0.8386
G1 X132.350 Y71.969 E0.8486
G1 X132.333 Y72.185 E0.8586
G1 X132.283 Y72.395 E0.8687
G1 X132.200 Y72.596 E0.8787
G1 X132.087 Y72.780 E0.8887
G1 X131.946 Y72.945 E0.8987
G1 X131.781 Y73.087 E0.9088
G1 X131.597 Y73.200 E0.9188
G1 X131.396 Y73.283 E0.9288
G1 X131.186 Y73.333 E0.9388
G1 X130.946 Y73.352 E0.9499
G1 X117.352 Y73.352 E1.5786
G1 X117.352 Y152.588 E5.2432
G1 X130.946 Y152.588 E5.8718
G1 X131.186 Y152.607 E5.8830
G1 X131.396 Y152.657 E5.8930
G1 X131.597 Y152.740 E5.9030
G1 X131.781 Y152.853 E5.9130
G1 X131.946 Y152.994 E5.9230
G1 X132.086 Y153.158 E5.9330
G1 X132.199 Y153.343 E5.9430
G1 X132.282 Y153.543 E5.9531
G1 X132.333 Y153.753 E5.9631
G1 X132.350 Y153.969 E5.9731
G1 X132.333 Y154.185 E5.9831
G1 X132.283 Y154.395 E5.9931
G1 X132.200 Y154.596 E6.0031
G1 X132.087 Y154.780 E6.0131
G1 X131.946 Y154.945 E6.0231
G1 X131.781 Y155.087 E6.0332
G1 X131.597 Y155.200 E6.0432
G1 X131.396 Y155.283 E6.0532
G1 X131.186 Y155.333 E6.0633
G1 X130.946 Y155.352 E6.0744
G1 X117.994 Y155.352 E6.6734
G1 X117.441 Y155.309 E6.6990
G1 X116.925 Y155.185 E6.7236
G1 X116.435 Y154.982 E6.7481
G1 X115.983 Y154.705 E6.7726
G1 X115.580 Y154.360 E6.7972
G1 X115.237 Y153.959 E6.8216
G1 X114.960 Y153.507 E6.8461
G1 X114.756 Y153.017 E6.8706
G1 X114.632 Y152.501 E6.8952
G1 X114.588 Y151.948 E6.9208
G1 X114.588 Y137.352 E7.5959
G1 X108.994 Y137.352 E7.8546
G1 X108.441 Y137.309 E7.8802
G1 X107.926 Y137.185 E7.9047
G1 X107.435 Y136.982 E7.9293
G1 X106.983 Y136.705 E7.9538
G1 X106.580 Y136.360 E7.9783
G1 X106.237 Y135.959 E8.0027
G1 X105.960 Y135.507 E8.0273
G1 X105.756 Y135.017 E8.0518
G1 X105.632 Y134.501 E8.0763
G1 X105.588 Y133.948 E8.1020
G1 X105.588 Y91.994 E10.0423
G1 X105.631 Y91.444 E10.0678
G1 X105.755 Y90.928 E10.0924
G1 X105.957 Y90.438 E10.1169
G1 X106.234 Y89.985 E10.1414
G1 X106.578 Y89.582 E10.1659
G1 X106.983 Y89.235 E10.1906
G1 X107.435 Y88.958 E10.2151
G1 X107.928 Y88.755 E10.2398
G1 X108.441 Y88.631 E10.2642
G1 X108.994 Y88.588 E10.2898
G1 X114.588 Y88.588 E10.5485
G1 X114.588 Y73.994 E11.2235
G1 X114.631 Y73.444 E11.2490
G1 X114.755 Y72.928 E11.2735
G1 X114.957 Y72.438 E11.2981
G1 X115.234 Y71.985 E11.3226
; outer perimeter
G1 X114.900 Y71.743 F4800
G92 E0
G1 X115.286 Y71.290 E0.0275 F690
G1 X115.740 Y70.901 E0.0552
G1 X116.248 Y70.590 E0.0827
G1 X116.798 Y70.362 E0.1102
G1 X117.377 Y70.223 E0.1378
G1 X117.978 Y70.176 E0.1657
G1 X130.962 Y70.176 E0.7662
G1 X131.251 Y70.199 E0.7795
G1 X131.524 Y70.264 E0.7926
G1 X131.784 Y70.372 E0.8056
G1 X132.024 Y70.519 E0.8186
G1 X132.238 Y70.702 E0.8316
G1 X132.420 Y70.915 E0.8445
G1 X132.567 Y71.155 E0.8576
G1 X132.675 Y71.415 E0.8706
G1 X132.741 Y71.688 E0.8836
G1 X132.763 Y71.969 E0.8966
G1 X132.741 Y72.249 E0.9096
G1 X132.676 Y72.523 E0.9226
G1 X132.568 Y72.783 E0.9357
G1 X132.422 Y73.023 E0.9487
G1 X132.239 Y73.237 E0.9617
G1 X132.024 Y73.421 E0.9748
G1 X131.784 Y73.568 E0.9878
G1 X131.524 Y73.676 E1.0008
G1 X131.250 Y73.741 E1.0138
G1 X130.962 Y73.764 E1.0272
G1 X117.764 Y73.764 E1.6376
G1 X117.764 Y152.176 E5.2640
G1 X130.962 Y152.176 E5.8744
G1 X131.251 Y152.199 E5.8878
G1 X131.524 Y152.264 E5.9008
G1 X131.784 Y152.372 E5.9138
G1 X132.024 Y152.519 E5.9268
G1 X132.238 Y152.702 E5.9398
G1 X132.420 Y152.915 E5.9528
G1 X132.567 Y153.155 E5.9658
G1 X132.675 Y153.415 E5.9788
G1 X132.741 Y153.688 E5.9918
G1 X132.763 Y153.969 E6.0048
G1 X132.741 Y154.249 E6.0178
G1 X132.676 Y154.523 E6.0308
G1 X132.568 Y154.783 E6.0439
G1 X132.421 Y155.023 E6.0569
G1 X132.239 Y155.237 E6.0699
G1 X132.024 Y155.421 E6.0830
G1 X131.784 Y155.568 E6.0960
G1 X131.524 Y155.676 E6.1090
G1 X131.251 Y155.741 E6.1220
G1 X130.962 Y155.764 E6.1354
G1 X117.978 Y155.764 E6.7359
G1 X117.377 Y155.717 E6.7638
G1 X116.798 Y155.578 E6.7913
G1 X116.248 Y155.350 E6.8188
G1 X115.740 Y155.039 E6.8464
G1 X115.288 Y154.652 E6.8739
G1 X114.903 Y154.202 E6.9013
G1 X114.591 Y153.694 E6.9288
G1 X114.363 Y153.145 E6.9564
G1 X114.224 Y152.566 E6.9839
G1 X114.176 Y151.965 E7.0118
G1 X114.176 Y137.764 E7.6685
G1 X108.978 Y137.764 E7.9089
G1 X108.377 Y137.717 E7.9368
G1 X107.798 Y137.578 E7.9644
G1 X107.248 Y137.350 E7.9919
G1 X106.740 Y137.039 E8.0194
G1 X106.288 Y136.652 E8.0470
G1 X105.903 Y136.202 E8.0744
G1 X105.592 Y135.694 E8.1019
G1 X105.363 Y135.145 E8.1294
G1 X105.224 Y134.566 E8.1569
G1 X105.176 Y133.965 E8.1848
G1 X105.176 Y91.978 E10.1266
G1 X105.223 Y91.379 E10.1544
G1 X105.362 Y90.800 E10.1820
G1 X105.589 Y90.250 E10.2095
G1 X105.900 Y89.743 E10.2370
G1 X106.286 Y89.290 E10.2645
G1 X106.740 Y88.901 E10.2922
G1 X107.248 Y88.590 E10.3197
G1 X107.800 Y88.362 E10.3474
G1 X108.377 Y88.223 E10.3748
G1 X108.978 Y88.176 E10.4027
G1 X114.176 Y88.176 E10.6431
G1 X114.176 Y73.978 E11.2997
G1 X114.223 Y73.379 E11.3275
G1 X114.362 Y72.800 E11.3550
G1 X114.589 Y72.250 E11.3825
G1 X114.900 Y71.743 E11.4101
; solid layer
G1 X131.144 Y70.957 F4800
G92 E0
G1 X131.983 Y71.796 E0.0549 F1104
G1 X131.986 Y71.808 E0.0555
G1 X131.999 Y71.969 E0.0629
G1 X131.986 Y72.130 E0.0704
G1 X131.949 Y72.287 E0.0779
G1 X131.932 Y72.328 E0.0799
G1 X130.543 Y70.938 E0.1707
G1 X129.960 Y70.938 E0.1977
G1 X131.707 Y72.686 E0.3120
G1 X131.698 Y72.697 E0.3127
G1 X131.574 Y72.802 E0.3202
G1 X131.437 Y72.887 E0.3276
G1 X131.358 Y72.919 E0.3316
G1 X129.377 Y70.938 E0.4611
G1 X128.795 Y70.938 E0.4881
G1 X130.858 Y73.002 E0.6231
G1 X130.276 Y73.002 E0.6500
G1 X128.212 Y70.938 E0.7850
G1 X127.629 Y70.938 E0.8119
G1 X129.693 Y73.002 E0.9469
G1 X129.110 Y73.002 E0.9738
G1 X127.047 Y70.938 E1.1088
G1 X126.464 Y70.938 E1.1358
G1 X128.528 Y73.002 E1.2707
G1 X127.945 Y73.002 E1.2977
G1 X125.881 Y70.938 E1.4326
G1 X125.299 Y70.938 E1.4596
G1 X127.362 Y73.002 E1.5946
G1 X126.780 Y73.002 E1.6215
G1 X124.716 Y70.938 E1.7565
G1 X124.133 Y70.938 E1.7834
G1 X126.197 Y73.002 E1.9184
G1 X125.614 Y73.002 E1.9453
G1 X123.551 Y70.938 E2.0803
G1 X122.968 Y70.938 E2.1073
G1 X125.032 Y73.002 E2.2422
G1 X124.449 Y73.002 E2.2692
G1 X122.385 Y70.938 E2.4041
G1 X121.803 Y70.938 E2.4311
G1 X123.866 Y73.002 E2.5661
G1 X123.284 Y73.002 E2.5930
G1 X121.220 Y70.938 E2.7280
G1 X120.637 Y70.938 E2.7549
G1 X122.701 Y73.002 E2.8899
G1 X122.118 Y73.002 E2.9168
G1 X120.055 Y70.938 E3.0518
G1 X119.472 Y70.938 E3.0787
G1 X121.536 Y73.002 E3.2137
G1 X120.953 Y73.002 E3.2407
G1 X118.889 Y70.938 E3.3756
G1 X118.307 Y70.938 E3.4026
G1 X120.370 Y73.002 E3.5375
G1 X119.788 Y73.002 E3.5645
G1 X117.745 Y70.959 E3.6981
G1 X117.496 Y70.978 E3.7096
G1 X117.243 Y71.039 E3.7217
G1 X119.205 Y73.002 E3.8501
G1 X118.622 Y73.002 E3.8770
G1 X116.805 Y71.184 E3.9959
G1 X116.595 Y71.271 E4.0064
G1 X116.418 Y71.380 E4.0160
G1 X118.040 Y73.002 E4.1221
G1 X117.457 Y73.002 E4.1490
G1 X116.074 Y71.619 E4.2395
G1 X115.827 Y71.830 E4.2545
G1 X115.770 Y71.897 E4.2586
G1 X117.002 Y73.129 E4.3392
G1 X117.002 Y73.712 E4.3661
G1 X115.505 Y72.215 E4.4641
G1 X115.283 Y72.576 E4.4837
G1 X117.002 Y74.294 E4.5961
G1 X117.002 Y74.877 E4.6230
G1 X115.110 Y72.985 E4.7467
G1 X115.089 Y73.036 E4.7493
G1 X114.990 Y73.448 E4.7689
G1 X117.002 Y75.460 E4.9004
G1 X117.002 Y76.042 E4.9274
G1 X114.940 Y73.981 E5.0622
G1 X114.938 Y74.008 E5.0635
G1 X114.938 Y74.561 E5.0891
G1 X117.002 Y76.625 E5.2240
G1 X117.002 Y77.208 E5.2510
G1 X114.938 Y75.144 E5.3860
G1 X114.938 Y75.727 E5.4129
G1 X117.002 Y77.790 E5.5479
G1 X117.002 Y78.373 E5.5748
G1 X114.938 Y76.309 E5.7098
G1 X114.938 Y76.892 E5.7367
G1 X117.002 Y78.956 E5.8717
G1 X117.002 Y79.538 E5.8987
G1 X114.938 Y77.475 E6.0336
G1 X114.938 Y78.057 E6.0606
G1 X117.002 Y80.121 E6.1955
G1 X117.002 Y80.704 E6.2225
G1 X114.938 Y78.640 E6.3575
G1 X114.938 Y79.223 E6.3844
G1 X117.002 Y81.286 E6.5194
G1 X117.002 Y81.869 E6.5463
G1 X114.938 Y79.805 E6.6813
G1 X114.938 Y80.388 E6.7082
G1 X117.002 Y82.452 E6.8432
G1 X117.002 Y83.034 E6.8702
G1 X114.938 Y80.971 E7.0051
G1 X114.938 Y81.553 E7.0321
G1 X117.002 Y83.617 E7.1670
G1 X117.002 Y84.200 E7.1940
G1 X114.938 Y82.136 E7.3290
G1 X114.938 Y82.719 E7.3559
G1 X117.002 Y84.782 E7.4909
G1 X117.002 Y85.365 E7.5178
G1 X114.938 Y83.301 E7.6528
G1 X114.938 Y83.884 E7.6797
G1 X117.002 Y85.948 E7.8147
G1 X117.002 Y86.530 E7.8416
G1 X114.938 Y84.467 E7.9766
G1 X114.938 Y85.049 E8.0036
G1 X117.002 Y87.113 E8.1385
G1 X117.002 Y87.696 E8.1655
G1 X114.938 Y85.632 E8.3005
G1 X114.938 Y86.215 E8.3274
G1 X117.002 Y88.278 E8.4624
G1 X117.002 Y88.861 E8.4893
G1 X114.938 Y86.797 E8.6243
G1 X114.938 Y87.380 E8.6512
G1 X117.002 Y89.444 E8.7862
G1 X117.002 Y90.026 E8.8131
G1 X114.938 Y87.963 E8.9481
G1 X114.938 Y88.545 E8.9751
G1 X117.002 Y90.609 E9.1100
G1 X117.002 Y91.191 E9.1370
G1 X114.749 Y88.938 E9.2844
G1 X114.166 Y88.938 E9.3113
G1 X117.002 Y91.774 E9.4968
G1 X117.002 Y92.357 E9.5237
G1 X113.583 Y88.938 E9.7473
G1 X113.001 Y88.938 E9.7743
G1 X117.002 Y92.939 E10.0360
G1 X117.002 Y93.522 E10.0629
G1 X112.418 Y88.938 E10.3627
G1 X111.835 Y88.938 E10.3897
G1 X117.002 Y94.105 E10.7276
G1 X117.002 Y94.687 E10.7545
G1 X111.253 Y88.938 E11.1306
G1 X110.670 Y88.938 E11.1575
G1 X117.002 Y95.270 E11.5716
G1 X117.002 Y95.853 E11.5986
G1 X110.087 Y88.938 E12.0508
G1 X109.505 Y88.938 E12.0778
G1 X117.002 Y96.435 E12.5681
G1 X117.002 Y97.018 E12.5951
G1 X108.928 Y88.944 E13.1231
G1 X108.496 Y88.978 E13.1432
G1 X108.402 Y89.001 E13.1477
G1 X117.002 Y97.601 E13.7101
G1 X117.002 Y98.183 E13.7371
G1 X107.945 Y89.127 E14.3294
G1 X107.595 Y89.272 E14.3470
G1 X107.540 Y89.305 E14.3499
G1 X117.002 Y98.766 E14.9687
G1 X117.002 Y99.349 E14.9957
G1 X107.181 Y89.527 E15.6380
G1 X106.867 Y89.796 E15.6571
G1 X117.002 Y99.931 E16.3200
G1 X117.002 Y100.514 E16.3470
G1 X106.593 Y90.105 E17.0278
G1 X106.519 Y90.192 E17.0330
