; G-Code generated by Simplify3D(R) Version 4.0.0
; Sep 23, 2020 at 11:59:03 AM
; Settings Summary
;   processName,Process2
;   applyToModels,ModernDoorstop
;   profileName,bar (modified)
;   profileVersion,2020-09-07 14:20:51
;   baseProfile,Default (modified)
;   printMaterial,PLA
;   printQuality,Medium
;   printExtruders,
;   extruderName,Primary Extruder
;   extruderToolheadNumber,0
;   extruderDiameter,0.4
;   extruderAutoWidth,0
;   extruderWidth,0.4
;   extrusionMultiplier,0.9
;   extruderUseRetract,1
;   extruderRetractionDistance,1
;   extruderExtraRestartDistance,0
;   extruderRetractionZLift,0
;   extruderRetractionSpeed,1800
;   extruderUseCoasting,0
;   extruderCoastingDistance,0.2
;   extruderUseWipe,0
;   extruderWipeDistance,5
;   primaryExtruder,0
;   layerHeight,0.3
;   topSolidLayers,3
;   bottomSolidLayers,3
;   perimeterOutlines,2
;   printPerimetersInsideOut,1
;   startPointOption,2
;   startPointOriginX,0
;   startPointOriginY,0
;   sequentialIslands,0
;   spiralVaseMode,0
;   firstLayerHeightPercentage,100
;   firstLayerWidthPercentage,100
;   firstLayerUnderspeed,0.5
;   useRaft,0
;   raftExtruder,0
;   raftTopLayers,3
;   raftBaseLayers,2
;   raftOffset,3
;   raftSeparationDistance,0.14
;   raftTopInfill,100
;   aboveRaftSpeedMultiplier,0.3
;   useSkirt,0
;   skirtExtruder,0
;   skirtLayers,1
;   skirtOutlines,2
;   skirtOffset,4
;   usePrimePillar,0
;   primePillarExtruder,999
;   primePillarWidth,12
;   primePillarLocation,7
;   primePillarSpeedMultiplier,1
;   useOozeShield,0
;   oozeShieldExtruder,999
;   oozeShieldOffset,2
;   oozeShieldOutlines,1
;   oozeShieldSidewallShape,1
;   oozeShieldSidewallAngle,30
;   oozeShieldSpeedMultiplier,1
;   infillExtruder,0
;   internalInfillPattern,Rectilinear
;   externalInfillPattern,Rectilinear
;   infillPercentage,15
;   outlineOverlapPercentage,15
;   infillExtrusionWidthPercentage,100
;   minInfillLength,5
;   infillLayerInterval,1
;   internalInfillAngles,45,-45
;   overlapInternalInfillAngles,0
;   externalInfillAngles,45,-45
;   generateSupport,0
;   supportExtruder,0
;   supportInfillPercentage,30
;   supportExtraInflation,0
;   supportBaseLayers,0
;   denseSupportExtruder,0
;   denseSupportLayers,0
;   denseSupportInfillPercentage,70
;   supportLayerInterval,1
;   supportHorizontalPartOffset,0.3
;   supportUpperSeparationLayers,1
;   supportLowerSeparationLayers,1
;   supportType,1
;   supportGridSpacing,4
;   maxOverhangAngle,45
;   supportAngles,0
;   temperatureName,Primary Extruder,Hot Bed
;   temperatureNumber,0,1
;   temperatureSetpointCount,1,1
;   temperatureSetpointLayers,1,1
;   temperatureSetpointTemperatures,210,60
;   temperatureStabilizeAtStartup,1,0
;   temperatureHeatedBed,0,1
;   temperatureRelayBetweenLayers,0,0
;   temperatureRelayBetweenLoops,0,0
;   fanLayers,1,2
;   fanSpeeds,0,100
;   blipFanToFullPower,0
;   adjustSpeedForCooling,1
;   minSpeedLayerTime,15
;   minCoolingSpeedSlowdown,20
;   increaseFanForCooling,0
;   minFanLayerTime,45
;   maxCoolingFanSpeed,100
;   increaseFanForBridging,0
;   bridgingFanSpeed,100
;   use5D,1
;   relativeEdistances,0
;   allowEaxisZeroing,1
;   independentExtruderAxes,0
;   includeM10123,0
;   stickySupport,1
;   applyToolheadOffsets,0
;   gcodeXoffset,0
;   gcodeYoffset,0
;   gcodeZoffset,0
;   overrideMachineDefinition,0
;   machineTypeOverride,0
;   strokeXoverride,200
;   strokeYoverride,200
;   strokeZoverride,200
;   originOffsetXoverride,0
;   originOffsetYoverride,0
;   originOffsetZoverride,0
;   homeXdirOverride,-1
;   homeYdirOverride,-1
;   homeZdirOverride,-1
;   flipXoverride,1
;   flipYoverride,-1
;   flipZoverride,1
;   toolheadOffsets,0,0|0,0|0,0|0,0|0,0|0,0
;   overrideFirmwareConfiguration,0
;   firmwareTypeOverride,RepRap (Marlin/Repetier/Sprinter)
;   GPXconfigOverride,r2
;   baudRateOverride,115200
;   overridePrinterModels,0
;   printerModelsOverride
;   startingGcode,G28 ; home all axes,G1 X0 Y5 Z0.2 F3000 ; get ready to prime,G92 E0 ; reset extrusion distance,G1 Y150 E20 F600 ; prime nozzle
;   layerChangeGcode,
;   retractionGcode,
;   toolChangeGcode,
;   endingGcode,M104 S0 ; turn off extruder,M140 S0 ; turn off bed,M84 ; disable motors,G1 X0 Y0; home,M107 ; fan off
;   exportFileFormat,gcode
;   celebration,0
;   celebrationSong,Random Song
;   postProcessing,
;   defaultSpeed,4600
;   outlineUnderspeed,0.5
;   solidInfillUnderspeed,0.8
;   supportUnderspeed,0.8
;   rapidXYspeed,4800
;   rapidZspeed,1000
;   minBridgingArea,50
;   bridgingExtraInflation,0
;   bridgingExtrusionMultiplier,1
;   bridgingSpeedMultiplier,1
;   useFixedBridgingAngle,0
;   fixedBridgingAngle,0
;   applyBridgingToPerimeters,0
;   filamentDiameters,1.75|1.75|1.75|1.75|1.75|1.75
;   filamentPricesPerKg,46|46|46|46|46|46
;   filamentDensities,1.25|1.25|1.25|1.25|1.25|1.25
;   useMinPrintHeight,0
;   minPrintHeight,0
;   useMaxPrintHeight,0
;   maxPrintHeight,0
;   useDiaphragm,0
;   diaphragmLayerInterval,20
;   robustSlicing,1
;   mergeAllIntoSolid,0
;   onlyRetractWhenCrossingOutline,1
;   retractBetweenLayers,1
;   useRetractionMinTravel,0
;   retractionMinTravel,3
;   retractWhileWiping,0
;   onlyWipeOutlines,1
;   avoidCrossingOutline,0
;   maxMovementDetourFactor,3
;   toolChangeRetractionDistance,12
;   toolChangeExtraRestartDistance,-0.5
;   toolChangeRetractionSpeed,600
;   externalThinWallType,1
;   internalThinWallType,1
;   thinWallAllowedOverlapPercentage,10
;   singleExtrusionMinLength,1
;   singleExtrusionMinPrintingWidthPercentage,50
;   singleExtrusionMaxPrintingWidthPercentage,200
;   singleExtrusionEndpointExtension,0.2
;   horizontalSizeCompensation,0
G90
M82
M106 S0
M140 S60
M104 S210 T0
M109 S210 T0
G28 ; home all axes
G1 X0 Y5 Z0.2 F3000 ; get ready to prime
G92 E0 ; reset extrusion distance
G1 Y150 E20 F600 ; prime nozzle
G92 E0
G1 E-1.0000 F1800
G1 Z0.300 F1000
; process Process2
; layer 1, Z = 0.300
T0
; tool H0.300 W0.400
; inner perimeter
G1 X77.419 Y86.637 F4800
G1 E0.0000 F540
G92 E0
G1 X85.569 Y85.228 E0.3714 F1725
G1 X85.671 Y86.459 E0.4269
G1 X144.677 Y86.459 E3.0763
G1 X145.049 Y85.402 E3.1266
G1 X144.181 Y82.938 E3.2439
G1 X141.831 Y80.865 E3.3846
G1 X138.321 Y79.287 E3.5574
G1 X134.750 Y78.469 E3.7219
G1 X134.818 Y78.126 E3.7376
G1 X136.270 Y78.368 E3.8037
G1 X138.129 Y78.778 E3.8892
G1 X139.872 Y79.265 E3.9704
G1 X141.508 Y79.830 E4.0481
G1 X143.017 Y80.468 E4.1217
G1 X144.365 Y81.161 E4.1898
G1 X145.563 Y81.914 E4.2533
G1 X146.580 Y82.706 E4.3112
G1 X147.411 Y83.525 E4.3636
G1 X148.060 Y84.371 E4.4115
G1 X148.514 Y85.215 E4.4545
G1 X148.785 Y86.068 E4.4946
G1 X148.879 Y86.966 E4.5352
G1 X129.239 Y86.966 E5.4171
G1 X77.447 Y86.966 E7.7426
G1 X77.419 Y86.637 E7.7575
G1 X123.755 Y78.625 F4800
G92 E0
G1 X124.076 Y78.569 E0.0146 F1725
G1 X124.193 Y78.817 E0.0269
G1 X124.051 Y78.939 E0.0353
G1 X123.816 Y78.978 E0.0461
G1 X123.755 Y78.625 E0.0622
G1 X124.475 Y78.500 F4800
G92 E0
G1 X126.070 Y78.224 E0.0727 F1725
G1 X126.190 Y78.462 E0.0846
G1 X126.038 Y78.608 E0.0941
G1 X124.654 Y78.839 E0.1571
G1 X124.465 Y78.794 E0.1658
G1 X124.475 Y78.500 E0.1790
G1 X126.419 Y78.456 F4800
G92 E0
G1 X126.428 Y78.162 E0.0132 F1725
G1 X128.066 Y77.879 E0.0878
G1 X128.186 Y78.117 E0.0998
G1 X128.019 Y78.277 E0.1102
G1 X126.637 Y78.508 E0.1731
G1 X126.419 Y78.456 E0.1832
; outer perimeter
G1 X128.470 Y77.403 F4800
G92 E0
G1 X128.470 Y77.231 E0.0077 F1150
G1 X129.671 Y77.258 E0.0617
G1 X130.338 Y77.274 E0.0916
G1 X132.397 Y77.417 E0.1843
G1 X134.406 Y77.652 E0.2751
G1 X136.346 Y77.975 E0.3634
G1 X138.226 Y78.390 E0.4499
G1 X139.991 Y78.883 E0.5322
G1 X141.651 Y79.457 E0.6110
G1 X143.187 Y80.106 E0.6859
G1 X144.564 Y80.813 E0.7554
G1 X145.793 Y81.586 E0.8206
G1 X146.844 Y82.405 E0.8804
G1 X147.712 Y83.259 E0.9351
G1 X148.397 Y84.153 E0.9857
G1 X148.884 Y85.058 E1.0318
G1 X149.178 Y85.985 E1.0755
G1 X149.276 Y86.908 E1.1171
G1 X149.227 Y87.366 E1.1378
G1 X129.239 Y87.366 E2.0353
G1 X72.786 Y87.366 E4.5701
G1 X72.758 Y87.037 E4.5850
G1 X128.470 Y77.403 E7.1236
G1 X128.969 Y78.335 F4800
G92 E0
G1 X128.969 Y78.524 E0.0085 F1150
G1 X128.605 Y78.585 E0.0250
G1 X128.341 Y78.522 E0.0372
G1 X128.207 Y78.652 E0.0456
G1 X126.623 Y78.916 E0.1177
G1 X126.360 Y78.853 E0.1298
G1 X126.226 Y78.982 E0.1382
G1 X124.641 Y79.246 E0.2103
G1 X124.378 Y79.184 E0.2225
G1 X124.244 Y79.312 E0.2308
G1 X122.658 Y79.577 E0.3030
G1 X122.396 Y79.515 E0.3151
G1 X122.261 Y79.644 E0.3235
G1 X120.675 Y79.908 E0.3957
G1 X120.416 Y79.846 E0.4076
G1 X120.281 Y79.974 E0.4160
G1 X118.693 Y80.239 E0.4883
G1 X118.431 Y80.176 E0.5004
G1 X118.298 Y80.305 E0.5087
G1 X116.710 Y80.569 E0.5809
G1 X116.450 Y80.507 E0.5930
G1 X116.317 Y80.635 E0.6012
G1 X114.728 Y80.900 E0.6736
G1 X114.467 Y80.838 E0.6856
G1 X114.335 Y80.965 E0.6938
G1 X112.747 Y81.231 E0.7661
G1 X112.485 Y81.169 E0.7782
G1 X112.352 Y81.297 E0.7865
G1 X110.763 Y81.562 E0.8588
G1 X110.504 Y81.500 E0.8708
G1 X110.371 Y81.627 E0.8790
G1 X109.023 Y81.852 E0.9404
G1 X108.794 Y81.798 E0.9510
G1 X108.676 Y81.910 E0.9583
G1 X107.040 Y82.183 E1.0328
G1 X106.812 Y82.129 E1.0433
G1 X106.694 Y82.240 E1.0505
G1 X105.057 Y82.514 E1.1251
G1 X104.828 Y82.460 E1.1356
G1 X104.712 Y82.571 E1.1429
G1 X103.074 Y82.845 E1.2174
G1 X102.846 Y82.790 E1.2280
G1 X102.730 Y82.902 E1.2352
G1 X101.093 Y83.175 E1.3097
G1 X100.867 Y83.121 E1.3202
G1 X100.750 Y83.232 E1.3274
G1 X99.109 Y83.506 E1.4021
G1 X98.885 Y83.452 E1.4124
G1 X98.768 Y83.563 E1.4197
G1 X97.127 Y83.837 E1.4944
G1 X96.903 Y83.783 E1.5047
G1 X96.787 Y83.893 E1.5119
G1 X95.145 Y84.167 E1.5866
G1 X94.920 Y84.114 E1.5970
G1 X94.804 Y84.224 E1.6042
G1 X93.162 Y84.498 E1.6789
G1 X92.936 Y84.445 E1.6894
G1 X92.821 Y84.555 E1.6965
G1 X91.180 Y84.829 E1.7712
G1 X90.955 Y84.775 E1.7816
G1 X90.840 Y84.885 E1.7888
G1 X86.009 Y85.692 E2.0087
G1 X86.039 Y86.059 E2.0252
G1 X144.394 Y86.059 E4.6454
G1 X144.625 Y85.402 E4.6767
G1 X143.838 Y83.169 E4.7830
G1 X141.611 Y81.204 E4.9163
G1 X138.193 Y79.668 E5.0846
G1 X133.908 Y78.687 E5.2820
G1 X130.520 Y78.445 E5.4345
G1 X130.520 Y78.251 E5.4432
G1 X129.665 Y78.251 E5.4816
G1 X129.665 Y78.384 E5.4876
G1 X128.969 Y78.335 E5.5189
G92 E0
G1 E-1.0000 F1800
; external single extrusion
G1 X72.398 Y87.234 F4800
G1 E0.0000 F1800
G92 E0
; tool H0.300 W0.610
G1 X71.959 Y87.272 E0.0302 F1150
; tool H0.300 W0.569
G1 X71.719 Y87.292 E0.0456
; tool H0.300 W0.528
G1 X71.480 Y87.312 E0.0598
; tool H0.300 W0.488
G1 X71.240 Y87.333 E0.0730
; tool H0.300 W0.447
G1 X71.000 Y87.353 E0.0851
; tool H0.300 W0.406
G1 X70.761 Y87.374 E0.0960
; tool H0.300 W0.365
G1 X70.521 Y87.394 E0.1059
; tool H0.300 W0.324
G1 X70.281 Y87.415 E0.1146
; tool H0.300 W0.283
G1 X70.041 Y87.435 E0.1223
; tool H0.300 W0.242
G1 X69.802 Y87.456 E0.1288
; tool H0.300 W0.201
G1 X69.562 Y87.476 E0.1342
G1 X69.322 Y87.497 E0.1396
G1 X69.083 Y87.517 E0.1451
G1 X68.843 Y87.538 E0.1505
G1 X68.564 Y87.562 E0.1568
; tool H0.300 W0.400
; internal single extrusion
G1 X73.269 Y87.161 F4800
G92 E0
; tool H0.300 W0.200
G1 X73.547 Y87.137 E0.0063 F1150
G1 X73.784 Y87.116 E0.0116
G1 X74.021 Y87.096 E0.0169
G1 X74.258 Y87.075 E0.0223
G1 X74.495 Y87.055 E0.0276
; tool H0.300 W0.239
G1 X74.732 Y87.035 E0.0340
; tool H0.300 W0.280
G1 X74.969 Y87.014 E0.0415
; tool H0.300 W0.320
G1 X75.205 Y86.994 E0.0500
; tool H0.300 W0.361
G1 X75.442 Y86.973 E0.0596
; tool H0.300 W0.401
G1 X75.679 Y86.953 E0.0704
; tool H0.300 W0.442
G1 X75.916 Y86.932 E0.0821
; tool H0.300 W0.482
G1 X76.153 Y86.912 E0.0950
; tool H0.300 W0.522
G1 X76.390 Y86.891 E0.1089
; tool H0.300 W0.563
G1 X76.627 Y86.871 E0.1240
; tool H0.300 W0.603
G1 X77.063 Y86.833 E0.1536
G1 X85.917 Y85.235 F4800
; tool H0.300 W0.400
G92 E0
; tool H0.300 W0.538
G1 X90.601 Y84.439 E0.2871 F1150
; tool H0.300 W0.531
G1 X90.676 Y84.405 E0.2920
; tool H0.300 W0.488
G1 X90.751 Y84.368 E0.2966
; tool H0.300 W0.451
G1 X90.828 Y84.342 E0.3007
; tool H0.300 W0.440
G1 X90.907 Y84.330 E0.3046
; tool H0.300 W0.457
G1 X90.988 Y84.331 E0.3088
; tool H0.300 W0.488
G1 X91.069 Y84.334 E0.3133
; tool H0.300 W0.521
G1 X91.151 Y84.336 E0.3180
; tool H0.300 W0.546
G1 X91.231 Y84.332 E0.3230
; tool H0.300 W0.560
G1 X92.569 Y84.104 E0.4082
; tool H0.300 W0.547
G1 X92.645 Y84.074 E0.4133
; tool H0.300 W0.506
G1 X92.720 Y84.037 E0.4180
; tool H0.300 W0.467
G1 X92.796 Y84.009 E0.4222
; tool H0.300 W0.452
G1 X92.874 Y83.995 E0.4263
; tool H0.300 W0.464
G1 X92.955 Y83.994 E0.4305
; tool H0.300 W0.510
G1 X93.118 Y83.999 E0.4398
; tool H0.300 W0.555
G1 X93.199 Y83.997 E0.4449
; tool H0.300 W0.572
G1 X94.537 Y83.770 E0.5320
; tool H0.300 W0.563
G1 X94.614 Y83.744 E0.5371
; tool H0.300 W0.526
G1 X94.688 Y83.707 E0.5420
; tool H0.300 W0.485
G1 X94.764 Y83.676 E0.5464
; tool H0.300 W0.465
G1 X94.842 Y83.660 E0.5506
; tool H0.300 W0.472
G1 X94.923 Y83.656 E0.5549
; tool H0.300 W0.516
G1 X95.086 Y83.662 E0.5643
; tool H0.300 W0.564
G1 X95.167 Y83.663 E0.5695
; tool H0.300 W0.583
G1 X96.505 Y83.436 E0.6583
; tool H0.300 W0.578
G1 X96.583 Y83.414 E0.6635
; tool H0.300 W0.546
G1 X96.657 Y83.376 E0.6687
; tool H0.300 W0.503
G1 X96.733 Y83.344 E0.6733
; tool H0.300 W0.479
G1 X96.810 Y83.325 E0.6776
; tool H0.300 W0.481
G1 X96.890 Y83.319 E0.6819
; tool H0.300 W0.505
G1 X96.972 Y83.322 E0.6865
; tool H0.300 W0.538
G1 X97.053 Y83.324 E0.6915
; tool H0.300 W0.571
G1 X97.135 Y83.327 E0.6967
; tool H0.300 W0.589
G1 X97.214 Y83.315 E0.7020
; tool H0.300 W0.595
G1 X98.473 Y83.101 E0.7873
; tool H0.300 W0.593
G1 X98.551 Y83.082 E0.7927
; tool H0.300 W0.564
G1 X98.626 Y83.045 E0.7980
; tool H0.300 W0.519
G1 X98.701 Y83.011 E0.8028
; tool H0.300 W0.492
G1 X98.778 Y82.990 E0.8072
; tool H0.300 W0.490
G1 X98.858 Y82.983 E0.8116
; tool H0.300 W0.512
G1 X98.939 Y82.984 E0.8163
; tool H0.300 W0.544
G1 X99.021 Y82.987 E0.8212
; tool H0.300 W0.577
G1 X99.102 Y82.990 E0.8265
; tool H0.300 W0.598
G1 X99.182 Y82.981 E0.8319
; tool H0.300 W0.607
G1 X100.441 Y82.767 E0.9190
; tool H0.300 W0.609
G1 X100.520 Y82.751 E0.9244
; tool H0.300 W0.582
G1 X100.594 Y82.714 E0.9299
; tool H0.300 W0.537
G1 X100.669 Y82.679 E0.9349
; tool H0.300 W0.506
G1 X100.746 Y82.656 E0.9394
; tool H0.300 W0.500
G1 X100.826 Y82.646 E0.9439
; tool H0.300 W0.518
G1 X100.907 Y82.647 E0.9486
; tool H0.300 W0.550
G1 X100.988 Y82.650 E0.9537
; tool H0.300 W0.582
G1 X101.070 Y82.652 E0.9590
; tool H0.300 W0.607
G1 X101.150 Y82.647 E0.9645
; tool H0.300 W0.619
G1 X102.409 Y82.433 E1.0532
; tool H0.300 W0.623
G1 X102.488 Y82.419 E1.0588
; tool H0.300 W0.598
G1 X102.563 Y82.382 E1.0644
; tool H0.300 W0.552
G1 X102.638 Y82.346 E1.0696
; tool H0.300 W0.519
G1 X102.714 Y82.322 E1.0743
; tool H0.300 W0.510
G1 X102.793 Y82.310 E1.0788
; tool H0.300 W0.525
G1 X102.874 Y82.310 E1.0836
; tool H0.300 W0.555
G1 X102.956 Y82.312 E1.0887
; tool H0.300 W0.588
G1 X103.037 Y82.315 E1.0941
; tool H0.300 W0.616
G1 X103.118 Y82.313 E1.0996
; tool H0.300 W0.631
G1 X104.456 Y82.085 E1.1958
; tool H0.300 W0.614
G1 X104.531 Y82.051 E1.2015
; tool H0.300 W0.570
G1 X104.606 Y82.014 E1.2068
; tool H0.300 W0.534
G1 X104.683 Y81.989 E1.2117
; tool H0.300 W0.522
G1 X104.761 Y81.975 E1.2163
; tool H0.300 W0.533
G1 X104.842 Y81.973 E1.2212
; tool H0.300 W0.578
G1 X105.005 Y81.978 E1.2317
; tool H0.300 W0.625
G1 X105.086 Y81.978 E1.2374
; tool H0.300 W0.643
G1 X106.424 Y81.751 E1.3354
; tool H0.300 W0.630
G1 X106.500 Y81.721 E1.3412
; tool H0.300 W0.589
G1 X106.575 Y81.684 E1.3467
; tool H0.300 W0.551
G1 X106.651 Y81.656 E1.3517
; tool H0.300 W0.534
G1 X106.729 Y81.640 E1.3565
; tool H0.300 W0.541
G1 X106.809 Y81.635 E1.3614
; tool H0.300 W0.567
G1 X106.891 Y81.638 E1.3666
; tool H0.300 W0.600
G1 X106.972 Y81.640 E1.3720
; tool H0.300 W0.633
G1 X107.054 Y81.643 E1.3778
; tool H0.300 W0.650
G1 X107.133 Y81.630 E1.3837
; tool H0.300 W0.655
G1 X108.392 Y81.417 E1.4776
; tool H0.300 W0.646
G1 X108.469 Y81.390 E1.4834
; tool H0.300 W0.608
G1 X108.543 Y81.353 E1.4891
; tool H0.300 W0.568
G1 X108.619 Y81.323 E1.4943
; tool H0.300 W0.548
G1 X108.697 Y81.305 E1.4993
; tool H0.300 W0.551
G1 X108.777 Y81.299 E1.5042
; tool H0.300 W0.574
G1 X108.858 Y81.301 E1.5095
; tool H0.300 W0.606
G1 X108.940 Y81.303 E1.5150
