; G-Code generated by Simplify3D(R) Version 4.0.0
; Sep 23, 2020 at 11:38:24 AM
; Settings Summary
;   processName,Process2
;   applyToModels,ModernDoorstop
;   profileName,bar (modified)
;   profileVersion,2020-09-07 14:20:51
;   baseProfile,Default (modified)
;   printMaterial,PLA
;   printQuality,Medium
;   printExtruders,
;   extruderName,Primary Extruder
;   extruderToolheadNumber,0
;   extruderDiameter,0.4
;   extruderAutoWidth,0
;   extruderWidth,0.4
;   extrusionMultiplier,0.9
;   extruderUseRetract,1
;   extruderRetractionDistance,1
;   extruderExtraRestartDistance,0
;   extruderRetractionZLift,0
;   extruderRetractionSpeed,1800
;   extruderUseCoasting,0
;   extruderCoastingDistance,0.2
;   extruderUseWipe,0
;   extruderWipeDistance,5
;   primaryExtruder,0
;   layerHeight,0.3
;   topSolidLayers,3
;   bottomSolidLayers,3
;   perimeterOutlines,2
;   printPerimetersInsideOut,1
;   startPointOption,2
;   startPointOriginX,0
;   startPointOriginY,0
;   sequentialIslands,0
;   spiralVaseMode,0
;   firstLayerHeightPercentage,100
;   firstLayerWidthPercentage,100
;   firstLayerUnderspeed,0.5
;   useRaft,0
;   raftExtruder,0
;   raftTopLayers,3
;   raftBaseLayers,2
;   raftOffset,3
;   raftSeparationDistance,0.14
;   raftTopInfill,100
;   aboveRaftSpeedMultiplier,0.3
;   useSkirt,0
;   skirtExtruder,0
;   skirtLayers,1
;   skirtOutlines,2
;   skirtOffset,4
;   usePrimePillar,0
;   primePillarExtruder,999
;   primePillarWidth,12
;   primePillarLocation,7
;   primePillarSpeedMultiplier,1
;   useOozeShield,0
;   oozeShieldExtruder,999
;   oozeShieldOffset,2
;   oozeShieldOutlines,1
;   oozeShieldSidewallShape,1
;   oozeShieldSidewallAngle,30
;   oozeShieldSpeedMultiplier,1
;   infillExtruder,0
;   internalInfillPattern,Rectilinear
;   externalInfillPattern,Rectilinear
;   infillPercentage,15
;   outlineOverlapPercentage,15
;   infillExtrusionWidthPercentage,100
;   minInfillLength,5
;   infillLayerInterval,1
;   internalInfillAngles,45,-45
;   overlapInternalInfillAngles,0
;   externalInfillAngles,45,-45
;   generateSupport,0
;   supportExtruder,0
;   supportInfillPercentage,30
;   supportExtraInflation,0
;   supportBaseLayers,0
;   denseSupportExtruder,0
;   denseSupportLayers,0
;   denseSupportInfillPercentage,70
;   supportLayerInterval,1
;   supportHorizontalPartOffset,0.3
;   supportUpperSeparationLayers,1
;   supportLowerSeparationLayers,1
;   supportType,1
;   supportGridSpacing,4
;   maxOverhangAngle,45
;   supportAngles,0
;   temperatureName,Primary Extruder,Hot Bed
;   temperatureNumber,0,1
;   temperatureSetpointCount,1,1
;   temperatureSetpointLayers,1,1
;   temperatureSetpointTemperatures,210,60
;   temperatureStabilizeAtStartup,1,0
;   temperatureHeatedBed,0,1
;   temperatureRelayBetweenLayers,0,0
;   temperatureRelayBetweenLoops,0,0
;   fanLayers,1,2
;   fanSpeeds,0,100
;   blipFanToFullPower,0
;   adjustSpeedForCooling,1
;   minSpeedLayerTime,15
;   minCoolingSpeedSlowdown,20
;   increaseFanForCooling,0
;   minFanLayerTime,45
;   maxCoolingFanSpeed,100
;   increaseFanForBridging,0
;   bridgingFanSpeed,100
;   use5D,1
;   relativeEdistances,0
;   allowEaxisZeroing,1
;   independentExtruderAxes,0
;   includeM10123,0
;   stickySupport,1
;   applyToolheadOffsets,0
;   gcodeXoffset,0
;   gcodeYoffset,0
;   gcodeZoffset,0
;   overrideMachineDefinition,0
;   machineTypeOverride,0
;   strokeXoverride,200
;   strokeYoverride,200
;   strokeZoverride,200
;   originOffsetXoverride,0
;   originOffsetYoverride,0
;   originOffsetZoverride,0
;   homeXdirOverride,-1
;   homeYdirOverride,-1
;   homeZdirOverride,-1
;   flipXoverride,1
;   flipYoverride,-1
;   flipZoverride,1
;   toolheadOffsets,0,0|0,0|0,0|0,0|0,0|0,0
;   overrideFirmwareConfiguration,0
;   firmwareTypeOverride,RepRap (Marlin/Repetier/Sprinter)
;   GPXconfigOverride,r2
;   baudRateOverride,115200
;   overridePrinterModels,0
;   printerModelsOverride
;   startingGcode,G28 ; home all axes,G1 X0 Y5 Z0.2 F3000 ; get ready to prime,G92 E0 ; reset extrusion distance,G1 Y150 E20 F600 ; prime nozzle
;   layerChangeGcode,
;   retractionGcode,
;   toolChangeGcode,
;   endingGcode,M104 S0 ; turn off extruder,M140 S0 ; turn off bed,M84 ; disable motors,G1 X0 Y0; home,M107 ; fan off
;   exportFileFormat,gcode
;   celebration,0
;   celebrationSong,Random Song
;   postProcessing,
;   defaultSpeed,4600
;   outlineUnderspeed,0.5
;   solidInfillUnderspeed,0.8
;   supportUnderspeed,0.8
;   rapidXYspeed,4800
;   rapidZspeed,1000
;   minBridgingArea,50
;   bridgingExtraInflation,0
;   bridgingExtrusionMultiplier,1
;   bridgingSpeedMultiplier,1
;   useFixedBridgingAngle,0
;   fixedBridgingAngle,0
;   applyBridgingToPerimeters,0
;   filamentDiameters,1.75|1.75|1.75|1.75|1.75|1.75
;   filamentPricesPerKg,46|46|46|46|46|46
;   filamentDensities,1.25|1.25|1.25|1.25|1.25|1.25
;   useMinPrintHeight,0
;   minPrintHeight,0
;   useMaxPrintHeight,0
;   maxPrintHeight,0
;   useDiaphragm,0
;   diaphragmLayerInterval,20
;   robustSlicing,1
;   mergeAllIntoSolid,0
;   onlyRetractWhenCrossingOutline,1
;   retractBetweenLayers,1
;   useRetractionMinTravel,0
;   retractionMinTravel,3
;   retractWhileWiping,0
;   onlyWipeOutlines,1
;   avoidCrossingOutline,0
;   maxMovementDetourFactor,3
;   toolChangeRetractionDistance,12
;   toolChangeExtraRestartDistance,-0.5
;   toolChangeRetractionSpeed,600
;   externalThinWallType,1
;   internalThinWallType,1
;   thinWallAllowedOverlapPercentage,10
;   singleExtrusionMinLength,1
;   singleExtrusionMinPrintingWidthPercentage,50
;   singleExtrusionMaxPrintingWidthPercentage,200
;   singleExtrusionEndpointExtension,0.2
;   horizontalSizeCompensation,0
G90
M82
M106 S0
M140 S60
M104 S210 T0
M109 S210 T0
G28 ; home all axes
G1 X0 Y5 Z0.2 F3000 ; get ready to prime
G92 E0 ; reset extrusion distance
G1 Y150 E20 F600 ; prime nozzle
G92 E0
G1 E-1.0000 F1800
G1 Z0.300 F1000
; process Process2
; layer 1, Z = 0.300
T0
; tool H0.300 W0.400
; inner perimeter
G1 X72.897 Y92.167 F4800
G1 E0.0000 F540
G92 E0
G1 X128.870 Y72.520 E2.6636 F1725
G1 X128.870 Y72.301 E2.6734
G1 X130.027 Y72.355 E2.7254
G1 X130.291 Y72.367 E2.7373
G1 X132.295 Y72.648 E2.8281
G1 X134.259 Y73.113 E2.9188
G1 X136.165 Y73.758 E3.0091
G1 X137.995 Y74.577 E3.0991
G1 X139.730 Y75.560 E3.1887
G1 X141.354 Y76.700 E3.2778
G1 X142.852 Y77.983 E3.3663
G1 X144.209 Y79.399 E3.4544
G1 X145.412 Y80.933 E3.5419
G1 X146.449 Y82.570 E3.6289
G1 X147.312 Y84.295 E3.7155
G1 X147.991 Y86.091 E3.8018
G1 X148.481 Y87.940 E3.8877
G1 X148.777 Y89.826 E3.9734
G1 X148.876 Y91.730 E4.0590
G1 X148.838 Y92.466 E4.0921
G1 X72.949 Y92.467 E7.4996
G1 X72.897 Y92.167 E7.5132
; outer perimeter
G1 X70.550 Y92.567 F4800
G92 E0
G1 X128.470 Y72.236 E2.7562 F1150
G1 X128.470 Y71.882 E2.7722
G1 X129.439 Y71.927 E2.8157
G1 X130.328 Y71.968 E2.8557
G1 X132.369 Y72.254 E2.9482
G1 X134.369 Y72.728 E3.0405
G1 X136.311 Y73.385 E3.1326
G1 X138.175 Y74.219 E3.2243
G1 X139.944 Y75.222 E3.3155
G1 X141.600 Y76.383 E3.4064
G1 X143.127 Y77.692 E3.4967
G1 X144.512 Y79.137 E3.5865
G1 X145.739 Y80.702 E3.6758
G1 X146.798 Y82.373 E3.7647
G1 X147.678 Y84.135 E3.8531
G1 X148.373 Y85.969 E3.9411
G1 X148.873 Y87.858 E4.0289
G1 X149.175 Y89.784 E4.1165
G1 X149.276 Y91.730 E4.2039
G1 X149.217 Y92.866 E4.2550
G1 X70.601 Y92.867 E7.7850
G1 X70.550 Y92.567 E7.7986
; inner perimeter
G1 X85.714 Y90.200 F4800
G92 E0
G1 X144.757 Y90.200 E2.6511 F1725
G1 X145.022 Y88.674 E2.7207
G1 X144.241 Y84.172 E2.9258
G1 X141.978 Y80.120 E3.1342
G1 X138.465 Y76.914 E3.3477
G1 X134.052 Y74.863 E3.5663
G1 X130.920 Y74.410 E3.7083
G1 X130.920 Y73.963 E3.7284
G1 X129.265 Y73.963 E3.8027
G1 X129.265 Y74.171 E3.8121
G1 X128.569 Y74.071 E3.8436
G1 X128.569 Y74.569 E3.8660
G1 X128.135 Y74.359 E3.8876
G1 X127.878 Y74.860 E3.9129
G1 X126.656 Y75.273 E3.9708
G1 X126.154 Y75.030 E3.9959
G1 X125.897 Y75.530 E4.0211
G1 X124.673 Y75.945 E4.0791
G1 X124.171 Y75.703 E4.1042
G1 X123.915 Y76.202 E4.1293
G1 X122.692 Y76.616 E4.1873
G1 X122.190 Y76.372 E4.2124
G1 X121.932 Y76.873 E4.2377
G1 X120.708 Y77.287 E4.2957
G1 X120.208 Y77.046 E4.3206
G1 X119.952 Y77.544 E4.3458
G1 X118.726 Y77.959 E4.4039
G1 X118.224 Y77.715 E4.4289
G1 X117.968 Y78.216 E4.4542
G1 X116.744 Y78.630 E4.5122
G1 X116.243 Y78.388 E4.5372
G1 X115.987 Y78.886 E4.5623
G1 X114.761 Y79.302 E4.6205
G1 X114.261 Y79.059 E4.6454
G1 X114.005 Y79.557 E4.6706
G1 X112.778 Y79.973 E4.7288
G1 X112.278 Y79.731 E4.7537
G1 X112.023 Y80.229 E4.7788
G1 X110.796 Y80.644 E4.8370
G1 X110.297 Y80.404 E4.8619
G1 X110.042 Y80.900 E4.8869
G1 X109.056 Y81.234 E4.9337
G1 X108.587 Y81.006 E4.9571
G1 X108.347 Y81.474 E4.9807
G1 X107.073 Y81.905 E5.0411
G1 X106.603 Y81.679 E5.0645
G1 X106.365 Y82.145 E5.0880
G1 X105.089 Y82.577 E5.1485
G1 X104.621 Y82.352 E5.1718
G1 X104.383 Y82.817 E5.1952
G1 X103.108 Y83.248 E5.2557
G1 X102.640 Y83.021 E5.2790
G1 X102.401 Y83.488 E5.3026
G1 X101.126 Y83.920 E5.3630
G1 X100.659 Y83.694 E5.3863
G1 X100.420 Y84.158 E5.4098
G1 X99.143 Y84.591 E5.4703
G1 X98.677 Y84.366 E5.4935
G1 X98.438 Y84.829 E5.5170
G1 X97.161 Y85.262 E5.5775
G1 X96.697 Y85.037 E5.6007
G1 X96.457 Y85.500 E5.6241
G1 X95.178 Y85.934 E5.6848
G1 X94.712 Y85.708 E5.7080
G1 X94.474 Y86.172 E5.7314
G1 X93.195 Y86.605 E5.7921
G1 X92.730 Y86.380 E5.8153
G1 X92.492 Y86.843 E5.8386
G1 X91.213 Y87.276 E5.8992
G1 X90.749 Y87.051 E5.9224
G1 X90.511 Y87.514 E5.9458
G1 X85.549 Y89.195 E6.1811
G1 X85.714 Y90.200 E6.2268
; outer perimeter
G1 X86.054 Y89.800 F4800
G92 E0
G1 X144.421 Y89.800 E2.6207 F1150
G1 X144.616 Y88.674 E2.6721
G1 X143.858 Y84.307 E2.8711
G1 X141.660 Y80.372 E3.0735
G1 X138.241 Y77.251 E3.2813
G1 X133.936 Y75.250 E3.4945
G1 X130.520 Y74.756 E3.6494
G1 X130.520 Y74.363 E3.6671
G1 X129.665 Y74.363 E3.7055
G1 X129.665 Y74.633 E3.7176
G1 X128.969 Y74.532 E3.7492
G1 X128.969 Y74.912 E3.7662
G1 X128.612 Y75.033 E3.7832
G1 X128.312 Y74.889 E3.7981
G1 X128.160 Y75.187 E3.8131
G1 X126.629 Y75.705 E3.8857
G1 X126.331 Y75.560 E3.9005
G1 X126.179 Y75.857 E3.9155
G1 X124.647 Y76.376 E3.9881
G1 X124.349 Y76.232 E4.0030
G1 X124.196 Y76.529 E4.0180
G1 X122.665 Y77.048 E4.0906
G1 X122.367 Y76.903 E4.1054
G1 X122.214 Y77.200 E4.1204
G1 X120.682 Y77.719 E4.1931
G1 X120.385 Y77.576 E4.2079
G1 X120.233 Y77.871 E4.2228
G1 X118.699 Y78.390 E4.2955
G1 X118.402 Y78.246 E4.3103
G1 X118.251 Y78.542 E4.3253
G1 X116.717 Y79.062 E4.3980
G1 X116.421 Y78.918 E4.4128
G1 X116.269 Y79.213 E4.4276
G1 X114.734 Y79.733 E4.5004
G1 X114.438 Y79.590 E4.5152
G1 X114.288 Y79.884 E4.5300
G1 X112.752 Y80.404 E4.6029
G1 X112.456 Y80.261 E4.6176
G1 X112.305 Y80.556 E4.6324
G1 X110.769 Y81.076 E4.7053
G1 X110.475 Y80.934 E4.7199
G1 X110.324 Y81.227 E4.7348
G1 X109.028 Y81.665 E4.7962
G1 X108.764 Y81.537 E4.8094
G1 X108.628 Y81.801 E4.8227
G1 X107.046 Y82.337 E4.8977
G1 X106.781 Y82.209 E4.9109
G1 X106.647 Y82.472 E4.9242
G1 X105.063 Y83.008 E4.9992
G1 X104.799 Y82.881 E5.0124
G1 X104.665 Y83.143 E5.0256
G1 X103.081 Y83.680 E5.1007
G1 X102.817 Y83.552 E5.1138
G1 X102.683 Y83.815 E5.1271
G1 X101.099 Y84.351 E5.2022
G1 X100.836 Y84.224 E5.2153
G1 X100.702 Y84.485 E5.2285
G1 X99.116 Y85.022 E5.3037
G1 X98.854 Y84.896 E5.3167
G1 X98.720 Y85.156 E5.3299
G1 X97.134 Y85.694 E5.4051
G1 X96.873 Y85.567 E5.4181
G1 X96.738 Y85.827 E5.4313
G1 X95.151 Y86.365 E5.5065
G1 X94.890 Y86.238 E5.5196
G1 X94.756 Y86.499 E5.5327
G1 X93.168 Y87.037 E5.6080
G1 X92.907 Y86.911 E5.6210
G1 X92.774 Y87.170 E5.6341
G1 X91.186 Y87.708 E5.7094
G1 X90.926 Y87.582 E5.7223
G1 X90.793 Y87.841 E5.7354
G1 X85.999 Y89.465 E5.9627
G1 X86.054 Y89.800 E5.9780
G92 E0
G1 E-1.0000 F1800
; external single extrusion
G1 X70.229 Y92.776 F4800
G1 E0.0000 F1800
G92 E0
; tool H0.300 W0.487
G1 X69.873 Y92.837 E0.0197 F1150
; tool H0.300 W0.433
G1 X69.714 Y92.864 E0.0276
; tool H0.300 W0.379
G1 X69.555 Y92.891 E0.0344
; tool H0.300 W0.325
G1 X69.396 Y92.918 E0.0403
; tool H0.300 W0.271
G1 X69.238 Y92.945 E0.0452
; tool H0.300 W0.217
G1 X69.079 Y92.972 E0.0491
; tool H0.300 W0.200
G1 X68.920 Y92.999 E0.0527
G1 X68.761 Y93.026 E0.0563
G1 X68.682 Y93.040 E0.0581
; tool H0.300 W0.400
; internal single extrusion
G1 X71.051 Y92.636 F4800
G92 E0
; tool H0.300 W0.200
G1 X71.129 Y92.623 E0.0018 F1150
G1 X71.286 Y92.596 E0.0054
G1 X71.443 Y92.569 E0.0089
; tool H0.300 W0.214
G1 X71.599 Y92.543 E0.0127
; tool H0.300 W0.267
G1 X71.756 Y92.516 E0.0175
; tool H0.300 W0.321
G1 X71.913 Y92.489 E0.0232
; tool H0.300 W0.374
G1 X72.070 Y92.462 E0.0299
; tool H0.300 W0.427
G1 X72.226 Y92.436 E0.0375
; tool H0.300 W0.481
G1 X72.580 Y92.376 E0.0569
; tool H0.300 W0.400
; solid layer
G1 X74.167 Y92.082 F4800
G92 E0
G1 X74.212 Y92.127 E0.0028 F1840
G1 X74.777 Y92.127 E0.0282
G1 X74.586 Y91.935 E0.0404
G1 X75.004 Y91.788 E0.0603
G1 X75.343 Y92.127 E0.0818
G1 X75.909 Y92.127 E0.1072
G1 X75.423 Y91.641 E0.1381
G1 X75.842 Y91.494 E0.1580
G1 X76.474 Y92.127 E0.1982
G1 X77.040 Y92.127 E0.2236
G1 X76.260 Y91.347 E0.2731
G1 X76.679 Y91.200 E0.2930
G1 X77.606 Y92.127 E0.3519
G1 X78.171 Y92.127 E0.3773
G1 X77.098 Y91.053 E0.4454
G1 X77.517 Y90.906 E0.4653
G1 X78.737 Y92.127 E0.5428
G1 X79.303 Y92.127 E0.5682
G1 X77.935 Y90.759 E0.6551
G1 X78.354 Y90.612 E0.6750
G1 X79.868 Y92.127 E0.7712
G1 X80.434 Y92.127 E0.7966
G1 X78.773 Y90.465 E0.9021
G1 X79.191 Y90.318 E0.9220
G1 X81.000 Y92.127 E1.0368
G1 X81.565 Y92.127 E1.0622
G1 X79.610 Y90.171 E1.1864
G1 X80.029 Y90.024 E1.2063
G1 X82.131 Y92.127 E1.3398
G1 X82.697 Y92.127 E1.3652
G1 X80.448 Y89.877 E1.5081
G1 X80.866 Y89.730 E1.5280
G1 X83.262 Y92.127 E1.6801
G1 X83.828 Y92.127 E1.7055
G1 X81.285 Y89.583 E1.8670
G1 X81.704 Y89.437 E1.8870
G1 X84.394 Y92.127 E2.0578
G1 X84.960 Y92.127 E2.0832
G1 X82.122 Y89.290 E2.2633
G1 X82.541 Y89.143 E2.2833
G1 X85.525 Y92.127 E2.4728
G1 X86.091 Y92.127 E2.4982
G1 X82.960 Y88.996 E2.6970
G1 X83.378 Y88.849 E2.7169
G1 X86.657 Y92.127 E2.9251
G1 X87.222 Y92.127 E2.9505
G1 X85.636 Y90.540 E3.0512
G1 X85.426 Y90.540 E3.0607
G1 X85.384 Y90.289 E3.0721
G1 X83.797 Y88.702 E3.1729
G1 X84.216 Y88.555 E3.1928
G1 X85.273 Y89.611 E3.2599
G1 X85.166 Y88.966 E3.2893
G1 X85.186 Y88.959 E3.2902
G1 X84.635 Y88.408 E3.3252
G1 X85.053 Y88.261 E3.3451
G1 X85.608 Y88.816 E3.3804
G1 X86.031 Y88.673 E3.4004
G1 X85.472 Y88.114 E3.4359
G1 X85.891 Y87.967 E3.4559
G1 X86.454 Y88.530 E3.4916
G1 X86.876 Y88.386 E3.5116
G1 X86.309 Y87.820 E3.5476
G1 X86.728 Y87.673 E3.5675
G1 X87.299 Y88.243 E3.6038
G1 X87.721 Y88.100 E3.6238
G1 X87.147 Y87.526 E3.6603
G1 X87.566 Y87.379 E3.6802
G1 X88.144 Y87.957 E3.7169
G1 X88.566 Y87.814 E3.7369
G1 X87.984 Y87.232 E3.7739
G1 X88.403 Y87.085 E3.7938
G1 X88.989 Y87.671 E3.8310
G1 X89.411 Y87.528 E3.8511
G1 X88.822 Y86.938 E3.8885
G1 X89.240 Y86.791 E3.9084
G1 X89.834 Y87.385 E3.9461
G1 X90.257 Y87.241 E3.9662
G1 X89.659 Y86.644 E4.0041
G1 X90.078 Y86.497 E4.0240
G1 X90.456 Y86.876 E4.0481
G1 X90.598 Y86.600 E4.0620
G1 X90.887 Y86.740 E4.0764
G1 X90.497 Y86.350 E4.1012
G1 X90.915 Y86.203 E4.1211
G1 X91.524 Y86.812 E4.1598
G1 X91.947 Y86.669 E4.1798
G1 X91.334 Y86.056 E4.2187
G1 X91.753 Y85.909 E4.2386
G1 X92.306 Y86.462 E4.2738
G1 X92.498 Y86.088 E4.2926
G1 X92.171 Y85.762 E4.3133
G1 X92.590 Y85.615 E4.3333
G1 X93.210 Y86.235 E4.3726
G1 X93.218 Y86.239 E4.3730
G1 X93.637 Y86.097 E4.3929
G1 X93.009 Y85.468 E4.4328
G1 X93.427 Y85.321 E4.4527
G1 X94.060 Y85.953 E4.4929
G1 X94.234 Y85.894 E4.5012
G1 X94.347 Y85.675 E4.5122
G1 X93.846 Y85.174 E4.5440
G1 X94.265 Y85.027 E4.5639
G1 X94.539 Y85.301 E4.5813
G1 X94.561 Y85.258 E4.5835
G1 X95.201 Y85.567 E4.6154
G1 X95.327 Y85.524 E4.6214
G1 X94.684 Y84.880 E4.6623
G1 X95.102 Y84.733 E4.6823
G1 X95.750 Y85.381 E4.7234
G1 X96.173 Y85.238 E4.7434
G1 X95.521 Y84.586 E4.7848
G1 X95.940 Y84.439 E4.8047
G1 X96.390 Y84.890 E4.8333
G1 X96.547 Y84.586 E4.8486
G1 X96.752 Y84.686 E4.8589
G1 X96.358 Y84.292 E4.8839
G1 X96.777 Y84.145 E4.9038
G1 X97.440 Y84.809 E4.9460
G1 X97.863 Y84.665 E4.9660
G1 X97.196 Y83.998 E5.0083
G1 X97.615 Y83.851 E5.0283
G1 X98.238 Y84.475 E5.0679
G1 X98.431 Y84.102 E5.0867
G1 X98.033 Y83.704 E5.1120
G1 X98.452 Y83.557 E5.1319
G1 X99.075 Y84.180 E5.1714
G1 X99.165 Y84.224 E5.1760
G1 X99.553 Y84.093 E5.1943
