; G-Code generated by Simplify3D(R) Version 4.0.0
; Aug 5, 2019 at 3:54:37 PM
; Settings Summary
;   processName,Process2
;   applyToModels,MustacheBeard_Comb
;   profileName,Default(2) (modified)
;   profileVersion,2019-07-27 15:21:07
;   baseProfile,
;   printMaterial,PLA
;   printQuality,Medium
;   printExtruders,
;   extruderName,Primary Extruder
;   extruderToolheadNumber,0
;   extruderDiameter,0.4
;   extruderAutoWidth,0
;   extruderWidth,0.4
;   extrusionMultiplier,0.9
;   extruderUseRetract,1
;   extruderRetractionDistance,1
;   extruderExtraRestartDistance,0
;   extruderRetractionZLift,0
;   extruderRetractionSpeed,1800
;   extruderUseCoasting,0
;   extruderCoastingDistance,0.2
;   extruderUseWipe,0
;   extruderWipeDistance,5
;   primaryExtruder,0
;   layerHeight,0.15
;   topSolidLayers,3
;   bottomSolidLayers,2
;   perimeterOutlines,2
;   printPerimetersInsideOut,0
;   startPointOption,2
;   startPointOriginX,0
;   startPointOriginY,0
;   sequentialIslands,0
;   spiralVaseMode,0
;   firstLayerHeightPercentage,90
;   firstLayerWidthPercentage,100
;   firstLayerUnderspeed,0.5
;   useRaft,0
;   raftExtruder,0
;   raftTopLayers,3
;   raftBaseLayers,2
;   raftOffset,3
;   raftSeparationDistance,0.14
;   raftTopInfill,100
;   aboveRaftSpeedMultiplier,0.3
;   useSkirt,0
;   skirtExtruder,0
;   skirtLayers,1
;   skirtOutlines,2
;   skirtOffset,4
;   usePrimePillar,0
;   primePillarExtruder,999
;   primePillarWidth,12
;   primePillarLocation,7
;   primePillarSpeedMultiplier,1
;   useOozeShield,0
;   oozeShieldExtruder,999
;   oozeShieldOffset,2
;   oozeShieldOutlines,1
;   oozeShieldSidewallShape,1
;   oozeShieldSidewallAngle,30
;   oozeShieldSpeedMultiplier,1
;   infillExtruder,0
;   internalInfillPattern,Rectilinear
;   externalInfillPattern,Rectilinear
;   infillPercentage,35
;   outlineOverlapPercentage,15
;   infillExtrusionWidthPercentage,100
;   minInfillLength,5
;   infillLayerInterval,1
;   internalInfillAngles,45,-45
;   overlapInternalInfillAngles,0
;   externalInfillAngles,45,-45
;   generateSupport,1
;   supportExtruder,0
;   supportInfillPercentage,30
;   supportExtraInflation,0
;   supportBaseLayers,0
;   denseSupportExtruder,0
;   denseSupportLayers,0
;   denseSupportInfillPercentage,70
;   supportLayerInterval,1
;   supportHorizontalPartOffset,0.3
;   supportUpperSeparationLayers,1
;   supportLowerSeparationLayers,1
;   supportType,0
;   supportGridSpacing,4
;   maxOverhangAngle,45
;   supportAngles,0
;   temperatureName,Primary Extruder,Hot Bed
;   temperatureNumber,0,1
;   temperatureSetpointCount,1,1
;   temperatureSetpointLayers,1,1
;   temperatureSetpointTemperatures,210,60
;   temperatureStabilizeAtStartup,1,0
;   temperatureHeatedBed,0,1
;   temperatureRelayBetweenLayers,0,0
;   temperatureRelayBetweenLoops,0,0
;   fanLayers,1,2
;   fanSpeeds,0,100
;   blipFanToFullPower,0
;   adjustSpeedForCooling,1
;   minSpeedLayerTime,15
;   minCoolingSpeedSlowdown,20
;   increaseFanForCooling,0
;   minFanLayerTime,45
;   maxCoolingFanSpeed,100
;   increaseFanForBridging,0
;   bridgingFanSpeed,100
;   use5D,1
;   relativeEdistances,0
;   allowEaxisZeroing,1
;   independentExtruderAxes,0
;   includeM10123,0
;   stickySupport,1
;   applyToolheadOffsets,0
;   gcodeXoffset,0
;   gcodeYoffset,0
;   gcodeZoffset,0
;   overrideMachineDefinition,0
;   machineTypeOverride,0
;   strokeXoverride,200
;   strokeYoverride,200
;   strokeZoverride,200
;   originOffsetXoverride,0
;   originOffsetYoverride,0
;   originOffsetZoverride,0
;   homeXdirOverride,-1
;   homeYdirOverride,-1
;   homeZdirOverride,-1
;   flipXoverride,1
;   flipYoverride,-1
;   flipZoverride,1
;   toolheadOffsets,0,0|0,0|0,0|0,0|0,0|0,0
;   overrideFirmwareConfiguration,0
;   firmwareTypeOverride,RepRap (Marlin/Repetier/Sprinter)
;   GPXconfigOverride,r2
;   baudRateOverride,115200
;   overridePrinterModels,0
;   printerModelsOverride
;   startingGcode,G28 ; home all axes,G1 X0 Y210 Z0.2 F3000 ; get ready to prime,G92 E0 ; reset extrusion distance,G1 X150 E20 F600 ; prime nozzle
;   layerChangeGcode,
;   retractionGcode,
;   toolChangeGcode,
;   endingGcode,G28 ; home all axes,M104 S0 ; turn off extruder,M140 S0 ; turn off bed,M84 ; disable motors
;   exportFileFormat,gcode
;   celebration,0
;   celebrationSong,Random Song
;   postProcessing,
;   defaultSpeed,4600
;   outlineUnderspeed,0.5
;   solidInfillUnderspeed,0.8
;   supportUnderspeed,0.8
;   rapidXYspeed,4800
;   rapidZspeed,1000
;   minBridgingArea,50
;   bridgingExtraInflation,0
;   bridgingExtrusionMultiplier,1
;   bridgingSpeedMultiplier,1
;   useFixedBridgingAngle,0
;   fixedBridgingAngle,0
;   applyBridgingToPerimeters,0
;   filamentDiameters,1.75|1.75|1.75|1.75|1.75|1.75
;   filamentPricesPerKg,46|46|46|46|46|46
;   filamentDensities,1.25|1.25|1.25|1.25|1.25|1.25
;   useMinPrintHeight,0
;   minPrintHeight,0
;   useMaxPrintHeight,0
;   maxPrintHeight,0
;   useDiaphragm,0
;   diaphragmLayerInterval,20
;   robustSlicing,1
;   mergeAllIntoSolid,0
;   onlyRetractWhenCrossingOutline,1
;   retractBetweenLayers,1
;   useRetractionMinTravel,0
;   retractionMinTravel,3
;   retractWhileWiping,0
;   onlyWipeOutlines,1
;   avoidCrossingOutline,0
;   maxMovementDetourFactor,3
;   toolChangeRetractionDistance,12
;   toolChangeExtraRestartDistance,-0.5
;   toolChangeRetractionSpeed,600
;   externalThinWallType,1
;   internalThinWallType,1
;   thinWallAllowedOverlapPercentage,10
;   singleExtrusionMinLength,1
;   singleExtrusionMinPrintingWidthPercentage,50
;   singleExtrusionMaxPrintingWidthPercentage,200
;   singleExtrusionEndpointExtension,0.2
;   horizontalSizeCompensation,0
G90
M82
M106 S0
M140 S60
M104 S210 T0
M109 S210 T0
G28 ; home all axes
G1 X0 Y210 Z0.2 F3000 ; get ready to prime
G92 E0 ; reset extrusion distance
G1 X150 E20 F600 ; prime nozzle
G92 E0
G1 E-1.0000 F1800
G1 Z0.135 F1000
; process Process2
; layer 1, Z = 0.135
T0
; tool H0.150 W0.400
; outer perimeter
G1 X104.753 Y71.395 F4800
G1 E0.0000 F540
G92 E0
G1 X105.122 Y70.880 E0.0142 F1150
G1 X105.492 Y70.401 E0.0278
G1 X105.887 Y69.924 E0.0417
G1 X106.300 Y69.462 E0.0556
G1 X106.729 Y69.015 E0.0695
G1 X107.173 Y68.583 E0.0834
G1 X107.632 Y68.168 E0.0973
G1 X108.107 Y67.769 E0.1112
G1 X108.595 Y67.388 E0.1251
G1 X109.096 Y67.025 E0.1391
G1 X109.610 Y66.679 E0.1530
G1 X110.137 Y66.352 E0.1669
G1 X110.674 Y66.044 E0.1808
G1 X111.222 Y65.756 E0.1947
G1 X111.780 Y65.488 E0.2086
G1 X112.348 Y65.239 E0.2225
G1 X112.924 Y65.011 E0.2364
G1 X113.508 Y64.804 E0.2503
G1 X114.098 Y64.618 E0.2642
G1 X114.696 Y64.453 E0.2781
G1 X115.298 Y64.310 E0.2920
G1 X115.906 Y64.188 E0.3059
G1 X116.517 Y64.088 E0.3198
G1 X117.131 Y64.011 E0.3337
G1 X117.748 Y63.955 E0.3476
G1 X118.367 Y63.921 E0.3616
G1 X118.986 Y63.909 E0.3755
G1 X119.605 Y63.920 E0.3894
G1 X120.224 Y63.953 E0.4033
G1 X120.841 Y64.008 E0.4172
G1 X121.455 Y64.084 E0.4311
G1 X122.067 Y64.183 E0.4450
G1 X122.674 Y64.304 E0.4589
G1 X123.277 Y64.446 E0.4728
G1 X123.874 Y64.610 E0.4867
G1 X124.466 Y64.795 E0.5006
G1 X125.050 Y65.002 E0.5145
G1 X125.626 Y65.229 E0.5284
G1 X126.194 Y65.476 E0.5423
G1 X126.752 Y65.744 E0.5562
G1 X127.301 Y66.031 E0.5701
G1 X127.839 Y66.338 E0.5841
G1 X128.366 Y66.664 E0.5980
G1 X128.881 Y67.009 E0.6119
G1 X129.382 Y67.371 E0.6258
G1 X129.871 Y67.752 E0.6397
G1 X130.346 Y68.150 E0.6536
G1 X130.806 Y68.564 E0.6675
G1 X131.251 Y68.995 E0.6814
G1 X131.681 Y69.441 E0.6953
G1 X132.094 Y69.903 E0.7092
G1 X132.490 Y70.379 E0.7231
G1 X132.869 Y70.869 E0.7370
G1 X133.231 Y71.372 E0.7509
G1 X133.574 Y71.888 E0.7648
G1 X133.898 Y72.415 E0.7787
G1 X134.203 Y72.955 E0.7926
G1 X134.489 Y73.504 E0.8065
G1 X134.755 Y74.064 E0.8205
G1 X135.000 Y74.632 E0.8344
G1 X135.226 Y75.209 E0.8483
G1 X135.430 Y75.794 E0.8622
G1 X135.613 Y76.385 E0.8761
G1 X135.776 Y76.983 E0.8900
G1 X135.916 Y77.586 E0.9039
G1 X136.035 Y78.194 E0.9178
G1 X136.132 Y78.806 E0.9317
G1 X136.207 Y79.421 E0.9456
G1 X136.260 Y80.038 E0.9595
G1 X136.291 Y80.657 E0.9734
G1 X136.299 Y81.278 E0.9874
G1 X136.300 Y156.091 E2.6670
G1 X110.351 Y156.091 E3.2495
G1 X110.351 Y154.568 E3.2837
G1 X109.234 Y153.451 E3.3192
G1 X101.994 Y153.451 E3.4817
G1 X101.783 Y153.240 E3.4884
G1 X101.994 Y153.029 E3.4951
G1 X109.234 Y153.029 E3.6577
G1 X110.351 Y151.912 E3.6932
G1 X110.351 Y150.745 E3.7193
G1 X109.233 Y149.628 E3.7548
G1 X101.993 Y149.628 E3.9174
G1 X101.783 Y149.418 E3.9240
G1 X101.993 Y149.206 E3.9307
G1 X109.233 Y149.206 E4.0933
G1 X110.351 Y148.089 E4.1288
G1 X110.351 Y146.924 E4.1549
G1 X109.233 Y145.806 E4.1904
G1 X101.993 Y145.806 E4.3529
G1 X101.783 Y145.596 E4.3596
G1 X101.993 Y145.385 E4.3663
G1 X109.233 Y145.385 E4.5289
G1 X110.351 Y144.268 E4.5643
G1 X110.351 Y143.102 E4.5905
G1 X109.233 Y141.985 E4.6260
G1 X101.993 Y141.985 E4.7885
G1 X101.783 Y141.774 E4.7952
G1 X101.993 Y141.563 E4.8019
G1 X109.233 Y141.563 E4.9645
G1 X110.351 Y140.446 E4.9999
G1 X110.351 Y139.280 E5.0261
G1 X109.233 Y138.163 E5.0616
G1 X101.993 Y138.163 E5.2241
G1 X101.783 Y137.953 E5.2308
G1 X101.993 Y137.741 E5.2375
G1 X109.233 Y137.741 E5.4001
G1 X110.351 Y136.624 E5.4355
G1 X110.351 Y135.458 E5.4617
G1 X109.233 Y134.341 E5.4972
G1 X101.993 Y134.341 E5.6597
G1 X101.783 Y134.131 E5.6664
G1 X101.993 Y133.919 E5.6731
G1 X109.233 Y133.919 E5.8356
G1 X110.351 Y132.802 E5.8711
G1 X110.351 Y131.637 E5.8973
G1 X109.233 Y130.519 E5.9328
G1 X101.993 Y130.519 E6.0953
G1 X101.783 Y130.309 E6.1020
G1 X101.993 Y130.098 E6.1087
G1 X109.233 Y130.098 E6.2712
G1 X110.351 Y128.980 E6.3067
G1 X110.351 Y127.815 E6.3329
G1 X109.233 Y126.698 E6.3683
G1 X101.993 Y126.698 E6.5309
G1 X101.783 Y126.487 E6.5376
G1 X101.993 Y126.276 E6.5443
G1 X109.233 Y126.276 E6.7068
G1 X110.351 Y125.159 E6.7423
G1 X110.351 Y123.993 E6.7685
G1 X109.233 Y122.876 E6.8039
G1 X101.993 Y122.876 E6.9665
G1 X101.783 Y122.666 E6.9732
G1 X101.993 Y122.454 E6.9799
G1 X109.233 Y122.454 E7.1424
G1 X110.351 Y121.337 E7.1779
G1 X110.351 Y120.171 E7.2041
G1 X109.233 Y119.054 E7.2395
G1 X101.993 Y119.054 E7.4021
G1 X101.783 Y118.844 E7.4088
G1 X101.993 Y118.632 E7.4155
G1 X109.233 Y118.632 E7.5780
G1 X110.351 Y117.515 E7.6135
G1 X110.351 Y116.349 E7.6396
G1 X109.233 Y115.232 E7.6751
G1 X101.993 Y115.232 E7.8377
G1 X101.783 Y115.022 E7.8443
G1 X101.993 Y114.811 E7.8510
G1 X109.233 Y114.811 E8.0136
G1 X110.351 Y113.693 E8.0491
G1 X110.351 Y112.528 E8.0752
G1 X109.233 Y111.411 E8.1107
G1 X101.993 Y111.411 E8.2733
G1 X101.783 Y111.200 E8.2799
G1 X101.993 Y110.989 E8.2866
G1 X109.233 Y110.989 E8.4492
G1 X110.351 Y109.872 E8.4847
G1 X110.351 Y108.706 E8.5108
G1 X109.233 Y107.589 E8.5463
G1 X101.993 Y107.589 E8.7089
G1 X101.783 Y107.379 E8.7155
G1 X101.993 Y107.167 E8.7222
G1 X109.233 Y107.167 E8.8848
G1 X110.351 Y106.050 E8.9202
G1 X110.351 Y104.884 E8.9464
G1 X109.233 Y103.767 E8.9819
G1 X101.993 Y103.767 E9.1444
G1 X101.783 Y103.557 E9.1511
G1 X101.993 Y103.345 E9.1578
G1 X109.233 Y103.345 E9.3204
G1 X110.351 Y102.228 E9.3558
G1 X110.351 Y101.062 E9.3820
G1 X109.233 Y99.945 E9.4175
G1 X101.993 Y99.945 E9.5800
G1 X101.783 Y99.735 E9.5867
G1 X101.993 Y99.523 E9.5934
G1 X109.233 Y99.523 E9.7560
G1 X110.351 Y98.406 E9.7914
G1 X110.351 Y96.199 E9.8410
G1 X109.733 Y95.896 E9.8564
G1 X109.241 Y95.631 E9.8690
G1 X108.758 Y95.347 E9.8815
G1 X108.288 Y95.046 E9.8941
G1 X107.828 Y94.727 E9.9067
G1 X107.381 Y94.391 E9.9192
G1 X106.947 Y94.038 E9.9318
G1 X106.527 Y93.669 E9.9443
G1 X106.121 Y93.284 E9.9569
G1 X105.730 Y92.885 E9.9694
G1 X105.354 Y92.470 E9.9820
G1 X104.994 Y92.042 E9.9945
G1 X104.651 Y91.601 E10.0071
G1 X104.324 Y91.147 E10.0197
G1 X104.015 Y90.681 E10.0322
G1 X103.724 Y90.204 E10.0448
G1 X103.450 Y89.715 E10.0573
G1 X103.196 Y89.218 E10.0699
G1 X102.960 Y88.710 E10.0824
G1 X102.744 Y88.194 E10.0950
G1 X102.548 Y87.671 E10.1075
G1 X102.371 Y87.140 E10.1201
G1 X102.215 Y86.603 E10.1327
G1 X102.079 Y86.061 E10.1452
G1 X101.963 Y85.514 E10.1578
G1 X101.869 Y84.962 E10.1703
G1 X101.795 Y84.408 E10.1829
G1 X101.742 Y83.851 E10.1954
G1 X101.711 Y83.293 E10.2080
G1 X101.700 Y82.732 E10.2206
G1 X101.708 Y80.684 E10.2666
G1 X101.738 Y80.066 E10.2805
G1 X101.790 Y79.449 E10.2944
G1 X101.864 Y78.834 E10.3083
G1 X101.960 Y78.222 E10.3222
G1 X102.078 Y77.614 E10.3361
G1 X102.217 Y77.010 E10.3500
G1 X102.378 Y76.412 E10.3639
G1 X102.561 Y75.820 E10.3778
G1 X102.764 Y75.235 E10.3917
G1 X102.989 Y74.658 E10.4056
G1 X103.233 Y74.089 E10.4195
G1 X103.498 Y73.529 E10.4334
G1 X103.783 Y72.979 E10.4473
G1 X104.088 Y72.440 E10.4612
G1 X104.411 Y71.911 E10.4751
G1 X104.753 Y71.395 E10.4890
; inner perimeter
G1 X105.083 Y71.622 F4800
G92 E0
G1 X105.443 Y71.119 E0.0139 F1725
G1 X105.804 Y70.651 E0.0272
G1 X106.191 Y70.185 E0.0407
G1 X106.594 Y69.733 E0.0543
G1 X107.012 Y69.297 E0.0679
G1 X107.447 Y68.875 E0.0815
G1 X107.895 Y68.470 E0.0951
G1 X108.359 Y68.080 E0.1087
G1 X108.835 Y67.708 E0.1223
G1 X109.325 Y67.353 E0.1358
G1 X109.827 Y67.015 E0.1494
G1 X110.342 Y66.696 E0.1630
G1 X110.867 Y66.395 E0.1766
G1 X111.402 Y66.113 E0.1902
G1 X111.947 Y65.851 E0.2038
G1 X112.502 Y65.609 E0.2173
G1 X113.064 Y65.386 E0.2309
G1 X113.635 Y65.184 E0.2445
G1 X114.212 Y65.002 E0.2581
G1 X114.795 Y64.841 E0.2717
G1 X115.384 Y64.701 E0.2853
G1 X115.977 Y64.582 E0.2989
G1 X116.574 Y64.484 E0.3124
G1 X117.174 Y64.408 E0.3260
G1 X117.777 Y64.354 E0.3396
G1 X118.381 Y64.321 E0.3532
G1 X118.986 Y64.309 E0.3668
G1 X119.591 Y64.320 E0.3804
G1 X120.196 Y64.352 E0.3940
G1 X120.798 Y64.405 E0.4075
G1 X121.398 Y64.480 E0.4211
G1 X121.996 Y64.577 E0.4347
G1 X122.589 Y64.695 E0.4483
G1 X123.178 Y64.834 E0.4619
G1 X123.762 Y64.994 E0.4755
G1 X124.339 Y65.175 E0.4890
G1 X124.910 Y65.376 E0.5026
G1 X125.473 Y65.598 E0.5162
G1 X126.027 Y65.840 E0.5298
G1 X126.573 Y66.101 E0.5434
G1 X127.109 Y66.382 E0.5570
G1 X127.635 Y66.682 E0.5705
G1 X128.149 Y67.000 E0.5841
G1 X128.652 Y67.337 E0.5977
G1 X129.143 Y67.692 E0.6113
G1 X129.620 Y68.063 E0.6249
G1 X130.084 Y68.452 E0.6385
G1 X130.533 Y68.857 E0.6521
G1 X130.968 Y69.278 E0.6656
G1 X131.387 Y69.714 E0.6792
G1 X131.791 Y70.164 E0.6928
G1 X132.178 Y70.629 E0.7064
G1 X132.549 Y71.108 E0.7200
G1 X132.901 Y71.599 E0.7336
G1 X133.237 Y72.103 E0.7471
G1 X133.553 Y72.619 E0.7607
G1 X133.852 Y73.145 E0.7743
G1 X134.131 Y73.682 E0.7879
G1 X134.391 Y74.229 E0.8015
G1 X134.630 Y74.784 E0.8151
G1 X134.850 Y75.348 E0.8287
G1 X135.050 Y75.919 E0.8422
G1 X135.229 Y76.497 E0.8558
G1 X135.388 Y77.081 E0.8694
G1 X135.525 Y77.670 E0.8830
G1 X135.641 Y78.264 E0.8966
G1 X135.736 Y78.862 E0.9102
G1 X135.809 Y79.463 E0.9237
G1 X135.861 Y80.065 E0.9373
G1 X135.891 Y80.670 E0.9509
G1 X135.899 Y81.281 E0.9646
G1 X135.900 Y155.691 E2.6352
G1 X110.751 Y155.691 E3.1998
G1 X110.751 Y154.402 E3.2287
G1 X109.589 Y153.240 E3.2656
G1 X110.751 Y152.077 E3.3026
G1 X110.750 Y150.580 E3.3362
G1 X109.588 Y149.417 E3.3731
G1 X110.751 Y148.255 E3.4100
G1 X110.751 Y146.758 E3.4436
G1 X109.588 Y145.596 E3.4805
G1 X110.751 Y144.433 E3.5174
G1 X110.751 Y142.936 E3.5510
G1 X109.588 Y141.774 E3.5879
G1 X110.751 Y140.611 E3.6248
G1 X110.751 Y139.114 E3.6584
G1 X109.588 Y137.952 E3.6953
G1 X110.751 Y136.790 E3.7322
G1 X110.751 Y135.293 E3.7658
G1 X109.588 Y134.130 E3.8028
G1 X110.751 Y132.968 E3.8397
G1 X110.751 Y131.471 E3.8733
G1 X109.588 Y130.308 E3.9102
G1 X110.751 Y129.146 E3.9471
G1 X110.751 Y127.649 E3.9807
G1 X109.588 Y126.487 E4.0176
G1 X110.751 Y125.324 E4.0545
G1 X110.751 Y123.827 E4.0881
G1 X109.588 Y122.665 E4.1250
G1 X110.751 Y121.503 E4.1619
G1 X110.751 Y120.006 E4.1955
G1 X109.588 Y118.843 E4.2324
G1 X110.751 Y117.681 E4.2693
G1 X110.751 Y116.184 E4.3029
G1 X109.588 Y115.021 E4.3398
G1 X110.751 Y113.859 E4.3768
G1 X110.751 Y112.362 E4.4104
G1 X109.588 Y111.200 E4.4473
G1 X110.751 Y110.037 E4.4842
G1 X110.751 Y108.540 E4.5178
G1 X109.588 Y107.378 E4.5547
G1 X110.751 Y106.216 E4.5916
G1 X110.751 Y104.718 E4.6252
G1 X109.588 Y103.556 E4.6621
G1 X110.751 Y102.394 E4.6990
G1 X110.751 Y100.897 E4.7326
G1 X109.588 Y99.734 E4.7695
G1 X110.751 Y98.572 E4.8064
G1 X110.751 Y95.949 E4.8653
G1 X109.916 Y95.540 E4.8862
G1 X109.437 Y95.282 E4.8984
G1 X108.968 Y95.006 E4.9106
G1 X108.510 Y94.713 E4.9228
G1 X108.062 Y94.403 E4.9350
