; G-Code generated by Simplify3D(R) Version 4.0.0
; Nov 11, 2018 at 5:21:27 PM
; Settings Summary
;   processName,Process1
;   applyToModels,Nespresso_3
;   profileName,Flyingbear p902 (modified)
;   profileVersion,2017-02-06 00:22:54
;   baseProfile,Default
;   printMaterial,PLA
;   printQuality,Medium
;   printExtruders,
;   extruderName,Extruder 1
;   extruderToolheadNumber,0
;   extruderDiameter,0.4
;   extruderAutoWidth,1
;   extruderWidth,0.48
;   extrusionMultiplier,1
;   extruderUseRetract,1
;   extruderRetractionDistance,1
;   extruderExtraRestartDistance,0
;   extruderRetractionZLift,0
;   extruderRetractionSpeed,3400
;   extruderUseCoasting,0
;   extruderCoastingDistance,0.2
;   extruderUseWipe,0
;   extruderWipeDistance,5
;   primaryExtruder,0
;   layerHeight,0.3
;   topSolidLayers,3
;   bottomSolidLayers,2
;   perimeterOutlines,2
;   printPerimetersInsideOut,0
;   startPointOption,2
;   startPointOriginX,0
;   startPointOriginY,0
;   sequentialIslands,0
;   spiralVaseMode,0
;   firstLayerHeightPercentage,100
;   firstLayerWidthPercentage,100
;   firstLayerUnderspeed,0.5
;   useRaft,0
;   raftExtruder,0
;   raftTopLayers,3
;   raftBaseLayers,1
;   raftOffset,2
;   raftSeparationDistance,0.2
;   raftTopInfill,100
;   aboveRaftSpeedMultiplier,0.3
;   useSkirt,0
;   skirtExtruder,0
;   skirtLayers,1
;   skirtOutlines,2
;   skirtOffset,4
;   usePrimePillar,0
;   primePillarExtruder,999
;   primePillarWidth,12
;   primePillarLocation,7
;   primePillarSpeedMultiplier,1
;   useOozeShield,0
;   oozeShieldExtruder,999
;   oozeShieldOffset,2
;   oozeShieldOutlines,1
;   oozeShieldSidewallShape,1
;   oozeShieldSidewallAngle,30
;   oozeShieldSpeedMultiplier,1
;   infillExtruder,0
;   internalInfillPattern,Rectilinear
;   externalInfillPattern,Rectilinear
;   infillPercentage,7
;   outlineOverlapPercentage,15
;   infillExtrusionWidthPercentage,100
;   minInfillLength,5
;   infillLayerInterval,1
;   internalInfillAngles,45,-45
;   overlapInternalInfillAngles,0
;   externalInfillAngles,45,-45
;   generateSupport,0
;   supportExtruder,0
;   supportInfillPercentage,15
;   supportExtraInflation,0.5
;   supportBaseLayers,0
;   denseSupportExtruder,0
;   denseSupportLayers,0
;   denseSupportInfillPercentage,70
;   supportLayerInterval,1
;   supportHorizontalPartOffset,0.3
;   supportUpperSeparationLayers,1
;   supportLowerSeparationLayers,1
;   supportType,0
;   supportGridSpacing,1
;   maxOverhangAngle,60
;   supportAngles,0
;   temperatureName,Extruder 1,Heated Bed
;   temperatureNumber,0,0
;   temperatureSetpointCount,1,1
;   temperatureSetpointLayers,1,1
;   temperatureSetpointTemperatures,210,60
;   temperatureStabilizeAtStartup,1,1
;   temperatureHeatedBed,0,1
;   temperatureRelayBetweenLayers,0,0
;   temperatureRelayBetweenLoops,0,0
;   fanLayers,1,2
;   fanSpeeds,0,100
;   blipFanToFullPower,0
;   adjustSpeedForCooling,1
;   minSpeedLayerTime,15
;   minCoolingSpeedSlowdown,20
;   increaseFanForCooling,0
;   minFanLayerTime,45
;   maxCoolingFanSpeed,100
;   increaseFanForBridging,1
;   bridgingFanSpeed,100
;   use5D,1
;   relativeEdistances,0
;   allowEaxisZeroing,1
;   independentExtruderAxes,0
;   includeM10123,0
;   stickySupport,1
;   applyToolheadOffsets,0
;   gcodeXoffset,0
;   gcodeYoffset,0
;   gcodeZoffset,0
;   overrideMachineDefinition,1
;   machineTypeOverride,0
;   strokeXoverride,220
;   strokeYoverride,220
;   strokeZoverride,280
;   originOffsetXoverride,0
;   originOffsetYoverride,0
;   originOffsetZoverride,0
;   homeXdirOverride,-1
;   homeYdirOverride,-1
;   homeZdirOverride,-1
;   flipXoverride,1
;   flipYoverride,-1
;   flipZoverride,1
;   toolheadOffsets,0,0|0,0|0,0|0,0|0,0|0,0
;   overrideFirmwareConfiguration,1
;   firmwareTypeOverride,RepRap (Marlin/Repetier/Sprinter)
;   GPXconfigOverride,r2
;   baudRateOverride,250000
;   overridePrinterModels,0
;   printerModelsOverride
;   startingGcode,G28 ; home all axes,G1 X0 Y5 Z0.2 F3000 ; get ready to prime,G92 E0 ; reset extrusion distance,G1 X200 E20 F600 ; prime nozzle
;   layerChangeGcode,
;   retractionGcode,
;   toolChangeGcode,
;   endingGcode,M104 S0 ; turn off extruder,M140 S0 ; turn off bed,G91 ; use relative coordinates,G1 Z0.6 F5000 ; lift nozzle by 0.6mm,G90 ; use absolute coordinates,G28 X0 ; home X axis,G28 Y0 ; home X axis,M84 ; disable motors,M107 ; turn off fan
;   exportFileFormat,gcode
;   celebration,0
;   celebrationSong,Random Song
;   postProcessing,
;   defaultSpeed,4200
;   outlineUnderspeed,0.9
;   solidInfillUnderspeed,1
;   supportUnderspeed,0.8
;   rapidXYspeed,4200
;   rapidZspeed,1002
;   minBridgingArea,50
;   bridgingExtraInflation,0
;   bridgingExtrusionMultiplier,1
;   bridgingSpeedMultiplier,1
;   useFixedBridgingAngle,0
;   fixedBridgingAngle,0
;   applyBridgingToPerimeters,0
;   filamentDiameters,1.75|1.75|1.75|1.75|1.75|1.75
;   filamentPricesPerKg,46|46|46|46|46|46
;   filamentDensities,1.25|1.25|1.25|1.25|1.25|1.25
;   useMinPrintHeight,0
;   minPrintHeight,0
;   useMaxPrintHeight,0
;   maxPrintHeight,0
;   useDiaphragm,0
;   diaphragmLayerInterval,20
;   robustSlicing,1
;   mergeAllIntoSolid,0
;   onlyRetractWhenCrossingOutline,1
;   retractBetweenLayers,1
;   useRetractionMinTravel,0
;   retractionMinTravel,3
;   retractWhileWiping,0
;   onlyWipeOutlines,1
;   avoidCrossingOutline,0
;   maxMovementDetourFactor,3
;   toolChangeRetractionDistance,12
;   toolChangeExtraRestartDistance,-0.5
;   toolChangeRetractionSpeed,600
;   externalThinWallType,1
;   internalThinWallType,1
;   thinWallAllowedOverlapPercentage,10
;   singleExtrusionMinLength,1
;   singleExtrusionMinPrintingWidthPercentage,50
;   singleExtrusionMaxPrintingWidthPercentage,200
;   singleExtrusionEndpointExtension,0.2
;   horizontalSizeCompensation,0
G90
M82
M106 S0
M140 S60
M190 S60
M104 S210 T0
M109 S210 T0
G28 ; home all axes
G1 X0 Y5 Z0.2 F3000 ; get ready to prime
G92 E0 ; reset extrusion distance
G1 X200 E20 F600 ; prime nozzle
G92 E0
G1 E-1.0000 F3400
G1 Z0.300 F1002
; process Process1
; layer 1, Z = 0.300
T0
; tool H0.300 W0.480
; outer perimeter
G1 X73.511 Y53.580 F4200
G1 E0.0000 F1020
G92 E0
G1 X73.886 Y53.112 E0.0360 F1890
G1 X74.428 Y52.536 E0.0832
G1 X75.022 Y52.020 E0.1304
G1 X75.667 Y51.563 E0.1777
G1 X76.183 Y51.257 E0.2137
G1 X76.346 Y51.177 E0.2245
G1 X76.895 Y50.915 E0.2609
G1 X77.457 Y50.706 E0.2968
G1 X78.217 Y50.489 E0.3441
G1 X78.983 Y50.350 E0.3907
G1 X148.008 Y50.350 E4.5232
G1 X148.006 Y169.630 E11.6643
G1 X79.353 Y169.630 E15.7744
G1 X78.371 Y169.485 E15.8338
G1 X77.411 Y169.218 E15.8934
G1 X76.492 Y168.835 E15.9531
G1 X75.626 Y168.342 E16.0127
G1 X74.829 Y167.745 E16.0723
G1 X74.111 Y167.054 E16.1320
G1 X73.484 Y166.281 E16.1916
G1 X72.958 Y165.436 E16.2512
G1 X72.539 Y164.532 E16.3108
G1 X72.236 Y163.583 E16.3705
G1 X72.052 Y162.604 E16.4301
G1 X71.990 Y161.603 E16.4902
G1 X71.990 Y137.003 E17.9629
G1 X72.221 Y136.022 E18.0232
G1 X72.577 Y135.067 E18.0843
G1 X73.049 Y134.163 E18.1453
G1 X73.630 Y133.324 E18.2064
G1 X74.311 Y132.565 E18.2674
G1 X75.082 Y131.897 E18.3285
G1 X75.930 Y131.330 E18.3896
G1 X76.663 Y130.959 E18.4388
G1 X77.617 Y130.618 E18.4995
G1 X79.236 Y130.243 E18.5989
G1 X79.259 Y129.886 E18.6204
G1 X77.306 Y129.168 E18.7449
G1 X76.788 Y128.963 E18.7782
G1 X76.139 Y128.639 E18.8216
G1 X75.667 Y128.355 E18.8546
G1 X75.077 Y127.935 E18.8980
G1 X74.528 Y127.462 E18.9414
G1 X74.140 Y127.071 E18.9744
G1 X73.672 Y126.518 E19.0178
G1 X73.257 Y125.923 E19.0611
G1 X72.976 Y125.449 E19.0941
G1 X72.660 Y124.798 E19.1375
G1 X72.413 Y124.148 E19.1791
G1 X72.248 Y123.591 E19.2139
G1 X72.102 Y122.881 E19.2573
G1 X72.034 Y122.334 E19.2903
G1 X72.000 Y121.605 E19.3340
G1 X72.000 Y96.295 E20.8493
G1 X72.212 Y95.606 E20.8924
G1 X72.395 Y95.136 E20.9226
G1 X72.717 Y94.463 E20.9673
G1 X72.971 Y94.027 E20.9975
G1 X73.388 Y93.410 E21.0421
G1 X73.862 Y92.835 E21.0867
G1 X74.210 Y92.469 E21.1169
G1 X74.765 Y91.970 E21.1616
G1 X75.165 Y91.663 E21.1918
G1 X75.787 Y91.251 E21.2365
G1 X76.230 Y91.010 E21.2666
G1 X76.909 Y90.693 E21.3115
G1 X77.483 Y90.484 E21.3480
G1 X78.063 Y90.320 E21.3842
G1 X78.626 Y90.207 E21.4185
G1 X78.626 Y89.814 E21.4421
G1 X78.052 Y89.698 E21.4771
G1 X77.454 Y89.528 E21.5143
G1 X76.866 Y89.311 E21.5519
G1 X76.199 Y88.999 E21.5960
G1 X75.751 Y88.750 E21.6266
G1 X75.138 Y88.344 E21.6706
G1 X74.564 Y87.884 E21.7147
G1 X74.187 Y87.537 E21.7454
G1 X73.687 Y86.997 E21.7894
G1 X73.370 Y86.594 E21.8201
G1 X72.953 Y85.986 E21.8642
G1 X72.848 Y85.800 E21.8770
G1 X72.596 Y85.347 E21.9081
G1 X72.297 Y84.675 E21.9521
G1 X72.121 Y84.193 E21.9828
G1 X71.930 Y83.506 E22.0255
G1 X71.930 Y58.396 E23.5288
G1 X71.970 Y57.602 E23.5764
G1 X72.050 Y57.007 E23.6123
G1 X72.222 Y56.236 E23.6596
G1 X72.469 Y55.487 E23.7069
G1 X72.705 Y54.935 E23.7428
G1 X73.075 Y54.237 E23.7901
G1 X73.410 Y53.731 E23.8264
G1 X73.511 Y53.580 E23.8373
; inner perimeter
G1 X73.898 Y53.865 F4200
G92 E0
G1 X74.249 Y53.427 E0.0336 F1995
G1 X74.761 Y52.883 E0.0783
G1 X75.319 Y52.397 E0.1226
G1 X75.929 Y51.966 E0.1673
G1 X76.411 Y51.679 E0.2009
G1 X76.555 Y51.610 E0.2105
G1 X77.082 Y51.357 E0.2455
G1 X77.607 Y51.163 E0.2790
G1 X78.326 Y50.957 E0.3238
G1 X79.026 Y50.830 E0.3663
G1 X147.528 Y50.830 E4.4675
G1 X147.526 Y169.150 E11.5511
G1 X79.388 Y169.150 E15.6303
G1 X78.470 Y169.014 E15.6859
G1 X77.568 Y168.764 E15.7420
G1 X76.704 Y168.403 E15.7980
G1 X75.890 Y167.939 E15.8541
G1 X75.140 Y167.379 E15.9101
G1 X74.465 Y166.729 E15.9662
G1 X73.876 Y166.002 E16.0223
G1 X73.381 Y165.207 E16.0783
G1 X72.987 Y164.357 E16.1344
G1 X72.702 Y163.465 E16.1905
G1 X72.529 Y162.545 E16.2465
G1 X72.470 Y161.588 E16.3039
G1 X72.470 Y137.058 E17.7725
G1 X72.681 Y136.162 E17.8276
G1 X73.016 Y135.262 E17.8851
G1 X73.461 Y134.411 E17.9426
G1 X74.008 Y133.623 E18.0000
G1 X74.649 Y132.908 E18.0575
G1 X75.374 Y132.279 E18.1149
G1 X76.172 Y131.745 E18.1725
G1 X76.853 Y131.401 E18.2181
G1 X77.753 Y131.079 E18.2753
G1 X79.693 Y130.630 E18.3946
G1 X79.760 Y129.559 E18.4588
G1 X77.477 Y128.719 E18.6044
G1 X76.984 Y128.524 E18.6362
G1 X76.371 Y128.218 E18.6772
G1 X75.930 Y127.953 E18.7080
G1 X75.374 Y127.557 E18.7489
G1 X74.856 Y127.110 E18.7898
G1 X74.494 Y126.746 E18.8206
G1 X74.053 Y126.225 E18.8614
G1 X73.661 Y125.663 E18.9024
G1 X73.399 Y125.221 E18.9332
G1 X73.101 Y124.607 E18.9741
G1 X72.868 Y123.995 E19.0133
G1 X72.714 Y123.474 E19.0458
G1 X72.576 Y122.803 E19.0868
G1 X72.513 Y122.293 E19.1176
G1 X72.480 Y121.593 E19.1595
G1 X72.480 Y96.367 E20.6698
G1 X72.665 Y95.764 E20.7075
G1 X72.835 Y95.327 E20.7356
G1 X73.141 Y94.688 E20.7781
G1 X73.377 Y94.283 E20.8061
G1 X73.773 Y93.697 E20.8484
G1 X74.222 Y93.153 E20.8906
G1 X74.545 Y92.814 E20.9187
G1 X75.072 Y92.339 E20.9611
G1 X75.444 Y92.054 E20.9892
G1 X76.035 Y91.663 E21.0316
G1 X76.447 Y91.439 E21.0597
G1 X77.093 Y91.137 E21.1024
G1 X77.631 Y90.941 E21.1367
G1 X78.176 Y90.787 E21.1706
G1 X79.106 Y90.600 E21.2274
G1 X79.106 Y89.420 E21.2980
G1 X78.165 Y89.232 E21.3555
G1 X77.603 Y89.071 E21.3904
G1 X77.051 Y88.868 E21.4257
G1 X76.417 Y88.571 E21.4676
G1 X76.000 Y88.339 E21.4961
G1 X75.421 Y87.956 E21.5377
G1 X74.877 Y87.520 E21.5794
G1 X74.527 Y87.196 E21.6080
G1 X74.052 Y86.685 E21.6498
G1 X73.757 Y86.310 E21.6784
G1 X73.361 Y85.732 E21.7203
G1 X73.267 Y85.566 E21.7317
G1 X73.026 Y85.133 E21.7614
G1 X72.742 Y84.495 E21.8032
G1 X72.579 Y84.046 E21.8318
G1 X72.410 Y83.441 E21.8694
G1 X72.410 Y58.408 E23.3681
G1 X72.448 Y57.646 E23.4138
G1 X72.523 Y57.092 E23.4472
G1 X72.685 Y56.364 E23.4919
G1 X72.918 Y55.657 E23.5365
G1 X73.138 Y55.142 E23.5699
G1 X73.488 Y54.482 E23.6147
G1 X73.809 Y53.997 E23.6495
G1 X73.898 Y53.865 E23.6591
; solid layer
G1 X76.724 Y88.264 F4200
G92 E0
G1 X73.376 Y84.916 E0.2835 F2100
G1 X73.121 Y84.342 E0.3211
G1 X72.968 Y83.922 E0.3479
G1 X72.932 Y83.793 E0.3559
G1 X77.858 Y88.720 E0.7730
G1 X78.261 Y88.835 E0.7981
G1 X78.751 Y88.933 E0.8280
G1 X72.818 Y83.000 E1.3302
G1 X72.818 Y82.321 E1.3709
G1 X147.118 Y156.621 E7.6616
G1 X147.118 Y155.943 E7.7022
G1 X72.818 Y81.643 E13.9929
G1 X72.818 Y80.964 E14.0336
G1 X147.118 Y155.264 E20.3243
G1 X147.118 Y154.585 E20.3649
G1 X72.818 Y80.285 E26.6557
G1 X72.818 Y79.606 E26.6963
G1 X147.118 Y153.906 E32.9870
G1 X147.118 Y153.227 E33.0277
G1 X72.818 Y78.927 E39.3184
G1 X72.818 Y78.249 E39.3590
G1 X147.118 Y152.549 E45.6497
G1 X147.118 Y151.870 E45.6904
G1 X72.818 Y77.570 E51.9811
G1 X72.818 Y76.891 E52.0217
G1 X147.118 Y151.191 E58.3125
G1 X147.118 Y150.512 E58.3531
G1 X72.818 Y76.212 E64.6438
G1 X72.818 Y75.533 E64.6845
G1 X147.118 Y149.833 E70.9752
G1 X147.118 Y149.155 E71.0158
G1 X72.818 Y74.854 E77.3066
G1 X72.818 Y74.176 E77.3472
G1 X147.118 Y148.476 E83.6379
G1 X147.118 Y147.797 E83.6786
G1 X72.818 Y73.497 E89.9693
G1 X72.818 Y72.818 E90.0099
G1 X147.118 Y147.118 E96.3007
G1 X147.118 Y146.439 E96.3413
G1 X72.818 Y72.139 E102.6320
G1 X72.818 Y71.460 E102.6727
G1 X147.118 Y145.760 E108.9634
G1 X147.118 Y145.082 E109.0041
G1 X72.818 Y70.781 E115.2948
G1 X72.818 Y70.103 E115.3354
G1 X147.118 Y144.403 E121.6262
G1 X147.118 Y143.724 E121.6668
G1 X72.818 Y69.424 E127.9575
G1 X72.818 Y68.745 E127.9982
G1 X147.118 Y143.045 E134.2889
G1 X147.118 Y142.366 E134.3296
G1 X72.818 Y68.066 E140.6203
G1 X72.818 Y67.387 E140.6609
G1 X147.118 Y141.688 E146.9517
G1 X147.118 Y141.009 E146.9923
G1 X72.818 Y66.709 E153.2831
G1 X72.818 Y66.030 E153.3237
G1 X147.118 Y140.330 E159.6145
G1 X147.118 Y139.651 E159.6551
G1 X72.818 Y65.351 E165.9458
G1 X72.818 Y64.672 E165.9865
G1 X147.118 Y138.972 E172.2772
G1 X147.118 Y138.294 E172.3179
G1 X72.818 Y63.993 E178.6086
G1 X72.818 Y63.314 E178.6493
G1 X147.118 Y137.615 E184.9400
G1 X147.118 Y136.936 E184.9807
G1 X72.818 Y62.636 E191.2714
G1 X72.818 Y61.957 E191.3120
G1 X147.118 Y136.257 E197.6028
G1 X147.118 Y135.578 E197.6434
G1 X72.818 Y61.278 E203.9342
G1 X72.818 Y60.599 E203.9748
G1 X147.118 Y134.900 E210.2656
G1 X147.118 Y134.221 E210.3062
G1 X72.818 Y59.920 E216.5970
G1 X72.818 Y59.241 E216.6376
G1 X147.118 Y133.542 E222.9284
G1 X147.118 Y132.863 E222.9690
G1 X72.818 Y58.563 E229.2598
G1 X72.818 Y58.418 E229.2684
G1 X72.843 Y57.909 E229.2989
G1 X147.118 Y132.184 E235.5876
G1 X147.118 Y131.506 E235.6282
G1 X72.907 Y57.295 E241.9114
G1 X72.925 Y57.163 E241.9193
G1 X73.022 Y56.730 E241.9459
G1 X147.119 Y130.827 E248.2194
G1 X147.119 Y130.148 E248.2601
G1 X73.169 Y56.198 E254.5211
G1 X73.300 Y55.801 E254.5462
G1 X73.345 Y55.696 E254.5530
G1 X147.119 Y129.469 E260.7992
G1 X147.119 Y128.790 E260.8398
G1 X73.555 Y55.227 E267.0682
G1 X73.790 Y54.783 E267.0982
G1 X147.119 Y128.112 E273.3067
G1 X147.119 Y127.433 E273.3473
G1 X74.053 Y54.367 E279.5335
G1 X74.148 Y54.225 E279.5437
G1 X74.227 Y54.107 E279.5523
G1 X74.336 Y53.971 E279.5627
G1 X147.119 Y126.754 E285.7249
G1 X147.119 Y126.075 E285.7656
G1 X74.645 Y53.601 E291.9017
G1 X74.974 Y53.252 E291.9304
G1 X147.119 Y125.396 E298.0387
G1 X147.119 Y124.717 E298.0793
G1 X75.330 Y52.929 E304.1574
G1 X75.571 Y52.719 E304.1766
G1 X75.704 Y52.624 E304.1863
G1 X147.119 Y124.039 E310.2327
G1 X147.119 Y123.360 E310.2734
G1 X76.102 Y52.343 E316.2861
G1 X76.151 Y52.308 E316.2897
G1 X76.524 Y52.087 E316.3157
G1 X147.119 Y122.681 E322.2927
G1 X147.119 Y122.002 E322.3333
G1 X76.977 Y51.860 E328.2720
G1 X77.242 Y51.734 E328.2896
G1 X77.451 Y51.656 E328.3030
G1 X147.119 Y121.323 E334.2015
G1 X147.119 Y120.645 E334.2421
G1 X77.960 Y51.486 E340.0976
G1 X78.419 Y51.354 E340.1261
G1 X78.494 Y51.341 E340.1307
G1 X147.119 Y119.966 E345.9409
G1 X147.119 Y119.287 E345.9816
G1 X79.070 Y51.238 E351.7430
G1 X79.749 Y51.238 E351.7837
G1 X147.119 Y118.608 E357.4877
G1 X147.119 Y117.929 E357.5283
G1 X80.427 Y51.238 E363.1749
G1 X81.106 Y51.238 E363.2155
G1 X147.119 Y117.251 E368.8045
G1 X147.119 Y116.572 E368.8452
G1 X81.785 Y51.238 E374.3768
G1 X82.464 Y51.238 E374.4174
G1 X147.119 Y115.893 E379.8915
G1 X147.119 Y115.214 E379.9322
G1 X83.143 Y51.238 E385.3488
G1 X83.821 Y51.238 E385.3894
G1 X147.119 Y114.535 E390.7486
G1 X147.119 Y113.857 E390.7893
G1 X84.500 Y51.238 E396.0909
G1 X85.179 Y51.238 E396.1316
G1 X147.119 Y113.178 E401.3758
G1 X147.119 Y112.499 E401.4164
G1 X85.858 Y51.238 E406.6032
