; G-Code generated by Simplify3D(R) Version 4.0.0
; Mar 30, 2018 at 12:51:55 PM
; Settings Summary
;   processName,Process1
;   applyToModels,Nespresso_3
;   profileName,Flying Bear 902 Update 7-2017 (modified)
;   profileVersion,2017-07-10 09:45:20
;   baseProfile,Default
;   printMaterial,PLA
;   printQuality,Medium
;   printExtruders,
;   extruderName,Extruder 1
;   extruderToolheadNumber,0
;   extruderDiameter,0.4
;   extruderAutoWidth,1
;   extruderWidth,0.48
;   extrusionMultiplier,0.9
;   extruderUseRetract,1
;   extruderRetractionDistance,2
;   extruderExtraRestartDistance,0
;   extruderRetractionZLift,0
;   extruderRetractionSpeed,3000
;   extruderUseCoasting,0
;   extruderCoastingDistance,0.2
;   extruderUseWipe,1
;   extruderWipeDistance,5
;   primaryExtruder,0
;   layerHeight,0.2
;   topSolidLayers,4
;   bottomSolidLayers,4
;   perimeterOutlines,3
;   printPerimetersInsideOut,0
;   startPointOption,2
;   startPointOriginX,0
;   startPointOriginY,0
;   sequentialIslands,0
;   spiralVaseMode,0
;   firstLayerHeightPercentage,20
;   firstLayerWidthPercentage,100
;   firstLayerUnderspeed,0.5
;   useRaft,0
;   raftExtruder,0
;   raftTopLayers,2
;   raftBaseLayers,2
;   raftOffset,3
;   raftSeparationDistance,0.5
;   raftTopInfill,100
;   aboveRaftSpeedMultiplier,0.3
;   useSkirt,0
;   skirtExtruder,0
;   skirtLayers,1
;   skirtOutlines,2
;   skirtOffset,4
;   usePrimePillar,0
;   primePillarExtruder,999
;   primePillarWidth,12
;   primePillarLocation,7
;   primePillarSpeedMultiplier,1
;   useOozeShield,0
;   oozeShieldExtruder,999
;   oozeShieldOffset,2
;   oozeShieldOutlines,1
;   oozeShieldSidewallShape,1
;   oozeShieldSidewallAngle,30
;   oozeShieldSpeedMultiplier,1
;   infillExtruder,0
;   internalInfillPattern,Rectilinear
;   externalInfillPattern,Rectilinear
;   infillPercentage,5
;   outlineOverlapPercentage,60
;   infillExtrusionWidthPercentage,100
;   minInfillLength,5
;   infillLayerInterval,1
;   internalInfillAngles,45,-45
;   overlapInternalInfillAngles,0
;   externalInfillAngles,45,-45
;   generateSupport,0
;   supportExtruder,0
;   supportInfillPercentage,30
;   supportExtraInflation,0
;   supportBaseLayers,0
;   denseSupportExtruder,0
;   denseSupportLayers,0
;   denseSupportInfillPercentage,50
;   supportLayerInterval,1
;   supportHorizontalPartOffset,0.3
;   supportUpperSeparationLayers,1
;   supportLowerSeparationLayers,1
;   supportType,0
;   supportGridSpacing,4
;   maxOverhangAngle,70
;   supportAngles,0
;   temperatureName,Extruder 1,Heated Bed
;   temperatureNumber,0,0
;   temperatureSetpointCount,1,2
;   temperatureSetpointLayers,1,1,10
;   temperatureSetpointTemperatures,210,70,60
;   temperatureStabilizeAtStartup,1,0
;   temperatureHeatedBed,0,1
;   temperatureRelayBetweenLayers,0,0
;   temperatureRelayBetweenLoops,0,0
;   fanLayers,1
;   fanSpeeds,255
;   blipFanToFullPower,0
;   adjustSpeedForCooling,1
;   minSpeedLayerTime,15
;   minCoolingSpeedSlowdown,20
;   increaseFanForCooling,0
;   minFanLayerTime,45
;   maxCoolingFanSpeed,100
;   increaseFanForBridging,0
;   bridgingFanSpeed,100
;   use5D,1
;   relativeEdistances,0
;   allowEaxisZeroing,1
;   independentExtruderAxes,0
;   includeM10123,0
;   stickySupport,1
;   applyToolheadOffsets,0
;   gcodeXoffset,0
;   gcodeYoffset,0
;   gcodeZoffset,0
;   overrideMachineDefinition,1
;   machineTypeOverride,0
;   strokeXoverride,220
;   strokeYoverride,220
;   strokeZoverride,280
;   originOffsetXoverride,0
;   originOffsetYoverride,0
;   originOffsetZoverride,0
;   homeXdirOverride,-1
;   homeYdirOverride,-1
;   homeZdirOverride,-1
;   flipXoverride,1
;   flipYoverride,-1
;   flipZoverride,1
;   toolheadOffsets,0,0|0,0|0,0|0,0|0,0|0,0
;   overrideFirmwareConfiguration,1
;   firmwareTypeOverride,RepRap (Marlin/Repetier/Sprinter)
;   GPXconfigOverride,r2
;   baudRateOverride,250000
;   overridePrinterModels,0
;   printerModelsOverride
;   startingGcode,G28 ; home all axes,G1 X0 Y20 Z0.2 F3000 ; get ready to prime,G92 E0 ; reset extrusion distance,G1 X200 E20 F600 ; prime nozzle
;   layerChangeGcode,
;   retractionGcode,
;   toolChangeGcode,
;   endingGcode,M104 S0 ; turn off extruder,M140 S0 ; turn off bed,G28 X Y ; home x and y axes,M84 ; disable motors
;   exportFileFormat,gcode
;   celebration,0
;   celebrationSong,Random Song
;   postProcessing,
;   defaultSpeed,4600
;   outlineUnderspeed,0.6
;   solidInfillUnderspeed,0.85
;   supportUnderspeed,0.8
;   rapidXYspeed,5200
;   rapidZspeed,1002
;   minBridgingArea,50
;   bridgingExtraInflation,0
;   bridgingExtrusionMultiplier,1
;   bridgingSpeedMultiplier,1
;   useFixedBridgingAngle,0
;   fixedBridgingAngle,0
;   applyBridgingToPerimeters,0
;   filamentDiameters,1.75|1.75|1.75|1.75|1.75|1.75
;   filamentPricesPerKg,46|46|46|46|46|46
;   filamentDensities,1.25|1.25|1.25|1.25|1.25|1.25
;   useMinPrintHeight,0
;   minPrintHeight,0
;   useMaxPrintHeight,0
;   maxPrintHeight,0.3
;   useDiaphragm,0
;   diaphragmLayerInterval,20
;   robustSlicing,1
;   mergeAllIntoSolid,0
;   onlyRetractWhenCrossingOutline,1
;   retractBetweenLayers,1
;   useRetractionMinTravel,0
;   retractionMinTravel,3
;   retractWhileWiping,0
;   onlyWipeOutlines,1
;   avoidCrossingOutline,0
;   maxMovementDetourFactor,3
;   toolChangeRetractionDistance,12
;   toolChangeExtraRestartDistance,-0.5
;   toolChangeRetractionSpeed,600
;   externalThinWallType,1
;   internalThinWallType,0
;   thinWallAllowedOverlapPercentage,15
;   singleExtrusionMinLength,1
;   singleExtrusionMinPrintingWidthPercentage,50
;   singleExtrusionMaxPrintingWidthPercentage,200
;   singleExtrusionEndpointExtension,0.2
;   horizontalSizeCompensation,0
G90
M82
M106 S650
M140 S70
M104 S210 T0
M109 S210 T0
G28 ; home all axes
G1 X0 Y20 Z0.2 F3000 ; get ready to prime
G92 E0 ; reset extrusion distance
G1 X200 E20 F600 ; prime nozzle
G92 E0
G1 E-2.0000 F3000
G1 Z0.040 F1002
; process Process1
; layer 1, Z = 0.040
T0
; tool H0.200 W0.480
; outer perimeter
G1 X73.595 Y53.684 F5200
G1 E0.0000 F900
G92 E0
G1 X74.033 Y53.137 E0.0252 F1380
G1 X74.535 Y52.613 E0.0512
G1 X75.083 Y52.137 E0.0773
G1 X75.672 Y51.712 E0.1034
G1 X76.274 Y51.355 E0.1286
G1 X76.929 Y51.042 E0.1546
G1 X77.610 Y50.790 E0.1807
G1 X78.286 Y50.605 E0.2059
G1 X78.991 Y50.480 E0.2316
G1 X147.880 Y50.480 E2.7061
G1 X147.879 Y169.500 E6.9815
G1 X79.359 Y169.500 E9.4428
G1 X78.393 Y169.357 E9.4779
G1 X77.449 Y169.094 E9.5130
G1 X76.545 Y168.716 E9.5482
G1 X75.695 Y168.231 E9.5834
G1 X74.911 Y167.644 E9.6186
G1 X74.205 Y166.964 E9.6538
G1 X73.589 Y166.203 E9.6890
G1 X73.071 Y165.372 E9.7241
G1 X72.660 Y164.483 E9.7593
G1 X72.362 Y163.550 E9.7945
G1 X72.181 Y162.588 E9.8297
G1 X72.120 Y161.603 E9.8651
G1 X72.120 Y137.013 E10.7484
G1 X72.347 Y136.054 E10.7838
G1 X72.697 Y135.117 E10.8197
G1 X73.160 Y134.231 E10.8556
G1 X73.729 Y133.410 E10.8915
G1 X74.396 Y132.665 E10.9274
G1 X75.150 Y132.009 E10.9633
G1 X75.979 Y131.451 E10.9993
G1 X76.848 Y131.013 E11.0342
G1 X77.789 Y130.676 E11.0701
G1 X79.628 Y130.250 E11.1379
G1 X79.651 Y129.893 E11.1508
G1 X77.428 Y129.076 E11.2358
G1 X76.830 Y128.839 E11.2590
G1 X76.239 Y128.547 E11.2826
G1 X75.694 Y128.219 E11.3055
G1 X75.158 Y127.834 E11.3292
G1 X74.657 Y127.405 E11.3529
G1 X74.208 Y126.954 E11.3757
G1 X73.784 Y126.450 E11.3994
G1 X73.402 Y125.911 E11.4231
G1 X73.078 Y125.364 E11.4460
G1 X72.789 Y124.771 E11.4696
G1 X72.553 Y124.160 E11.4932
G1 X72.371 Y123.546 E11.5162
G1 X72.236 Y122.900 E11.5399
G1 X72.158 Y122.269 E11.5627
G1 X72.130 Y121.605 E11.5866
G1 X72.130 Y96.310 E12.4952
G1 X72.311 Y95.713 E12.5177
G1 X72.535 Y95.136 E12.5399
G1 X72.818 Y94.550 E12.5632
G1 X73.129 Y94.015 E12.5855
G1 X73.498 Y93.479 E12.6088
G1 X73.909 Y92.975 E12.6322
G1 X74.336 Y92.528 E12.6544
G1 X74.820 Y92.093 E12.6778
G1 X75.311 Y91.716 E12.7000
G1 X75.856 Y91.361 E12.7234
G1 X76.429 Y91.051 E12.7468
G1 X76.993 Y90.799 E12.7690
G1 X77.589 Y90.586 E12.7917
G1 X78.199 Y90.420 E12.8144
G1 X78.817 Y90.302 E12.8370
G1 X79.527 Y90.225 E12.8627
G1 X79.527 Y89.795 E12.8781
G1 X78.805 Y89.716 E12.9042
G1 X78.173 Y89.594 E12.9274
G1 X77.549 Y89.422 E12.9506
G1 X76.941 Y89.201 E12.9738
G1 X76.338 Y88.926 E12.9976
G1 X75.786 Y88.620 E13.0203
G1 X75.234 Y88.254 E13.0441
G1 X74.714 Y87.844 E13.0679
G1 X74.250 Y87.416 E13.0906
G1 X73.800 Y86.930 E13.1143
G1 X73.392 Y86.409 E13.1381
G1 X73.042 Y85.883 E13.1608
G1 X72.720 Y85.305 E13.1846
G1 X72.446 Y84.702 E13.2084
G1 X72.230 Y84.108 E13.2311
G1 X72.060 Y83.492 E13.2540
G1 X72.060 Y58.396 E14.1555
G1 X72.093 Y57.665 E14.1818
G1 X72.188 Y56.971 E14.2070
G1 X72.349 Y56.263 E14.2330
G1 X72.574 Y55.573 E14.2591
G1 X72.850 Y54.929 E14.2843
G1 X73.194 Y54.290 E14.3104
G1 X73.595 Y53.684 E14.3364
G1 X74.033 Y53.137 F4600
G1 X74.535 Y52.613 F4600
G1 X75.083 Y52.137 F4600
G1 X75.672 Y51.712 F4600
G1 X76.274 Y51.355 F4600
G1 X76.929 Y51.042 F4600
G1 X77.581 Y50.800 F4600
; inner perimeter
G1 X77.757 Y51.247 F5200
G92 E0
G1 X78.392 Y51.074 E0.0236 F1840
G1 X79.033 Y50.960 E0.0470
G1 X147.400 Y50.960 E2.5028
G1 X147.399 Y169.020 E6.7437
G1 X79.394 Y169.020 E9.1865
G1 X78.493 Y168.886 E9.2192
G1 X77.607 Y168.639 E9.2522
G1 X76.757 Y168.285 E9.2853
G1 X75.958 Y167.829 E9.3184
G1 X75.222 Y167.278 E9.3514
G1 X74.559 Y166.639 E9.3844
G1 X73.980 Y165.924 E9.4175
G1 X73.494 Y165.144 E9.4505
G1 X73.108 Y164.309 E9.4836
G1 X72.828 Y163.432 E9.5166
G1 X72.658 Y162.528 E9.5497
G1 X72.600 Y161.588 E9.5835
G1 X72.600 Y137.070 E10.4642
G1 X72.808 Y136.194 E10.4966
G1 X73.136 Y135.313 E10.5303
G1 X73.571 Y134.480 E10.5641
G1 X74.106 Y133.708 E10.5978
G1 X74.733 Y133.007 E10.6316
G1 X75.442 Y132.391 E10.6654
G1 X76.222 Y131.866 E10.6991
G1 X77.037 Y131.455 E10.7319
G1 X77.924 Y131.137 E10.7658
G1 X80.085 Y130.637 E10.8454
G1 X80.152 Y129.566 E10.8840
G1 X77.599 Y128.627 E10.9817
G1 X77.025 Y128.400 E11.0039
G1 X76.469 Y128.125 E11.0261
G1 X75.958 Y127.817 E11.0476
G1 X75.455 Y127.456 E11.0698
G1 X74.984 Y127.053 E11.0921
G1 X74.563 Y126.629 E11.1135
G1 X74.164 Y126.156 E11.1358
G1 X73.805 Y125.650 E11.1581
G1 X73.501 Y125.136 E11.1795
G1 X73.230 Y124.579 E11.2018
G1 X73.007 Y124.005 E11.2239
G1 X72.837 Y123.429 E11.2455
G1 X72.710 Y122.822 E11.2677
G1 X72.637 Y122.229 E11.2892
G1 X72.610 Y121.595 E11.3120
G1 X72.610 Y96.381 E12.2177
G1 X72.765 Y95.869 E12.2369
G1 X72.976 Y95.328 E12.2578
G1 X73.242 Y94.775 E12.2798
G1 X73.534 Y94.273 E12.3007
G1 X73.882 Y93.768 E12.3227
G1 X74.269 Y93.293 E12.3447
G1 X74.670 Y92.872 E12.3656
G1 X75.127 Y92.462 E12.3876
G1 X75.588 Y92.109 E12.4085
G1 X76.102 Y91.774 E12.4305
G1 X76.641 Y91.482 E12.4526
G1 X77.172 Y91.245 E12.4735
G1 X77.733 Y91.044 E12.4949
G1 X78.307 Y90.888 E12.5162
G1 X78.888 Y90.778 E12.5375
G1 X80.007 Y90.656 E12.5779
G1 X80.007 Y89.364 E12.6243
G1 X78.877 Y89.241 E12.6651
G1 X78.282 Y89.126 E12.6869
G1 X77.695 Y88.965 E12.7088
G1 X77.123 Y88.757 E12.7306
G1 X76.555 Y88.497 E12.7531
G1 X76.035 Y88.209 E12.7744
G1 X75.516 Y87.865 E12.7968
G1 X75.026 Y87.479 E12.8192
G1 X74.589 Y87.076 E12.8405
G1 X74.166 Y86.618 E12.8629
G1 X73.781 Y86.128 E12.8853
G1 X73.452 Y85.633 E12.9067
G1 X73.149 Y85.088 E12.9291
G1 X72.891 Y84.520 E12.9515
G1 X72.688 Y83.962 E12.9728
G1 X72.540 Y83.427 E12.9928
G1 X72.540 Y58.407 E13.8915
G1 X72.572 Y57.708 E13.9166
G1 X72.660 Y57.056 E13.9402
G1 X72.812 Y56.391 E13.9648
G1 X73.024 Y55.742 E13.9893
G1 X73.283 Y55.137 E14.0129
G1 X73.607 Y54.536 E14.0374
G1 X73.984 Y53.967 E14.0619
G1 X74.395 Y53.454 E14.0856
G1 X74.867 Y52.961 E14.1101
G1 X75.381 Y52.513 E14.1346
G1 X75.935 Y52.114 E14.1591
G1 X76.501 Y51.778 E14.1827
G1 X77.116 Y51.484 E14.2073
G1 X77.757 Y51.247 E14.2318
G1 X77.903 Y51.705 F5200
G92 E0
G1 X78.497 Y51.543 E0.0221 F1840
G1 X79.076 Y51.440 E0.0432
G1 X146.920 Y51.440 E2.4802
G1 X146.919 Y168.540 E6.6866
G1 X79.430 Y168.540 E9.1109
G1 X78.593 Y168.416 E9.1413
G1 X77.764 Y168.185 E9.1722
G1 X76.970 Y167.853 E9.2031
G1 X76.222 Y167.427 E9.2340
G1 X75.534 Y166.912 E9.2649
G1 X74.914 Y166.314 E9.2958
G1 X74.372 Y165.645 E9.3267
G1 X73.917 Y164.916 E9.3576
G1 X73.556 Y164.134 E9.3885
G1 X73.294 Y163.314 E9.4194
G1 X73.136 Y162.469 E9.4503
G1 X73.080 Y161.573 E9.4826
G1 X73.080 Y137.126 E10.3608
G1 X73.268 Y136.333 E10.3900
G1 X73.575 Y135.509 E10.4216
G1 X73.983 Y134.729 E10.4532
G1 X74.484 Y134.006 E10.4848
G1 X75.071 Y133.350 E10.5165
G1 X75.735 Y132.772 E10.5481
G1 X76.465 Y132.281 E10.5797
G1 X77.227 Y131.897 E10.6103
G1 X78.060 Y131.599 E10.6421
G1 X80.542 Y131.024 E10.7336
G1 X80.653 Y129.239 E10.7979
G1 X77.770 Y128.179 E10.9082
G1 X77.220 Y127.961 E10.9295
G1 X76.700 Y127.704 E10.9503
G1 X76.222 Y127.416 E10.9703
G1 X75.751 Y127.078 E10.9912
G1 X75.310 Y126.701 E11.0120
G1 X74.917 Y126.305 E11.0320
G1 X74.544 Y125.862 E11.0529
G1 X74.208 Y125.388 E11.0737
G1 X73.924 Y124.908 E11.0938
G1 X73.670 Y124.387 E11.1146
G1 X73.462 Y123.850 E11.1353
G1 X73.302 Y123.311 E11.1555
G1 X73.184 Y122.743 E11.1763
G1 X73.115 Y122.190 E11.1963
G1 X73.090 Y121.585 E11.2181
G1 X73.090 Y96.453 E12.1209
G1 X73.219 Y96.026 E12.1369
G1 X73.416 Y95.519 E12.1564
G1 X73.666 Y95.000 E12.1771
G1 X73.940 Y94.530 E12.1966
G1 X74.266 Y94.056 E12.2173
G1 X74.630 Y93.611 E12.2379
G1 X75.005 Y93.217 E12.2575
G1 X75.433 Y92.832 E12.2782
G1 X75.865 Y92.501 E12.2977
G1 X76.347 Y92.187 E12.3184
G1 X76.854 Y91.912 E12.3391
G1 X77.351 Y91.691 E12.3586
G1 X77.877 Y91.503 E12.3787
G1 X78.415 Y91.356 E12.3987
G1 X78.958 Y91.253 E12.4186
G1 X80.486 Y91.087 E12.4738
G1 X80.487 Y88.934 E12.5512
G1 X78.948 Y88.766 E12.6068
G1 X78.391 Y88.659 E12.6271
G1 X77.841 Y88.507 E12.6476
G1 X77.304 Y88.312 E12.6681
G1 X76.771 Y88.069 E12.6892
G1 X76.285 Y87.799 E12.7092
G1 X75.797 Y87.475 E12.7302
G1 X75.338 Y87.113 E12.7512
G1 X74.929 Y86.736 E12.7712
G1 X74.531 Y86.307 E12.7922
G1 X74.170 Y85.846 E12.8132
G1 X73.862 Y85.383 E12.8332
G1 X73.578 Y84.872 E12.8542
G1 X73.335 Y84.339 E12.8753
G1 X73.145 Y83.816 E12.8953
G1 X73.020 Y83.362 E12.9122
G1 X73.020 Y58.417 E13.8082
G1 X73.050 Y57.752 E13.8321
G1 X73.133 Y57.142 E13.8542
G1 X73.275 Y56.519 E13.8772
G1 X73.473 Y55.911 E13.9001
G1 X73.716 Y55.346 E13.9222
G1 X74.019 Y54.783 E13.9452
G1 X74.372 Y54.251 E13.9682
G1 X74.756 Y53.770 E13.9902
G1 X75.198 Y53.309 E14.0132
G1 X75.680 Y52.890 E14.0361
G1 X76.199 Y52.516 E14.0591
G1 X76.728 Y52.202 E14.0812
G1 X77.304 Y51.927 E14.1041
G1 X77.903 Y51.705 E14.1271
; solid layer
G1 X77.186 Y88.047 F5200
G92 E0
G1 X73.603 Y84.464 E0.1820 F1955
G1 X73.513 Y84.266 E0.1898
G1 X73.328 Y83.757 E0.2093
G1 X73.234 Y83.417 E0.2220
G1 X78.234 Y88.416 E0.4759
G1 X78.435 Y88.472 E0.4834
G1 X78.977 Y88.576 E0.5033
G1 X79.084 Y88.588 E0.5071
G1 X73.212 Y82.715 E0.8054
G1 X73.212 Y82.037 E0.8298
G1 X79.846 Y88.671 E1.1668
G1 X80.608 Y88.754 E1.1944
G1 X73.212 Y81.358 E1.5701
G1 X73.212 Y80.679 E1.5945
G1 X146.727 Y154.194 E5.3290
G1 X146.727 Y153.516 E5.3534
G1 X73.212 Y80.000 E9.0880
G1 X73.212 Y79.321 E9.1124
G1 X146.727 Y152.837 E12.8470
G1 X146.727 Y152.158 E12.8714
G1 X73.212 Y78.643 E16.6059
G1 X73.212 Y77.964 E16.6303
G1 X146.727 Y151.479 E20.3649
G1 X146.727 Y150.800 E20.3893
G1 X73.212 Y77.285 E24.1239
G1 X73.212 Y76.606 E24.1482
G1 X146.727 Y150.122 E27.8828
G1 X146.727 Y149.443 E27.9072
G1 X73.212 Y75.927 E31.6418
G1 X73.212 Y75.248 E31.6662
G1 X146.727 Y148.764 E35.4007
G1 X146.727 Y148.085 E35.4251
G1 X73.212 Y74.570 E39.1597
G1 X73.212 Y73.891 E39.1841
G1 X146.727 Y147.406 E42.9187
G1 X146.727 Y146.727 E42.9430
G1 X73.212 Y73.212 E46.6776
G1 X73.212 Y72.533 E46.7020
G1 X146.727 Y146.049 E50.4366
G1 X146.727 Y145.370 E50.4610
G1 X73.212 Y71.854 E54.1955
G1 X73.212 Y71.175 E54.2199
G1 X146.727 Y144.691 E57.9545
G1 X146.727 Y144.012 E57.9789
G1 X73.212 Y70.497 E61.7135
G1 X73.212 Y69.818 E61.7379
G1 X146.727 Y143.333 E65.4724
G1 X146.727 Y142.654 E65.4968
G1 X73.212 Y69.139 E69.2314
G1 X73.212 Y68.460 E69.2558
G1 X146.727 Y141.976 E72.9904
G1 X146.727 Y141.297 E73.0147
G1 X73.212 Y67.781 E76.7493
G1 X73.212 Y67.103 E76.7737
G1 X146.727 Y140.618 E80.5083
G1 X146.727 Y139.939 E80.5327
G1 X73.212 Y66.424 E84.2673
G1 X73.212 Y65.745 E84.2916
G1 X146.727 Y139.260 E88.0262
G1 X146.727 Y138.582 E88.0506
