; G-Code generated by Simplify3D(R) Version 4.0.0
; Feb 13, 2018 at 3:31:32 PM
; Settings Summary
;   processName,Process1
;   applyToModels,ретн
;   profileName,Flying Bear 902 Update 7-2017 (modified)
;   profileVersion,2017-07-10 09:45:20
;   baseProfile,Default
;   printMaterial,PLA
;   printQuality,Medium
;   printExtruders,
;   extruderName,Extruder 1
;   extruderToolheadNumber,0
;   extruderDiameter,0.4
;   extruderAutoWidth,1
;   extruderWidth,0.48
;   extrusionMultiplier,1
;   extruderUseRetract,1
;   extruderRetractionDistance,2
;   extruderExtraRestartDistance,0
;   extruderRetractionZLift,0
;   extruderRetractionSpeed,3000
;   extruderUseCoasting,0
;   extruderCoastingDistance,0.2
;   extruderUseWipe,1
;   extruderWipeDistance,5
;   primaryExtruder,0
;   layerHeight,0.2
;   topSolidLayers,4
;   bottomSolidLayers,3
;   perimeterOutlines,2
;   printPerimetersInsideOut,0
;   startPointOption,2
;   startPointOriginX,0
;   startPointOriginY,0
;   sequentialIslands,0
;   spiralVaseMode,0
;   firstLayerHeightPercentage,20
;   firstLayerWidthPercentage,100
;   firstLayerUnderspeed,0.5
;   useRaft,0
;   raftExtruder,0
;   raftTopLayers,2
;   raftBaseLayers,2
;   raftOffset,3
;   raftSeparationDistance,0.5
;   raftTopInfill,100
;   aboveRaftSpeedMultiplier,0.3
;   useSkirt,0
;   skirtExtruder,0
;   skirtLayers,1
;   skirtOutlines,2
;   skirtOffset,4
;   usePrimePillar,0
;   primePillarExtruder,999
;   primePillarWidth,12
;   primePillarLocation,7
;   primePillarSpeedMultiplier,1
;   useOozeShield,0
;   oozeShieldExtruder,999
;   oozeShieldOffset,2
;   oozeShieldOutlines,1
;   oozeShieldSidewallShape,1
;   oozeShieldSidewallAngle,30
;   oozeShieldSpeedMultiplier,1
;   infillExtruder,0
;   internalInfillPattern,Rectilinear
;   externalInfillPattern,Rectilinear
;   infillPercentage,15
;   outlineOverlapPercentage,60
;   infillExtrusionWidthPercentage,100
;   minInfillLength,5
;   infillLayerInterval,1
;   internalInfillAngles,45,-45
;   overlapInternalInfillAngles,0
;   externalInfillAngles,45,-45
;   generateSupport,0
;   supportExtruder,0
;   supportInfillPercentage,30
;   supportExtraInflation,0
;   supportBaseLayers,0
;   denseSupportExtruder,0
;   denseSupportLayers,0
;   denseSupportInfillPercentage,50
;   supportLayerInterval,1
;   supportHorizontalPartOffset,0.3
;   supportUpperSeparationLayers,1
;   supportLowerSeparationLayers,1
;   supportType,0
;   supportGridSpacing,4
;   maxOverhangAngle,70
;   supportAngles,0
;   temperatureName,Extruder 1,Heated Bed
;   temperatureNumber,0,0
;   temperatureSetpointCount,1,2
;   temperatureSetpointLayers,1,1,10
;   temperatureSetpointTemperatures,210,70,60
;   temperatureStabilizeAtStartup,1,0
;   temperatureHeatedBed,0,1
;   temperatureRelayBetweenLayers,0,0
;   temperatureRelayBetweenLoops,0,0
;   fanLayers,1
;   fanSpeeds,255
;   blipFanToFullPower,0
;   adjustSpeedForCooling,1
;   minSpeedLayerTime,15
;   minCoolingSpeedSlowdown,20
;   increaseFanForCooling,0
;   minFanLayerTime,45
;   maxCoolingFanSpeed,100
;   increaseFanForBridging,0
;   bridgingFanSpeed,100
;   use5D,1
;   relativeEdistances,0
;   allowEaxisZeroing,1
;   independentExtruderAxes,0
;   includeM10123,0
;   stickySupport,1
;   applyToolheadOffsets,0
;   gcodeXoffset,0
;   gcodeYoffset,0
;   gcodeZoffset,0
;   overrideMachineDefinition,1
;   machineTypeOverride,0
;   strokeXoverride,220
;   strokeYoverride,220
;   strokeZoverride,280
;   originOffsetXoverride,0
;   originOffsetYoverride,0
;   originOffsetZoverride,0
;   homeXdirOverride,-1
;   homeYdirOverride,-1
;   homeZdirOverride,-1
;   flipXoverride,1
;   flipYoverride,-1
;   flipZoverride,1
;   toolheadOffsets,0,0|0,0|0,0|0,0|0,0|0,0
;   overrideFirmwareConfiguration,1
;   firmwareTypeOverride,RepRap (Marlin/Repetier/Sprinter)
;   GPXconfigOverride,r2
;   baudRateOverride,250000
;   overridePrinterModels,0
;   printerModelsOverride
;   startingGcode,G28 ; home all axes,G1 X0 Y20 Z0.2 F3000 ; get ready to prime,G92 E0 ; reset extrusion distance,G1 X200 E20 F600 ; prime nozzle
;   layerChangeGcode,
;   retractionGcode,
;   toolChangeGcode,
;   endingGcode,M104 S0 ; turn off extruder,M140 S0 ; turn off bed,G28 X Y ; home x and y axes,M84 ; disable motors
;   exportFileFormat,gcode
;   celebration,0
;   celebrationSong,Random Song
;   postProcessing,
;   defaultSpeed,4200
;   outlineUnderspeed,0.5
;   solidInfillUnderspeed,0.8
;   supportUnderspeed,0.8
;   rapidXYspeed,4998
;   rapidZspeed,1002
;   minBridgingArea,50
;   bridgingExtraInflation,0
;   bridgingExtrusionMultiplier,1
;   bridgingSpeedMultiplier,1
;   useFixedBridgingAngle,0
;   fixedBridgingAngle,0
;   applyBridgingToPerimeters,0
;   filamentDiameters,1.75|1.75|1.75|1.75|1.75|1.75
;   filamentPricesPerKg,46|46|46|46|46|46
;   filamentDensities,1.25|1.25|1.25|1.25|1.25|1.25
;   useMinPrintHeight,0
;   minPrintHeight,0
;   useMaxPrintHeight,0
;   maxPrintHeight,0.3
;   useDiaphragm,0
;   diaphragmLayerInterval,20
;   robustSlicing,1
;   mergeAllIntoSolid,0
;   onlyRetractWhenCrossingOutline,1
;   retractBetweenLayers,1
;   useRetractionMinTravel,0
;   retractionMinTravel,3
;   retractWhileWiping,0
;   onlyWipeOutlines,1
;   avoidCrossingOutline,0
;   maxMovementDetourFactor,3
;   toolChangeRetractionDistance,12
;   toolChangeExtraRestartDistance,-0.5
;   toolChangeRetractionSpeed,600
;   externalThinWallType,1
;   internalThinWallType,2
;   thinWallAllowedOverlapPercentage,15
;   singleExtrusionMinLength,1
;   singleExtrusionMinPrintingWidthPercentage,50
;   singleExtrusionMaxPrintingWidthPercentage,200
;   singleExtrusionEndpointExtension,0.2
;   horizontalSizeCompensation,0
G90
M82
M106 S650
M140 S70
M104 S210 T0
M109 S210 T0
G28 ; home all axes
G1 X0 Y20 Z0.2 F3000 ; get ready to prime
G92 E0 ; reset extrusion distance
G1 X200 E20 F600 ; prime nozzle
G92 E0
G1 E-2.0000 F3000
G1 Z0.040 F1002
; process Process1
; layer 1, Z = 0.040
T0
; tool H0.200 W0.480
; outer perimeter
G1 X94.152 Y93.562 F4998
G1 E0.0000 F900
G92 E0
G1 X95.394 Y92.449 E0.0666 F1050
G1 X96.714 Y91.430 E0.1331
G1 X98.105 Y90.510 E0.1997
G1 X99.560 Y89.693 E0.2663
G1 X101.070 Y88.985 E0.3328
G1 X102.628 Y88.390 E0.3994
G1 X104.225 Y87.909 E0.4660
G1 X105.853 Y87.547 E0.5325
G1 X107.503 Y87.304 E0.5991
G1 X109.166 Y87.182 E0.6657
G1 X110.834 Y87.182 E0.7322
G1 X112.497 Y87.304 E0.7988
G1 X114.147 Y87.547 E0.8654
G1 X115.775 Y87.909 E0.9319
G1 X117.373 Y88.390 E0.9985
G1 X118.930 Y88.985 E1.0651
G1 X120.440 Y89.693 E1.1316
G1 X121.895 Y90.510 E1.1982
G1 X123.286 Y91.430 E1.2648
G1 X124.606 Y92.449 E1.3313
G1 X125.848 Y93.562 E1.3979
G1 X127.006 Y94.763 E1.4645
G1 X128.072 Y96.045 E1.5310
G1 X129.043 Y97.401 E1.5976
G1 X129.912 Y98.825 E1.6642
G1 X130.674 Y100.308 E1.7307
G1 X131.327 Y101.843 E1.7973
G1 X131.865 Y103.422 E1.8639
G1 X132.287 Y105.035 E1.9304
G1 X132.590 Y106.675 E1.9970
G1 X132.772 Y108.333 E2.0636
G1 X132.833 Y110.000 E2.1301
G1 X132.772 Y111.667 E2.1967
G1 X132.590 Y113.325 E2.2633
G1 X132.287 Y114.965 E2.3298
G1 X131.865 Y116.578 E2.3964
G1 X131.327 Y118.157 E2.4630
G1 X130.674 Y119.692 E2.5295
G1 X129.912 Y121.175 E2.5961
G1 X129.043 Y122.599 E2.6627
G1 X128.072 Y123.955 E2.7292
G1 X127.006 Y125.237 E2.7958
G1 X125.848 Y126.438 E2.8624
G1 X124.606 Y127.551 E2.9289
G1 X123.286 Y128.570 E2.9955
G1 X121.895 Y129.490 E3.0621
G1 X120.440 Y130.307 E3.1286
G1 X118.930 Y131.015 E3.1952
G1 X117.372 Y131.610 E3.2618
G1 X115.775 Y132.091 E3.3283
G1 X114.147 Y132.453 E3.3949
G1 X112.497 Y132.696 E3.4615
G1 X110.834 Y132.818 E3.5280
G1 X109.166 Y132.818 E3.5946
G1 X107.503 Y132.696 E3.6612
G1 X105.853 Y132.453 E3.7277
G1 X104.225 Y132.091 E3.7943
G1 X102.628 Y131.610 E3.8609
G1 X101.070 Y131.015 E3.9274
G1 X99.560 Y130.307 E3.9940
G1 X98.105 Y129.490 E4.0606
G1 X96.714 Y128.570 E4.1272
G1 X95.394 Y127.551 E4.1937
G1 X94.152 Y126.438 E4.2603
G1 X92.994 Y125.237 E4.3269
G1 X91.927 Y123.955 E4.3934
G1 X90.957 Y122.599 E4.4600
G1 X90.088 Y121.175 E4.5266
G1 X89.326 Y119.692 E4.5931
G1 X88.673 Y118.157 E4.6597
G1 X88.135 Y116.578 E4.7263
G1 X87.713 Y114.965 E4.7928
G1 X87.410 Y113.325 E4.8594
G1 X87.228 Y111.667 E4.9260
G1 X87.167 Y110.000 E4.9925
G1 X87.228 Y108.333 E5.0591
G1 X87.410 Y106.675 E5.1257
G1 X87.713 Y105.035 E5.1922
G1 X88.135 Y103.422 E5.2588
G1 X88.673 Y101.843 E5.3254
G1 X89.326 Y100.308 E5.3919
G1 X90.088 Y98.825 E5.4585
G1 X90.957 Y97.401 E5.5251
G1 X91.928 Y96.045 E5.5916
G1 X92.994 Y94.763 E5.6582
G1 X94.152 Y93.562 E5.7248
G1 X95.394 Y92.449 F4200
G1 X96.714 Y91.430 F4200
G1 X98.102 Y90.512 F4200
; inner perimeter
G1 X98.355 Y90.920 F4998
G92 E0
G1 X99.779 Y90.121 E0.0652 F1575
G1 X101.258 Y89.428 E0.1303
G1 X102.783 Y88.844 E0.1955
G1 X104.346 Y88.374 E0.2607
G1 X105.940 Y88.019 E0.3258
G1 X107.555 Y87.781 E0.3910
G1 X109.184 Y87.662 E0.4562
G1 X110.816 Y87.662 E0.5213
G1 X112.445 Y87.781 E0.5865
G1 X114.060 Y88.019 E0.6517
G1 X115.654 Y88.374 E0.7168
G1 X117.217 Y88.844 E0.7820
G1 X118.742 Y89.428 E0.8472
G1 X120.221 Y90.121 E0.9123
G1 X121.645 Y90.920 E0.9775
G1 X123.006 Y91.820 E1.0427
G1 X124.299 Y92.818 E1.1078
G1 X125.515 Y93.908 E1.1730
G1 X126.648 Y95.083 E1.2382
G1 X127.692 Y96.338 E1.3033
G1 X128.642 Y97.666 E1.3685
G1 X129.493 Y99.060 E1.4337
G1 X130.239 Y100.512 E1.4988
G1 X130.878 Y102.015 E1.5640
G1 X131.405 Y103.560 E1.6292
G1 X131.818 Y105.140 E1.6943
G1 X132.115 Y106.745 E1.7595
G1 X132.293 Y108.368 E1.8247
G1 X132.353 Y110.000 E1.8898
G1 X132.293 Y111.632 E1.9550
G1 X132.115 Y113.255 E2.0202
G1 X131.818 Y114.860 E2.0853
G1 X131.405 Y116.440 E2.1505
G1 X130.878 Y117.985 E2.2157
G1 X130.239 Y119.488 E2.2808
G1 X129.493 Y120.940 E2.3460
G1 X128.642 Y122.334 E2.4112
G1 X127.692 Y123.662 E2.4763
G1 X126.648 Y124.917 E2.5415
G1 X125.515 Y126.092 E2.6067
G1 X124.299 Y127.182 E2.6718
G1 X123.006 Y128.179 E2.7370
G1 X121.645 Y129.080 E2.8022
G1 X120.221 Y129.879 E2.8673
G1 X118.742 Y130.572 E2.9325
G1 X117.217 Y131.156 E2.9977
G1 X115.654 Y131.626 E3.0628
G1 X114.060 Y131.981 E3.1280
G1 X112.445 Y132.219 E3.1932
G1 X110.816 Y132.338 E3.2583
G1 X109.184 Y132.338 E3.3235
G1 X107.555 Y132.219 E3.3887
G1 X105.940 Y131.981 E3.4538
G1 X104.346 Y131.626 E3.5190
G1 X102.783 Y131.156 E3.5842
G1 X101.258 Y130.572 E3.6493
G1 X99.779 Y129.879 E3.7145
G1 X98.355 Y129.080 E3.7797
G1 X96.994 Y128.179 E3.8448
G1 X95.701 Y127.182 E3.9100
G1 X94.485 Y126.092 E3.9752
G1 X93.352 Y124.917 E4.0403
G1 X92.308 Y123.661 E4.1055
G1 X91.358 Y122.334 E4.1707
G1 X90.507 Y120.940 E4.2358
G1 X89.761 Y119.488 E4.3010
G1 X89.122 Y117.985 E4.3662
G1 X88.595 Y116.440 E4.4313
G1 X88.182 Y114.860 E4.4965
G1 X87.885 Y113.255 E4.5617
G1 X87.707 Y111.632 E4.6268
G1 X87.647 Y110.000 E4.6920
G1 X87.707 Y108.368 E4.7572
G1 X87.885 Y106.745 E4.8223
G1 X88.182 Y105.140 E4.8875
G1 X88.595 Y103.560 E4.9527
G1 X89.122 Y102.015 E5.0178
G1 X89.761 Y100.512 E5.0830
G1 X90.507 Y99.060 E5.1482
G1 X91.358 Y97.666 E5.2133
G1 X92.308 Y96.338 E5.2785
G1 X93.352 Y95.083 E5.3437
G1 X94.485 Y93.908 E5.4088
G1 X95.701 Y92.818 E5.4740
G1 X96.994 Y91.820 E5.5392
G1 X98.355 Y90.920 E5.6043
; outer perimeter
G1 X101.462 Y95.601 F4998
G92 E0
G1 X99.778 Y96.743 E0.0812 F1050
G1 X98.245 Y98.081 E0.1624
G1 X96.876 Y99.607 E0.2442
G1 X95.717 Y101.270 E0.3251
G1 X94.760 Y103.074 E0.4066
G1 X94.032 Y104.974 E0.4878
G1 X93.541 Y106.948 E0.5691
G1 X93.291 Y108.975 E0.6506
G1 X93.290 Y111.010 E0.7318
G1 X93.537 Y113.037 E0.8133
G1 X94.028 Y115.012 E0.8945
G1 X94.757 Y116.919 E0.9760
G1 X95.709 Y118.717 E1.0572
G1 X96.872 Y120.387 E1.1384
G1 X98.234 Y121.908 E1.2199
G1 X99.766 Y123.247 E1.3011
G1 X101.455 Y124.395 E1.3826
G1 X103.266 Y125.326 E1.4639
G1 X103.462 Y125.395 E1.4722
G1 X103.663 Y125.429 E1.4803
G1 X103.865 Y125.430 E1.4884
G1 X104.066 Y125.398 E1.4965
G1 X104.258 Y125.334 E1.5046
G1 X104.437 Y125.239 E1.5127
G1 X104.599 Y125.117 E1.5208
G1 X104.738 Y124.969 E1.5288
G1 X104.851 Y124.801 E1.5369
G1 X104.932 Y124.626 E1.5446
G1 X105.281 Y123.666 E1.5854
G1 X105.333 Y123.476 E1.5933
G1 X105.354 Y123.270 E1.6015
G1 X105.339 Y123.064 E1.6098
G1 X105.291 Y122.863 E1.6180
G1 X105.210 Y122.672 E1.6263
G1 X105.099 Y122.498 E1.6346
G1 X104.960 Y122.345 E1.6428
G1 X104.797 Y122.215 E1.6511
G1 X103.030 Y121.280 E1.7309
G1 X101.571 Y120.235 E1.8025
G1 X100.267 Y119.004 E1.8741
G1 X99.136 Y117.602 E1.9460
G1 X98.210 Y116.066 E2.0176
G1 X97.496 Y114.413 E2.0895
G1 X97.015 Y112.684 E2.1611
G1 X96.772 Y110.907 E2.2327
G1 X96.771 Y109.106 E2.3045
G1 X97.013 Y107.329 E2.3761
G1 X97.494 Y105.594 E2.4480
G1 X98.204 Y103.946 E2.5196
G1 X99.133 Y102.403 E2.5915
G1 X100.258 Y101.006 E2.6631
G1 X101.561 Y99.773 E2.7347
G1 X103.025 Y98.724 E2.8066
G1 X104.797 Y97.784 E2.8866
G1 X104.960 Y97.655 E2.8949
G1 X105.099 Y97.502 E2.9032
G1 X105.210 Y97.328 E2.9114
G1 X105.291 Y97.137 E2.9197
G1 X105.339 Y96.936 E2.9279
G1 X105.354 Y96.730 E2.9362
G1 X105.333 Y96.524 E2.9444
G1 X105.281 Y96.334 E2.9523
G1 X104.932 Y95.374 E2.9931
G1 X104.851 Y95.199 E3.0008
G1 X104.738 Y95.031 E3.0089
G1 X104.599 Y94.883 E3.0170
G1 X104.437 Y94.761 E3.0251
G1 X104.258 Y94.666 E3.0332
G1 X104.066 Y94.602 E3.0412
G1 X103.865 Y94.570 E3.0493
G1 X103.663 Y94.571 E3.0574
G1 X103.463 Y94.605 E3.0655
G1 X103.274 Y94.670 E3.0735
G1 X101.462 Y95.601 E3.1548
G1 X99.778 Y96.743 F4200
G1 X98.245 Y98.081 F4200
G1 X97.624 Y98.774 F4200
; inner perimeter
G1 X97.907 Y97.739 F4998
G92 E0
G1 X96.500 Y99.308 E0.0841 F1575
G1 X95.306 Y101.019 E0.1674
G1 X94.322 Y102.875 E0.2512
G1 X93.573 Y104.830 E0.3348
G1 X93.068 Y106.861 E0.4183
G1 X92.811 Y108.946 E0.5022
G1 X92.810 Y111.039 E0.5857
G1 X93.065 Y113.124 E0.6695
G1 X93.569 Y115.156 E0.7531
G1 X94.319 Y117.118 E0.8369
G1 X95.298 Y118.968 E0.9205
G1 X96.495 Y120.685 E1.0040
G1 X97.896 Y122.250 E1.0879
G1 X99.472 Y123.628 E1.1714
G1 X101.209 Y124.809 E1.2553
G1 X103.076 Y125.768 E1.3390
G1 X103.342 Y125.861 E1.3503
G1 X103.621 Y125.909 E1.3616
G1 X103.903 Y125.910 E1.3728
G1 X104.180 Y125.866 E1.3840
G1 X104.447 Y125.777 E1.3953
G1 X104.696 Y125.645 E1.4065
G1 X104.920 Y125.475 E1.4177
G1 X105.114 Y125.271 E1.4289
G1 X105.271 Y125.038 E1.4402
G1 X105.376 Y124.809 E1.4502
G1 X105.739 Y123.811 E1.4926
G1 X105.807 Y123.563 E1.5029
G1 X105.835 Y123.278 E1.5143
G1 X105.816 Y122.991 E1.5258
G1 X105.749 Y122.712 E1.5372
G1 X105.636 Y122.448 E1.5487
G1 X105.482 Y122.206 E1.5601
G1 X105.289 Y121.993 E1.5716
G1 X105.060 Y121.812 E1.5833
G1 X103.283 Y120.871 E1.6635
G1 X101.877 Y119.864 E1.7325
G1 X100.620 Y118.677 E1.8015
G1 X99.531 Y117.326 E1.8708
G1 X98.638 Y115.846 E1.9398
G1 X97.950 Y114.252 E2.0091
G1 X97.487 Y112.587 E2.0781
G1 X97.252 Y110.874 E2.1471
G1 X97.251 Y109.139 E2.2163
G1 X97.484 Y107.426 E2.2853
G1 X97.948 Y105.753 E2.3546
G1 X98.632 Y104.166 E2.4236
G1 X99.527 Y102.679 E2.4929
G1 X100.611 Y101.332 E2.5619
G1 X101.867 Y100.144 E2.6309
G1 X103.278 Y99.133 E2.7002
G1 X105.060 Y98.188 E2.7806
G1 X105.289 Y98.007 E2.7923
G1 X105.482 Y97.794 E2.8038
G1 X105.636 Y97.552 E2.8152
G1 X105.749 Y97.288 E2.8267
G1 X105.816 Y97.009 E2.8381
G1 X105.835 Y96.722 E2.8496
G1 X105.807 Y96.437 E2.8611
G1 X105.739 Y96.189 E2.8713
G1 X105.376 Y95.191 E2.9137
G1 X105.271 Y94.962 E2.9237
G1 X105.114 Y94.729 E2.9350
G1 X104.920 Y94.525 E2.9462
G1 X104.696 Y94.355 E2.9574
G1 X104.447 Y94.223 E2.9687
G1 X104.180 Y94.134 E2.9799
G1 X103.903 Y94.090 E2.9911
G1 X103.621 Y94.091 E3.0023
G1 X103.344 Y94.138 E3.0136
G1 X103.085 Y94.227 E3.0245
G1 X101.216 Y95.187 E3.1084
G1 X99.484 Y96.362 E3.1919
G1 X97.907 Y97.739 E3.2754
G92 E0
G1 E-2.0000 F3000
; outer perimeter
G1 X114.647 Y96.731 F4998
G1 E0.0000 F3000
G92 E0
G1 X114.661 Y96.937 E0.0083 F1050
G1 X114.709 Y97.138 E0.0165
G1 X114.790 Y97.329 E0.0248
G1 X114.902 Y97.503 E0.0330
G1 X115.041 Y97.656 E0.0413
G1 X115.204 Y97.785 E0.0496
G1 X116.975 Y98.724 E0.1296
G1 X118.434 Y99.769 E0.2012
G1 X119.742 Y101.006 E0.2731
G1 X120.867 Y102.403 E0.3447
G1 X121.796 Y103.946 E0.4165
G1 X122.506 Y105.594 E0.4882
G1 X122.986 Y107.322 E0.5598
G1 X123.229 Y109.106 E0.6316
G1 X123.229 Y110.900 E0.7032
G1 X122.985 Y112.684 E0.7751
G1 X122.504 Y114.413 E0.8467
G1 X121.794 Y116.060 E0.9183
G1 X120.864 Y117.602 E0.9902
