; G-Code generated by Simplify3D(R) Version 4.0.0
; Nov 22, 2019 at 10:45:22 PM
; Settings Summary
;   processName,Process1
;   applyToModels,Part3
;   profileName,Default(2) (modified)
;   profileVersion,2019-07-27 15:21:07
;   baseProfile,
;   printMaterial,PLA
;   printQuality,Medium
;   printExtruders,
;   extruderName,Primary Extruder
;   extruderToolheadNumber,0
;   extruderDiameter,0.4
;   extruderAutoWidth,1
;   extruderWidth,0.48
;   extrusionMultiplier,0.9
;   extruderUseRetract,1
;   extruderRetractionDistance,1
;   extruderExtraRestartDistance,0
;   extruderRetractionZLift,0
;   extruderRetractionSpeed,1800
;   extruderUseCoasting,0
;   extruderCoastingDistance,0.2
;   extruderUseWipe,0
;   extruderWipeDistance,5
;   primaryExtruder,0
;   layerHeight,0.2
;   topSolidLayers,3
;   bottomSolidLayers,2
;   perimeterOutlines,2
;   printPerimetersInsideOut,1
;   startPointOption,2
;   startPointOriginX,0
;   startPointOriginY,0
;   sequentialIslands,0
;   spiralVaseMode,0
;   firstLayerHeightPercentage,90
;   firstLayerWidthPercentage,100
;   firstLayerUnderspeed,0.5
;   useRaft,0
;   raftExtruder,0
;   raftTopLayers,3
;   raftBaseLayers,2
;   raftOffset,3
;   raftSeparationDistance,0.14
;   raftTopInfill,100
;   aboveRaftSpeedMultiplier,0.3
;   useSkirt,0
;   skirtExtruder,0
;   skirtLayers,1
;   skirtOutlines,2
;   skirtOffset,4
;   usePrimePillar,0
;   primePillarExtruder,999
;   primePillarWidth,12
;   primePillarLocation,7
;   primePillarSpeedMultiplier,1
;   useOozeShield,0
;   oozeShieldExtruder,999
;   oozeShieldOffset,2
;   oozeShieldOutlines,1
;   oozeShieldSidewallShape,1
;   oozeShieldSidewallAngle,30
;   oozeShieldSpeedMultiplier,1
;   infillExtruder,0
;   internalInfillPattern,Rectilinear
;   externalInfillPattern,Rectilinear
;   infillPercentage,50
;   outlineOverlapPercentage,15
;   infillExtrusionWidthPercentage,100
;   minInfillLength,5
;   infillLayerInterval,1
;   internalInfillAngles,45,-45
;   overlapInternalInfillAngles,0
;   externalInfillAngles,45,-45
;   generateSupport,1
;   supportExtruder,0
;   supportInfillPercentage,30
;   supportExtraInflation,0
;   supportBaseLayers,0
;   denseSupportExtruder,0
;   denseSupportLayers,0
;   denseSupportInfillPercentage,70
;   supportLayerInterval,1
;   supportHorizontalPartOffset,0.4
;   supportUpperSeparationLayers,1
;   supportLowerSeparationLayers,1
;   supportType,0
;   supportGridSpacing,4
;   maxOverhangAngle,45
;   supportAngles,0
;   temperatureName,Primary Extruder,Hot Bed
;   temperatureNumber,0,1
;   temperatureSetpointCount,1,1
;   temperatureSetpointLayers,1,1
;   temperatureSetpointTemperatures,210,60
;   temperatureStabilizeAtStartup,1,0
;   temperatureHeatedBed,0,1
;   temperatureRelayBetweenLayers,0,0
;   temperatureRelayBetweenLoops,0,0
;   fanLayers,1,2
;   fanSpeeds,0,100
;   blipFanToFullPower,0
;   adjustSpeedForCooling,1
;   minSpeedLayerTime,15
;   minCoolingSpeedSlowdown,20
;   increaseFanForCooling,0
;   minFanLayerTime,45
;   maxCoolingFanSpeed,100
;   increaseFanForBridging,0
;   bridgingFanSpeed,100
;   use5D,1
;   relativeEdistances,0
;   allowEaxisZeroing,1
;   independentExtruderAxes,0
;   includeM10123,0
;   stickySupport,1
;   applyToolheadOffsets,0
;   gcodeXoffset,-9
;   gcodeYoffset,-4
;   gcodeZoffset,0
;   overrideMachineDefinition,0
;   machineTypeOverride,0
;   strokeXoverride,200
;   strokeYoverride,200
;   strokeZoverride,200
;   originOffsetXoverride,0
;   originOffsetYoverride,0
;   originOffsetZoverride,0
;   homeXdirOverride,-1
;   homeYdirOverride,-1
;   homeZdirOverride,-1
;   flipXoverride,1
;   flipYoverride,-1
;   flipZoverride,1
;   toolheadOffsets,0,0|0,0|0,0|0,0|0,0|0,0
;   overrideFirmwareConfiguration,0
;   firmwareTypeOverride,RepRap (Marlin/Repetier/Sprinter)
;   GPXconfigOverride,r2
;   baudRateOverride,115200
;   overridePrinterModels,0
;   printerModelsOverride
;   startingGcode,G28 ; home all axes,G1 X2 Y15 Z0.2 F3000 ; get ready to prime,G92 E0 ; reset extrusion distance,G1 Y150 E20 F600 ; prime nozzle
;   layerChangeGcode,
;   retractionGcode,
;   toolChangeGcode,
;   endingGcode,M104 S0 ; turn off extruder,M140 S0 ; turn off bed,G28 X Y ; home X & Y,M84 ; disable motors,M107; Fan off
;   exportFileFormat,gcode
;   celebration,0
;   celebrationSong,Random Song
;   postProcessing,
;   defaultSpeed,2000
;   outlineUnderspeed,0.5
;   solidInfillUnderspeed,0.8
;   supportUnderspeed,0.8
;   rapidXYspeed,4800
;   rapidZspeed,1000
;   minBridgingArea,50
;   bridgingExtraInflation,0
;   bridgingExtrusionMultiplier,1
;   bridgingSpeedMultiplier,1
;   useFixedBridgingAngle,0
;   fixedBridgingAngle,0
;   applyBridgingToPerimeters,0
;   filamentDiameters,1.75|1.75|1.75|1.75|1.75|1.75
;   filamentPricesPerKg,46|46|46|46|46|46
;   filamentDensities,1.25|1.25|1.25|1.25|1.25|1.25
;   useMinPrintHeight,0
;   minPrintHeight,46.5
;   useMaxPrintHeight,0
;   maxPrintHeight,46.3
;   useDiaphragm,0
;   diaphragmLayerInterval,20
;   robustSlicing,1
;   mergeAllIntoSolid,0
;   onlyRetractWhenCrossingOutline,1
;   retractBetweenLayers,1
;   useRetractionMinTravel,0
;   retractionMinTravel,3
;   retractWhileWiping,0
;   onlyWipeOutlines,1
;   avoidCrossingOutline,0
;   maxMovementDetourFactor,3
;   toolChangeRetractionDistance,12
;   toolChangeExtraRestartDistance,-0.5
;   toolChangeRetractionSpeed,600
;   externalThinWallType,1
;   internalThinWallType,1
;   thinWallAllowedOverlapPercentage,10
;   singleExtrusionMinLength,1
;   singleExtrusionMinPrintingWidthPercentage,50
;   singleExtrusionMaxPrintingWidthPercentage,200
;   singleExtrusionEndpointExtension,0.2
;   horizontalSizeCompensation,0
G90
M82
M106 S0
M140 S60
M104 S210 T0
M109 S210 T0
G28 ; home all axes
G1 X2 Y15 Z0.2 F3000 ; get ready to prime
G92 E0 ; reset extrusion distance
G1 Y150 E20 F600 ; prime nozzle
G92 E0
G1 E-1.0000 F1800
G1 Z0.180 F1000
; process Process1
; layer 1, Z = 0.180
T0
; tool H0.200 W0.480
; inner perimeter
G1 X97.334 Y82.334 F4800
G1 E0.0000 F540
G92 E0
G1 X97.528 Y82.319 E0.0070 F750
G1 X127.472 Y82.319 E1.0826
G1 X127.666 Y82.335 E1.0896
G1 X127.681 Y82.528 E1.0965
G1 X127.681 Y142.472 E3.2498
G1 X127.665 Y142.665 E3.2567
G1 X127.472 Y142.681 E3.2637
G1 X97.528 Y142.681 E4.3393
G1 X97.335 Y142.666 E4.3463
G1 X97.319 Y142.472 E4.3533
G1 X97.319 Y82.528 E6.5065
G1 X97.334 Y82.334 E6.5135
; outer perimeter
G1 X97.033 Y82.033 F4800
G92 E0
G1 X97.112 Y81.966 E0.0037 F500
G1 X97.200 Y81.912 E0.0074
G1 X97.296 Y81.872 E0.0112
G1 X97.397 Y81.848 E0.0149
G1 X97.509 Y81.839 E0.0189
G1 X127.491 Y81.839 E1.0959
G1 X127.603 Y81.848 E1.0999
G1 X127.704 Y81.872 E1.1037
G1 X127.800 Y81.912 E1.1074
G1 X127.888 Y81.966 E1.1111
G1 X127.967 Y82.033 E1.1148
G1 X128.034 Y82.112 E1.1185
G1 X128.088 Y82.200 E1.1223
G1 X128.128 Y82.296 E1.1260
G1 X128.152 Y82.397 E1.1297
G1 X128.161 Y82.509 E1.1338
G1 X128.161 Y142.491 E3.2883
G1 X128.152 Y142.603 E3.2924
G1 X128.128 Y142.704 E3.2961
G1 X128.088 Y142.800 E3.2998
G1 X128.034 Y142.888 E3.3036
G1 X127.967 Y142.967 E3.3073
G1 X127.888 Y143.034 E3.3110
G1 X127.800 Y143.088 E3.3147
G1 X127.704 Y143.128 E3.3184
G1 X127.603 Y143.152 E3.3222
G1 X127.491 Y143.161 E3.3262
G1 X97.509 Y143.161 E4.4032
G1 X97.397 Y143.152 E4.4072
G1 X97.296 Y143.128 E4.4110
G1 X97.200 Y143.088 E4.4147
G1 X97.112 Y143.034 E4.4184
G1 X97.033 Y142.967 E4.4221
G1 X96.966 Y142.888 E4.4258
G1 X96.912 Y142.800 E4.4295
G1 X96.872 Y142.704 E4.4333
G1 X96.848 Y142.603 E4.4370
G1 X96.839 Y142.491 E4.4410
G1 X96.839 Y82.509 E6.5956
G1 X96.848 Y82.397 E6.5997
G1 X96.872 Y82.296 E6.6034
G1 X96.912 Y82.200 E6.6071
G1 X96.966 Y82.112 E6.6108
G1 X97.033 Y82.033 E6.6146
; solid layer
G1 X126.851 Y82.727 F4800
G92 E0
G1 X127.273 Y83.149 E0.0214 F800
G1 X127.273 Y83.828 E0.0458
G1 X126.172 Y82.727 E0.1017
G1 X125.493 Y82.727 E0.1261
G1 X127.273 Y84.507 E0.2165
G1 X127.273 Y85.186 E0.2409
G1 X124.814 Y82.727 E0.3658
G1 X124.136 Y82.727 E0.3902
G1 X127.273 Y85.864 E0.5495
G1 X127.273 Y86.543 E0.5739
G1 X123.457 Y82.727 E0.7678
G1 X122.778 Y82.727 E0.7921
G1 X127.273 Y87.222 E1.0205
G1 X127.273 Y87.901 E1.0449
G1 X122.099 Y82.727 E1.3077
G1 X121.420 Y82.727 E1.3321
G1 X127.273 Y88.580 E1.6294
G1 X127.273 Y89.259 E1.6537
G1 X120.741 Y82.727 E1.9855
G1 X120.063 Y82.727 E2.0099
G1 X127.273 Y89.937 E2.3762
G1 X127.273 Y90.616 E2.4006
G1 X119.384 Y82.727 E2.8013
G1 X118.705 Y82.727 E2.8257
G1 X127.273 Y91.295 E3.2609
G1 X127.273 Y91.974 E3.2853
G1 X118.026 Y82.727 E3.7550
G1 X117.347 Y82.727 E3.7794
G1 X127.273 Y92.653 E4.2836
G1 X127.273 Y93.332 E4.3080
G1 X116.668 Y82.727 E4.8467
G1 X115.990 Y82.727 E4.8711
G1 X127.273 Y94.010 E5.4443
G1 X127.273 Y94.689 E5.4687
G1 X115.311 Y82.727 E6.0763
G1 X114.632 Y82.727 E6.1007
G1 X127.273 Y95.368 E6.7428
G1 X127.273 Y96.047 E6.7672
G1 X113.953 Y82.727 E7.4438
G1 X113.274 Y82.727 E7.4682
G1 X127.273 Y96.726 E8.1793
G1 X127.273 Y97.404 E8.2037
G1 X112.596 Y82.727 E8.9493
G1 X111.917 Y82.727 E8.9737
G1 X127.273 Y98.083 E9.7538
G1 X127.273 Y98.762 E9.7782
G1 X111.238 Y82.727 E10.5927
G1 X110.559 Y82.727 E10.6171
G1 X127.273 Y99.441 E11.4662
G1 X127.273 Y100.120 E11.4905
G1 X109.880 Y82.727 E12.3741
G1 X109.201 Y82.727 E12.3985
G1 X127.273 Y100.799 E13.3165
G1 X127.273 Y101.477 E13.3409
G1 X108.523 Y82.727 E14.2934
G1 X107.844 Y82.727 E14.3177
G1 X127.273 Y102.156 E15.3047
G1 X127.273 Y102.835 E15.3291
G1 X107.165 Y82.727 E16.3506
G1 X106.486 Y82.727 E16.3750
G1 X127.273 Y103.514 E17.4309
G1 X127.273 Y104.193 E17.4553
G1 X105.807 Y82.727 E18.5457
G1 X105.128 Y82.727 E18.5701
G1 X127.273 Y104.871 E19.6950
G1 X127.273 Y105.550 E19.7194
G1 X104.450 Y82.727 E20.8788
G1 X103.771 Y82.727 E20.9032
G1 X127.273 Y106.229 E22.0971
G1 X127.273 Y106.908 E22.1215
G1 X103.092 Y82.727 E23.3499
G1 X102.413 Y82.727 E23.3742
G1 X127.273 Y107.587 E24.6371
G1 X127.273 Y108.266 E24.6615
G1 X101.734 Y82.727 E25.9588
G1 X101.056 Y82.727 E25.9832
G1 X127.273 Y108.944 E27.3150
G1 X127.273 Y109.623 E27.3394
G1 X100.377 Y82.727 E28.7057
G1 X99.698 Y82.727 E28.7301
G1 X127.273 Y110.302 E30.1309
G1 X127.273 Y110.981 E30.1553
G1 X99.019 Y82.727 E31.5906
G1 X98.340 Y82.727 E31.6149
G1 X127.273 Y111.660 E33.0847
G1 X127.273 Y112.339 E33.1091
G1 X97.727 Y82.793 E34.6100
G1 X97.727 Y83.472 E34.6344
G1 X127.273 Y113.017 E36.1353
G1 X127.273 Y113.696 E36.1596
G1 X97.727 Y84.151 E37.6605
G1 X97.727 Y84.830 E37.6849
G1 X127.273 Y114.375 E39.1858
G1 X127.273 Y115.054 E39.2102
G1 X97.727 Y85.509 E40.7111
G1 X97.727 Y86.187 E40.7355
G1 X127.273 Y115.733 E42.2364
G1 X127.273 Y116.411 E42.2608
G1 X97.727 Y86.866 E43.7617
G1 X97.727 Y87.545 E43.7861
G1 X127.273 Y117.090 E45.2870
G1 X127.273 Y117.769 E45.3113
G1 X97.727 Y88.224 E46.8122
G1 X97.727 Y88.903 E46.8366
G1 X127.273 Y118.448 E48.3375
G1 X127.273 Y119.127 E48.3619
G1 X97.727 Y89.581 E49.8628
G1 X97.727 Y90.260 E49.8872
G1 X127.273 Y119.806 E51.3881
G1 X127.273 Y120.484 E51.4125
G1 X97.727 Y90.939 E52.9134
G1 X97.727 Y91.618 E52.9378
G1 X127.273 Y121.163 E54.4386
G1 X127.273 Y121.842 E54.4630
G1 X97.727 Y92.297 E55.9639
G1 X97.727 Y92.976 E55.9883
G1 X127.273 Y122.521 E57.4892
G1 X127.273 Y123.200 E57.5136
G1 X97.727 Y93.654 E59.0145
G1 X97.727 Y94.333 E59.0389
G1 X127.273 Y123.879 E60.5398
G1 X127.273 Y124.557 E60.5642
G1 X97.727 Y95.012 E62.0651
G1 X97.727 Y95.691 E62.0894
G1 X127.273 Y125.236 E63.5903
G1 X127.273 Y125.915 E63.6147
G1 X97.727 Y96.370 E65.1156
G1 X97.727 Y97.049 E65.1400
G1 X127.273 Y126.594 E66.6409
G1 X127.273 Y127.273 E66.6653
G1 X97.727 Y97.727 E68.1662
G1 X97.727 Y98.406 E68.1906
G1 X127.273 Y127.951 E69.6915
G1 X127.273 Y128.630 E69.7159
G1 X97.727 Y99.085 E71.2167
G1 X97.727 Y99.764 E71.2411
G1 X127.273 Y129.309 E72.7420
G1 X127.273 Y129.988 E72.7664
G1 X97.727 Y100.443 E74.2673
G1 X97.727 Y101.121 E74.2917
G1 X127.273 Y130.667 E75.7926
G1 X127.273 Y131.346 E75.8170
G1 X97.727 Y101.800 E77.3179
G1 X97.727 Y102.479 E77.3423
G1 X127.273 Y132.024 E78.8432
G1 X127.273 Y132.703 E78.8675
G1 X97.727 Y103.158 E80.3684
G1 X97.727 Y103.837 E80.3928
G1 X127.273 Y133.382 E81.8937
G1 X127.273 Y134.061 E81.9181
G1 X97.727 Y104.516 E83.4190
G1 X97.727 Y105.194 E83.4434
G1 X127.273 Y134.740 E84.9443
G1 X127.273 Y135.418 E84.9687
G1 X97.727 Y105.873 E86.4696
G1 X97.727 Y106.552 E86.4940
G1 X127.273 Y136.097 E87.9949
G1 X127.273 Y136.776 E88.0192
G1 X97.727 Y107.231 E89.5201
G1 X97.727 Y107.910 E89.5445
G1 X127.273 Y137.455 E91.0454
G1 X127.273 Y138.134 E91.0698
G1 X97.727 Y108.588 E92.5707
G1 X97.727 Y109.267 E92.5951
G1 X127.273 Y138.813 E94.0960
G1 X127.273 Y139.491 E94.1204
G1 X97.727 Y109.946 E95.6213
G1 X97.727 Y110.625 E95.6456
G1 X127.273 Y140.170 E97.1465
G1 X127.273 Y140.849 E97.1709
G1 X97.727 Y111.304 E98.6718
G1 X97.727 Y111.983 E98.6962
G1 X127.273 Y141.528 E100.1971
G1 X127.273 Y142.207 E100.2215
G1 X97.727 Y112.661 E101.7224
G1 X97.727 Y113.340 E101.7468
G1 X126.660 Y142.273 E103.2165
G1 X125.981 Y142.273 E103.2409
G1 X97.727 Y114.019 E104.6762
G1 X97.727 Y114.698 E104.7006
G1 X125.302 Y142.273 E106.1014
G1 X124.623 Y142.273 E106.1258
G1 X97.727 Y115.377 E107.4921
G1 X97.727 Y116.056 E107.5165
G1 X123.944 Y142.273 E108.8483
G1 X123.266 Y142.273 E108.8727
G1 X97.727 Y116.734 E110.1700
G1 X97.727 Y117.413 E110.1944
G1 X122.587 Y142.273 E111.4572
G1 X121.908 Y142.273 E111.4816
G1 X97.727 Y118.092 E112.7100
G1 X97.727 Y118.771 E112.7344
G1 X121.229 Y142.273 E113.9283
G1 X120.550 Y142.273 E113.9527
G1 X97.727 Y119.450 E115.1121
G1 X97.727 Y120.128 E115.1365
G1 X119.872 Y142.273 E116.2614
G1 X119.193 Y142.273 E116.2858
G1 X97.727 Y120.807 E117.3762
G1 X97.727 Y121.486 E117.4006
G1 X118.514 Y142.273 E118.4565
G1 X117.835 Y142.273 E118.4809
G1 X97.727 Y122.165 E119.5024
G1 X97.727 Y122.844 E119.5268
G1 X117.156 Y142.273 E120.5138
G1 X116.477 Y142.273 E120.5381
G1 X97.727 Y123.523 E121.4906
G1 X97.727 Y124.201 E121.5150
G1 X115.799 Y142.273 E122.4330
G1 X115.120 Y142.273 E122.4574
G1 X97.727 Y124.880 E123.3410
G1 X97.727 Y125.559 E123.3653
G1 X114.441 Y142.273 E124.2144
G1 X113.762 Y142.273 E124.2388
G1 X97.727 Y126.238 E125.0533
G1 X97.727 Y126.917 E125.0777
G1 X113.083 Y142.273 E125.8578
G1 X112.404 Y142.273 E125.8822
G1 X97.727 Y127.596 E126.6278
G1 X97.727 Y128.274 E126.6522
G1 X111.726 Y142.273 E127.3633
G1 X111.047 Y142.273 E127.3877
G1 X97.727 Y128.953 E128.0643
G1 X97.727 Y129.632 E128.0887
G1 X110.368 Y142.273 E128.7308
G1 X109.689 Y142.273 E128.7552
G1 X97.727 Y130.311 E129.3629
G1 X97.727 Y130.990 E129.3872
G1 X109.010 Y142.273 E129.9604
G1 X108.332 Y142.273 E129.9848
G1 X97.727 Y131.668 E130.5235
G1 X97.727 Y132.347 E130.5479
G1 X107.653 Y142.273 E131.0521
G1 X106.974 Y142.273 E131.0765
G1 X97.727 Y133.026 E131.5462
G1 X97.727 Y133.705 E131.5706
G1 X106.295 Y142.273 E132.0058
G1 X105.616 Y142.273 E132.0302
G1 X97.727 Y134.384 E132.4310
G1 X97.727 Y135.063 E132.4553
G1 X104.937 Y142.273 E132.8216
G1 X104.259 Y142.273 E132.8460
G1 X97.727 Y135.741 E133.1778
G1 X97.727 Y136.420 E133.2022
G1 X103.580 Y142.273 E133.4995
G1 X102.901 Y142.273 E133.5239
G1 X97.727 Y137.099 E133.7867
G1 X97.727 Y137.778 E133.8111
G1 X102.222 Y142.273 E134.0394
G1 X101.543 Y142.273 E134.0638
G1 X97.727 Y138.457 E134.2576
G1 X97.727 Y139.135 E134.2820
G1 X100.864 Y142.273 E134.4414
G1 X100.186 Y142.273 E134.4658
G1 X97.727 Y139.814 E134.5906
G1 X97.727 Y140.493 E134.6150
G1 X99.507 Y142.273 E134.7054
G1 X98.828 Y142.273 E134.7298
G1 X97.727 Y141.172 E134.7857
G1 X97.727 Y141.851 E134.8101
G1 X98.149 Y142.273 E134.8315
G92 E0
G1 E-1.0000 F1800
; support
G1 X95.230 Y141.300 F4800
G1 E0.0000 F1800
G92 E0
G1 X92.520 Y141.300 E0.0973 F800
G1 X92.520 Y139.700 E0.1548
G1 X95.230 Y139.700 E0.2521
G1 X95.230 Y138.100 E0.3096
G1 X92.520 Y138.100 E0.4070
G1 X92.520 Y136.500 E0.4644
G1 X95.230 Y136.500 E0.5618
G1 X95.230 Y134.900 E0.6192
G1 X92.520 Y134.900 E0.7166
G1 X92.520 Y133.300 E0.7740
G1 X95.230 Y133.300 E0.8714
G1 X95.230 Y131.700 E0.9289
G1 X92.520 Y131.700 E1.0262
G1 X92.520 Y130.100 E1.0837
G1 X95.230 Y130.100 E1.1810
G1 X95.230 Y128.500 E1.2385
G1 X92.520 Y128.500 E1.3358
G1 X92.520 Y126.900 E1.3933
G1 X95.230 Y126.900 E1.4906
G1 X95.230 Y125.300 E1.5481
