; G-Code generated by Simplify3D(R) Version 4.0.0
; Jan 7, 2021 at 8:26:03 PM
; Settings Summary
;   processName,Process1
;   applyToModels,op7-dock
;   profileName,new profile (modified)
;   profileVersion,2020-09-07 14:01:24
;   baseProfile,Default (modified)
;   printMaterial,PLA
;   printQuality,Medium
;   printExtruders,
;   extruderName,Primary Extruder
;   extruderToolheadNumber,0
;   extruderDiameter,0.4
;   extruderAutoWidth,0
;   extruderWidth,0.4
;   extrusionMultiplier,0.9
;   extruderUseRetract,1
;   extruderRetractionDistance,1
;   extruderExtraRestartDistance,0
;   extruderRetractionZLift,0
;   extruderRetractionSpeed,1800
;   extruderUseCoasting,0
;   extruderCoastingDistance,0.2
;   extruderUseWipe,0
;   extruderWipeDistance,5
;   primaryExtruder,0
;   layerHeight,0.3
;   topSolidLayers,3
;   bottomSolidLayers,2
;   perimeterOutlines,2
;   printPerimetersInsideOut,1
;   startPointOption,2
;   startPointOriginX,0
;   startPointOriginY,0
;   sequentialIslands,0
;   spiralVaseMode,0
;   firstLayerHeightPercentage,90
;   firstLayerWidthPercentage,103
;   firstLayerUnderspeed,0.3
;   useRaft,0
;   raftExtruder,0
;   raftTopLayers,2
;   raftBaseLayers,2
;   raftOffset,1.4
;   raftSeparationDistance,0.14
;   raftTopInfill,100
;   aboveRaftSpeedMultiplier,0.3
;   useSkirt,0
;   skirtExtruder,0
;   skirtLayers,1
;   skirtOutlines,2
;   skirtOffset,4
;   usePrimePillar,0
;   primePillarExtruder,999
;   primePillarWidth,12
;   primePillarLocation,7
;   primePillarSpeedMultiplier,1
;   useOozeShield,0
;   oozeShieldExtruder,999
;   oozeShieldOffset,2
;   oozeShieldOutlines,1
;   oozeShieldSidewallShape,1
;   oozeShieldSidewallAngle,30
;   oozeShieldSpeedMultiplier,1
;   infillExtruder,0
;   internalInfillPattern,Rectilinear
;   externalInfillPattern,Rectilinear
;   infillPercentage,23
;   outlineOverlapPercentage,15
;   infillExtrusionWidthPercentage,100
;   minInfillLength,5
;   infillLayerInterval,1
;   internalInfillAngles,45,-45
;   overlapInternalInfillAngles,0
;   externalInfillAngles,45,-45
;   generateSupport,1
;   supportExtruder,0
;   supportInfillPercentage,30
;   supportExtraInflation,0
;   supportBaseLayers,0
;   denseSupportExtruder,0
;   denseSupportLayers,0
;   denseSupportInfillPercentage,70
;   supportLayerInterval,1
;   supportHorizontalPartOffset,0.2
;   supportUpperSeparationLayers,1
;   supportLowerSeparationLayers,1
;   supportType,0
;   supportGridSpacing,4
;   maxOverhangAngle,45
;   supportAngles,0
;   temperatureName,Primary Extruder,Hot Bed
;   temperatureNumber,0,1
;   temperatureSetpointCount,1,1
;   temperatureSetpointLayers,1,1
;   temperatureSetpointTemperatures,210,60
;   temperatureStabilizeAtStartup,1,0
;   temperatureHeatedBed,0,1
;   temperatureRelayBetweenLayers,0,0
;   temperatureRelayBetweenLoops,0,0
;   fanLayers,1,2
;   fanSpeeds,0,100
;   blipFanToFullPower,0
;   adjustSpeedForCooling,1
;   minSpeedLayerTime,15
;   minCoolingSpeedSlowdown,20
;   increaseFanForCooling,0
;   minFanLayerTime,45
;   maxCoolingFanSpeed,100
;   increaseFanForBridging,0
;   bridgingFanSpeed,100
;   use5D,1
;   relativeEdistances,0
;   allowEaxisZeroing,1
;   independentExtruderAxes,0
;   includeM10123,0
;   stickySupport,1
;   applyToolheadOffsets,0
;   gcodeXoffset,-0.03
;   gcodeYoffset,-0.03
;   gcodeZoffset,0
;   overrideMachineDefinition,0
;   machineTypeOverride,0
;   strokeXoverride,200
;   strokeYoverride,200
;   strokeZoverride,200
;   originOffsetXoverride,0
;   originOffsetYoverride,0
;   originOffsetZoverride,0
;   homeXdirOverride,-1
;   homeYdirOverride,-1
;   homeZdirOverride,-1
;   flipXoverride,1
;   flipYoverride,-1
;   flipZoverride,1
;   toolheadOffsets,0,0|0,0|0,0|0,0|0,0|0,0
;   overrideFirmwareConfiguration,0
;   firmwareTypeOverride,RepRap (Marlin/Repetier/Sprinter)
;   GPXconfigOverride,r2
;   baudRateOverride,115200
;   overridePrinterModels,0
;   printerModelsOverride
;   startingGcode,G28 ; home all axes,G1 X3 Y5 Z0.2 F3000 ; get ready to prime,G92 E0 ; reset extrusion distance,G1 Y150 E20 F600 ; prime nozzle
;   layerChangeGcode,
;   retractionGcode,
;   toolChangeGcode,
;   endingGcode,M104 S0 ; turn off extruder,M140 S0 ; turn off bedG1 X0 Y0; home,M84 ; disable motors,M107 ; fan off,G28 X Y; Home,M18; Disable steppers
;   exportFileFormat,gcode
;   celebration,0
;   celebrationSong,Random Song
;   postProcessing,
;   defaultSpeed,4600
;   outlineUnderspeed,0.5
;   solidInfillUnderspeed,0.8
;   supportUnderspeed,0.8
;   rapidXYspeed,4800
;   rapidZspeed,1000
;   minBridgingArea,50
;   bridgingExtraInflation,0
;   bridgingExtrusionMultiplier,1
;   bridgingSpeedMultiplier,1
;   useFixedBridgingAngle,0
;   fixedBridgingAngle,0
;   applyBridgingToPerimeters,0
;   filamentDiameters,1.75|1.75|1.75|1.75|1.75|1.75
;   filamentPricesPerKg,46|46|46|46|46|46
;   filamentDensities,1.25|1.25|1.25|1.25|1.25|1.25
;   useMinPrintHeight,0
;   minPrintHeight,0
;   useMaxPrintHeight,0
;   maxPrintHeight,0
;   useDiaphragm,0
;   diaphragmLayerInterval,20
;   robustSlicing,1
;   mergeAllIntoSolid,0
;   onlyRetractWhenCrossingOutline,1
;   retractBetweenLayers,1
;   useRetractionMinTravel,0
;   retractionMinTravel,3
;   retractWhileWiping,0
;   onlyWipeOutlines,1
;   avoidCrossingOutline,0
;   maxMovementDetourFactor,3
;   toolChangeRetractionDistance,12
;   toolChangeExtraRestartDistance,-0.5
;   toolChangeRetractionSpeed,600
;   externalThinWallType,1
;   internalThinWallType,2
;   thinWallAllowedOverlapPercentage,8
;   singleExtrusionMinLength,1
;   singleExtrusionMinPrintingWidthPercentage,50
;   singleExtrusionMaxPrintingWidthPercentage,200
;   singleExtrusionEndpointExtension,0.2
;   horizontalSizeCompensation,0
G90
M82
M106 S0
M140 S60
M104 S210 T0
M109 S210 T0
G28 ; home all axes
G1 X3 Y5 Z0.2 F3000 ; get ready to prime
G92 E0 ; reset extrusion distance
G1 Y150 E20 F600 ; prime nozzle
G92 E0
G1 E-1.0000 F1800
G1 Z0.270 F1000
; process Process1
; layer 1, Z = 0.270
T0
; tool H0.300 W0.412
; inner perimeter
G1 X73.088 Y70.450 F4800
G1 E0.0000 F540
G92 E0
G1 X164.852 Y70.450 E4.2439 F1035
G1 X164.852 Y157.485 E8.2691
G1 X121.567 Y157.485 E10.2710
G1 X121.567 Y96.138 E13.1082
G1 X122.360 Y96.138 E13.1449
G1 X122.390 Y96.139 E13.1463
G1 X122.805 Y96.118 E13.1655
G1 X123.214 Y96.055 E13.1846
G1 X123.615 Y95.951 E13.2038
G1 X124.004 Y95.808 E13.2230
G1 X124.378 Y95.625 E13.2422
G1 X124.733 Y95.405 E13.2615
G1 X125.064 Y95.151 E13.2808
G1 X125.368 Y94.866 E13.3001
G1 X125.643 Y94.552 E13.3194
G1 X125.888 Y94.211 E13.3388
G1 X126.100 Y93.847 E13.3583
G1 X126.274 Y93.464 E13.3778
G1 X126.412 Y93.068 E13.3972
G1 X126.512 Y92.657 E13.4167
G1 X126.571 Y92.239 E13.4363
G1 X126.591 Y91.818 E13.4557
G1 X126.571 Y91.397 E13.4752
G1 X126.512 Y90.978 E13.4948
G1 X126.412 Y90.569 E13.5143
G1 X126.275 Y90.171 E13.5337
G1 X126.100 Y89.788 E13.5532
G1 X125.888 Y89.424 E13.5727
G1 X125.643 Y89.084 E13.5920
G1 X125.368 Y88.770 E13.6114
G1 X125.064 Y88.484 E13.6307
G1 X124.733 Y88.230 E13.6500
G1 X124.377 Y88.010 E13.6693
G1 X124.004 Y87.829 E13.6885
G1 X123.615 Y87.684 E13.7077
G1 X123.211 Y87.580 E13.7270
G1 X122.803 Y87.518 E13.7461
G1 X122.390 Y87.497 E13.7652
G1 X122.374 Y87.498 E13.7659
G1 X121.590 Y87.498 E13.8022
G1 X121.590 Y83.338 E13.9946
G1 X116.349 Y83.338 E14.2370
G1 X116.349 Y87.498 E14.4294
G1 X115.570 Y87.498 E14.4654
G1 X115.554 Y87.496 E14.4661
G1 X115.534 Y87.498 E14.4671
G1 X115.348 Y87.498 E14.4757
G1 X115.348 Y87.507 E14.4761
G1 X115.135 Y87.518 E14.4859
G1 X114.725 Y87.580 E14.5051
G1 X114.325 Y87.684 E14.5243
G1 X113.936 Y87.829 E14.5435
G1 X113.562 Y88.010 E14.5627
G1 X113.207 Y88.230 E14.5820
G1 X112.876 Y88.484 E14.6013
G1 X112.572 Y88.770 E14.6206
G1 X112.296 Y89.086 E14.6400
G1 X112.052 Y89.425 E14.6593
G1 X111.840 Y89.788 E14.6788
G1 X111.665 Y90.173 E14.6983
G1 X111.528 Y90.569 E14.7177
G1 X111.428 Y90.979 E14.7372
G1 X111.369 Y91.396 E14.7567
G1 X111.348 Y91.819 E14.7762
G1 X111.369 Y92.240 E14.7958
G1 X111.429 Y92.658 E14.8153
G1 X111.529 Y93.068 E14.8348
G1 X111.667 Y93.466 E14.8543
G1 X111.841 Y93.848 E14.8737
G1 X112.053 Y94.213 E14.8932
G1 X112.297 Y94.553 E14.9126
G1 X112.574 Y94.868 E14.9320
G1 X112.877 Y95.152 E14.9512
G1 X113.208 Y95.406 E14.9705
G1 X113.564 Y95.626 E14.9898
G1 X113.936 Y95.808 E15.0090
G1 X114.326 Y95.951 E15.0282
G1 X114.727 Y96.055 E15.0474
G1 X115.136 Y96.118 E15.0665
G1 X115.336 Y96.128 E15.0758
G1 X115.336 Y96.138 E15.0762
G1 X115.534 Y96.138 E15.0854
G1 X115.554 Y96.139 E15.0863
G1 X115.570 Y96.138 E15.0870
G1 X115.873 Y96.138 E15.1011
G1 X115.873 Y157.485 E17.9383
G1 X73.088 Y157.485 E19.9170
G1 X73.088 Y70.450 E23.9422
; outer perimeter
G1 X72.676 Y70.038 F4800
G92 E0
G1 X165.264 Y70.038 E4.2820 F690
G1 X165.264 Y157.897 E8.3453
G1 X121.155 Y157.897 E10.3853
G1 X121.155 Y95.726 E13.2606
G1 X121.977 Y95.726 E13.2986
G1 X121.977 Y95.706 E13.2996
G1 X122.390 Y95.727 E13.3187
G1 X122.763 Y95.708 E13.3360
G1 X123.131 Y95.651 E13.3532
G1 X123.492 Y95.557 E13.3704
G1 X123.842 Y95.428 E13.3877
G1 X124.179 Y95.264 E13.4050
G1 X124.498 Y95.066 E13.4224
G1 X124.797 Y94.837 E13.4398
G1 X125.071 Y94.579 E13.4572
G1 X125.320 Y94.295 E13.4747
G1 X125.542 Y93.987 E13.4923
G1 X125.733 Y93.658 E13.5099
G1 X125.891 Y93.311 E13.5275
G1 X126.016 Y92.951 E13.5451
G1 X126.107 Y92.579 E13.5628
G1 X126.160 Y92.200 E13.5805
G1 X126.178 Y91.818 E13.5982
G1 X126.160 Y91.435 E13.6159
G1 X126.107 Y91.056 E13.6336
G1 X126.016 Y90.685 E13.6513
G1 X125.891 Y90.324 E13.6690
G1 X125.733 Y89.977 E13.6866
G1 X125.542 Y89.649 E13.7042
G1 X125.320 Y89.341 E13.7217
G1 X125.071 Y89.056 E13.7392
G1 X124.797 Y88.798 E13.7566
G1 X124.498 Y88.569 E13.7740
G1 X124.179 Y88.371 E13.7914
G1 X123.842 Y88.208 E13.8087
G1 X123.492 Y88.078 E13.8260
G1 X123.129 Y87.984 E13.8433
G1 X122.761 Y87.928 E13.8605
G1 X122.390 Y87.909 E13.8777
G1 X121.977 Y87.930 E13.8969
G1 X121.977 Y87.910 E13.8978
G1 X121.178 Y87.910 E13.9348
G1 X121.178 Y83.750 E14.1272
G1 X116.761 Y83.750 E14.3314
G1 X116.761 Y87.910 E14.5238
G1 X115.755 Y87.910 E14.5703
G1 X115.755 Y87.922 E14.5709
G1 X115.551 Y87.909 E14.5804
G1 X115.177 Y87.928 E14.5977
G1 X114.808 Y87.985 E14.6150
G1 X114.448 Y88.078 E14.6322
G1 X114.098 Y88.208 E14.6495
G1 X113.761 Y88.372 E14.6668
G1 X113.442 Y88.569 E14.6842
G1 X113.143 Y88.799 E14.7016
G1 X112.868 Y89.057 E14.7190
G1 X112.618 Y89.342 E14.7365
G1 X112.398 Y89.649 E14.7540
G1 X112.207 Y89.978 E14.7716
G1 X112.048 Y90.326 E14.7893
G1 X111.924 Y90.685 E14.8069
G1 X111.833 Y91.057 E14.8246
G1 X111.780 Y91.436 E14.8423
G1 X111.761 Y91.818 E14.8600
G1 X111.780 Y92.201 E14.8777
G1 X111.834 Y92.580 E14.8954
G1 X111.924 Y92.952 E14.9131
G1 X112.049 Y93.313 E14.9308
G1 X112.207 Y93.658 E14.9484
G1 X112.399 Y93.989 E14.9660
G1 X112.620 Y94.296 E14.9835
G1 X112.871 Y94.581 E15.0011
G1 X113.144 Y94.837 E15.0184
G1 X113.442 Y95.066 E15.0358
G1 X113.764 Y95.265 E15.0533
G1 X114.099 Y95.429 E15.0705
G1 X114.449 Y95.558 E15.0878
G1 X114.810 Y95.651 E15.1050
G1 X115.178 Y95.708 E15.1222
G1 X115.551 Y95.727 E15.1395
G1 X115.557 Y95.726 E15.1398
G1 X116.285 Y95.726 E15.1735
G1 X116.285 Y157.897 E18.0488
G1 X72.676 Y157.897 E20.0656
G1 X72.676 Y70.038 E24.1290
; solid layer
G1 X114.627 Y96.391 F4800
G92 E0
G1 X115.523 Y97.287 E0.0586 F1104
G1 X115.523 Y96.705 E0.0856
G1 X115.307 Y96.489 E0.0997
G92 E0
G1 E-1.0000 F1800
G1 X122.280 Y87.147 F4800
G1 E0.0000 F1800
G92 E0
G1 X121.940 Y86.807 E0.0222 F1104
G1 X121.940 Y86.225 E0.0492
G1 X122.893 Y87.177 E0.1115
G1 X123.282 Y87.236 E0.1297
G1 X123.622 Y87.324 E0.1460
G1 X121.940 Y85.642 E0.2560
G1 X121.940 Y85.059 E0.2829
G1 X124.644 Y87.763 E0.4598
G1 X124.932 Y87.941 E0.4754
G1 X125.291 Y88.217 E0.4964
G1 X125.620 Y88.526 E0.5172
G1 X125.918 Y88.866 E0.5381
G1 X126.182 Y89.234 E0.5591
G1 X126.277 Y89.396 E0.5678
G1 X164.502 Y127.621 E3.0679
G1 X164.502 Y127.038 E3.0948
G1 X121.940 Y84.477 E5.8786
G1 X121.940 Y83.894 E5.9055
G1 X164.502 Y126.456 E8.6892
G1 X164.502 Y125.873 E8.7162
G1 X121.940 Y83.311 E11.4999
G1 X126.737 Y90.439 F4800
G92 E0
G1 X164.502 Y128.204 E2.4700 F1104
G1 X164.502 Y128.786 E2.4969
G1 X126.894 Y91.178 E4.9567
G1 X126.920 Y91.364 E4.9654
G1 X126.941 Y91.808 E4.9859
G1 X164.502 Y129.369 E7.4426
G1 X164.502 Y129.952 E7.4695
G1 X126.908 Y92.358 E9.9284
G1 X126.856 Y92.724 E9.9455
G1 X126.824 Y92.856 E9.9518
G1 X164.502 Y130.534 E12.4161
G1 X164.502 Y131.117 E12.4430
G1 X126.697 Y93.313 E14.9156
G1 X126.600 Y93.594 E14.9294
G1 X126.536 Y93.734 E14.9365
G1 X164.502 Y131.700 E17.4197
G1 X164.502 Y132.282 E17.4466
G1 X126.344 Y94.124 E19.9423
G1 X126.183 Y94.402 E19.9572
G1 X126.122 Y94.486 E19.9619
G1 X164.502 Y132.865 E22.4721
G1 X164.502 Y133.448 E22.4991
G1 X125.874 Y94.820 E25.0255
G1 X125.620 Y95.110 E25.0434
G1 X125.600 Y95.128 E25.0446
G1 X164.502 Y134.030 E27.5890
G1 X164.502 Y134.613 E27.6159
G1 X125.299 Y95.410 E30.1800
G1 X125.290 Y95.418 E30.1805
G1 X124.970 Y95.664 E30.1992
G1 X164.502 Y135.196 E32.7847
G1 X164.502 Y135.778 E32.8117
G1 X124.614 Y95.891 E35.4205
G1 X124.548 Y95.932 E35.4241
G1 X124.229 Y96.088 E35.4406
G1 X164.502 Y136.361 E38.0746
G1 X164.502 Y136.944 E38.1016
G1 X123.811 Y96.252 E40.7630
G1 X123.720 Y96.286 E40.7674
G1 X123.356 Y96.380 E40.7848
G1 X164.502 Y137.526 E43.4760
G1 X164.502 Y138.109 E43.5029
G1 X122.857 Y96.464 E46.2267
G1 X122.840 Y96.467 E46.2275
G1 X122.737 Y96.472 E46.2323
G1 X122.737 Y96.488 E46.2330
G1 X122.429 Y96.488 E46.2472
G1 X122.390 Y96.490 E46.2490
G1 X122.352 Y96.488 E46.2508
G1 X122.298 Y96.488 E46.2533
G1 X164.502 Y138.691 E49.0136
G1 X164.502 Y139.274 E49.0405
G1 X121.917 Y96.689 E51.8258
G1 X121.917 Y97.272 E51.8527
G1 X164.502 Y139.857 E54.6380
G1 X164.502 Y140.439 E54.6650
G1 X121.917 Y97.854 E57.4502
G1 X121.917 Y98.437 E57.4772
G1 X164.502 Y141.022 E60.2625
G1 X164.502 Y141.605 E60.2894
G1 X121.917 Y99.020 E63.0747
G1 X121.917 Y99.602 E63.1016
G1 X164.502 Y142.187 E65.8869
G1 X164.502 Y142.770 E65.9138
G1 X121.917 Y100.185 E68.6991
G1 X121.917 Y100.768 E68.7261
G1 X164.502 Y143.353 E71.5113
G1 X164.502 Y143.935 E71.5383
G1 X121.917 Y101.350 E74.3235
G1 X121.917 Y101.933 E74.3505
G1 X164.502 Y144.518 E77.1358
G1 X164.502 Y145.101 E77.1627
G1 X121.917 Y102.516 E79.9480
G1 X121.917 Y103.098 E79.9749
G1 X164.502 Y145.683 E82.7602
G1 X164.502 Y146.266 E82.7871
G1 X121.917 Y103.681 E85.5724
G1 X121.917 Y104.264 E85.5994
G1 X164.502 Y146.849 E88.3846
G1 X164.502 Y147.431 E88.4116
G1 X121.917 Y104.846 E91.1969
G1 X121.917 Y105.429 E91.2238
G1 X164.502 Y148.014 E94.0091
G1 X164.502 Y148.597 E94.0360
G1 X121.917 Y106.012 E96.8213
G1 X121.917 Y106.594 E96.8482
G1 X164.502 Y149.179 E99.6335
G1 X164.502 Y149.762 E99.6605
G1 X121.917 Y107.177 E102.4457
G1 X121.917 Y107.760 E102.4727
G1 X164.502 Y150.345 E105.2579
G1 X164.502 Y150.927 E105.2849
G1 X121.917 Y108.342 E108.0702
G1 X121.917 Y108.925 E108.0971
G1 X164.502 Y151.510 E110.8824
G1 X164.502 Y152.093 E110.9093
G1 X121.917 Y109.507 E113.6946
G1 X121.917 Y110.090 E113.7215
G1 X164.502 Y152.675 E116.5068
G1 X164.502 Y153.258 E116.5338
G1 X121.917 Y110.673 E119.3190
G1 X121.917 Y111.255 E119.3460
G1 X164.502 Y153.841 E122.1312
G1 X164.502 Y154.423 E122.1582
G1 X121.917 Y111.838 E124.9435
G1 X121.917 Y112.421 E124.9704
G1 X164.502 Y155.006 E127.7557
G1 X164.502 Y155.589 E127.7826
G1 X121.917 Y113.003 E130.5679
G1 X121.917 Y113.586 E130.5948
G1 X164.502 Y156.171 E133.3801
G1 X164.502 Y156.754 E133.4071
G1 X121.917 Y114.169 E136.1923
G1 X121.917 Y114.751 E136.2193
G1 X164.300 Y157.135 E138.9914
G1 X163.718 Y157.135 E139.0183
G1 X121.917 Y115.334 E141.7523
G1 X121.917 Y115.917 E141.7793
G1 X163.135 Y157.135 E144.4751
G1 X162.552 Y157.135 E144.5021
G1 X121.917 Y116.499 E147.1599
G1 X121.917 Y117.082 E147.1868
G1 X161.970 Y157.135 E149.8065
G1 X161.387 Y157.135 E149.8334
G1 X121.917 Y117.665 E152.4150
G1 X121.917 Y118.247 E152.4419
G1 X160.804 Y157.135 E154.9854
G1 X160.222 Y157.135 E155.0123
G1 X121.917 Y118.830 E157.5176
G1 X121.917 Y119.413 E157.5446
G1 X159.639 Y157.135 E160.0118
G1 X159.056 Y157.135 E160.0388
G1 X121.917 Y119.995 E162.4679
G1 X121.917 Y120.578 E162.4948
G1 X158.474 Y157.135 E164.8858
