; G-Code generated by Simplify3D(R) Version 4.0.0
; Oct 22, 2019 at 3:06:54 PM
; Settings Summary
;   processName,Process2
;   applyToModels,P902_Power_Case
;   profileName,Default(2) (modified)
;   profileVersion,2019-07-27 15:21:07
;   baseProfile,
;   printMaterial,PLA
;   printQuality,Medium
;   printExtruders,
;   extruderName,Primary Extruder
;   extruderToolheadNumber,0
;   extruderDiameter,0.4
;   extruderAutoWidth,1
;   extruderWidth,0.48
;   extrusionMultiplier,0.9
;   extruderUseRetract,1
;   extruderRetractionDistance,1
;   extruderExtraRestartDistance,0
;   extruderRetractionZLift,0
;   extruderRetractionSpeed,1800
;   extruderUseCoasting,0
;   extruderCoastingDistance,0.2
;   extruderUseWipe,0
;   extruderWipeDistance,5
;   primaryExtruder,0
;   layerHeight,0.3
;   topSolidLayers,3
;   bottomSolidLayers,2
;   perimeterOutlines,2
;   printPerimetersInsideOut,1
;   startPointOption,2
;   startPointOriginX,0
;   startPointOriginY,0
;   sequentialIslands,0
;   spiralVaseMode,0
;   firstLayerHeightPercentage,90
;   firstLayerWidthPercentage,100
;   firstLayerUnderspeed,0.5
;   useRaft,0
;   raftExtruder,0
;   raftTopLayers,3
;   raftBaseLayers,2
;   raftOffset,3
;   raftSeparationDistance,0.14
;   raftTopInfill,100
;   aboveRaftSpeedMultiplier,0.3
;   useSkirt,0
;   skirtExtruder,0
;   skirtLayers,1
;   skirtOutlines,2
;   skirtOffset,4
;   usePrimePillar,0
;   primePillarExtruder,999
;   primePillarWidth,12
;   primePillarLocation,7
;   primePillarSpeedMultiplier,1
;   useOozeShield,0
;   oozeShieldExtruder,999
;   oozeShieldOffset,2
;   oozeShieldOutlines,1
;   oozeShieldSidewallShape,1
;   oozeShieldSidewallAngle,30
;   oozeShieldSpeedMultiplier,1
;   infillExtruder,0
;   internalInfillPattern,Rectilinear
;   externalInfillPattern,Rectilinear
;   infillPercentage,40
;   outlineOverlapPercentage,15
;   infillExtrusionWidthPercentage,100
;   minInfillLength,5
;   infillLayerInterval,1
;   internalInfillAngles,45,-45
;   overlapInternalInfillAngles,0
;   externalInfillAngles,45,-45
;   generateSupport,0
;   supportExtruder,0
;   supportInfillPercentage,30
;   supportExtraInflation,0
;   supportBaseLayers,0
;   denseSupportExtruder,0
;   denseSupportLayers,0
;   denseSupportInfillPercentage,70
;   supportLayerInterval,1
;   supportHorizontalPartOffset,0.3
;   supportUpperSeparationLayers,1
;   supportLowerSeparationLayers,1
;   supportType,0
;   supportGridSpacing,4
;   maxOverhangAngle,45
;   supportAngles,0
;   temperatureName,Primary Extruder,Hot Bed
;   temperatureNumber,0,1
;   temperatureSetpointCount,1,1
;   temperatureSetpointLayers,1,1
;   temperatureSetpointTemperatures,200,60
;   temperatureStabilizeAtStartup,1,0
;   temperatureHeatedBed,0,1
;   temperatureRelayBetweenLayers,0,0
;   temperatureRelayBetweenLoops,0,0
;   fanLayers,1,2
;   fanSpeeds,0,100
;   blipFanToFullPower,0
;   adjustSpeedForCooling,1
;   minSpeedLayerTime,15
;   minCoolingSpeedSlowdown,20
;   increaseFanForCooling,0
;   minFanLayerTime,45
;   maxCoolingFanSpeed,100
;   increaseFanForBridging,0
;   bridgingFanSpeed,100
;   use5D,1
;   relativeEdistances,0
;   allowEaxisZeroing,1
;   independentExtruderAxes,0
;   includeM10123,0
;   stickySupport,1
;   applyToolheadOffsets,0
;   gcodeXoffset,-9
;   gcodeYoffset,-4
;   gcodeZoffset,0
;   overrideMachineDefinition,0
;   machineTypeOverride,0
;   strokeXoverride,200
;   strokeYoverride,200
;   strokeZoverride,200
;   originOffsetXoverride,0
;   originOffsetYoverride,0
;   originOffsetZoverride,0
;   homeXdirOverride,-1
;   homeYdirOverride,-1
;   homeZdirOverride,-1
;   flipXoverride,1
;   flipYoverride,-1
;   flipZoverride,1
;   toolheadOffsets,0,0|0,0|0,0|0,0|0,0|0,0
;   overrideFirmwareConfiguration,0
;   firmwareTypeOverride,RepRap (Marlin/Repetier/Sprinter)
;   GPXconfigOverride,r2
;   baudRateOverride,115200
;   overridePrinterModels,0
;   printerModelsOverride
;   startingGcode,G28 ; home all axes,G1 X2 Y15 Z0.2 F3000 ; get ready to prime,G92 E0 ; reset extrusion distance,G1 Y150 E20 F600 ; prime nozzle
;   layerChangeGcode,
;   retractionGcode,
;   toolChangeGcode,
;   endingGcode,M104 S0 ; turn off extruder,M140 S0 ; turn off bed,G28 X Y ; home X & Y,M84 ; disable motors,M107; Fan off
;   exportFileFormat,gcode
;   celebration,0
;   celebrationSong,Random Song
;   postProcessing,
;   defaultSpeed,3200
;   outlineUnderspeed,0.5
;   solidInfillUnderspeed,0.8
;   supportUnderspeed,0.8
;   rapidXYspeed,4800
;   rapidZspeed,1000
;   minBridgingArea,50
;   bridgingExtraInflation,0
;   bridgingExtrusionMultiplier,1
;   bridgingSpeedMultiplier,1
;   useFixedBridgingAngle,0
;   fixedBridgingAngle,0
;   applyBridgingToPerimeters,0
;   filamentDiameters,1.75|1.75|1.75|1.75|1.75|1.75
;   filamentPricesPerKg,46|46|46|46|46|46
;   filamentDensities,1.25|1.25|1.25|1.25|1.25|1.25
;   useMinPrintHeight,0
;   minPrintHeight,0
;   useMaxPrintHeight,0
;   maxPrintHeight,0
;   useDiaphragm,0
;   diaphragmLayerInterval,20
;   robustSlicing,1
;   mergeAllIntoSolid,0
;   onlyRetractWhenCrossingOutline,1
;   retractBetweenLayers,1
;   useRetractionMinTravel,0
;   retractionMinTravel,3
;   retractWhileWiping,0
;   onlyWipeOutlines,1
;   avoidCrossingOutline,0
;   maxMovementDetourFactor,3
;   toolChangeRetractionDistance,12
;   toolChangeExtraRestartDistance,-0.5
;   toolChangeRetractionSpeed,600
;   externalThinWallType,1
;   internalThinWallType,1
;   thinWallAllowedOverlapPercentage,10
;   singleExtrusionMinLength,1
;   singleExtrusionMinPrintingWidthPercentage,50
;   singleExtrusionMaxPrintingWidthPercentage,200
;   singleExtrusionEndpointExtension,0.2
;   horizontalSizeCompensation,0
G90
M82
M106 S0
M140 S60
M104 S200 T0
M109 S200 T0
G28 ; home all axes
G1 X2 Y15 Z0.2 F3000 ; get ready to prime
G92 E0 ; reset extrusion distance
G1 Y150 E20 F600 ; prime nozzle
G92 E0
G1 E-1.0000 F1800
G1 Z0.270 F1000
; process Process2
; layer 1, Z = 0.270
T0
; tool H0.300 W0.480
; inner perimeter
G1 X64.470 Y78.370 F4800
G1 E0.0000 F540
G92 E0
G1 X176.530 Y78.370 E6.0380 F1200
G1 X176.530 Y137.326 E9.2146
G1 X176.449 Y138.561 E9.2813
G1 X176.212 Y139.751 E9.3467
G1 X175.822 Y140.901 E9.4121
G1 X175.285 Y141.989 E9.4775
G1 X174.611 Y142.998 E9.5429
G1 X173.811 Y143.911 E9.6082
G1 X172.898 Y144.711 E9.6736
G1 X171.889 Y145.385 E9.7390
G1 X170.801 Y145.922 E9.8044
G1 X169.651 Y146.312 E9.8698
G1 X168.461 Y146.549 E9.9352
G1 X167.226 Y146.630 E10.0019
G1 X78.274 Y146.630 E14.7948
G1 X77.039 Y146.549 E14.8615
G1 X75.849 Y146.312 E14.9269
G1 X74.699 Y145.922 E14.9923
G1 X73.611 Y145.385 E15.0576
G1 X72.602 Y144.711 E15.1230
G1 X71.689 Y143.911 E15.1884
G1 X70.889 Y142.998 E15.2538
G1 X70.215 Y141.989 E15.3192
G1 X69.678 Y140.901 E15.3846
G1 X69.288 Y139.751 E15.4500
G1 X69.051 Y138.561 E15.5154
G1 X68.970 Y137.326 E15.5821
G1 X68.970 Y128.630 E16.0507
G1 X56.916 Y128.630 E16.7001
G1 X56.916 Y127.070 E16.7842
G1 X62.048 Y127.070 E17.0607
G1 X64.470 Y124.648 E17.2453
G1 X64.470 Y78.370 E19.7388
; outer perimeter
G1 X63.990 Y77.890 F4800
G92 E0
G1 X177.010 Y77.890 E6.0897 F800
G1 X177.010 Y137.342 E9.2930
G1 X176.926 Y138.624 E9.3623
G1 X176.677 Y139.876 E9.4310
G1 X176.267 Y141.085 E9.4998
G1 X175.702 Y142.230 E9.5686
G1 X174.993 Y143.291 E9.6374
G1 X174.151 Y144.251 E9.7062
G1 X173.191 Y145.093 E9.7750
G1 X172.130 Y145.802 E9.8437
G1 X170.985 Y146.367 E9.9125
G1 X169.776 Y146.777 E9.9813
G1 X168.524 Y147.026 E10.0501
G1 X167.242 Y147.110 E10.1193
G1 X78.258 Y147.110 E14.9139
G1 X76.976 Y147.026 E14.9831
G1 X75.724 Y146.777 E15.0519
G1 X74.515 Y146.367 E15.1207
G1 X73.370 Y145.802 E15.1895
G1 X72.309 Y145.093 E15.2583
G1 X71.349 Y144.251 E15.3270
G1 X70.507 Y143.291 E15.3958
G1 X69.798 Y142.230 E15.4646
G1 X69.233 Y141.085 E15.5334
G1 X68.823 Y139.876 E15.6022
G1 X68.574 Y138.624 E15.6710
G1 X68.490 Y137.342 E15.7402
G1 X68.490 Y129.110 E16.1837
G1 X56.436 Y129.110 E16.8332
G1 X56.436 Y126.590 E16.9690
G1 X61.849 Y126.590 E17.2607
G1 X63.990 Y124.449 E17.4238
G1 X63.990 Y77.890 E19.9325
; inner perimeter
G1 X120.030 Y95.430 F4800
G92 E0
G1 X120.030 Y99.870 E0.2392 F1200
G1 X126.470 Y99.870 E0.5862
G1 X126.470 Y95.430 E0.8255
G1 X120.030 Y95.430 E1.1725
; outer perimeter
G1 X120.510 Y95.910 F4800
G92 E0
G1 X120.510 Y99.390 E0.1875 F800
G1 X125.990 Y99.390 E0.4828
G1 X125.990 Y95.910 E0.6703
G1 X120.510 Y95.910 E0.9656
; inner perimeter
G1 X127.030 Y94.870 F4800
G92 E0
G1 X131.470 Y94.870 E0.2392 F1200
G1 X131.470 Y88.430 E0.5862
G1 X127.030 Y88.430 E0.8255
G1 X127.030 Y94.870 E1.1725
; outer perimeter
G1 X127.510 Y94.390 F4800
G92 E0
G1 X130.990 Y94.390 E0.1875 F800
G1 X130.990 Y88.910 E0.4828
G1 X127.510 Y88.910 E0.6703
G1 X127.510 Y94.390 E0.9656
; inner perimeter
G1 X129.148 Y96.853 F4800
G92 E0
G1 X128.242 Y97.799 E0.0706 F1200
G1 X127.508 Y98.884 E0.1412
G1 X126.969 Y100.077 E0.2117
G1 X126.638 Y101.345 E0.2823
G1 X126.527 Y102.650 E0.3529
G1 X126.638 Y103.955 E0.4235
G1 X126.969 Y105.223 E0.4940
G1 X127.508 Y106.416 E0.5646
G1 X128.242 Y107.501 E0.6352
G1 X129.148 Y108.447 E0.7058
G1 X130.201 Y109.226 E0.7763
G1 X131.371 Y109.816 E0.8469
G1 X132.623 Y110.199 E0.9175
G1 X133.922 Y110.366 E0.9881
G1 X135.231 Y110.310 E1.0586
G1 X136.511 Y110.034 E1.1292
G1 X137.727 Y109.546 E1.1998
G1 X138.842 Y108.859 E1.2704
G1 X139.825 Y107.994 E1.3410
G1 X140.648 Y106.974 E1.4115
G1 X141.287 Y105.831 E1.4821
G1 X141.723 Y104.596 E1.5527
G1 X141.945 Y103.305 E1.6233
G1 X141.945 Y101.995 E1.6938
G1 X141.723 Y100.704 E1.7644
G1 X141.287 Y99.469 E1.8350
G1 X140.648 Y98.326 E1.9056
G1 X139.825 Y97.306 E1.9761
G1 X138.842 Y96.441 E2.0467
G1 X137.727 Y95.754 E2.1173
G1 X136.511 Y95.266 E2.1879
G1 X135.231 Y94.990 E2.2584
G1 X133.922 Y94.934 E2.3290
G1 X132.623 Y95.101 E2.3996
G1 X131.371 Y95.484 E2.4702
G1 X130.201 Y96.074 E2.5408
G1 X129.148 Y96.853 E2.6113
; outer perimeter
G1 X129.466 Y97.214 F4800
G92 E0
G1 X128.616 Y98.101 E0.0662 F800
G1 X127.929 Y99.119 E0.1323
G1 X127.423 Y100.238 E0.1985
G1 X127.113 Y101.426 E0.2647
G1 X127.009 Y102.650 E0.3309
G1 X127.113 Y103.874 E0.3970
G1 X127.423 Y105.062 E0.4632
G1 X127.929 Y106.181 E0.5294
G1 X128.616 Y107.199 E0.5956
G1 X129.466 Y108.086 E0.6617
G1 X130.454 Y108.816 E0.7279
G1 X131.550 Y109.369 E0.7941
G1 X132.724 Y109.728 E0.8603
G1 X133.943 Y109.884 E0.9264
G1 X135.170 Y109.832 E0.9926
G1 X136.370 Y109.573 E1.0588
G1 X137.510 Y109.116 E1.1250
G1 X138.556 Y108.472 E1.1911
G1 X139.478 Y107.660 E1.2573
G1 X140.249 Y106.705 E1.3235
G1 X140.848 Y105.633 E1.3897
G1 X141.257 Y104.475 E1.4558
G1 X141.465 Y103.264 E1.5220
G1 X141.465 Y102.036 E1.5882
G1 X141.257 Y100.825 E1.6543
G1 X140.848 Y99.667 E1.7205
G1 X140.249 Y98.595 E1.7867
G1 X139.478 Y97.640 E1.8529
G1 X138.556 Y96.828 E1.9190
G1 X137.510 Y96.184 E1.9852
G1 X136.370 Y95.727 E2.0514
G1 X135.170 Y95.468 E2.1176
G1 X133.943 Y95.416 E2.1837
G1 X132.724 Y95.572 E2.2499
G1 X131.550 Y95.931 E2.3161
G1 X130.454 Y96.484 E2.3823
G1 X129.466 Y97.214 E2.4484
G92 E0
G1 E-1.0000 F1800
; inner perimeter
G1 X137.030 Y94.870 F4800
G1 E0.0000 F1800
G92 E0
G1 X141.470 Y94.870 E0.2392 F1200
G1 X141.470 Y88.430 E0.5862
G1 X137.030 Y88.430 E0.8255
G1 X137.030 Y94.870 E1.1725
; outer perimeter
G1 X137.510 Y94.390 F4800
G92 E0
G1 X140.990 Y94.390 E0.1875 F800
G1 X140.990 Y88.910 E0.4828
G1 X137.510 Y88.910 E0.6703
G1 X137.510 Y94.390 E0.9656
; inner perimeter
G1 X142.030 Y95.430 F4800
G92 E0
G1 X142.030 Y99.870 E0.2392 F1200
G1 X148.470 Y99.870 E0.5862
G1 X148.470 Y95.430 E0.8255
G1 X142.030 Y95.430 E1.1725
; outer perimeter
G1 X142.510 Y95.910 F4800
G92 E0
G1 X142.510 Y99.390 E0.1875 F800
G1 X147.990 Y99.390 E0.4828
G1 X147.990 Y95.910 E0.6703
G1 X142.510 Y95.910 E0.9656
; inner perimeter
G1 X142.030 Y105.430 F4800
G92 E0
G1 X142.030 Y109.870 E0.2392 F1200
G1 X148.470 Y109.870 E0.5862
G1 X148.470 Y105.430 E0.8255
G1 X142.030 Y105.430 E1.1725
; outer perimeter
G1 X142.510 Y105.910 F4800
G92 E0
G1 X142.510 Y109.390 E0.1875 F800
G1 X147.990 Y109.390 E0.4828
G1 X147.990 Y105.910 E0.6703
G1 X142.510 Y105.910 E0.9656
; inner perimeter
G1 X141.470 Y110.430 F4800
G92 E0
G1 X137.030 Y110.430 E0.2392 F1200
G1 X137.030 Y116.870 E0.5862
G1 X141.470 Y116.870 E0.8255
G1 X141.470 Y110.430 E1.1725
; outer perimeter
G1 X140.990 Y110.910 F4800
G92 E0
G1 X137.510 Y110.910 E0.1875 F800
G1 X137.510 Y116.390 E0.4828
G1 X140.990 Y116.390 E0.6703
G1 X140.990 Y110.910 E0.9656
; inner perimeter
G1 X131.470 Y110.430 F4800
G92 E0
G1 X127.030 Y110.430 E0.2392 F1200
G1 X127.030 Y116.870 E0.5862
G1 X131.470 Y116.870 E0.8255
G1 X131.470 Y110.430 E1.1725
; outer perimeter
G1 X130.990 Y110.910 F4800
G92 E0
G1 X127.510 Y110.910 E0.1875 F800
G1 X127.510 Y116.390 E0.4828
G1 X130.990 Y116.390 E0.6703
G1 X130.990 Y110.910 E0.9656
; inner perimeter
G1 X126.470 Y109.870 F4800
G92 E0
G1 X126.470 Y105.430 E0.2392 F1200
G1 X120.030 Y105.430 E0.5862
G1 X120.030 Y109.870 E0.8255
G1 X126.470 Y109.870 E1.1725
; outer perimeter
G1 X125.990 Y109.390 F4800
G92 E0
G1 X125.990 Y105.910 E0.1875 F800
G1 X120.510 Y105.910 E0.4828
G1 X120.510 Y109.390 E0.6703
G1 X125.990 Y109.390 E0.9656
G92 E0
G1 E-1.0000 F1800
; inner perimeter
G1 X153.322 Y137.422 F4800
G1 E0.0000 F1800
G92 E0
G1 X152.889 Y137.987 E0.0383 F1200
G1 X152.617 Y138.644 E0.0767
G1 X152.524 Y139.350 E0.1150
G1 X152.617 Y140.056 E0.1534
G1 X152.889 Y140.713 E0.1917
G1 X153.322 Y141.278 E0.2301
G1 X153.887 Y141.711 E0.2684
G1 X154.544 Y141.983 E0.3068
G1 X155.250 Y142.076 E0.3451
G1 X155.956 Y141.983 E0.3835
G1 X156.613 Y141.711 E0.4218
G1 X157.178 Y141.278 E0.4602
G1 X157.611 Y140.713 E0.4985
G1 X157.883 Y140.056 E0.5369
G1 X157.976 Y139.350 E0.5752
G1 X157.883 Y138.644 E0.6135
G1 X157.611 Y137.987 E0.6519
G1 X157.178 Y137.422 E0.6902
G1 X156.613 Y136.989 E0.7286
G1 X155.956 Y136.717 E0.7669
G1 X155.250 Y136.624 E0.8053
G1 X154.544 Y136.717 E0.8436
G1 X153.887 Y136.989 E0.8820
G1 X153.322 Y137.422 E0.9203
; outer perimeter
G1 X153.665 Y137.765 F4800
G92 E0
G1 X153.308 Y138.229 E0.0315 F800
G1 X153.084 Y138.770 E0.0631
G1 X153.008 Y139.350 E0.0946
G1 X153.084 Y139.930 E0.1261
G1 X153.308 Y140.471 E0.1577
G1 X153.665 Y140.935 E0.1892
G1 X154.129 Y141.292 E0.2208
G1 X154.670 Y141.516 E0.2523
G1 X155.250 Y141.592 E0.2838
G1 X155.830 Y141.516 E0.3154
G1 X156.371 Y141.292 E0.3469
G1 X156.835 Y140.935 E0.3784
G1 X157.192 Y140.471 E0.4100
G1 X157.416 Y139.930 E0.4415
G1 X157.492 Y139.350 E0.4731
G1 X157.416 Y138.770 E0.5046
G1 X157.192 Y138.229 E0.5361
G1 X156.835 Y137.765 E0.5677
G1 X156.371 Y137.408 E0.5992
G1 X155.830 Y137.184 E0.6307
G1 X155.250 Y137.108 E0.6623
G1 X154.670 Y137.184 E0.6938
G1 X154.129 Y137.408 E0.7253
G1 X153.665 Y137.765 E0.7569
; inner perimeter
G1 X92.976 Y139.350 F4800
G92 E0
G1 X92.883 Y138.644 E0.0383 F1200
G1 X92.611 Y137.987 E0.0767
G1 X92.178 Y137.422 E0.1150
G1 X91.613 Y136.989 E0.1534
G1 X90.956 Y136.717 E0.1917
G1 X90.250 Y136.624 E0.2301
G1 X89.544 Y136.717 E0.2684
G1 X88.887 Y136.989 E0.3068
G1 X88.322 Y137.422 E0.3451
G1 X87.889 Y137.987 E0.3835
G1 X87.617 Y138.644 E0.4218
G1 X87.524 Y139.350 E0.4602
G1 X87.617 Y140.056 E0.4985
G1 X87.889 Y140.713 E0.5369
G1 X88.322 Y141.278 E0.5752
G1 X88.887 Y141.711 E0.6135
G1 X89.544 Y141.983 E0.6519
G1 X90.250 Y142.076 E0.6902
G1 X90.956 Y141.983 E0.7286
G1 X91.613 Y141.711 E0.7669
G1 X92.178 Y141.278 E0.8053
G1 X92.611 Y140.713 E0.8436
G1 X92.883 Y140.056 E0.8820
G1 X92.976 Y139.350 E0.9203
; outer perimeter
G1 X92.492 Y139.350 F4800
G92 E0
G1 X92.416 Y138.770 E0.0315 F800
G1 X92.192 Y138.229 E0.0631
G1 X91.835 Y137.765 E0.0946
G1 X91.371 Y137.408 E0.1261
G1 X90.830 Y137.184 E0.1577
G1 X90.250 Y137.108 E0.1892
G1 X89.670 Y137.184 E0.2208
G1 X89.129 Y137.408 E0.2523
G1 X88.665 Y137.765 E0.2838
G1 X88.308 Y138.229 E0.3154
G1 X88.084 Y138.770 E0.3469
G1 X88.008 Y139.350 E0.3784
G1 X88.084 Y139.930 E0.4100
G1 X88.308 Y140.471 E0.4415
G1 X88.665 Y140.935 E0.4731
G1 X89.129 Y141.292 E0.5046
G1 X89.670 Y141.516 E0.5361
G1 X90.250 Y141.592 E0.5677
G1 X90.830 Y141.516 E0.5992
G1 X91.371 Y141.292 E0.6307
G1 X91.835 Y140.935 E0.6623
G1 X92.192 Y140.471 E0.6938
G1 X92.416 Y139.930 E0.7253
G1 X92.492 Y139.350 E0.7569
; solid layer
G1 X93.315 Y138.796 F4800
G92 E0
