; G-Code generated by Simplify3D(R) Version 4.0.0
; Jan 31, 2018 at 10:36:22 AM
; Settings Summary
;   processName,Process1
;   applyToModels,Part111
;   profileName,Flying Bear 902 Update 7-2017 (modified)
;   profileVersion,2017-07-10 09:45:20
;   baseProfile,Default
;   printMaterial,PLA
;   printQuality,Medium
;   printExtruders,
;   extruderName,Extruder 1
;   extruderToolheadNumber,0
;   extruderDiameter,0.4
;   extruderAutoWidth,1
;   extruderWidth,0.48
;   extrusionMultiplier,1
;   extruderUseRetract,1
;   extruderRetractionDistance,2
;   extruderExtraRestartDistance,0
;   extruderRetractionZLift,0
;   extruderRetractionSpeed,3000
;   extruderUseCoasting,0
;   extruderCoastingDistance,0.2
;   extruderUseWipe,1
;   extruderWipeDistance,5
;   primaryExtruder,0
;   layerHeight,0.25
;   topSolidLayers,4
;   bottomSolidLayers,3
;   perimeterOutlines,2
;   printPerimetersInsideOut,0
;   startPointOption,2
;   startPointOriginX,0
;   startPointOriginY,0
;   sequentialIslands,0
;   spiralVaseMode,0
;   firstLayerHeightPercentage,20
;   firstLayerWidthPercentage,100
;   firstLayerUnderspeed,0.5
;   useRaft,1
;   raftExtruder,0
;   raftTopLayers,2
;   raftBaseLayers,2
;   raftOffset,3
;   raftSeparationDistance,0.5
;   raftTopInfill,100
;   aboveRaftSpeedMultiplier,0.3
;   useSkirt,0
;   skirtExtruder,0
;   skirtLayers,1
;   skirtOutlines,2
;   skirtOffset,4
;   usePrimePillar,0
;   primePillarExtruder,999
;   primePillarWidth,12
;   primePillarLocation,7
;   primePillarSpeedMultiplier,1
;   useOozeShield,0
;   oozeShieldExtruder,999
;   oozeShieldOffset,2
;   oozeShieldOutlines,1
;   oozeShieldSidewallShape,1
;   oozeShieldSidewallAngle,30
;   oozeShieldSpeedMultiplier,1
;   infillExtruder,0
;   internalInfillPattern,Rectilinear
;   externalInfillPattern,Rectilinear
;   infillPercentage,15
;   outlineOverlapPercentage,60
;   infillExtrusionWidthPercentage,100
;   minInfillLength,5
;   infillLayerInterval,1
;   internalInfillAngles,45,-45
;   overlapInternalInfillAngles,0
;   externalInfillAngles,45,-45
;   generateSupport,1
;   supportExtruder,0
;   supportInfillPercentage,30
;   supportExtraInflation,0
;   supportBaseLayers,0
;   denseSupportExtruder,0
;   denseSupportLayers,0
;   denseSupportInfillPercentage,50
;   supportLayerInterval,1
;   supportHorizontalPartOffset,0.3
;   supportUpperSeparationLayers,1
;   supportLowerSeparationLayers,1
;   supportType,0
;   supportGridSpacing,4
;   maxOverhangAngle,70
;   supportAngles,0
;   temperatureName,Extruder 1,Heated Bed
;   temperatureNumber,0,0
;   temperatureSetpointCount,1,2
;   temperatureSetpointLayers,1,1,10
;   temperatureSetpointTemperatures,210,70,60
;   temperatureStabilizeAtStartup,1,0
;   temperatureHeatedBed,0,1
;   temperatureRelayBetweenLayers,0,0
;   temperatureRelayBetweenLoops,0,0
;   fanLayers,1
;   fanSpeeds,255
;   blipFanToFullPower,0
;   adjustSpeedForCooling,1
;   minSpeedLayerTime,15
;   minCoolingSpeedSlowdown,20
;   increaseFanForCooling,0
;   minFanLayerTime,45
;   maxCoolingFanSpeed,100
;   increaseFanForBridging,0
;   bridgingFanSpeed,100
;   use5D,1
;   relativeEdistances,0
;   allowEaxisZeroing,1
;   independentExtruderAxes,0
;   includeM10123,0
;   stickySupport,1
;   applyToolheadOffsets,0
;   gcodeXoffset,0
;   gcodeYoffset,0
;   gcodeZoffset,0
;   overrideMachineDefinition,1
;   machineTypeOverride,0
;   strokeXoverride,220
;   strokeYoverride,220
;   strokeZoverride,280
;   originOffsetXoverride,0
;   originOffsetYoverride,0
;   originOffsetZoverride,0
;   homeXdirOverride,-1
;   homeYdirOverride,-1
;   homeZdirOverride,-1
;   flipXoverride,1
;   flipYoverride,-1
;   flipZoverride,1
;   toolheadOffsets,0,0|0,0|0,0|0,0|0,0|0,0
;   overrideFirmwareConfiguration,1
;   firmwareTypeOverride,RepRap (Marlin/Repetier/Sprinter)
;   GPXconfigOverride,r2
;   baudRateOverride,250000
;   overridePrinterModels,0
;   printerModelsOverride
;   startingGcode,G28 ; home all axes,G1 X0 Y20 Z0.2 F3000 ; get ready to prime,G92 E0 ; reset extrusion distance,G1 X200 E20 F600 ; prime nozzle
;   layerChangeGcode,
;   retractionGcode,
;   toolChangeGcode,
;   endingGcode,M104 S0 ; turn off extruder,M140 S0 ; turn off bed,G28 X Y ; home x and y axes,M84 ; disable motors
;   exportFileFormat,gcode
;   celebration,0
;   celebrationSong,Random Song
;   postProcessing,
;   defaultSpeed,4200
;   outlineUnderspeed,0.5
;   solidInfillUnderspeed,0.8
;   supportUnderspeed,0.8
;   rapidXYspeed,4998
;   rapidZspeed,1002
;   minBridgingArea,50
;   bridgingExtraInflation,0
;   bridgingExtrusionMultiplier,1
;   bridgingSpeedMultiplier,1
;   useFixedBridgingAngle,0
;   fixedBridgingAngle,0
;   applyBridgingToPerimeters,0
;   filamentDiameters,1.75|1.75|1.75|1.75|1.75|1.75
;   filamentPricesPerKg,46|46|46|46|46|46
;   filamentDensities,1.25|1.25|1.25|1.25|1.25|1.25
;   useMinPrintHeight,0
;   minPrintHeight,0
;   useMaxPrintHeight,0
;   maxPrintHeight,0.3
;   useDiaphragm,0
;   diaphragmLayerInterval,20
;   robustSlicing,1
;   mergeAllIntoSolid,0
;   onlyRetractWhenCrossingOutline,1
;   retractBetweenLayers,1
;   useRetractionMinTravel,0
;   retractionMinTravel,3
;   retractWhileWiping,0
;   onlyWipeOutlines,1
;   avoidCrossingOutline,0
;   maxMovementDetourFactor,3
;   toolChangeRetractionDistance,12
;   toolChangeExtraRestartDistance,-0.5
;   toolChangeRetractionSpeed,600
;   externalThinWallType,1
;   internalThinWallType,2
;   thinWallAllowedOverlapPercentage,15
;   singleExtrusionMinLength,1
;   singleExtrusionMinPrintingWidthPercentage,50
;   singleExtrusionMaxPrintingWidthPercentage,200
;   singleExtrusionEndpointExtension,0.2
;   horizontalSizeCompensation,0
G90
M82
M106 S650
M140 S70
M104 S210 T0
M109 S210 T0
G28 ; home all axes
G1 X0 Y20 Z0.2 F3000 ; get ready to prime
G92 E0 ; reset extrusion distance
G1 X200 E20 F600 ; prime nozzle
G92 E0
G1 E-2.0000 F3000
G1 Z0.100 F1002
; process Process1
; layer 1, Z = 0.100
T0
; tool H0.500 W0.800
; raft
G1 X99.400 Y20.010 F4998
G1 E0.0000 F900
G92 E0
G1 X100.923 Y18.487 E0.3582 F525
G1 X119.077 Y18.487 E3.3772
G1 X120.600 Y20.010 E3.7354
G1 X120.600 Y99.945 E17.0287
G1 X119.077 Y101.468 E17.3869
G1 X100.923 Y101.468 E20.4059
G1 X99.400 Y99.945 E20.7641
G1 X99.400 Y20.010 E34.0573
G92 E0
G1 E-2.0000 F3000
G1 X100.200 Y20.857 F4998
G1 E0.0000 F3000
G92 E0
G1 X119.800 Y20.857 E3.2595 F525
G1 X119.800 Y23.143 E3.6396
G1 X100.200 Y23.143 E6.8991
G1 X100.200 Y25.429 E7.2792
G1 X119.800 Y25.429 E10.5387
G1 X119.800 Y27.714 E10.9188
G1 X100.200 Y27.714 E14.1783
G1 X100.200 Y30.000 E14.5584
G1 X119.800 Y30.000 E17.8179
G1 X119.800 Y32.286 E18.1980
G1 X100.200 Y32.286 E21.4575
G1 X100.200 Y34.571 E21.8376
G1 X119.800 Y34.571 E25.0971
G1 X119.800 Y36.857 E25.4772
G1 X100.200 Y36.857 E28.7367
G1 X100.200 Y39.143 E29.1168
G1 X119.800 Y39.143 E32.3763
G1 X119.800 Y41.429 E32.7564
G1 X100.200 Y41.429 E36.0159
G1 X100.200 Y43.714 E36.3960
G1 X119.800 Y43.714 E39.6555
G1 X119.800 Y46.000 E40.0356
G1 X100.200 Y46.000 E43.2951
G1 X100.200 Y48.286 E43.6752
G1 X119.800 Y48.286 E46.9347
G1 X119.800 Y50.571 E47.3148
G1 X100.200 Y50.571 E50.5743
G1 X100.200 Y52.857 E50.9544
G1 X119.800 Y52.857 E54.2139
G1 X119.800 Y55.143 E54.5940
G1 X100.200 Y55.143 E57.8535
G1 X100.200 Y57.429 E58.2336
G1 X119.800 Y57.429 E61.4931
G1 X119.800 Y59.714 E61.8732
G1 X100.200 Y59.714 E65.1327
G1 X100.200 Y62.000 E65.5128
G1 X119.800 Y62.000 E68.7723
G1 X119.800 Y64.286 E69.1524
G1 X100.200 Y64.286 E72.4119
G1 X100.200 Y66.571 E72.7920
G1 X119.800 Y66.571 E76.0515
G1 X119.800 Y68.857 E76.4316
G1 X100.200 Y68.857 E79.6911
G1 X100.200 Y71.143 E80.0712
G1 X119.800 Y71.143 E83.3307
G1 X119.800 Y73.429 E83.7108
G1 X100.200 Y73.429 E86.9703
G1 X100.200 Y75.714 E87.3504
G1 X119.800 Y75.714 E90.6099
G1 X119.800 Y78.000 E90.9900
G1 X100.200 Y78.000 E94.2495
G1 X100.200 Y80.286 E94.6296
G1 X119.800 Y80.286 E97.8891
G1 X119.800 Y82.571 E98.2692
G1 X100.200 Y82.571 E101.5287
G1 X100.200 Y84.857 E101.9088
G1 X119.800 Y84.857 E105.1683
G1 X119.800 Y87.143 E105.5484
G1 X100.200 Y87.143 E108.8079
G1 X100.200 Y89.429 E109.1880
G1 X119.800 Y89.429 E112.4475
G1 X119.800 Y91.714 E112.8276
G1 X100.200 Y91.714 E116.0871
G1 X100.200 Y94.000 E116.4672
G1 X119.800 Y94.000 E119.7267
G1 X119.800 Y96.286 E120.1068
G1 X100.200 Y96.286 E123.3663
G1 X100.200 Y98.571 E123.7464
G1 X119.800 Y98.571 E127.0059
G92 E0
G1 E-2.0000 F3000
; layer 2, Z = 0.600
G1 X120.600 Y99.945 F4998
G1 Z0.600 F1002
G1 E0.0000 F3000
G92 E0
G1 X119.077 Y101.468 E0.3582 F1050
G1 X100.923 Y101.468 E3.3772
G1 X99.400 Y99.945 E3.7354
G1 X99.400 Y20.010 E17.0287
G1 X100.923 Y18.487 E17.3869
G1 X119.077 Y18.487 E20.4059
G1 X120.600 Y20.010 E20.7641
G1 X120.600 Y99.945 E34.0573
G92 E0
G1 E-2.0000 F3000
G1 X119.800 Y98.571 F4998
G1 E0.0000 F3000
G92 E0
G1 X100.200 Y98.571 E3.2595 F1050
G1 X100.200 Y96.286 E3.6396
G1 X119.800 Y96.286 E6.8991
G1 X119.800 Y94.000 E7.2792
G1 X100.200 Y94.000 E10.5387
G1 X100.200 Y91.714 E10.9188
G1 X119.800 Y91.714 E14.1783
G1 X119.800 Y89.429 E14.5584
G1 X100.200 Y89.429 E17.8179
G1 X100.200 Y87.143 E18.1980
G1 X119.800 Y87.143 E21.4575
G1 X119.800 Y84.857 E21.8376
G1 X100.200 Y84.857 E25.0971
G1 X100.200 Y82.571 E25.4772
G1 X119.800 Y82.571 E28.7367
G1 X119.800 Y80.286 E29.1168
G1 X100.200 Y80.286 E32.3763
G1 X100.200 Y78.000 E32.7564
G1 X119.800 Y78.000 E36.0159
G1 X119.800 Y75.714 E36.3960
G1 X100.200 Y75.714 E39.6555
G1 X100.200 Y73.429 E40.0356
G1 X119.800 Y73.429 E43.2951
G1 X119.800 Y71.143 E43.6752
G1 X100.200 Y71.143 E46.9347
G1 X100.200 Y68.857 E47.3148
G1 X119.800 Y68.857 E50.5743
G1 X119.800 Y66.571 E50.9544
G1 X100.200 Y66.571 E54.2139
G1 X100.200 Y64.286 E54.5940
G1 X119.800 Y64.286 E57.8535
G1 X119.800 Y62.000 E58.2336
G1 X100.200 Y62.000 E61.4931
G1 X100.200 Y59.714 E61.8732
G1 X119.800 Y59.714 E65.1327
G1 X119.800 Y57.429 E65.5128
G1 X100.200 Y57.429 E68.7723
G1 X100.200 Y55.143 E69.1524
G1 X119.800 Y55.143 E72.4119
G1 X119.800 Y52.857 E72.7920
G1 X100.200 Y52.857 E76.0515
G1 X100.200 Y50.571 E76.4316
G1 X119.800 Y50.571 E79.6911
G1 X119.800 Y48.286 E80.0712
G1 X100.200 Y48.286 E83.3307
G1 X100.200 Y46.000 E83.7108
G1 X119.800 Y46.000 E86.9702
G1 X119.800 Y43.714 E87.3504
G1 X100.200 Y43.714 E90.6098
G1 X100.200 Y41.429 E90.9900
G1 X119.800 Y41.429 E94.2494
G1 X119.800 Y39.143 E94.6296
G1 X100.200 Y39.143 E97.8890
G1 X100.200 Y36.857 E98.2692
G1 X119.800 Y36.857 E101.5286
G1 X119.800 Y34.571 E101.9088
G1 X100.200 Y34.571 E105.1682
G1 X100.200 Y32.286 E105.5484
G1 X119.800 Y32.286 E108.8078
G1 X119.800 Y30.000 E109.1880
G1 X100.200 Y30.000 E112.4475
G1 X100.200 Y27.714 E112.8276
G1 X119.800 Y27.714 E116.0871
G1 X119.800 Y25.429 E116.4672
G1 X100.200 Y25.429 E119.7267
G1 X100.200 Y23.143 E120.1068
G1 X119.800 Y23.143 E123.3663
G1 X119.800 Y20.857 E123.7464
G1 X100.200 Y20.857 E127.0059
G92 E0
G1 E-2.0000 F3000
; layer 3, Z = 0.822
; tool H0.222 W0.400
G1 X118.979 Y18.287 F4998
G1 Z0.822 F1002
G1 E0.0000 F3000
G92 E0
G1 X120.800 Y20.108 E0.0952 F3150
G1 X120.800 Y20.674 E0.1161
G1 X118.413 Y18.287 E0.2408
G1 X117.847 Y18.287 E0.2617
G1 X120.800 Y21.239 E0.4161
G1 X120.800 Y21.805 E0.4370
G1 X117.282 Y18.287 E0.6209
G1 X116.716 Y18.287 E0.6418
G1 X120.800 Y22.371 E0.8552
G1 X120.800 Y22.936 E0.8761
G1 X116.150 Y18.287 E1.1191
G1 X115.585 Y18.287 E1.1400
G1 X120.800 Y23.502 E1.4126
G1 X120.800 Y24.068 E1.4335
G1 X115.019 Y18.287 E1.7356
G1 X114.453 Y18.287 E1.7565
G1 X120.800 Y24.634 E2.0882
G1 X120.800 Y25.199 E2.1092
G1 X113.888 Y18.287 E2.4704
G1 X113.322 Y18.287 E2.4913
G1 X120.800 Y25.765 E2.8822
G1 X120.800 Y26.331 E2.9031
G1 X112.756 Y18.287 E3.3235
G1 X112.191 Y18.287 E3.3444
G1 X120.800 Y26.896 E3.7943
G1 X120.800 Y27.462 E3.8152
G1 X111.625 Y18.287 E4.2948
G1 X111.059 Y18.287 E4.3157
G1 X120.800 Y28.028 E4.8248
G1 X120.800 Y28.593 E4.8457
G1 X110.493 Y18.287 E5.3843
G1 X109.928 Y18.287 E5.4052
G1 X120.800 Y29.159 E5.9734
G1 X120.800 Y29.725 E5.9943
G1 X109.362 Y18.287 E6.5921
G1 X108.796 Y18.287 E6.6130
G1 X120.800 Y30.290 E7.2404
G1 X120.800 Y30.856 E7.2613
G1 X108.231 Y18.287 E7.9182
G1 X107.665 Y18.287 E7.9391
G1 X120.800 Y31.422 E8.6256
G1 X120.800 Y31.987 E8.6465
G1 X107.099 Y18.287 E9.3625
G1 X106.534 Y18.287 E9.3834
G1 X120.800 Y32.553 E10.1290
G1 X120.800 Y33.119 E10.1500
G1 X105.968 Y18.287 E10.9251
G1 X105.402 Y18.287 E10.9460
G1 X120.800 Y33.684 E11.7508
G1 X120.800 Y34.250 E11.7717
G1 X104.837 Y18.287 E12.6060
G1 X104.271 Y18.287 E12.6269
G1 X120.800 Y34.816 E13.4907
G1 X120.800 Y35.382 E13.5116
G1 X103.705 Y18.287 E14.4051
G1 X103.140 Y18.287 E14.4260
G1 X120.800 Y35.947 E15.3490
G1 X120.800 Y36.513 E15.3699
G1 X102.574 Y18.287 E16.3224
G1 X102.008 Y18.287 E16.3433
G1 X120.800 Y37.079 E17.3255
G1 X120.800 Y37.644 E17.3464
G1 X101.443 Y18.287 E18.3581
G1 X100.877 Y18.287 E18.3790
G1 X120.800 Y38.210 E19.4202
G1 X120.800 Y38.776 E19.4411
G1 X100.576 Y18.551 E20.4981
G1 X100.293 Y18.834 E20.5129
G1 X120.800 Y39.341 E21.5847
G1 X120.800 Y39.907 E21.6056
G1 X100.010 Y19.117 E22.6921
G1 X99.727 Y19.400 E22.7069
G1 X120.800 Y40.473 E23.8082
G1 X120.800 Y41.038 E23.8291
G1 X99.444 Y19.683 E24.9453
G1 X99.200 Y19.927 E24.9580
G1 X99.200 Y20.004 E24.9609
G1 X120.800 Y41.604 E26.0898
G1 X120.800 Y42.170 E26.1107
G1 X99.200 Y20.570 E27.2396
G1 X99.200 Y21.136 E27.2605
G1 X120.800 Y42.735 E28.3893
G1 X120.800 Y43.301 E28.4102
G1 X99.200 Y21.701 E29.5391
G1 X99.200 Y22.267 E29.5600
G1 X120.800 Y43.867 E30.6889
G1 X120.800 Y44.432 E30.7098
G1 X99.200 Y22.833 E31.8387
G1 X99.200 Y23.398 E31.8596
G1 X120.800 Y44.998 E32.9885
G1 X120.800 Y45.564 E33.0094
G1 X99.200 Y23.964 E34.1383
G1 X99.200 Y24.530 E34.1592
G1 X120.800 Y46.130 E35.2881
G1 X120.800 Y46.695 E35.3090
G1 X99.200 Y25.095 E36.4379
G1 X99.200 Y25.661 E36.4588
G1 X120.800 Y47.261 E37.5876
G1 X120.800 Y47.827 E37.6085
G1 X99.200 Y26.227 E38.7374
G1 X99.200 Y26.792 E38.7583
G1 X120.800 Y48.392 E39.8872
G1 X120.800 Y48.958 E39.9081
G1 X99.200 Y27.358 E41.0370
G1 X99.200 Y27.924 E41.0579
G1 X120.800 Y49.524 E42.1868
G1 X120.800 Y50.089 E42.2077
G1 X99.200 Y28.489 E43.3366
G1 X99.200 Y29.055 E43.3575
G1 X120.800 Y50.655 E44.4864
G1 X120.800 Y51.221 E44.5073
G1 X99.200 Y29.621 E45.6362
G1 X99.200 Y30.186 E45.6571
G1 X120.800 Y51.786 E46.7859
G1 X120.800 Y52.352 E46.8068
G1 X99.200 Y30.752 E47.9357
G1 X99.200 Y31.318 E47.9566
G1 X120.800 Y52.918 E49.0855
G1 X120.800 Y53.483 E49.1064
G1 X99.200 Y31.884 E50.2353
G1 X99.200 Y32.449 E50.2562
G1 X120.800 Y54.049 E51.3851
G1 X120.800 Y54.615 E51.4060
G1 X99.200 Y33.015 E52.5349
G1 X99.200 Y33.581 E52.5558
G1 X120.800 Y55.180 E53.6847
G1 X120.800 Y55.746 E53.7056
G1 X99.200 Y34.146 E54.8345
G1 X99.200 Y34.712 E54.8554
G1 X120.800 Y56.312 E55.9842
G1 X120.800 Y56.878 E56.0051
G1 X99.200 Y35.278 E57.1340
G1 X99.200 Y35.843 E57.1549
G1 X120.800 Y57.443 E58.2838
G1 X120.800 Y58.009 E58.3047
G1 X99.200 Y36.409 E59.4336
G1 X99.200 Y36.975 E59.4545
G1 X120.800 Y58.575 E60.5834
G1 X120.800 Y59.140 E60.6043
G1 X99.200 Y37.540 E61.7332
G1 X99.200 Y38.106 E61.7541
G1 X120.800 Y59.706 E62.8830
G1 X120.800 Y60.272 E62.9039
G1 X99.200 Y38.672 E64.0328
G1 X99.200 Y39.237 E64.0537
G1 X120.800 Y60.837 E65.1825
G1 X120.800 Y61.403 E65.2034
G1 X99.200 Y39.803 E66.3323
G1 X99.200 Y40.369 E66.3532
G1 X120.800 Y61.969 E67.4821
G1 X120.800 Y62.534 E67.5030
G1 X99.200 Y40.934 E68.6319
G1 X99.200 Y41.500 E68.6528
G1 X120.800 Y63.100 E69.7817
G1 X120.800 Y63.666 E69.8026
G1 X99.200 Y42.066 E70.9315
G1 X99.200 Y42.632 E70.9524
G1 X120.800 Y64.231 E72.0813
G1 X120.800 Y64.797 E72.1022
G1 X99.200 Y43.197 E73.2311
G1 X99.200 Y43.763 E73.2520
G1 X120.800 Y65.363 E74.3808
G1 X120.800 Y65.929 E74.4017
G1 X99.200 Y44.329 E75.5306
G1 X99.200 Y44.894 E75.5515
G1 X120.800 Y66.494 E76.6804
G1 X120.800 Y67.060 E76.7013
G1 X99.200 Y45.460 E77.8302
G1 X99.200 Y46.026 E77.8511
G1 X120.800 Y67.626 E78.9800
G1 X120.800 Y68.191 E79.0009
G1 X99.200 Y46.591 E80.1298
G1 X99.200 Y47.157 E80.1507
G1 X120.800 Y68.757 E81.2796
G1 X120.800 Y69.323 E81.3005
G1 X99.200 Y47.723 E82.4294
G1 X99.200 Y48.288 E82.4503
G1 X120.800 Y69.888 E83.5791
G1 X120.800 Y70.454 E83.6000
G1 X99.200 Y48.854 E84.7289
