; G-Code generated by Simplify3D(R) Version 4.0.0
; Jul 21, 2019 at 7:18:30 AM
; Settings Summary
;   processName,Process1
;   applyToModels,Phone_Stand03
;   profileName,bar (modified)
;   profileVersion,2019-07-15 16:42:33
;   baseProfile,Default (modified)
;   printMaterial,PLA
;   printQuality,Medium
;   printExtruders,
;   extruderName,Primary Extruder
;   extruderToolheadNumber,0
;   extruderDiameter,0.4
;   extruderAutoWidth,0
;   extruderWidth,0.4
;   extrusionMultiplier,0.9
;   extruderUseRetract,1
;   extruderRetractionDistance,1
;   extruderExtraRestartDistance,0
;   extruderRetractionZLift,0
;   extruderRetractionSpeed,1800
;   extruderUseCoasting,0
;   extruderCoastingDistance,0.2
;   extruderUseWipe,0
;   extruderWipeDistance,5
;   primaryExtruder,0
;   layerHeight,0.3
;   topSolidLayers,3
;   bottomSolidLayers,3
;   perimeterOutlines,2
;   printPerimetersInsideOut,1
;   startPointOption,2
;   startPointOriginX,0
;   startPointOriginY,0
;   sequentialIslands,0
;   spiralVaseMode,0
;   firstLayerHeightPercentage,100
;   firstLayerWidthPercentage,100
;   firstLayerUnderspeed,0.5
;   useRaft,0
;   raftExtruder,0
;   raftTopLayers,3
;   raftBaseLayers,2
;   raftOffset,3
;   raftSeparationDistance,0.14
;   raftTopInfill,100
;   aboveRaftSpeedMultiplier,0.3
;   useSkirt,0
;   skirtExtruder,0
;   skirtLayers,1
;   skirtOutlines,2
;   skirtOffset,4
;   usePrimePillar,0
;   primePillarExtruder,999
;   primePillarWidth,12
;   primePillarLocation,7
;   primePillarSpeedMultiplier,1
;   useOozeShield,0
;   oozeShieldExtruder,999
;   oozeShieldOffset,2
;   oozeShieldOutlines,1
;   oozeShieldSidewallShape,1
;   oozeShieldSidewallAngle,30
;   oozeShieldSpeedMultiplier,1
;   infillExtruder,0
;   internalInfillPattern,Rectilinear
;   externalInfillPattern,Rectilinear
;   infillPercentage,10
;   outlineOverlapPercentage,15
;   infillExtrusionWidthPercentage,100
;   minInfillLength,5
;   infillLayerInterval,1
;   internalInfillAngles,45,-45
;   overlapInternalInfillAngles,0
;   externalInfillAngles,45,-45
;   generateSupport,1
;   supportExtruder,0
;   supportInfillPercentage,30
;   supportExtraInflation,0
;   supportBaseLayers,0
;   denseSupportExtruder,0
;   denseSupportLayers,0
;   denseSupportInfillPercentage,70
;   supportLayerInterval,1
;   supportHorizontalPartOffset,0.3
;   supportUpperSeparationLayers,1
;   supportLowerSeparationLayers,1
;   supportType,0
;   supportGridSpacing,4
;   maxOverhangAngle,45
;   supportAngles,0
;   temperatureName,Primary Extruder,Hot Bed
;   temperatureNumber,0,1
;   temperatureSetpointCount,1,1
;   temperatureSetpointLayers,1,1
;   temperatureSetpointTemperatures,210,60
;   temperatureStabilizeAtStartup,1,1
;   temperatureHeatedBed,0,1
;   temperatureRelayBetweenLayers,0,0
;   temperatureRelayBetweenLoops,0,0
;   fanLayers,1,2
;   fanSpeeds,0,100
;   blipFanToFullPower,0
;   adjustSpeedForCooling,1
;   minSpeedLayerTime,15
;   minCoolingSpeedSlowdown,20
;   increaseFanForCooling,0
;   minFanLayerTime,45
;   maxCoolingFanSpeed,100
;   increaseFanForBridging,0
;   bridgingFanSpeed,100
;   use5D,1
;   relativeEdistances,0
;   allowEaxisZeroing,1
;   independentExtruderAxes,0
;   includeM10123,0
;   stickySupport,1
;   applyToolheadOffsets,0
;   gcodeXoffset,0
;   gcodeYoffset,0
;   gcodeZoffset,0
;   overrideMachineDefinition,0
;   machineTypeOverride,0
;   strokeXoverride,200
;   strokeYoverride,200
;   strokeZoverride,200
;   originOffsetXoverride,0
;   originOffsetYoverride,0
;   originOffsetZoverride,0
;   homeXdirOverride,-1
;   homeYdirOverride,-1
;   homeZdirOverride,-1
;   flipXoverride,1
;   flipYoverride,-1
;   flipZoverride,1
;   toolheadOffsets,0,0|0,0|0,0|0,0|0,0|0,0
;   overrideFirmwareConfiguration,0
;   firmwareTypeOverride,RepRap (Marlin/Repetier/Sprinter)
;   GPXconfigOverride,r2
;   baudRateOverride,115200
;   overridePrinterModels,0
;   printerModelsOverride
;   startingGcode,G28 ; home all axes,G1 X0 Y10 Z0.2 F3000 ; get ready to prime,G92 E0 ; reset extrusion distance,G1 X120 E20 F600 ; prime nozzle
;   layerChangeGcode,
;   retractionGcode,
;   toolChangeGcode,
;   endingGcode,M104 S0 ; turn off extruder,M140 S0 ; turn off bed,M84 ; disable motors
;   exportFileFormat,gcode
;   celebration,0
;   celebrationSong,Random Song
;   postProcessing,
;   defaultSpeed,4600
;   outlineUnderspeed,0.5
;   solidInfillUnderspeed,0.8
;   supportUnderspeed,0.8
;   rapidXYspeed,4800
;   rapidZspeed,1000
;   minBridgingArea,50
;   bridgingExtraInflation,0
;   bridgingExtrusionMultiplier,1
;   bridgingSpeedMultiplier,1
;   useFixedBridgingAngle,0
;   fixedBridgingAngle,0
;   applyBridgingToPerimeters,0
;   filamentDiameters,1.75|1.75|1.75|1.75|1.75|1.75
;   filamentPricesPerKg,46|46|46|46|46|46
;   filamentDensities,1.25|1.25|1.25|1.25|1.25|1.25
;   useMinPrintHeight,0
;   minPrintHeight,0
;   useMaxPrintHeight,0
;   maxPrintHeight,0
;   useDiaphragm,0
;   diaphragmLayerInterval,20
;   robustSlicing,1
;   mergeAllIntoSolid,0
;   onlyRetractWhenCrossingOutline,1
;   retractBetweenLayers,1
;   useRetractionMinTravel,0
;   retractionMinTravel,3
;   retractWhileWiping,0
;   onlyWipeOutlines,1
;   avoidCrossingOutline,0
;   maxMovementDetourFactor,3
;   toolChangeRetractionDistance,12
;   toolChangeExtraRestartDistance,-0.5
;   toolChangeRetractionSpeed,600
;   externalThinWallType,1
;   internalThinWallType,1
;   thinWallAllowedOverlapPercentage,10
;   singleExtrusionMinLength,1
;   singleExtrusionMinPrintingWidthPercentage,50
;   singleExtrusionMaxPrintingWidthPercentage,200
;   singleExtrusionEndpointExtension,0.2
;   horizontalSizeCompensation,0
G90
M82
M106 S0
M140 S60
M190 S60
M104 S210 T0
M109 S210 T0
G28 ; home all axes
G1 X0 Y10 Z0.2 F3000 ; get ready to prime
G92 E0 ; reset extrusion distance
G1 X120 E20 F600 ; prime nozzle
G92 E0
G1 E-1.0000 F1800
G1 Z0.300 F1000
; process Process1
; layer 1, Z = 0.300
T0
; tool H0.300 W0.400
; inner perimeter
G1 X38.408 Y40.029 F4800
G1 E0.0000 F540
G92 E0
G1 X39.203 Y39.350 E0.0469 F1725
G1 X40.078 Y38.778 E0.0939
G1 X41.019 Y38.324 E0.1408
G1 X42.011 Y37.993 E0.1877
G1 X43.037 Y37.793 E0.2347
G1 X44.099 Y37.725 E0.2825
G1 X116.248 Y37.725 E3.5220
G1 X116.463 Y37.735 E3.5317
G1 X116.662 Y37.765 E3.5408
G1 X116.857 Y37.814 E3.5498
G1 X117.046 Y37.881 E3.5588
G1 X117.228 Y37.967 E3.5678
G1 X117.401 Y38.071 E3.5769
G1 X117.562 Y38.190 E3.5859
G1 X117.711 Y38.326 E3.5949
G1 X117.846 Y38.475 E3.6040
G1 X117.966 Y38.636 E3.6130
G1 X118.070 Y38.809 E3.6220
G1 X118.156 Y38.990 E3.6310
G1 X118.223 Y39.180 E3.6401
G1 X118.272 Y39.375 E3.6491
G1 X118.301 Y39.566 E3.6578
G1 X118.312 Y40.066 E3.6802
G1 X118.302 Y40.275 E3.6896
G1 X118.272 Y40.474 E3.6987
G1 X118.223 Y40.669 E3.7077
G1 X118.156 Y40.859 E3.7167
G1 X118.070 Y41.040 E3.7258
G1 X117.966 Y41.213 E3.7348
G1 X117.846 Y41.374 E3.7438
G1 X117.711 Y41.523 E3.7529
G1 X117.562 Y41.658 E3.7619
G1 X117.401 Y41.778 E3.7709
G1 X117.228 Y41.882 E3.7799
G1 X117.047 Y41.968 E3.7890
G1 X116.857 Y42.035 E3.7980
G1 X116.662 Y42.084 E3.8070
G1 X116.463 Y42.114 E3.8161
G1 X116.248 Y42.124 E3.8258
G1 X64.025 Y42.124 E6.1706
G1 X62.059 Y42.250 E6.2591
G1 X60.106 Y42.629 E6.3484
G1 X58.217 Y43.254 E6.4377
G1 X56.424 Y44.114 E6.5270
G1 X54.754 Y45.195 E6.6164
G1 X53.236 Y46.481 E6.7057
G1 X51.894 Y47.949 E6.7950
G1 X50.750 Y49.577 E6.8843
G1 X49.823 Y51.337 E6.9736
G1 X49.127 Y53.200 E7.0630
G1 X48.675 Y55.137 E7.1523
G1 X48.473 Y57.116 E7.2416
G1 X48.524 Y59.105 E7.3309
G1 X48.829 Y61.071 E7.4202
G1 X49.382 Y62.982 E7.5096
G1 X50.166 Y64.789 E7.5980
G1 X62.771 Y89.412 E8.8401
G1 X63.689 Y90.940 E8.9201
G1 X64.789 Y92.291 E8.9983
G1 X66.066 Y93.474 E9.0765
G1 X67.496 Y94.468 E9.1547
G1 X69.050 Y95.252 E9.2329
G1 X70.695 Y95.811 E9.3109
G1 X72.410 Y96.136 E9.3892
G1 X74.149 Y96.218 E9.4674
G1 X75.879 Y96.056 E9.5454
G1 X77.577 Y95.654 E9.6238
G1 X79.198 Y95.019 E9.7020
G1 X80.715 Y94.164 E9.7802
G1 X82.095 Y93.108 E9.8582
G1 X83.319 Y91.864 E9.9365
G1 X84.355 Y90.464 E10.0147
G1 X85.175 Y88.953 E10.0919
G1 X99.282 Y57.957 E11.6210
G1 X99.405 Y57.718 E11.6331
G1 X99.543 Y57.505 E11.6445
G1 X99.702 Y57.306 E11.6559
G1 X99.879 Y57.124 E11.6673
G1 X100.071 Y56.962 E11.6786
G1 X100.283 Y56.817 E11.6902
G1 X100.505 Y56.695 E11.7015
G1 X100.737 Y56.596 E11.7128
G1 X100.981 Y56.518 E11.7244
G1 X101.230 Y56.466 E11.7358
G1 X101.480 Y56.439 E11.7471
G1 X101.736 Y56.436 E11.7586
G1 X101.987 Y56.459 E11.7699
G1 X102.237 Y56.506 E11.7813
G1 X102.483 Y56.578 E11.7928
G1 X102.731 Y56.679 E11.8048
G1 X113.436 Y61.671 E12.3352
G1 X113.677 Y61.797 E12.3474
G1 X113.891 Y61.938 E12.3589
G1 X114.091 Y62.099 E12.3704
G1 X114.274 Y62.278 E12.3820
G1 X114.439 Y62.475 E12.3935
G1 X114.584 Y62.687 E12.4050
G1 X114.707 Y62.911 E12.4165
G1 X114.808 Y63.147 E12.4280
G1 X114.886 Y63.392 E12.4395
G1 X114.939 Y63.643 E12.4511
G1 X114.968 Y63.897 E12.4626
G1 X114.971 Y64.154 E12.4741
G1 X114.950 Y64.409 E12.4856
G1 X114.904 Y64.662 E12.4971
G1 X114.833 Y64.908 E12.5086
G1 X114.734 Y65.160 E12.5208
G1 X113.382 Y68.148 E12.6680
G1 X113.241 Y68.393 E12.6808
G1 X113.064 Y68.595 E12.6928
G1 X112.989 Y68.659 E12.6972
G1 X112.748 Y68.809 E12.7100
G1 X112.645 Y68.854 E12.7150
G1 X112.537 Y68.888 E12.7201
G1 X112.272 Y68.932 E12.7322
G1 X112.018 Y68.924 E12.7436
G1 X111.765 Y68.864 E12.7552
G1 X111.395 Y68.705 E12.7734
G1 X111.159 Y68.568 E12.7856
G1 X110.962 Y68.393 E12.7974
G1 X110.901 Y68.320 E12.8017
G1 X110.764 Y68.095 E12.8135
G1 X110.675 Y67.848 E12.8253
G1 X110.657 Y67.755 E12.8296
G1 X110.644 Y67.476 E12.8421
G1 X110.654 Y67.382 E12.8463
G1 X110.720 Y67.128 E12.8581
G1 X112.048 Y64.377 E12.9953
G1 X106.225 Y61.615 E13.2847
G1 X105.893 Y61.478 E13.3008
G1 X105.536 Y61.371 E13.3175
G1 X105.170 Y61.300 E13.3343
G1 X104.799 Y61.264 E13.3510
G1 X104.427 Y61.266 E13.3678
G1 X104.056 Y61.303 E13.3845
G1 X103.690 Y61.378 E13.4012
G1 X103.334 Y61.487 E13.4180
G1 X102.993 Y61.630 E13.4346
G1 X102.663 Y61.808 E13.4514
G1 X102.353 Y62.017 E13.4682
G1 X102.066 Y62.255 E13.4849
G1 X101.806 Y62.517 E13.5015
G1 X101.569 Y62.809 E13.5184
G1 X101.365 Y63.117 E13.5350
G1 X101.196 Y63.436 E13.5512
G1 X74.567 Y120.536 E16.3802
G1 X74.344 Y120.542 E16.3902
G1 X36.894 Y49.681 E19.9889
G1 X36.458 Y48.710 E20.0367
G1 X36.156 Y47.709 E20.0836
G1 X35.985 Y46.678 E20.1306
G1 X35.947 Y45.634 E20.1775
G1 X36.043 Y44.593 E20.2244
G1 X36.272 Y43.573 E20.2714
G1 X36.629 Y42.594 E20.3182
G1 X37.111 Y41.663 E20.3652
G1 X37.708 Y40.802 E20.4123
G1 X38.408 Y40.029 E20.4591
; outer perimeter
G1 X38.129 Y39.741 F4800
G92 E0
G1 X38.962 Y39.029 E0.0492 F1150
G1 X39.881 Y38.429 E0.0985
G1 X40.868 Y37.952 E0.1477
G1 X41.909 Y37.606 E0.1970
G1 X42.985 Y37.395 E0.2462
G1 X44.086 Y37.325 E0.2958
G1 X116.257 Y37.325 E3.5363
G1 X116.502 Y37.337 E3.5474
G1 X116.740 Y37.372 E3.5581
G1 X116.973 Y37.430 E3.5689
G1 X117.200 Y37.511 E3.5797
G1 X117.417 Y37.614 E3.5905
G1 X117.623 Y37.738 E3.6013
G1 X117.816 Y37.881 E3.6121
G1 X117.995 Y38.042 E3.6229
G1 X118.156 Y38.220 E3.6337
G1 X118.299 Y38.414 E3.6445
G1 X118.423 Y38.620 E3.6553
G1 X118.526 Y38.837 E3.6661
G1 X118.607 Y39.063 E3.6769
G1 X118.665 Y39.297 E3.6877
G1 X118.700 Y39.532 E3.6984
G1 X118.712 Y40.071 E3.7226
G1 X118.700 Y40.314 E3.7335
G1 X118.665 Y40.552 E3.7443
G1 X118.607 Y40.785 E3.7551
G1 X118.526 Y41.012 E3.7659
G1 X118.423 Y41.229 E3.7767
G1 X118.299 Y41.435 E3.7875
G1 X118.156 Y41.629 E3.7983
G1 X117.995 Y41.807 E3.8091
G1 X117.816 Y41.968 E3.8199
G1 X117.623 Y42.111 E3.8307
G1 X117.417 Y42.235 E3.8415
G1 X117.200 Y42.338 E3.8523
G1 X116.973 Y42.419 E3.8631
G1 X116.740 Y42.477 E3.8738
G1 X116.502 Y42.512 E3.8846
G1 X116.257 Y42.524 E3.8957
G1 X64.038 Y42.524 E6.2404
G1 X62.110 Y42.648 E6.3271
G1 X60.207 Y43.017 E6.4141
G1 X58.367 Y43.625 E6.5012
G1 X56.620 Y44.463 E6.5882
G1 X54.993 Y45.517 E6.6752
G1 X53.514 Y46.769 E6.7622
G1 X52.206 Y48.200 E6.8493
G1 X51.092 Y49.786 E6.9363
G1 X50.188 Y51.500 E7.0233
G1 X49.511 Y53.316 E7.1103
G1 X49.070 Y55.203 E7.1974
G1 X48.873 Y57.131 E7.2844
G1 X48.924 Y59.069 E7.3714
G1 X49.221 Y60.984 E7.4584
G1 X49.759 Y62.846 E7.5454
G1 X50.528 Y64.618 E7.6322
G1 X63.121 Y89.217 E8.8730
G1 X64.017 Y90.710 E8.9512
G1 X65.081 Y92.017 E9.0269
G1 X66.317 Y93.162 E9.1025
G1 X67.701 Y94.124 E9.1782
G1 X69.205 Y94.883 E9.2539
G1 X70.797 Y95.423 E9.3294
G1 X72.457 Y95.738 E9.4052
G1 X74.140 Y95.817 E9.4808
G1 X75.814 Y95.661 E9.5563
G1 X77.457 Y95.271 E9.6322
G1 X79.026 Y94.657 E9.7078
G1 X80.494 Y93.829 E9.7835
G1 X81.829 Y92.807 E9.8590
G1 X83.014 Y91.603 E9.9348
G1 X84.017 Y90.249 E10.0105
G1 X84.817 Y88.774 E10.0858
G1 X98.922 Y57.782 E11.6148
G1 X99.059 Y57.517 E11.6281
G1 X99.218 Y57.271 E11.6413
G1 X99.401 Y57.041 E11.6545
G1 X99.606 Y56.831 E11.6677
G1 X99.829 Y56.644 E11.6808
G1 X100.073 Y56.476 E11.6940
G1 X100.330 Y56.335 E11.7072
G1 X100.597 Y56.220 E11.7203
G1 X100.880 Y56.131 E11.7336
G1 X101.167 Y56.071 E11.7467
G1 X101.456 Y56.039 E11.7598
G1 X101.752 Y56.036 E11.7731
G1 X102.042 Y56.062 E11.7862
G1 X102.330 Y56.117 E11.7994
G1 X102.614 Y56.200 E11.8126
G1 X102.891 Y56.312 E11.8260
G1 X113.614 Y61.312 E12.3573
G1 X113.880 Y61.452 E12.3708
G1 X114.127 Y61.614 E12.3841
G1 X114.357 Y61.800 E12.3973
G1 X114.568 Y62.007 E12.4106
G1 X114.758 Y62.233 E12.4239
G1 X114.925 Y62.477 E12.4371
G1 X115.067 Y62.736 E12.4504
G1 X115.184 Y63.008 E12.4637
G1 X115.273 Y63.289 E12.4770
G1 X115.334 Y63.579 E12.4902
G1 X115.367 Y63.872 E12.5035
G1 X115.372 Y64.168 E12.5168
G1 X115.347 Y64.462 E12.5300
G1 X115.294 Y64.753 E12.5433
G1 X115.213 Y65.037 E12.5566
G1 X115.102 Y65.317 E12.5701
G1 X113.739 Y68.330 E12.7186
G1 X113.567 Y68.627 E12.7340
G1 X113.346 Y68.880 E12.7491
G1 X113.225 Y68.983 E12.7562
G1 X112.934 Y69.164 E12.7716
G1 X112.786 Y69.228 E12.7789
G1 X112.632 Y69.278 E12.7861
G1 X112.298 Y69.333 E12.8013
G1 X111.966 Y69.322 E12.8162
G1 X111.639 Y69.246 E12.8313
G1 X111.214 Y69.062 E12.8521
G1 X110.924 Y68.894 E12.8671
G1 X110.674 Y68.673 E12.8821
G1 X110.574 Y68.553 E12.8891
G1 X110.401 Y68.268 E12.9041
G1 X110.289 Y67.956 E12.9190
G1 X110.258 Y67.803 E12.9260
G1 X110.243 Y67.464 E12.9412
G1 X110.259 Y67.311 E12.9481
G1 X110.342 Y66.989 E12.9631
G1 X111.513 Y64.566 E13.0839
G1 X106.064 Y61.981 E13.3547
G1 X105.759 Y61.856 E13.3695
G1 X105.440 Y61.760 E13.3845
G1 X105.113 Y61.696 E13.3994
G1 X104.781 Y61.664 E13.4144
G1 X104.448 Y61.666 E13.4294
G1 X104.116 Y61.699 E13.4443
G1 X103.789 Y61.766 E13.4593
G1 X103.471 Y61.864 E13.4743
G1 X103.165 Y61.991 E13.4891
G1 X102.870 Y62.151 E13.5042
G1 X102.593 Y62.337 E13.5192
G1 X102.337 Y62.550 E13.5342
G1 X102.104 Y62.785 E13.5490
G1 X101.892 Y63.046 E13.5641
G1 X101.709 Y63.322 E13.5789
G1 X101.555 Y63.614 E13.5938
G1 X74.589 Y121.434 E16.4585
G1 X74.366 Y121.440 E16.4685
G1 X36.535 Y49.857 E20.1039
G1 X36.083 Y48.850 E20.1535
G1 X35.766 Y47.800 E20.2027
G1 X35.586 Y46.718 E20.2519
G1 X35.546 Y45.622 E20.3012
G1 X35.647 Y44.530 E20.3504
G1 X35.888 Y43.460 E20.3997
G1 X36.262 Y42.433 E20.4488
G1 X36.768 Y41.456 E20.4982
G1 X37.395 Y40.553 E20.5475
G1 X38.129 Y39.741 E20.5967
G92 E0
G1 E-1.0000 F1800
; solid layer
G1 X67.444 Y94.823 F4800
G1 E0.0000 F1800
G92 E0
G1 X80.224 Y107.603 E0.8115 F1840
G1 X80.404 Y107.217 E0.8306
G1 X68.586 Y95.399 E1.5810
G1 X68.918 Y95.567 E1.5977
G1 X69.525 Y95.773 E1.6265
G1 X80.583 Y106.831 E2.3287
G1 X80.763 Y106.445 E2.3478
G1 X70.382 Y96.063 E3.0071
G1 X70.609 Y96.140 E3.0178
G1 X71.122 Y96.238 E3.0413
G1 X80.943 Y106.059 E3.6649
G1 X81.123 Y105.674 E3.6840
G1 X71.820 Y96.370 E4.2748
G1 X72.370 Y96.474 E4.3000
G1 X72.496 Y96.480 E4.3056
G1 X81.303 Y105.288 E4.8649
G1 X81.483 Y104.902 E4.8840
G1 X73.089 Y96.508 E5.4170
G1 X73.683 Y96.536 E5.4437
G1 X81.663 Y104.516 E5.9504
G1 X81.843 Y104.131 E5.9695
G1 X74.261 Y96.549 E6.4510
G1 X74.779 Y96.501 E6.4743
G1 X82.023 Y103.745 E6.9343
G1 X82.203 Y103.359 E6.9534
G1 X75.296 Y96.452 E7.3920
G1 X75.813 Y96.404 E7.4153
G1 X82.383 Y102.973 E7.8325
G1 X82.563 Y102.587 E7.8516
G1 X76.285 Y96.310 E8.2502
G1 X76.742 Y96.201 E8.2713
G1 X82.742 Y102.202 E8.6524
G1 X82.922 Y101.816 E8.6715
G1 X77.199 Y96.093 E9.0349
G1 X77.656 Y95.984 E9.0560
G1 X83.102 Y101.430 E9.4018
