; G-Code generated by Simplify3D(R) Version 4.0.0
; Jul 28, 2019 at 2:25:12 PM
; Settings Summary
;   processName,Process2
;   applyToModels,phone_stand_v4
;   profileName,Default(2) (modified)
;   profileVersion,2019-07-27 15:21:07
;   baseProfile,
;   printMaterial,PLA
;   printQuality,Medium
;   printExtruders,
;   extruderName,Primary Extruder
;   extruderToolheadNumber,0
;   extruderDiameter,0.4
;   extruderAutoWidth,0
;   extruderWidth,0.4
;   extrusionMultiplier,0.9
;   extruderUseRetract,1
;   extruderRetractionDistance,1
;   extruderExtraRestartDistance,0
;   extruderRetractionZLift,0
;   extruderRetractionSpeed,1800
;   extruderUseCoasting,0
;   extruderCoastingDistance,0.2
;   extruderUseWipe,0
;   extruderWipeDistance,5
;   primaryExtruder,0
;   layerHeight,0.3
;   topSolidLayers,3
;   bottomSolidLayers,2
;   perimeterOutlines,2
;   printPerimetersInsideOut,0
;   startPointOption,2
;   startPointOriginX,0
;   startPointOriginY,0
;   sequentialIslands,0
;   spiralVaseMode,0
;   firstLayerHeightPercentage,90
;   firstLayerWidthPercentage,100
;   firstLayerUnderspeed,0.5
;   useRaft,0
;   raftExtruder,0
;   raftTopLayers,3
;   raftBaseLayers,2
;   raftOffset,3
;   raftSeparationDistance,0.14
;   raftTopInfill,100
;   aboveRaftSpeedMultiplier,0.3
;   useSkirt,0
;   skirtExtruder,0
;   skirtLayers,1
;   skirtOutlines,2
;   skirtOffset,4
;   usePrimePillar,0
;   primePillarExtruder,999
;   primePillarWidth,12
;   primePillarLocation,7
;   primePillarSpeedMultiplier,1
;   useOozeShield,0
;   oozeShieldExtruder,999
;   oozeShieldOffset,2
;   oozeShieldOutlines,1
;   oozeShieldSidewallShape,1
;   oozeShieldSidewallAngle,30
;   oozeShieldSpeedMultiplier,1
;   infillExtruder,0
;   internalInfillPattern,Rectilinear
;   externalInfillPattern,Rectilinear
;   infillPercentage,15
;   outlineOverlapPercentage,15
;   infillExtrusionWidthPercentage,100
;   minInfillLength,5
;   infillLayerInterval,1
;   internalInfillAngles,45,-45
;   overlapInternalInfillAngles,0
;   externalInfillAngles,45,-45
;   generateSupport,1
;   supportExtruder,0
;   supportInfillPercentage,30
;   supportExtraInflation,0
;   supportBaseLayers,0
;   denseSupportExtruder,0
;   denseSupportLayers,0
;   denseSupportInfillPercentage,70
;   supportLayerInterval,1
;   supportHorizontalPartOffset,0.3
;   supportUpperSeparationLayers,1
;   supportLowerSeparationLayers,1
;   supportType,0
;   supportGridSpacing,4
;   maxOverhangAngle,45
;   supportAngles,0
;   temperatureName,Primary Extruder,Hot Bed
;   temperatureNumber,0,1
;   temperatureSetpointCount,1,1
;   temperatureSetpointLayers,1,1
;   temperatureSetpointTemperatures,210,60
;   temperatureStabilizeAtStartup,1,0
;   temperatureHeatedBed,0,1
;   temperatureRelayBetweenLayers,0,0
;   temperatureRelayBetweenLoops,0,0
;   fanLayers,1,2
;   fanSpeeds,0,100
;   blipFanToFullPower,0
;   adjustSpeedForCooling,1
;   minSpeedLayerTime,15
;   minCoolingSpeedSlowdown,20
;   increaseFanForCooling,0
;   minFanLayerTime,45
;   maxCoolingFanSpeed,100
;   increaseFanForBridging,0
;   bridgingFanSpeed,100
;   use5D,1
;   relativeEdistances,0
;   allowEaxisZeroing,1
;   independentExtruderAxes,0
;   includeM10123,0
;   stickySupport,1
;   applyToolheadOffsets,0
;   gcodeXoffset,0
;   gcodeYoffset,0
;   gcodeZoffset,0
;   overrideMachineDefinition,0
;   machineTypeOverride,0
;   strokeXoverride,200
;   strokeYoverride,200
;   strokeZoverride,200
;   originOffsetXoverride,0
;   originOffsetYoverride,0
;   originOffsetZoverride,0
;   homeXdirOverride,-1
;   homeYdirOverride,-1
;   homeZdirOverride,-1
;   flipXoverride,1
;   flipYoverride,-1
;   flipZoverride,1
;   toolheadOffsets,0,0|0,0|0,0|0,0|0,0|0,0
;   overrideFirmwareConfiguration,0
;   firmwareTypeOverride,RepRap (Marlin/Repetier/Sprinter)
;   GPXconfigOverride,r2
;   baudRateOverride,115200
;   overridePrinterModels,0
;   printerModelsOverride
;   startingGcode,G28 ; home all axes,G1 X0 Y210 Z0.2 F3000 ; get ready to prime,G92 E0 ; reset extrusion distance,G1 X150 E20 F600 ; prime nozzle
;   layerChangeGcode,
;   retractionGcode,
;   toolChangeGcode,
;   endingGcode,G28 ; home all axes,M104 S0 ; turn off extruder,M140 S0 ; turn off bed,M84 ; disable motors
;   exportFileFormat,gcode
;   celebration,0
;   celebrationSong,Random Song
;   postProcessing,
;   defaultSpeed,4600
;   outlineUnderspeed,0.5
;   solidInfillUnderspeed,0.8
;   supportUnderspeed,0.8
;   rapidXYspeed,4800
;   rapidZspeed,1000
;   minBridgingArea,50
;   bridgingExtraInflation,0
;   bridgingExtrusionMultiplier,1
;   bridgingSpeedMultiplier,1
;   useFixedBridgingAngle,0
;   fixedBridgingAngle,0
;   applyBridgingToPerimeters,0
;   filamentDiameters,1.75|1.75|1.75|1.75|1.75|1.75
;   filamentPricesPerKg,46|46|46|46|46|46
;   filamentDensities,1.25|1.25|1.25|1.25|1.25|1.25
;   useMinPrintHeight,0
;   minPrintHeight,0
;   useMaxPrintHeight,0
;   maxPrintHeight,0
;   useDiaphragm,0
;   diaphragmLayerInterval,20
;   robustSlicing,1
;   mergeAllIntoSolid,0
;   onlyRetractWhenCrossingOutline,1
;   retractBetweenLayers,1
;   useRetractionMinTravel,0
;   retractionMinTravel,3
;   retractWhileWiping,0
;   onlyWipeOutlines,1
;   avoidCrossingOutline,0
;   maxMovementDetourFactor,3
;   toolChangeRetractionDistance,12
;   toolChangeExtraRestartDistance,-0.5
;   toolChangeRetractionSpeed,600
;   externalThinWallType,1
;   internalThinWallType,1
;   thinWallAllowedOverlapPercentage,10
;   singleExtrusionMinLength,1
;   singleExtrusionMinPrintingWidthPercentage,50
;   singleExtrusionMaxPrintingWidthPercentage,200
;   singleExtrusionEndpointExtension,0.2
;   horizontalSizeCompensation,0
G90
M82
M106 S0
M140 S60
M104 S210 T0
M109 S210 T0
G28 ; home all axes
G1 X0 Y210 Z0.2 F3000 ; get ready to prime
G92 E0 ; reset extrusion distance
G1 X150 E20 F600 ; prime nozzle
G92 E0
G1 E-1.0000 F1800
G1 Z0.270 F1000
; process Process2
; layer 1, Z = 0.270
T0
; tool H0.300 W0.400
; outer perimeter
G1 X77.392 Y62.096 F4800
G1 E0.0000 F540
G92 E0
G1 X78.392 Y60.886 E0.0705 F1150
G1 X79.566 Y59.856 E0.1406
G1 X80.893 Y59.024 E0.2110
G1 X82.335 Y58.413 E0.2813
G1 X83.856 Y58.040 E0.3516
G1 X85.425 Y57.914 E0.4223
G1 X160.939 Y57.914 E3.8129
G1 X160.939 Y65.514 E4.1542
G1 X96.413 Y65.514 E7.0515
G1 X94.606 Y65.659 E7.1329
G1 X92.837 Y66.091 E7.2147
G1 X91.160 Y66.800 E7.2964
G1 X89.617 Y67.768 E7.3782
G1 X88.248 Y68.968 E7.4599
G1 X87.088 Y70.372 E7.5417
G1 X86.166 Y71.942 E7.6235
G1 X85.506 Y73.639 E7.7052
G1 X85.125 Y75.419 E7.7870
G1 X85.033 Y77.238 E7.8687
G1 X85.231 Y79.048 E7.9505
G1 X85.713 Y80.795 E8.0319
G1 X106.635 Y138.280 E10.7787
G1 X107.350 Y139.825 E10.8551
G1 X108.317 Y141.236 E10.9319
G1 X109.506 Y142.466 E11.0087
G1 X110.884 Y143.479 E11.0855
G1 X112.412 Y144.248 E11.1623
G1 X114.047 Y144.751 E11.2391
G1 X115.743 Y144.974 E11.3159
G1 X117.452 Y144.910 E11.3927
G1 X119.126 Y144.561 E11.4695
G1 X120.719 Y143.938 E11.5463
G1 X122.185 Y143.057 E11.6231
G1 X123.484 Y141.943 E11.6999
G1 X124.578 Y140.628 E11.7767
G1 X125.437 Y139.149 E11.8535
G1 X126.031 Y137.562 E11.9297
G1 X138.259 Y103.967 E13.5349
G1 X138.705 Y102.989 E13.5832
G1 X139.294 Y102.099 E13.6311
G1 X140.014 Y101.312 E13.6790
G1 X140.849 Y100.648 E13.7269
G1 X141.778 Y100.123 E13.7748
G1 X142.777 Y99.749 E13.8227
G1 X143.823 Y99.536 E13.8706
G1 X144.889 Y99.490 E13.9185
G1 X145.949 Y99.611 E13.9664
G1 X146.978 Y99.896 E14.0144
G1 X159.212 Y104.348 E14.5990
G1 X159.900 Y104.662 E14.6329
G1 X160.528 Y105.077 E14.6667
G1 X161.084 Y105.585 E14.7005
G1 X161.554 Y106.174 E14.7343
G1 X161.925 Y106.829 E14.7682
G1 X162.190 Y107.534 E14.8020
G1 X162.340 Y108.271 E14.8358
G1 X162.374 Y109.024 E14.8696
G1 X162.290 Y109.772 E14.9034
G1 X162.087 Y110.505 E14.9376
G1 X160.723 Y114.254 E15.1167
G1 X160.603 Y114.517 E15.1296
G1 X160.448 Y114.752 E15.1423
G1 X160.257 Y114.961 E15.1550
G1 X160.037 Y115.137 E15.1677
G1 X159.791 Y115.276 E15.1804
G1 X159.527 Y115.375 E15.1930
G1 X159.250 Y115.432 E15.2057
G1 X158.968 Y115.444 E15.2184
G1 X158.688 Y115.413 E15.2311
G1 X158.408 Y115.335 E15.2441
G1 X156.541 Y114.656 E15.3333
G1 X156.279 Y114.537 E15.3462
G1 X156.043 Y114.381 E15.3589
G1 X155.835 Y114.191 E15.3716
G1 X155.659 Y113.970 E15.3843
G1 X155.520 Y113.724 E15.3969
G1 X155.421 Y113.460 E15.4096
G1 X155.364 Y113.183 E15.4223
G1 X155.351 Y112.901 E15.4350
G1 X155.383 Y112.621 E15.4476
G1 X155.460 Y112.341 E15.4607
G1 X156.487 Y109.520 E15.5955
G1 X156.535 Y109.346 E15.6036
G1 X156.556 Y109.159 E15.6120
G1 X156.548 Y108.971 E15.6205
G1 X156.511 Y108.786 E15.6289
G1 X156.445 Y108.610 E15.6374
G1 X156.352 Y108.446 E15.6459
G1 X156.235 Y108.298 E15.6543
G1 X156.096 Y108.171 E15.6628
G1 X155.939 Y108.067 E15.6712
G1 X155.774 Y107.992 E15.6794
G1 X147.276 Y104.899 E16.0854
G1 X146.800 Y104.767 E16.1076
G1 X146.301 Y104.710 E16.1302
G1 X145.799 Y104.732 E16.1527
G1 X145.307 Y104.832 E16.1753
G1 X144.836 Y105.008 E16.1978
G1 X144.399 Y105.255 E16.2204
G1 X144.006 Y105.568 E16.2429
G1 X143.667 Y105.938 E16.2655
G1 X143.390 Y106.357 E16.2880
G1 X143.185 Y106.807 E16.3102
G1 X125.400 Y155.670 E18.6450
G1 X124.671 Y157.216 E18.7218
G1 X123.688 Y158.609 E18.7983
G1 X122.479 Y159.811 E18.8749
G1 X121.079 Y160.785 E18.9515
G1 X119.532 Y161.502 E19.0280
G1 X117.884 Y161.940 E19.1046
G1 X116.186 Y162.085 E19.1811
G1 X114.487 Y161.934 E19.2577
G1 X112.841 Y161.490 E19.3343
G1 X111.296 Y160.768 E19.4108
G1 X109.900 Y159.789 E19.4874
G1 X108.695 Y158.583 E19.5639
G1 X107.717 Y157.186 E19.6405
G1 X106.992 Y155.633 E19.7175
G1 X76.215 Y71.073 E23.7580
G1 X75.797 Y69.559 E23.8285
G1 X75.626 Y68.002 E23.8988
G1 X75.705 Y66.438 E23.9691
G1 X76.032 Y64.907 E24.0395
G1 X76.600 Y63.447 E24.1098
G1 X77.392 Y62.096 E24.1801
; inner perimeter
G1 X77.721 Y62.326 F4800
G92 E0
G1 X78.680 Y61.166 E0.0676 F1725
G1 X79.806 Y60.178 E0.1349
G1 X81.079 Y59.379 E0.2023
G1 X82.462 Y58.794 E0.2698
G1 X83.920 Y58.437 E0.3372
G1 X85.441 Y58.314 E0.4057
G1 X160.539 Y58.314 E3.7777
G1 X160.539 Y65.114 E4.0830
G1 X96.397 Y65.114 E6.9631
G1 X94.542 Y65.263 E7.0467
G1 X92.711 Y65.711 E7.1313
G1 X90.975 Y66.445 E7.2159
G1 X89.378 Y67.446 E7.3006
G1 X87.961 Y68.689 E7.3852
G1 X86.759 Y70.141 E7.4698
G1 X85.805 Y71.767 E7.5545
G1 X85.122 Y73.524 E7.6391
G1 X84.727 Y75.367 E7.7238
G1 X84.631 Y77.249 E7.8084
G1 X84.837 Y79.123 E7.8930
G1 X85.331 Y80.917 E7.9766
G1 X106.265 Y138.433 E10.7249
G1 X107.001 Y140.024 E10.8036
G1 X108.006 Y141.490 E10.8834
G1 X109.242 Y142.768 E10.9632
G1 X110.674 Y143.821 E11.0430
G1 X112.262 Y144.621 E11.1229
G1 X113.961 Y145.143 E11.2027
G1 X115.724 Y145.375 E11.2825
G1 X117.500 Y145.308 E11.3623
G1 X119.241 Y144.946 E11.4422
G1 X120.896 Y144.298 E11.5220
G1 X122.420 Y143.382 E11.6018
G1 X123.770 Y142.225 E11.6816
G1 X124.907 Y140.858 E11.7615
G1 X125.800 Y139.321 E11.8413
G1 X126.407 Y137.700 E11.9190
G1 X138.630 Y104.118 E13.5236
G1 X139.056 Y103.183 E13.5698
G1 X139.610 Y102.346 E13.6149
G1 X140.288 Y101.606 E13.6599
G1 X141.074 Y100.981 E13.7050
G1 X141.948 Y100.486 E13.7501
G1 X142.888 Y100.135 E13.7952
G1 X143.872 Y99.935 E13.8403
G1 X144.875 Y99.891 E13.8853
G1 X145.873 Y100.004 E13.9304
G1 X146.856 Y100.277 E13.9762
G1 X159.061 Y104.719 E14.5594
G1 X159.706 Y105.013 E14.5912
G1 X160.282 Y105.393 E14.6222
G1 X160.791 Y105.859 E14.6532
G1 X161.221 Y106.398 E14.6842
G1 X161.562 Y106.999 E14.7152
G1 X161.804 Y107.645 E14.7462
G1 X161.942 Y108.321 E14.7772
G1 X161.973 Y109.010 E14.8082
G1 X161.896 Y109.696 E14.8391
G1 X161.706 Y110.384 E14.8712
G1 X160.353 Y114.103 E15.0489
G1 X160.252 Y114.322 E15.0597
G1 X160.131 Y114.506 E15.0696
G1 X159.983 Y114.668 E15.0794
G1 X159.812 Y114.804 E15.0893
G1 X159.621 Y114.913 E15.0991
G1 X159.416 Y114.990 E15.1090
G1 X159.201 Y115.034 E15.1188
G1 X158.982 Y115.043 E15.1287
G1 X158.764 Y115.019 E15.1385
G1 X158.530 Y114.954 E15.1494
G1 X156.693 Y114.286 E15.2372
G1 X156.473 Y114.186 E15.2480
G1 X156.290 Y114.065 E15.2579
G1 X156.128 Y113.917 E15.2677
G1 X155.991 Y113.745 E15.2776
G1 X155.883 Y113.554 E15.2874
G1 X155.806 Y113.349 E15.2973
G1 X155.762 Y113.134 E15.3071
G1 X155.752 Y112.915 E15.3170
G1 X155.777 Y112.697 E15.3268
G1 X155.842 Y112.463 E15.3377
G1 X156.868 Y109.642 E15.4725
G1 X156.929 Y109.423 E15.4827
G1 X156.957 Y109.173 E15.4940
G1 X156.946 Y108.922 E15.5053
G1 X156.896 Y108.675 E15.5166
G1 X156.808 Y108.440 E15.5279
G1 X156.685 Y108.221 E15.5392
G1 X156.528 Y108.025 E15.5505
G1 X156.343 Y107.855 E15.5617
G1 X156.133 Y107.716 E15.5730
G1 X155.926 Y107.622 E15.5833
G1 X147.398 Y104.518 E15.9907
G1 X146.876 Y104.373 E16.0151
G1 X146.315 Y104.309 E16.0404
G1 X145.750 Y104.334 E16.0658
G1 X145.196 Y104.446 E16.0912
G1 X144.667 Y104.644 E16.1166
G1 X144.175 Y104.923 E16.1419
G1 X143.733 Y105.274 E16.1673
G1 X143.351 Y105.691 E16.1927
G1 X143.039 Y106.163 E16.2181
G1 X142.814 Y106.655 E16.2424
G1 X125.030 Y155.516 E18.5771
G1 X124.324 Y157.014 E18.6515
G1 X123.382 Y158.350 E18.7249
G1 X122.222 Y159.503 E18.7983
G1 X120.880 Y160.437 E18.8717
G1 X119.396 Y161.124 E18.9452
G1 X117.815 Y161.544 E19.0186
G1 X116.186 Y161.684 E19.0920
G1 X114.558 Y161.538 E19.1654
G1 X112.979 Y161.113 E19.2388
G1 X111.497 Y160.421 E19.3123
G1 X110.158 Y159.482 E19.3857
G1 X109.003 Y158.325 E19.4591
G1 X108.065 Y156.986 E19.5325
G1 X107.362 Y155.480 E19.6071
G1 X76.596 Y70.951 E23.6462
G1 X76.191 Y69.484 E23.7145
G1 X76.027 Y67.991 E23.7820
G1 X76.103 Y66.491 E23.8494
G1 X76.417 Y65.022 E23.9168
G1 X76.961 Y63.622 E23.9843
G1 X77.721 Y62.326 E24.0517
; solid layer
G1 X159.861 Y58.654 F4800
G92 E0
G1 X160.199 Y58.993 E0.0215 F1840
G1 X160.199 Y59.558 E0.0469
G1 X159.295 Y58.654 E0.1044
G1 X158.729 Y58.654 E0.1298
G1 X160.199 Y60.124 E0.2231
G1 X160.199 Y60.690 E0.2485
G1 X158.164 Y58.654 E0.3778
G1 X157.598 Y58.654 E0.4032
G1 X160.199 Y61.255 E0.5684
G1 X160.199 Y61.821 E0.5938
G1 X157.032 Y58.654 E0.7949
G1 X156.466 Y58.654 E0.8203
G1 X160.199 Y62.387 E1.0574
G1 X160.199 Y62.952 E1.0828
G1 X155.901 Y58.654 E1.3557
G1 X155.335 Y58.654 E1.3811
G1 X160.199 Y63.518 E1.6900
G1 X160.199 Y64.084 E1.7154
G1 X154.769 Y58.654 E2.0602
G1 X154.204 Y58.654 E2.0856
G1 X160.199 Y64.650 E2.4663
G1 X160.199 Y64.774 E2.4719
G1 X159.758 Y64.774 E2.4917
G1 X153.638 Y58.654 E2.8803
G1 X153.072 Y58.654 E2.9057
G1 X159.192 Y64.774 E3.2944
G1 X158.627 Y64.774 E3.3198
G1 X152.507 Y58.654 E3.7084
G1 X151.941 Y58.654 E3.7338
G1 X158.061 Y64.774 E4.1224
G1 X157.495 Y64.774 E4.1478
G1 X151.375 Y58.654 E4.5364
G1 X150.810 Y58.654 E4.5618
G1 X156.930 Y64.774 E4.9504
G1 X156.364 Y64.774 E4.9758
G1 X150.244 Y58.654 E5.3645
G1 X149.678 Y58.654 E5.3898
G1 X155.798 Y64.774 E5.7785
G1 X155.233 Y64.774 E5.8039
G1 X149.113 Y58.654 E6.1925
G1 X148.547 Y58.654 E6.2179
G1 X154.667 Y64.774 E6.6065
G1 X154.101 Y64.774 E6.6319
G1 X147.981 Y58.654 E7.0205
G1 X147.416 Y58.654 E7.0459
G1 X153.535 Y64.774 E7.4345
G1 X152.970 Y64.774 E7.4599
G1 X146.850 Y58.654 E7.8485
G1 X146.284 Y58.654 E7.8739
G1 X152.404 Y64.774 E8.2626
G1 X151.838 Y64.774 E8.2880
G1 X145.718 Y58.654 E8.6766
G1 X145.153 Y58.654 E8.7020
G1 X151.273 Y64.774 E9.0906
G1 X150.707 Y64.774 E9.1160
G1 X144.587 Y58.654 E9.5046
G1 X144.021 Y58.654 E9.5300
G1 X150.141 Y64.774 E9.9186
G1 X149.576 Y64.774 E9.9440
G1 X143.456 Y58.654 E10.3326
G1 X142.890 Y58.654 E10.3580
G1 X149.010 Y64.774 E10.7467
G1 X148.444 Y64.774 E10.7721
G1 X142.324 Y58.654 E11.1607
G1 X141.759 Y58.654 E11.1861
G1 X147.879 Y64.774 E11.5747
G1 X147.313 Y64.774 E11.6001
G1 X141.193 Y58.654 E11.9887
G1 X140.627 Y58.654 E12.0141
G1 X146.747 Y64.774 E12.4027
G1 X146.182 Y64.774 E12.4281
G1 X140.062 Y58.654 E12.8167
G1 X139.496 Y58.654 E12.8421
G1 X145.616 Y64.774 E13.2307
G1 X145.050 Y64.774 E13.2561
G1 X138.930 Y58.654 E13.6448
G1 X138.365 Y58.654 E13.6702
G1 X144.485 Y64.774 E14.0588
G1 X143.919 Y64.774 E14.0842
G1 X137.799 Y58.654 E14.4728
G1 X137.233 Y58.654 E14.4982
G1 X143.353 Y64.774 E14.8868
G1 X142.787 Y64.774 E14.9122
G1 X136.668 Y58.654 E15.3008
G1 X136.102 Y58.654 E15.3262
G1 X142.222 Y64.774 E15.7148
G1 X141.656 Y64.774 E15.7402
G1 X135.536 Y58.654 E16.1288
G1 X134.971 Y58.654 E16.1542
G1 X141.090 Y64.774 E16.5428
G1 X140.525 Y64.774 E16.5682
