; G-Code generated by Simplify3D(R) Version 4.0.0
; Jul 20, 2019 at 11:54:31 PM
; Settings Summary
;   processName,Process1
;   applyToModels,Phone_Stand03
;   profileName,bar (modified)
;   profileVersion,2019-07-15 16:42:33
;   baseProfile,Default (modified)
;   printMaterial,PLA
;   printQuality,Medium
;   printExtruders,
;   extruderName,Primary Extruder
;   extruderToolheadNumber,0
;   extruderDiameter,0.4
;   extruderAutoWidth,0
;   extruderWidth,0.4
;   extrusionMultiplier,0.9
;   extruderUseRetract,1
;   extruderRetractionDistance,1
;   extruderExtraRestartDistance,0
;   extruderRetractionZLift,0
;   extruderRetractionSpeed,1800
;   extruderUseCoasting,0
;   extruderCoastingDistance,0.2
;   extruderUseWipe,0
;   extruderWipeDistance,5
;   primaryExtruder,0
;   layerHeight,0.3
;   topSolidLayers,3
;   bottomSolidLayers,3
;   perimeterOutlines,2
;   printPerimetersInsideOut,1
;   startPointOption,2
;   startPointOriginX,0
;   startPointOriginY,0
;   sequentialIslands,0
;   spiralVaseMode,0
;   firstLayerHeightPercentage,100
;   firstLayerWidthPercentage,100
;   firstLayerUnderspeed,0.5
;   useRaft,0
;   raftExtruder,0
;   raftTopLayers,3
;   raftBaseLayers,2
;   raftOffset,3
;   raftSeparationDistance,0.14
;   raftTopInfill,100
;   aboveRaftSpeedMultiplier,0.3
;   useSkirt,0
;   skirtExtruder,0
;   skirtLayers,1
;   skirtOutlines,2
;   skirtOffset,4
;   usePrimePillar,0
;   primePillarExtruder,999
;   primePillarWidth,12
;   primePillarLocation,7
;   primePillarSpeedMultiplier,1
;   useOozeShield,0
;   oozeShieldExtruder,999
;   oozeShieldOffset,2
;   oozeShieldOutlines,1
;   oozeShieldSidewallShape,1
;   oozeShieldSidewallAngle,30
;   oozeShieldSpeedMultiplier,1
;   infillExtruder,0
;   internalInfillPattern,Rectilinear
;   externalInfillPattern,Rectilinear
;   infillPercentage,20
;   outlineOverlapPercentage,15
;   infillExtrusionWidthPercentage,100
;   minInfillLength,5
;   infillLayerInterval,1
;   internalInfillAngles,45,-45
;   overlapInternalInfillAngles,0
;   externalInfillAngles,45,-45
;   generateSupport,1
;   supportExtruder,0
;   supportInfillPercentage,30
;   supportExtraInflation,0
;   supportBaseLayers,0
;   denseSupportExtruder,0
;   denseSupportLayers,0
;   denseSupportInfillPercentage,70
;   supportLayerInterval,1
;   supportHorizontalPartOffset,0.3
;   supportUpperSeparationLayers,1
;   supportLowerSeparationLayers,1
;   supportType,0
;   supportGridSpacing,4
;   maxOverhangAngle,45
;   supportAngles,0
;   temperatureName,Primary Extruder,Hot Bed
;   temperatureNumber,0,1
;   temperatureSetpointCount,1,1
;   temperatureSetpointLayers,1,1
;   temperatureSetpointTemperatures,210,60
;   temperatureStabilizeAtStartup,1,1
;   temperatureHeatedBed,0,1
;   temperatureRelayBetweenLayers,0,0
;   temperatureRelayBetweenLoops,0,0
;   fanLayers,1,2
;   fanSpeeds,0,100
;   blipFanToFullPower,0
;   adjustSpeedForCooling,1
;   minSpeedLayerTime,15
;   minCoolingSpeedSlowdown,20
;   increaseFanForCooling,0
;   minFanLayerTime,45
;   maxCoolingFanSpeed,100
;   increaseFanForBridging,0
;   bridgingFanSpeed,100
;   use5D,1
;   relativeEdistances,0
;   allowEaxisZeroing,1
;   independentExtruderAxes,0
;   includeM10123,0
;   stickySupport,1
;   applyToolheadOffsets,0
;   gcodeXoffset,0
;   gcodeYoffset,0
;   gcodeZoffset,0
;   overrideMachineDefinition,0
;   machineTypeOverride,0
;   strokeXoverride,200
;   strokeYoverride,200
;   strokeZoverride,200
;   originOffsetXoverride,0
;   originOffsetYoverride,0
;   originOffsetZoverride,0
;   homeXdirOverride,-1
;   homeYdirOverride,-1
;   homeZdirOverride,-1
;   flipXoverride,1
;   flipYoverride,-1
;   flipZoverride,1
;   toolheadOffsets,0,0|0,0|0,0|0,0|0,0|0,0
;   overrideFirmwareConfiguration,0
;   firmwareTypeOverride,RepRap (Marlin/Repetier/Sprinter)
;   GPXconfigOverride,r2
;   baudRateOverride,115200
;   overridePrinterModels,0
;   printerModelsOverride
;   startingGcode,G28 ; home all axes,G1 X0 Y20 Z0.2 F3000 ; get ready to prime,G92 E0 ; reset extrusion distance,G1 X120 E20 F600 ; prime nozzle
;   layerChangeGcode,
;   retractionGcode,
;   toolChangeGcode,
;   endingGcode,M104 S0 ; turn off extruder,M140 S0 ; turn off bed,M84 ; disable motors
;   exportFileFormat,gcode
;   celebration,0
;   celebrationSong,Random Song
;   postProcessing,
;   defaultSpeed,4600
;   outlineUnderspeed,0.5
;   solidInfillUnderspeed,0.8
;   supportUnderspeed,0.8
;   rapidXYspeed,4800
;   rapidZspeed,1000
;   minBridgingArea,50
;   bridgingExtraInflation,0
;   bridgingExtrusionMultiplier,1
;   bridgingSpeedMultiplier,1
;   useFixedBridgingAngle,0
;   fixedBridgingAngle,0
;   applyBridgingToPerimeters,0
;   filamentDiameters,1.75|1.75|1.75|1.75|1.75|1.75
;   filamentPricesPerKg,46|46|46|46|46|46
;   filamentDensities,1.25|1.25|1.25|1.25|1.25|1.25
;   useMinPrintHeight,0
;   minPrintHeight,0
;   useMaxPrintHeight,0
;   maxPrintHeight,0
;   useDiaphragm,0
;   diaphragmLayerInterval,20
;   robustSlicing,1
;   mergeAllIntoSolid,0
;   onlyRetractWhenCrossingOutline,1
;   retractBetweenLayers,1
;   useRetractionMinTravel,0
;   retractionMinTravel,3
;   retractWhileWiping,0
;   onlyWipeOutlines,1
;   avoidCrossingOutline,0
;   maxMovementDetourFactor,3
;   toolChangeRetractionDistance,12
;   toolChangeExtraRestartDistance,-0.5
;   toolChangeRetractionSpeed,600
;   externalThinWallType,1
;   internalThinWallType,1
;   thinWallAllowedOverlapPercentage,10
;   singleExtrusionMinLength,1
;   singleExtrusionMinPrintingWidthPercentage,50
;   singleExtrusionMaxPrintingWidthPercentage,200
;   singleExtrusionEndpointExtension,0.2
;   horizontalSizeCompensation,0
G90
M82
M106 S0
M140 S60
M190 S60
M104 S210 T0
M109 S210 T0
G28 ; home all axes
G1 X0 Y20 Z0.2 F3000 ; get ready to prime
G92 E0 ; reset extrusion distance
G1 X120 E20 F600 ; prime nozzle
G92 E0
G1 E-1.0000 F1800
G1 Z0.300 F1000
; process Process1
; layer 1, Z = 0.300
T0
; tool H0.300 W0.400
; inner perimeter
G1 X66.367 Y67.100 F4800
G1 E0.0000 F540
G92 E0
G1 X139.199 Y67.100 E3.2702 F1725
G1 X139.267 Y85.591 E4.1005
G1 X139.401 Y132.900 E6.2247
G1 X66.034 Y132.900 E9.5190
G1 X66.367 Y67.100 E12.4735
; outer perimeter
G1 X65.969 Y66.700 F4800
G92 E0
G1 X139.597 Y66.700 E3.3060 F1150
G1 X139.667 Y85.410 E4.1461
G1 X139.802 Y133.300 E6.2964
G1 X65.632 Y133.300 E9.6267
G1 X65.969 Y66.700 E12.6172
; solid layer
G1 X66.940 Y132.560 F4800
G92 E0
G1 X66.379 Y131.998 E0.0357 F1840
G1 X66.382 Y131.436 E0.0609
G1 X67.506 Y132.560 E0.1323
G1 X68.072 Y132.560 E0.1577
G1 X66.385 Y130.873 E0.2649
G1 X66.388 Y130.310 E0.2901
G1 X68.638 Y132.560 E0.4330
G1 X69.203 Y132.560 E0.4584
G1 X66.390 Y129.747 E0.6370
G1 X66.393 Y129.184 E0.6623
G1 X69.769 Y132.560 E0.8767
G1 X70.335 Y132.560 E0.9021
G1 X66.396 Y128.621 E1.1522
G1 X66.399 Y128.059 E1.1774
G1 X70.900 Y132.560 E1.4633
G1 X71.466 Y132.560 E1.4887
G1 X66.402 Y127.496 E1.8103
G1 X66.405 Y126.933 E1.8355
G1 X72.032 Y132.560 E2.1928
G1 X72.597 Y132.560 E2.2182
G1 X66.407 Y126.370 E2.6113
G1 X66.410 Y125.807 E2.6366
G1 X73.163 Y132.560 E3.0654
G1 X73.729 Y132.560 E3.0908
G1 X66.413 Y125.244 E3.5553
G1 X66.416 Y124.682 E3.5806
G1 X74.294 Y132.560 E4.0809
G1 X74.860 Y132.560 E4.1063
G1 X66.419 Y124.119 E4.6423
G1 X66.422 Y123.556 E4.6676
G1 X75.426 Y132.560 E5.2393
G1 X75.991 Y132.560 E5.2647
G1 X66.425 Y122.993 E5.8722
G1 X66.427 Y122.430 E5.8975
G1 X76.557 Y132.560 E6.5407
G1 X77.123 Y132.560 E6.5661
G1 X66.430 Y121.867 E7.2451
G1 X66.433 Y121.305 E7.2704
G1 X77.689 Y132.560 E7.9851
G1 X78.254 Y132.560 E8.0105
G1 X66.436 Y120.742 E8.7610
G1 X66.439 Y120.179 E8.7862
G1 X78.820 Y132.560 E9.5724
G1 X79.386 Y132.560 E9.5978
G1 X66.442 Y119.616 E10.4198
G1 X66.444 Y119.053 E10.4450
G1 X79.951 Y132.560 E11.3027
G1 X80.517 Y132.560 E11.3281
G1 X66.447 Y118.490 E12.2215
G1 X66.450 Y117.928 E12.2468
G1 X81.083 Y132.560 E13.1760
G1 X81.648 Y132.560 E13.2014
G1 X66.453 Y117.365 E14.1663
G1 X66.456 Y116.802 E14.1915
G1 X82.214 Y132.560 E15.1922
G1 X82.780 Y132.560 E15.2176
G1 X66.459 Y116.239 E16.2540
G1 X66.462 Y115.676 E16.2792
G1 X83.345 Y132.560 E17.3514
G1 X83.911 Y132.560 E17.3768
G1 X66.464 Y115.113 E18.4846
G1 X66.467 Y114.550 E18.5099
G1 X84.477 Y132.560 E19.6535
G1 X85.042 Y132.560 E19.6789
G1 X66.470 Y113.988 E20.8582
G1 X66.473 Y113.425 E20.8835
G1 X85.608 Y132.560 E22.0986
G1 X86.174 Y132.560 E22.1240
G1 X66.476 Y112.862 E23.3748
G1 X66.479 Y112.299 E23.4001
G1 X86.739 Y132.560 E24.6866
G1 X87.305 Y132.560 E24.7120
G1 X66.481 Y111.736 E26.0343
G1 X66.484 Y111.173 E26.0596
G1 X87.871 Y132.560 E27.4177
G1 X88.437 Y132.560 E27.4431
G1 X66.487 Y110.611 E28.8368
G1 X66.490 Y110.048 E28.8621
G1 X89.002 Y132.560 E30.2916
G1 X89.568 Y132.560 E30.3170
G1 X66.493 Y109.485 E31.7823
G1 X66.496 Y108.922 E31.8076
G1 X90.134 Y132.560 E33.3086
G1 X90.699 Y132.560 E33.3340
G1 X66.499 Y108.359 E34.8707
G1 X66.501 Y107.796 E34.8960
G1 X91.265 Y132.560 E36.4685
G1 X91.831 Y132.560 E36.4939
G1 X66.504 Y107.234 E38.1021
G1 X66.507 Y106.671 E38.1274
G1 X92.396 Y132.560 E39.7713
G1 X92.962 Y132.560 E39.7967
G1 X66.510 Y106.108 E41.4764
G1 X66.513 Y105.545 E41.5017
G1 X93.528 Y132.560 E43.2171
G1 X94.093 Y132.560 E43.2425
G1 X66.516 Y104.982 E44.9937
G1 X66.519 Y104.419 E45.0190
G1 X94.659 Y132.560 E46.8059
G1 X95.225 Y132.560 E46.8313
G1 X66.521 Y103.857 E48.6540
G1 X66.524 Y103.294 E48.6792
G1 X95.790 Y132.560 E50.5377
G1 X96.356 Y132.560 E50.5631
G1 X66.527 Y102.731 E52.4572
G1 X66.530 Y102.168 E52.4825
G1 X96.922 Y132.560 E54.4123
G1 X97.488 Y132.560 E54.4377
G1 X66.533 Y101.605 E56.4034
G1 X66.536 Y101.042 E56.4286
G1 X98.053 Y132.560 E58.4300
G1 X98.619 Y132.560 E58.4554
G1 X66.538 Y100.480 E60.4925
G1 X66.541 Y99.917 E60.5178
G1 X99.185 Y132.560 E62.5906
G1 X99.750 Y132.560 E62.6160
G1 X66.544 Y99.354 E64.7246
G1 X66.547 Y98.791 E64.7499
G1 X100.316 Y132.560 E66.8942
G1 X100.882 Y132.560 E66.9196
G1 X66.550 Y98.228 E69.0997
G1 X66.553 Y97.665 E69.1249
G1 X101.447 Y132.560 E71.3407
G1 X102.013 Y132.560 E71.3661
G1 X66.556 Y97.103 E73.6177
G1 X66.558 Y96.540 E73.6430
G1 X102.579 Y132.560 E75.9302
G1 X103.144 Y132.560 E75.9556
G1 X66.561 Y95.977 E78.2787
G1 X66.564 Y95.414 E78.3039
G1 X103.710 Y132.560 E80.6627
G1 X104.276 Y132.560 E80.6881
G1 X66.567 Y94.851 E83.0826
G1 X66.570 Y94.288 E83.1079
G1 X104.841 Y132.560 E85.5381
G1 X105.407 Y132.560 E85.5635
G1 X66.573 Y93.726 E88.0295
G1 X66.575 Y93.163 E88.0548
G1 X105.973 Y132.560 E90.5565
G1 X106.538 Y132.560 E90.5819
G1 X66.578 Y92.600 E93.1194
G1 X66.581 Y92.037 E93.1446
G1 X107.104 Y132.560 E95.7179
G1 X107.670 Y132.560 E95.7433
G1 X66.584 Y91.474 E98.3522
G1 X66.587 Y90.911 E98.3775
G1 X108.236 Y132.560 E101.0222
G1 X108.801 Y132.560 E101.0476
G1 X66.590 Y90.348 E103.7280
G1 X66.593 Y89.786 E103.7533
G1 X109.367 Y132.560 E106.4694
G1 X109.933 Y132.560 E106.4948
G1 X66.595 Y89.223 E109.2467
G1 X66.598 Y88.660 E109.2720
G1 X110.498 Y132.560 E112.0596
G1 X111.064 Y132.560 E112.0850
G1 X66.601 Y88.097 E114.9084
G1 X66.604 Y87.534 E114.9337
G1 X111.630 Y132.560 E117.7928
G1 X112.195 Y132.560 E117.8182
G1 X66.607 Y86.971 E120.7131
G1 X66.610 Y86.409 E120.7384
G1 X112.761 Y132.560 E123.6690
G1 X113.327 Y132.560 E123.6944
G1 X66.612 Y85.846 E126.6607
G1 X66.615 Y85.283 E126.6860
G1 X113.892 Y132.560 E129.6881
G1 X114.458 Y132.560 E129.7135
G1 X66.618 Y84.720 E132.7513
G1 X66.621 Y84.157 E132.7766
G1 X115.024 Y132.560 E135.8501
G1 X115.589 Y132.560 E135.8755
G1 X66.624 Y83.594 E138.9848
G1 X66.627 Y83.032 E139.0101
G1 X116.155 Y132.560 E142.1552
G1 X116.721 Y132.560 E142.1806
G1 X66.630 Y82.469 E145.3613
G1 X66.632 Y81.906 E145.3866
G1 X117.287 Y132.560 E148.6031
G1 X117.852 Y132.560 E148.6285
G1 X66.635 Y81.343 E151.8808
G1 X66.638 Y80.780 E151.9061
G1 X118.418 Y132.560 E155.1941
G1 X118.984 Y132.560 E155.2195
G1 X66.641 Y80.217 E158.5432
G1 X66.644 Y79.655 E158.5685
G1 X119.549 Y132.560 E161.9280
G1 X120.115 Y132.560 E161.9534
G1 X66.647 Y79.092 E165.3486
G1 X66.650 Y78.529 E165.3739
G1 X120.681 Y132.560 E168.8049
G1 X121.246 Y132.560 E168.8303
G1 X66.652 Y77.966 E172.2970
G1 X66.655 Y77.403 E172.3222
G1 X121.812 Y132.560 E175.8247
G1 X122.378 Y132.560 E175.8501
G1 X66.658 Y76.840 E179.3883
G1 X66.661 Y76.278 E179.4135
G1 X122.943 Y132.560 E182.9875
G1 X123.509 Y132.560 E183.0129
G1 X66.664 Y75.715 E186.6225
G1 X66.667 Y75.152 E186.6478
G1 X124.075 Y132.560 E190.2932
G1 X124.640 Y132.560 E190.3186
G1 X66.669 Y74.589 E193.9998
G1 X66.672 Y74.026 E194.0250
G1 X125.206 Y132.560 E197.7419
G1 X125.772 Y132.560 E197.7673
G1 X66.675 Y73.463 E201.5200
G1 X66.678 Y72.901 E201.5452
G1 X126.337 Y132.560 E205.3336
G1 X126.903 Y132.560 E205.3590
G1 X66.681 Y72.338 E209.1831
G1 X66.684 Y71.775 E209.2084
G1 X127.469 Y132.560 E213.0682
G1 X128.035 Y132.560 E213.0936
G1 X66.687 Y71.212 E216.9892
G1 X66.689 Y70.649 E217.0145
G1 X128.600 Y132.560 E220.9458
G1 X129.166 Y132.560 E220.9712
G1 X66.692 Y70.086 E224.9383
G1 X66.695 Y69.524 E224.9636
G1 X129.732 Y132.560 E228.9664
G1 X130.297 Y132.560 E228.9918
G1 X66.698 Y68.961 E233.0303
G1 X66.701 Y68.398 E233.0556
G1 X130.863 Y132.560 E237.1299
G1 X131.429 Y132.560 E237.1553
G1 X66.704 Y67.835 E241.2653
G1 X66.706 Y67.440 E241.2830
G1 X66.874 Y67.440 E241.2906
G1 X131.994 Y132.560 E245.4257
G1 X132.560 Y132.560 E245.4511
G1 X67.440 Y67.440 E249.5862
G1 X68.006 Y67.440 E249.6116
G1 X133.126 Y132.560 E253.7468
G1 X133.691 Y132.560 E253.7722
G1 X68.571 Y67.440 E257.9073
G1 X69.137 Y67.440 E257.9327
G1 X134.257 Y132.560 E262.0678
G1 X134.823 Y132.560 E262.0932
G1 X69.703 Y67.440 E266.2283
G1 X70.268 Y67.440 E266.2537
G1 X135.388 Y132.560 E270.3888
G1 X135.954 Y132.560 E270.4142
G1 X70.834 Y67.440 E274.5493
G1 X71.400 Y67.440 E274.5747
G1 X136.520 Y132.560 E278.7098
G1 X137.085 Y132.560 E278.7352
G1 X71.965 Y67.440 E282.8703
G1 X72.531 Y67.440 E282.8957
G1 X137.651 Y132.560 E287.0308
G1 X138.217 Y132.560 E287.0562
G1 X73.097 Y67.440 E291.1913
G1 X73.663 Y67.440 E291.2167
G1 X138.783 Y132.560 E295.3519
G1 X139.060 Y132.560 E295.3643
G1 X139.059 Y132.271 E295.3773
G1 X74.228 Y67.440 E299.4941
G1 X74.794 Y67.440 E299.5195
G1 X139.058 Y131.704 E303.6002
G1 X139.056 Y131.137 E303.6257
G1 X75.360 Y67.440 E307.6704
G1 X75.925 Y67.440 E307.6958
G1 X139.055 Y130.569 E311.7045
G1 X139.053 Y130.002 E311.7300
G1 X76.491 Y67.440 E315.7027
G1 X77.057 Y67.440 E315.7281
G1 X139.051 Y129.435 E319.6647
G1 X139.050 Y128.867 E319.6902
G1 X77.622 Y67.440 E323.5908
G1 X78.188 Y67.440 E323.6162
G1 X139.048 Y128.300 E327.4809
G1 X139.047 Y127.733 E327.5063
G1 X78.754 Y67.440 E331.3349
G1 X79.319 Y67.440 E331.3603
G1 X139.045 Y127.166 E335.1529
G1 X139.043 Y126.598 E335.1784
G1 X79.885 Y67.440 E338.9349
G1 X80.451 Y67.440 E338.9603
G1 X139.042 Y126.031 E342.6808
G1 X139.040 Y125.464 E342.7063
G1 X81.016 Y67.440 E346.3908
G1 X81.582 Y67.440 E346.4162
G1 X139.039 Y124.896 E350.0647
G1 X139.037 Y124.329 E350.0901
G1 X82.148 Y67.440 E353.7026
G1 X82.714 Y67.440 E353.7280
G1 X139.035 Y123.762 E357.3044
G1 X139.034 Y123.195 E357.3299
G1 X83.279 Y67.440 E360.8703
G1 X83.845 Y67.440 E360.8957
G1 X139.032 Y122.627 E364.4001
G1 X139.031 Y122.060 E364.4255
G1 X84.411 Y67.440 E367.8939
G1 X84.976 Y67.440 E367.9193
G1 X139.029 Y121.493 E371.3516
G1 X139.027 Y120.925 E371.3771
G1 X85.542 Y67.440 E374.7734
G1 X86.108 Y67.440 E374.7988
G1 X139.026 Y120.358 E378.1591
G1 X139.024 Y119.791 E378.1846
G1 X86.673 Y67.440 E381.5089
G1 X87.239 Y67.440 E381.5343
G1 X139.022 Y119.223 E384.8225
G1 X139.021 Y118.656 E384.8480
G1 X87.805 Y67.440 E388.1002
G1 X88.370 Y67.440 E388.1256
G1 X139.019 Y118.089 E391.3418
G1 X139.018 Y117.522 E391.3673
G1 X88.936 Y67.440 E394.5474
G1 X89.502 Y67.440 E394.5728
G1 X139.016 Y116.954 E397.7170
G1 X139.014 Y116.387 E397.7425
G1 X90.067 Y67.440 E400.8506
G1 X90.633 Y67.440 E400.8760
G1 X139.013 Y115.820 E403.9481
G1 X139.011 Y115.252 E403.9736
G1 X91.199 Y67.440 E407.0097
G1 X91.764 Y67.440 E407.0351
G1 X139.010 Y114.685 E410.0351
G1 X139.008 Y114.118 E410.0606
G1 X92.330 Y67.440 E413.0246
G1 X92.896 Y67.440 E413.0500
G1 X139.006 Y113.551 E415.9781
G1 X139.005 Y112.983 E416.0035
G1 X93.462 Y67.440 E418.8955
G1 X94.027 Y67.440 E418.9209
