; G-Code generated by Simplify3D(R) Version 4.0.0
; Jul 21, 2019 at 12:06:31 AM
; Settings Summary
;   processName,Process1
;   applyToModels,Phone_Stand03
;   profileName,bar (modified)
;   profileVersion,2019-07-15 16:42:33
;   baseProfile,Default (modified)
;   printMaterial,PLA
;   printQuality,Medium
;   printExtruders,
;   extruderName,Primary Extruder
;   extruderToolheadNumber,0
;   extruderDiameter,0.4
;   extruderAutoWidth,0
;   extruderWidth,0.4
;   extrusionMultiplier,0.9
;   extruderUseRetract,1
;   extruderRetractionDistance,1
;   extruderExtraRestartDistance,0
;   extruderRetractionZLift,0
;   extruderRetractionSpeed,1800
;   extruderUseCoasting,0
;   extruderCoastingDistance,0.2
;   extruderUseWipe,0
;   extruderWipeDistance,5
;   primaryExtruder,0
;   layerHeight,0.3
;   topSolidLayers,3
;   bottomSolidLayers,3
;   perimeterOutlines,2
;   printPerimetersInsideOut,1
;   startPointOption,2
;   startPointOriginX,0
;   startPointOriginY,0
;   sequentialIslands,0
;   spiralVaseMode,0
;   firstLayerHeightPercentage,100
;   firstLayerWidthPercentage,100
;   firstLayerUnderspeed,0.5
;   useRaft,0
;   raftExtruder,0
;   raftTopLayers,3
;   raftBaseLayers,2
;   raftOffset,3
;   raftSeparationDistance,0.14
;   raftTopInfill,100
;   aboveRaftSpeedMultiplier,0.3
;   useSkirt,0
;   skirtExtruder,0
;   skirtLayers,1
;   skirtOutlines,2
;   skirtOffset,4
;   usePrimePillar,0
;   primePillarExtruder,999
;   primePillarWidth,12
;   primePillarLocation,7
;   primePillarSpeedMultiplier,1
;   useOozeShield,0
;   oozeShieldExtruder,999
;   oozeShieldOffset,2
;   oozeShieldOutlines,1
;   oozeShieldSidewallShape,1
;   oozeShieldSidewallAngle,30
;   oozeShieldSpeedMultiplier,1
;   infillExtruder,0
;   internalInfillPattern,Rectilinear
;   externalInfillPattern,Rectilinear
;   infillPercentage,20
;   outlineOverlapPercentage,15
;   infillExtrusionWidthPercentage,100
;   minInfillLength,5
;   infillLayerInterval,1
;   internalInfillAngles,45,-45
;   overlapInternalInfillAngles,0
;   externalInfillAngles,45,-45
;   generateSupport,1
;   supportExtruder,0
;   supportInfillPercentage,30
;   supportExtraInflation,0
;   supportBaseLayers,0
;   denseSupportExtruder,0
;   denseSupportLayers,0
;   denseSupportInfillPercentage,70
;   supportLayerInterval,1
;   supportHorizontalPartOffset,0.3
;   supportUpperSeparationLayers,1
;   supportLowerSeparationLayers,1
;   supportType,0
;   supportGridSpacing,4
;   maxOverhangAngle,45
;   supportAngles,0
;   temperatureName,Primary Extruder,Hot Bed
;   temperatureNumber,0,1
;   temperatureSetpointCount,1,1
;   temperatureSetpointLayers,1,1
;   temperatureSetpointTemperatures,210,60
;   temperatureStabilizeAtStartup,1,1
;   temperatureHeatedBed,0,1
;   temperatureRelayBetweenLayers,0,0
;   temperatureRelayBetweenLoops,0,0
;   fanLayers,1,2
;   fanSpeeds,0,100
;   blipFanToFullPower,0
;   adjustSpeedForCooling,1
;   minSpeedLayerTime,15
;   minCoolingSpeedSlowdown,20
;   increaseFanForCooling,0
;   minFanLayerTime,45
;   maxCoolingFanSpeed,100
;   increaseFanForBridging,0
;   bridgingFanSpeed,100
;   use5D,1
;   relativeEdistances,0
;   allowEaxisZeroing,1
;   independentExtruderAxes,0
;   includeM10123,0
;   stickySupport,1
;   applyToolheadOffsets,0
;   gcodeXoffset,0
;   gcodeYoffset,0
;   gcodeZoffset,0
;   overrideMachineDefinition,0
;   machineTypeOverride,0
;   strokeXoverride,200
;   strokeYoverride,200
;   strokeZoverride,200
;   originOffsetXoverride,0
;   originOffsetYoverride,0
;   originOffsetZoverride,0
;   homeXdirOverride,-1
;   homeYdirOverride,-1
;   homeZdirOverride,-1
;   flipXoverride,1
;   flipYoverride,-1
;   flipZoverride,1
;   toolheadOffsets,0,0|0,0|0,0|0,0|0,0|0,0
;   overrideFirmwareConfiguration,0
;   firmwareTypeOverride,RepRap (Marlin/Repetier/Sprinter)
;   GPXconfigOverride,r2
;   baudRateOverride,115200
;   overridePrinterModels,0
;   printerModelsOverride
;   startingGcode,G28 ; home all axes,G1 X0 Y20 Z0.2 F3000 ; get ready to prime,G92 E0 ; reset extrusion distance,G1 X120 E20 F600 ; prime nozzle
;   layerChangeGcode,
;   retractionGcode,
;   toolChangeGcode,
;   endingGcode,M104 S0 ; turn off extruder,M140 S0 ; turn off bed,M84 ; disable motors
;   exportFileFormat,gcode
;   celebration,0
;   celebrationSong,Random Song
;   postProcessing,
;   defaultSpeed,4600
;   outlineUnderspeed,0.5
;   solidInfillUnderspeed,0.8
;   supportUnderspeed,0.8
;   rapidXYspeed,4800
;   rapidZspeed,1000
;   minBridgingArea,50
;   bridgingExtraInflation,0
;   bridgingExtrusionMultiplier,1
;   bridgingSpeedMultiplier,1
;   useFixedBridgingAngle,0
;   fixedBridgingAngle,0
;   applyBridgingToPerimeters,0
;   filamentDiameters,1.75|1.75|1.75|1.75|1.75|1.75
;   filamentPricesPerKg,46|46|46|46|46|46
;   filamentDensities,1.25|1.25|1.25|1.25|1.25|1.25
;   useMinPrintHeight,0
;   minPrintHeight,0
;   useMaxPrintHeight,0
;   maxPrintHeight,0
;   useDiaphragm,0
;   diaphragmLayerInterval,20
;   robustSlicing,1
;   mergeAllIntoSolid,0
;   onlyRetractWhenCrossingOutline,1
;   retractBetweenLayers,1
;   useRetractionMinTravel,0
;   retractionMinTravel,3
;   retractWhileWiping,0
;   onlyWipeOutlines,1
;   avoidCrossingOutline,0
;   maxMovementDetourFactor,3
;   toolChangeRetractionDistance,12
;   toolChangeExtraRestartDistance,-0.5
;   toolChangeRetractionSpeed,600
;   externalThinWallType,1
;   internalThinWallType,1
;   thinWallAllowedOverlapPercentage,10
;   singleExtrusionMinLength,1
;   singleExtrusionMinPrintingWidthPercentage,50
;   singleExtrusionMaxPrintingWidthPercentage,200
;   singleExtrusionEndpointExtension,0.2
;   horizontalSizeCompensation,0
G90
M82
M106 S0
M140 S60
M190 S60
M104 S210 T0
M109 S210 T0
G28 ; home all axes
G1 X0 Y20 Z0.2 F3000 ; get ready to prime
G92 E0 ; reset extrusion distance
G1 X120 E20 F600 ; prime nozzle
G92 E0
G1 E-1.0000 F1800
G1 Z0.300 F1000
; process Process1
; layer 1, Z = 0.300
T0
; tool H0.300 W0.400
; inner perimeter
G1 X62.949 Y101.654 F4800
G1 E0.0000 F540
G92 E0
G1 X63.890 Y101.199 E0.0469 F1725
G1 X64.882 Y100.869 E0.0939
G1 X65.907 Y100.669 E0.1408
G1 X66.970 Y100.600 E0.1886
G1 X139.119 Y100.600 E3.4282
G1 X139.334 Y100.611 E3.4379
G1 X139.533 Y100.640 E3.4469
G1 X139.728 Y100.689 E3.4559
G1 X139.917 Y100.757 E3.4649
G1 X140.099 Y100.843 E3.4740
G1 X140.272 Y100.946 E3.4830
G1 X140.433 Y101.066 E3.4920
G1 X140.582 Y101.201 E3.5011
G1 X140.717 Y101.350 E3.5101
G1 X140.837 Y101.512 E3.5191
G1 X140.941 Y101.684 E3.5282
G1 X141.027 Y101.866 E3.5372
G1 X141.094 Y102.055 E3.5462
G1 X141.143 Y102.250 E3.5552
G1 X141.172 Y102.441 E3.5639
G1 X141.183 Y102.942 E3.5864
G1 X141.173 Y103.151 E3.5958
G1 X141.143 Y103.350 E3.6048
G1 X141.094 Y103.545 E3.6138
G1 X141.027 Y103.734 E3.6229
G1 X140.941 Y103.916 E3.6319
G1 X140.837 Y104.088 E3.6409
G1 X140.717 Y104.250 E3.6500
G1 X140.582 Y104.399 E3.6590
G1 X140.433 Y104.534 E3.6680
G1 X140.272 Y104.654 E3.6771
G1 X140.099 Y104.757 E3.6861
G1 X139.917 Y104.843 E3.6951
G1 X139.728 Y104.911 E3.7041
G1 X139.533 Y104.960 E3.7132
G1 X139.334 Y104.989 E3.7222
G1 X139.119 Y105.000 E3.7319
G1 X86.896 Y105.000 E6.0768
G1 X84.930 Y105.126 E6.1652
G1 X82.977 Y105.504 E6.2545
G1 X81.088 Y106.129 E6.3439
G1 X79.294 Y106.989 E6.4332
G1 X77.625 Y108.071 E6.5225
G1 X76.107 Y109.356 E6.6118
G1 X74.765 Y110.825 E6.7011
G1 X73.621 Y112.452 E6.7905
G1 X72.694 Y114.212 E6.8798
G1 X71.998 Y116.076 E6.9691
G1 X71.546 Y118.013 E7.0584
G1 X71.344 Y119.992 E7.1477
G1 X71.395 Y121.980 E7.2371
G1 X71.700 Y123.946 E7.3264
G1 X72.253 Y125.857 E7.4157
G1 X73.037 Y127.664 E7.5042
G1 X85.642 Y152.287 E8.7462
G1 X86.560 Y153.815 E8.8262
G1 X87.660 Y155.166 E8.9045
G1 X88.937 Y156.350 E8.9826
G1 X90.367 Y157.344 E9.0608
G1 X91.921 Y158.128 E9.1390
G1 X93.566 Y158.686 E9.2170
G1 X95.281 Y159.011 E9.2954
G1 X97.020 Y159.093 E9.3736
G1 X98.750 Y158.932 E9.4516
G1 X100.448 Y158.529 E9.5299
G1 X102.069 Y157.894 E9.6081
G1 X103.586 Y157.039 E9.6863
G1 X104.966 Y155.983 E9.7643
G1 X106.190 Y154.740 E9.8427
G1 X107.226 Y153.340 E9.9208
G1 X108.046 Y151.828 E9.9981
G1 X122.153 Y120.832 E11.5272
G1 X122.276 Y120.594 E11.5392
G1 X122.414 Y120.380 E11.5507
G1 X122.573 Y120.182 E11.5621
G1 X122.750 Y120.000 E11.5735
G1 X122.942 Y119.838 E11.5848
G1 X123.154 Y119.692 E11.5963
G1 X123.376 Y119.570 E11.6077
G1 X123.608 Y119.471 E11.6190
G1 X123.852 Y119.394 E11.6305
G1 X124.101 Y119.342 E11.6419
G1 X124.351 Y119.315 E11.6532
G1 X124.607 Y119.312 E11.6647
G1 X124.858 Y119.334 E11.6760
G1 X125.108 Y119.381 E11.6874
G1 X125.354 Y119.454 E11.6989
G1 X125.602 Y119.554 E11.7110
G1 X136.307 Y124.547 E12.2413
G1 X136.548 Y124.673 E12.2535
G1 X136.762 Y124.813 E12.2651
G1 X136.962 Y124.974 E12.2766
G1 X137.145 Y125.154 E12.2881
G1 X137.310 Y125.351 E12.2996
G1 X137.455 Y125.562 E12.3111
G1 X137.578 Y125.787 E12.3226
G1 X137.679 Y126.023 E12.3342
G1 X137.757 Y126.267 E12.3457
G1 X137.810 Y126.518 E12.3572
G1 X137.839 Y126.773 E12.3687
G1 X137.842 Y127.029 E12.3802
G1 X137.821 Y127.285 E12.3917
G1 X137.775 Y127.537 E12.4033
G1 X137.704 Y127.784 E12.4148
G1 X137.605 Y128.036 E12.4270
G1 X136.253 Y131.023 E12.5742
G1 X136.111 Y131.269 E12.5869
G1 X135.935 Y131.470 E12.5989
G1 X135.860 Y131.535 E12.6034
G1 X135.619 Y131.684 E12.6161
G1 X135.529 Y131.723 E12.6205
G1 X135.255 Y131.797 E12.6332
G1 X135.158 Y131.808 E12.6376
G1 X134.889 Y131.799 E12.6497
G1 X134.636 Y131.740 E12.6614
G1 X134.265 Y131.580 E12.6795
G1 X134.030 Y131.444 E12.6917
G1 X133.833 Y131.269 E12.7035
G1 X133.771 Y131.195 E12.7078
G1 X133.635 Y130.970 E12.7197
G1 X133.546 Y130.724 E12.7314
G1 X133.527 Y130.630 E12.7357
G1 X133.515 Y130.352 E12.7482
G1 X133.524 Y130.258 E12.7525
G1 X133.591 Y130.003 E12.7643
G1 X134.919 Y127.253 E12.9014
G1 X129.096 Y124.490 E13.1908
G1 X128.764 Y124.354 E13.2069
G1 X128.407 Y124.247 E13.2237
G1 X128.041 Y124.175 E13.2404
G1 X127.670 Y124.140 E13.2572
G1 X127.298 Y124.141 E13.2739
G1 X126.927 Y124.179 E13.2906
G1 X126.561 Y124.253 E13.3074
G1 X126.205 Y124.363 E13.3241
G1 X125.864 Y124.506 E13.3407
G1 X125.534 Y124.684 E13.3576
G1 X125.224 Y124.892 E13.3743
G1 X124.937 Y125.130 E13.3911
G1 X124.677 Y125.393 E13.4077
G1 X124.440 Y125.684 E13.4245
G1 X124.236 Y125.993 E13.4411
G1 X124.067 Y126.312 E13.4573
G1 X97.438 Y183.412 E16.2863
G1 X97.215 Y183.417 E16.2963
G1 X59.765 Y112.557 E19.8950
G1 X59.329 Y111.585 E19.9428
G1 X59.027 Y110.585 E19.9898
G1 X58.856 Y109.554 E20.0367
G1 X58.818 Y108.509 E20.0836
G1 X58.914 Y107.468 E20.1306
G1 X59.143 Y106.448 E20.1775
G1 X59.500 Y105.469 E20.2243
G1 X59.982 Y104.538 E20.2714
G1 X60.579 Y103.678 E20.3184
G1 X61.279 Y102.904 E20.3652
G1 X62.074 Y102.225 E20.4122
G1 X62.949 Y101.654 E20.4591
; outer perimeter
G1 X62.751 Y101.305 F4800
G92 E0
G1 X63.739 Y100.828 E0.0493 F1150
G1 X64.780 Y100.481 E0.0985
G1 X65.856 Y100.271 E0.1477
G1 X66.957 Y100.200 E0.1973
G1 X139.128 Y100.200 E3.4379
G1 X139.373 Y100.212 E3.4489
G1 X139.611 Y100.247 E3.4597
G1 X139.844 Y100.306 E3.4705
G1 X140.071 Y100.387 E3.4812
G1 X140.288 Y100.490 E3.4920
G1 X140.494 Y100.613 E3.5028
G1 X140.687 Y100.756 E3.5136
G1 X140.866 Y100.918 E3.5244
G1 X141.027 Y101.096 E3.5352
G1 X141.170 Y101.289 E3.5460
G1 X141.294 Y101.495 E3.5568
G1 X141.397 Y101.713 E3.5676
G1 X141.478 Y101.939 E3.5784
G1 X141.536 Y102.172 E3.5892
G1 X141.571 Y102.407 E3.5999
G1 X141.583 Y102.947 E3.6241
G1 X141.571 Y103.190 E3.6350
G1 X141.536 Y103.428 E3.6458
G1 X141.478 Y103.661 E3.6566
G1 X141.397 Y103.887 E3.6674
G1 X141.294 Y104.105 E3.6782
G1 X141.170 Y104.311 E3.6890
G1 X141.027 Y104.504 E3.6998
G1 X140.865 Y104.682 E3.7106
G1 X140.687 Y104.844 E3.7214
G1 X140.494 Y104.987 E3.7322
G1 X140.288 Y105.110 E3.7430
G1 X140.071 Y105.213 E3.7538
G1 X139.844 Y105.294 E3.7646
G1 X139.611 Y105.353 E3.7754
G1 X139.373 Y105.388 E3.7862
G1 X139.128 Y105.400 E3.7972
G1 X86.909 Y105.400 E6.1419
G1 X84.981 Y105.523 E6.2286
G1 X83.078 Y105.892 E6.3157
G1 X81.238 Y106.501 E6.4027
G1 X79.490 Y107.339 E6.4897
G1 X77.864 Y108.393 E6.5767
G1 X76.385 Y109.645 E6.6638
G1 X75.077 Y111.076 E6.7508
G1 X73.963 Y112.661 E6.8378
G1 X73.059 Y114.376 E6.9248
G1 X72.382 Y116.192 E7.0118
G1 X71.941 Y118.079 E7.0989
G1 X71.744 Y120.007 E7.1859
G1 X71.795 Y121.944 E7.2729
G1 X72.091 Y123.860 E7.3599
G1 X72.630 Y125.721 E7.4470
G1 X73.399 Y127.494 E7.5337
G1 X85.992 Y152.093 E8.7746
G1 X86.888 Y153.585 E8.8527
G1 X87.952 Y154.892 E8.9284
G1 X89.188 Y156.038 E9.0040
G1 X90.572 Y156.999 E9.0797
G1 X92.076 Y157.758 E9.1554
G1 X93.668 Y158.299 E9.2309
G1 X95.328 Y158.613 E9.3067
G1 X97.011 Y158.692 E9.3824
G1 X98.685 Y158.536 E9.4579
G1 X100.328 Y158.146 E9.5337
G1 X101.897 Y157.532 E9.6094
G1 X103.365 Y156.705 E9.6850
G1 X104.700 Y155.682 E9.7605
G1 X105.885 Y154.479 E9.8363
G1 X106.888 Y153.125 E9.9120
G1 X107.688 Y151.650 E9.9874
G1 X121.793 Y120.658 E11.5163
G1 X121.930 Y120.393 E11.5297
G1 X122.089 Y120.146 E11.5428
G1 X122.272 Y119.917 E11.5560
G1 X122.477 Y119.707 E11.5692
G1 X122.700 Y119.519 E11.5823
G1 X122.944 Y119.352 E11.5956
G1 X123.201 Y119.210 E11.6087
G1 X123.468 Y119.096 E11.6218
G1 X123.751 Y119.006 E11.6351
G1 X124.038 Y118.946 E11.6483
G1 X124.327 Y118.915 E11.6613
G1 X124.623 Y118.912 E11.6746
G1 X124.913 Y118.938 E11.6877
G1 X125.201 Y118.992 E11.7009
G1 X125.485 Y119.075 E11.7142
G1 X125.762 Y119.187 E11.7275
G1 X136.485 Y124.188 E12.2588
G1 X136.751 Y124.328 E12.2723
G1 X136.998 Y124.490 E12.2856
G1 X137.228 Y124.675 E12.2988
G1 X137.439 Y124.882 E12.3121
G1 X137.629 Y125.109 E12.3254
G1 X137.796 Y125.352 E12.3387
G1 X137.938 Y125.612 E12.3519
G1 X138.055 Y125.883 E12.3652
G1 X138.144 Y126.165 E12.3785
G1 X138.205 Y126.454 E12.3917
G1 X138.238 Y126.748 E12.4050
G1 X138.243 Y127.043 E12.4183
G1 X138.218 Y127.338 E12.4315
G1 X138.165 Y127.628 E12.4448
G1 X138.084 Y127.913 E12.4581
G1 X137.973 Y128.192 E12.4716
G1 X136.610 Y131.206 E12.6201
G1 X136.438 Y131.503 E12.6355
G1 X136.217 Y131.756 E12.6506
G1 X136.096 Y131.859 E12.6577
G1 X135.805 Y132.040 E12.6731
G1 X135.661 Y132.102 E12.6802
G1 X135.330 Y132.191 E12.6955
G1 X135.174 Y132.209 E12.7026
G1 X134.836 Y132.197 E12.7178
G1 X134.510 Y132.121 E12.7328
G1 X134.085 Y131.938 E12.7536
G1 X133.795 Y131.770 E12.7687
G1 X133.545 Y131.548 E12.7836
G1 X133.445 Y131.429 E12.7906
G1 X133.272 Y131.144 E12.8056
G1 X133.160 Y130.831 E12.8205
G1 X133.129 Y130.679 E12.8275
G1 X133.114 Y130.340 E12.8427
G1 X133.130 Y130.186 E12.8497
G1 X133.213 Y129.864 E12.8646
G1 X134.384 Y127.442 E12.9854
G1 X128.934 Y124.856 E13.2562
G1 X128.630 Y124.731 E13.2710
G1 X128.311 Y124.636 E13.2860
G1 X127.984 Y124.571 E13.3009
G1 X127.652 Y124.540 E13.3159
G1 X127.319 Y124.541 E13.3309
G1 X126.987 Y124.575 E13.3459
G1 X126.660 Y124.641 E13.3608
G1 X126.342 Y124.739 E13.3758
G1 X126.036 Y124.867 E13.3906
G1 X125.741 Y125.026 E13.4057
G1 X125.464 Y125.213 E13.4207
G1 X125.208 Y125.425 E13.4357
G1 X124.975 Y125.661 E13.4505
G1 X124.763 Y125.921 E13.4656
G1 X124.580 Y126.197 E13.4805
G1 X124.426 Y126.490 E13.4953
G1 X97.460 Y184.310 E16.3600
G1 X97.237 Y184.316 E16.3700
G1 X59.406 Y112.732 E20.0054
G1 X58.954 Y111.726 E20.0550
G1 X58.637 Y110.676 E20.1042
G1 X58.457 Y109.594 E20.1535
G1 X58.417 Y108.498 E20.2027
G1 X58.518 Y107.406 E20.2520
G1 X58.759 Y106.336 E20.3012
G1 X59.133 Y105.308 E20.3503
G1 X59.639 Y104.331 E20.3997
G1 X60.265 Y103.428 E20.4490
G1 X60.999 Y102.617 E20.4982
G1 X61.833 Y101.904 E20.5474
G1 X62.751 Y101.305 E20.5967
G92 E0
G1 E-1.0000 F1800
; solid layer
G1 X90.315 Y157.699 F4800
G1 E0.0000 F1800
G92 E0
G1 X103.095 Y170.478 E0.8115 F1840
G1 X103.275 Y170.092 E0.8306
G1 X91.457 Y158.275 E1.5810
G1 X91.789 Y158.442 E1.5977
G1 X92.396 Y158.648 E1.6265
G1 X103.454 Y169.706 E2.3287
G1 X103.634 Y169.321 E2.3478
G1 X93.253 Y158.939 E3.0071
G1 X93.480 Y159.016 E3.0178
G1 X93.993 Y159.113 E3.0413
G1 X103.814 Y168.935 E3.6649
G1 X103.994 Y168.549 E3.6841
G1 X94.691 Y159.246 E4.2748
G1 X95.241 Y159.350 E4.3000
G1 X95.367 Y159.356 E4.3056
G1 X104.174 Y168.163 E4.8649
G1 X104.354 Y167.778 E4.8840
G1 X95.960 Y159.384 E5.4170
G1 X96.554 Y159.412 E5.4437
G1 X104.534 Y167.392 E5.9504
G1 X104.714 Y167.006 E5.9695
G1 X97.132 Y159.424 E6.4510
