; G-Code generated by Simplify3D(R) Version 4.0.0
; Dec 14, 2020 at 11:09:07 PM
; Settings Summary
;   processName,Process1
;   applyToModels,p11_plate
;   profileName,new profile (modified)
;   profileVersion,2020-09-07 14:01:24
;   baseProfile,Default (modified)
;   printMaterial,PLA
;   printQuality,Medium
;   printExtruders,
;   extruderName,Primary Extruder
;   extruderToolheadNumber,0
;   extruderDiameter,0.4
;   extruderAutoWidth,0
;   extruderWidth,0.4
;   extrusionMultiplier,0.9
;   extruderUseRetract,1
;   extruderRetractionDistance,1
;   extruderExtraRestartDistance,0
;   extruderRetractionZLift,0
;   extruderRetractionSpeed,1800
;   extruderUseCoasting,0
;   extruderCoastingDistance,0.2
;   extruderUseWipe,0
;   extruderWipeDistance,5
;   primaryExtruder,0
;   layerHeight,0.3
;   topSolidLayers,3
;   bottomSolidLayers,3
;   perimeterOutlines,2
;   printPerimetersInsideOut,1
;   startPointOption,2
;   startPointOriginX,0
;   startPointOriginY,0
;   sequentialIslands,0
;   spiralVaseMode,0
;   firstLayerHeightPercentage,90
;   firstLayerWidthPercentage,103
;   firstLayerUnderspeed,0.5
;   useRaft,0
;   raftExtruder,0
;   raftTopLayers,3
;   raftBaseLayers,2
;   raftOffset,3
;   raftSeparationDistance,0.14
;   raftTopInfill,100
;   aboveRaftSpeedMultiplier,0.3
;   useSkirt,0
;   skirtExtruder,0
;   skirtLayers,1
;   skirtOutlines,2
;   skirtOffset,4
;   usePrimePillar,0
;   primePillarExtruder,999
;   primePillarWidth,12
;   primePillarLocation,7
;   primePillarSpeedMultiplier,1
;   useOozeShield,0
;   oozeShieldExtruder,999
;   oozeShieldOffset,2
;   oozeShieldOutlines,1
;   oozeShieldSidewallShape,1
;   oozeShieldSidewallAngle,30
;   oozeShieldSpeedMultiplier,1
;   infillExtruder,0
;   internalInfillPattern,Rectilinear
;   externalInfillPattern,Rectilinear
;   infillPercentage,23
;   outlineOverlapPercentage,15
;   infillExtrusionWidthPercentage,100
;   minInfillLength,5
;   infillLayerInterval,1
;   internalInfillAngles,45,-45
;   overlapInternalInfillAngles,0
;   externalInfillAngles,45,-45
;   generateSupport,0
;   supportExtruder,0
;   supportInfillPercentage,30
;   supportExtraInflation,0
;   supportBaseLayers,0
;   denseSupportExtruder,0
;   denseSupportLayers,0
;   denseSupportInfillPercentage,70
;   supportLayerInterval,1
;   supportHorizontalPartOffset,0.3
;   supportUpperSeparationLayers,1
;   supportLowerSeparationLayers,1
;   supportType,0
;   supportGridSpacing,4
;   maxOverhangAngle,45
;   supportAngles,0
;   temperatureName,Primary Extruder,Hot Bed
;   temperatureNumber,0,1
;   temperatureSetpointCount,1,1
;   temperatureSetpointLayers,1,1
;   temperatureSetpointTemperatures,210,60
;   temperatureStabilizeAtStartup,1,0
;   temperatureHeatedBed,0,1
;   temperatureRelayBetweenLayers,0,0
;   temperatureRelayBetweenLoops,0,0
;   fanLayers,1,2
;   fanSpeeds,0,100
;   blipFanToFullPower,0
;   adjustSpeedForCooling,1
;   minSpeedLayerTime,15
;   minCoolingSpeedSlowdown,20
;   increaseFanForCooling,0
;   minFanLayerTime,45
;   maxCoolingFanSpeed,100
;   increaseFanForBridging,0
;   bridgingFanSpeed,100
;   use5D,1
;   relativeEdistances,0
;   allowEaxisZeroing,1
;   independentExtruderAxes,0
;   includeM10123,0
;   stickySupport,1
;   applyToolheadOffsets,0
;   gcodeXoffset,-0.03
;   gcodeYoffset,-0.03
;   gcodeZoffset,0
;   overrideMachineDefinition,0
;   machineTypeOverride,0
;   strokeXoverride,200
;   strokeYoverride,200
;   strokeZoverride,200
;   originOffsetXoverride,0
;   originOffsetYoverride,0
;   originOffsetZoverride,0
;   homeXdirOverride,-1
;   homeYdirOverride,-1
;   homeZdirOverride,-1
;   flipXoverride,1
;   flipYoverride,-1
;   flipZoverride,1
;   toolheadOffsets,0,0|0,0|0,0|0,0|0,0|0,0
;   overrideFirmwareConfiguration,0
;   firmwareTypeOverride,RepRap (Marlin/Repetier/Sprinter)
;   GPXconfigOverride,r2
;   baudRateOverride,115200
;   overridePrinterModels,0
;   printerModelsOverride
;   startingGcode,G28 ; home all axes,G1 X3 Y5 Z0.2 F3000 ; get ready to prime,G92 E0 ; reset extrusion distance,G1 Y150 E20 F600 ; prime nozzle
;   layerChangeGcode,
;   retractionGcode,
;   toolChangeGcode,
;   endingGcode,M104 S0 ; turn off extruder,M140 S0 ; turn off bedG1 X0 Y0; home,M84 ; disable motors,M107 ; fan off,G28 X Y; Home,M18; Disable steppers
;   exportFileFormat,gcode
;   celebration,0
;   celebrationSong,Random Song
;   postProcessing,
;   defaultSpeed,4600
;   outlineUnderspeed,0.5
;   solidInfillUnderspeed,0.8
;   supportUnderspeed,0.8
;   rapidXYspeed,4800
;   rapidZspeed,1000
;   minBridgingArea,50
;   bridgingExtraInflation,0
;   bridgingExtrusionMultiplier,1
;   bridgingSpeedMultiplier,1
;   useFixedBridgingAngle,0
;   fixedBridgingAngle,0
;   applyBridgingToPerimeters,0
;   filamentDiameters,1.75|1.75|1.75|1.75|1.75|1.75
;   filamentPricesPerKg,46|46|46|46|46|46
;   filamentDensities,1.25|1.25|1.25|1.25|1.25|1.25
;   useMinPrintHeight,0
;   minPrintHeight,0
;   useMaxPrintHeight,0
;   maxPrintHeight,0
;   useDiaphragm,0
;   diaphragmLayerInterval,20
;   robustSlicing,1
;   mergeAllIntoSolid,0
;   onlyRetractWhenCrossingOutline,1
;   retractBetweenLayers,1
;   useRetractionMinTravel,0
;   retractionMinTravel,3
;   retractWhileWiping,0
;   onlyWipeOutlines,1
;   avoidCrossingOutline,0
;   maxMovementDetourFactor,3
;   toolChangeRetractionDistance,12
;   toolChangeExtraRestartDistance,-0.5
;   toolChangeRetractionSpeed,600
;   externalThinWallType,1
;   internalThinWallType,1
;   thinWallAllowedOverlapPercentage,10
;   singleExtrusionMinLength,1
;   singleExtrusionMinPrintingWidthPercentage,50
;   singleExtrusionMaxPrintingWidthPercentage,200
;   singleExtrusionEndpointExtension,0.2
;   horizontalSizeCompensation,0
G90
M82
M106 S0
M140 S60
M104 S210 T0
M109 S210 T0
G28 ; home all axes
G1 X3 Y5 Z0.2 F3000 ; get ready to prime
G92 E0 ; reset extrusion distance
G1 Y150 E20 F600 ; prime nozzle
G92 E0
G1 E-1.0000 F1800
G1 Z0.270 F1000
; process Process1
; layer 1, Z = 0.270
T0
; tool H0.300 W0.412
; inner perimeter
G1 X80.541 Y85.191 F4800
G1 E0.0000 F540
G92 E0
G1 X81.706 Y84.077 E0.0745 F1725
G1 X82.908 Y83.003 E0.1491
G1 X84.010 Y82.081 E0.2155
G1 X85.418 Y80.979 E0.2982
G1 X86.723 Y80.033 E0.3728
G1 X87.912 Y79.229 E0.4392
G1 X89.426 Y78.274 E0.5219
G1 X90.819 Y77.466 E0.5964
G1 X92.240 Y76.704 E0.6710
G1 X93.686 Y75.991 E0.7456
G1 X95.156 Y75.328 E0.8201
G1 X96.646 Y74.715 E0.8947
G1 X98.158 Y74.153 E0.9692
G1 X99.687 Y73.642 E1.0438
G1 X101.232 Y73.184 E1.1183
G1 X102.793 Y72.778 E1.1929
G1 X104.366 Y72.425 E1.2675
G1 X105.950 Y72.126 E1.3420
G1 X107.543 Y71.881 E1.4166
G1 X109.144 Y71.690 E1.4911
G1 X110.750 Y71.554 E1.5657
G1 X112.361 Y71.472 E1.6403
G1 X113.972 Y71.444 E1.7148
G1 X115.584 Y71.472 E1.7894
G1 X117.194 Y71.554 E1.8639
G1 X118.801 Y71.690 E1.9385
G1 X120.401 Y71.881 E2.0130
G1 X121.995 Y72.126 E2.0876
G1 X123.579 Y72.425 E2.1622
G1 X125.152 Y72.778 E2.2367
G1 X126.712 Y73.184 E2.3113
G1 X128.258 Y73.642 E2.3859
G1 X129.787 Y74.153 E2.4604
G1 X131.298 Y74.715 E2.5350
G1 X132.789 Y75.328 E2.6095
G1 X134.258 Y75.991 E2.6841
G1 X135.705 Y76.704 E2.7586
G1 X137.126 Y77.466 E2.8332
G1 X138.519 Y78.274 E2.9077
G1 X140.032 Y79.229 E2.9905
G1 X141.222 Y80.033 E3.0569
G1 X142.527 Y80.979 E3.1314
G1 X143.799 Y81.969 E3.2060
G1 X145.169 Y83.119 E3.2887
G1 X146.239 Y84.077 E3.3551
G1 X147.404 Y85.191 E3.4297
G1 X148.530 Y86.344 E3.5042
G1 X149.732 Y87.669 E3.5869
G1 X150.662 Y88.762 E3.6533
G1 X151.666 Y90.024 E3.7279
G1 X152.727 Y91.464 E3.8106
G1 X153.542 Y92.646 E3.8770
G1 X154.411 Y94.003 E3.9515
G1 X155.322 Y95.543 E4.0343
G1 X156.011 Y96.803 E4.1007
G1 X156.739 Y98.241 E4.1752
G1 X157.488 Y99.865 E4.2580
G1 X158.046 Y101.188 E4.3244
G1 X158.623 Y102.693 E4.3989
G1 X159.204 Y104.385 E4.4816
G1 X159.624 Y105.758 E4.5480
G1 X160.046 Y107.314 E4.6226
G1 X160.451 Y109.056 E4.7053
G1 X160.730 Y110.464 E4.7717
G1 X160.992 Y112.055 E4.8463
G1 X161.218 Y113.829 E4.9290
G1 X161.352 Y115.258 E4.9954
G1 X161.451 Y116.868 E5.0700
G1 X161.495 Y118.479 E5.1445
G1 X161.480 Y120.267 E5.2272
G1 X161.408 Y121.877 E5.3017
G1 X161.299 Y123.309 E5.3681
G1 X161.102 Y125.087 E5.4508
G1 X160.868 Y126.682 E5.5254
G1 X160.613 Y128.095 E5.5918
G1 X160.237 Y129.843 E5.6745
G1 X159.842 Y131.406 E5.7491
G1 X159.444 Y132.786 E5.8155
G1 X158.893 Y134.487 E5.8982
G1 X158.341 Y136.002 E5.9727
G1 X157.806 Y137.334 E6.0392
G1 X157.084 Y138.971 E6.1219
G1 X156.381 Y140.421 E6.1964
G1 X155.713 Y141.692 E6.2628
G1 X154.829 Y143.247 E6.3456
G1 X153.982 Y144.619 E6.4201
G1 X153.188 Y145.815 E6.4865
G1 X152.151 Y147.272 E6.5692
G1 X151.170 Y148.551 E6.6438
G1 X150.145 Y149.796 E6.7183
G1 X149.196 Y150.873 E6.7847
G1 X147.972 Y152.177 E6.8675
G1 X146.826 Y153.311 E6.9420
G1 X145.643 Y154.405 E7.0166
G1 X144.557 Y155.345 E7.0830
G1 X143.167 Y156.471 E7.1657
G1 X141.879 Y157.440 E7.2402
G1 X140.703 Y158.264 E7.3066
G1 X139.206 Y159.243 E7.3894
G1 X137.826 Y160.076 E7.4639
G1 X136.418 Y160.861 E7.5385
G1 X134.985 Y161.598 E7.6130
G1 X133.527 Y162.286 E7.6876
G1 X132.046 Y162.925 E7.7621
G1 X130.545 Y163.512 E7.8367
G1 X129.025 Y164.049 E7.9112
G1 X127.487 Y164.534 E7.9858
G1 X125.934 Y164.966 E8.0604
G1 X124.367 Y165.345 E8.1349
G1 X122.788 Y165.671 E8.2095
G1 X121.199 Y165.943 E8.2841
G1 X119.602 Y166.161 E8.3586
G1 X117.998 Y166.325 E8.4332
G1 X116.390 Y166.434 E8.5077
G1 X114.778 Y166.489 E8.5823
G1 X113.166 Y166.489 E8.6568
G1 X111.555 Y166.434 E8.7314
G1 X109.947 Y166.325 E8.8060
G1 X108.343 Y166.161 E8.8805
G1 X106.746 Y165.943 E8.9551
G1 X105.157 Y165.671 E9.0296
G1 X103.578 Y165.345 E9.1042
G1 X102.010 Y164.966 E9.1788
G1 X100.458 Y164.534 E9.2533
G1 X98.920 Y164.049 E9.3279
G1 X97.400 Y163.512 E9.4024
G1 X95.899 Y162.925 E9.4770
G1 X94.418 Y162.286 E9.5516
G1 X92.960 Y161.598 E9.6261
G1 X91.526 Y160.861 E9.7007
G1 X90.118 Y160.076 E9.7752
G1 X88.738 Y159.243 E9.8498
G1 X87.387 Y158.364 E9.9244
G1 X86.066 Y157.440 E9.9989
G1 X84.640 Y156.361 E10.0816
G1 X83.522 Y155.459 E10.1480
G1 X82.303 Y154.406 E10.2225
G1 X80.992 Y153.188 E10.3053
G1 X79.973 Y152.177 E10.3717
G1 X78.866 Y151.005 E10.4462
G1 X77.687 Y149.660 E10.5289
G1 X76.775 Y148.551 E10.5954
G1 X75.793 Y147.272 E10.6699
G1 X74.756 Y145.815 E10.7526
G1 X73.962 Y144.619 E10.8190
G1 X73.115 Y143.247 E10.8936
G1 X72.316 Y141.848 E10.9681
G1 X71.485 Y140.263 E11.0509
G1 X70.861 Y138.970 E11.1173
G1 X70.207 Y137.496 E11.1918
G1 X69.604 Y136.002 E11.2664
G1 X68.995 Y134.320 E11.3491
G1 X68.551 Y132.955 E11.4155
G1 X68.103 Y131.406 E11.4900
G1 X67.668 Y129.671 E11.5728
G1 X67.366 Y128.268 E11.6392
G1 X67.077 Y126.682 E11.7137
G1 X66.820 Y124.912 E11.7964
G1 X66.662 Y123.485 E11.8628
G1 X66.536 Y121.877 E11.9374
G1 X66.461 Y120.091 E12.0201
G1 X66.450 Y118.479 E12.0946
G1 X66.487 Y117.044 E12.1610
G1 X66.593 Y115.258 E12.2438
G1 X66.746 Y113.653 E12.3183
G1 X66.928 Y112.229 E12.3847
G1 X67.215 Y110.464 E12.4674
G1 X67.530 Y108.884 E12.5420
G1 X67.899 Y107.314 E12.6165
G1 X68.320 Y105.758 E12.6911
G1 X68.795 Y104.217 E12.7657
G1 X69.264 Y102.854 E12.8323
G1 X69.320 Y102.697 E12.8400
G1 X69.899 Y101.188 E12.9148
G1 X70.457 Y99.865 E12.9812
G1 X71.206 Y98.241 E13.0639
G1 X71.934 Y96.803 E13.1385
G1 X72.623 Y95.543 E13.2049
G1 X73.533 Y94.003 E13.2876
G1 X74.403 Y92.646 E13.3621
G1 X75.217 Y91.464 E13.4285
G1 X76.279 Y90.024 E13.5113
G1 X77.282 Y88.763 E13.5858
G1 X78.328 Y87.535 E13.6604
G1 X79.295 Y86.474 E13.7268
G1 X80.541 Y85.191 E13.8095
; outer perimeter
G1 X80.251 Y84.898 F4800
G92 E0
G1 X81.426 Y83.775 E0.0752 F1150
G1 X82.638 Y82.691 E0.1504
G1 X83.750 Y81.761 E0.2174
G1 X85.170 Y80.650 E0.3008
G1 X86.486 Y79.695 E0.3760
G1 X87.687 Y78.883 E0.4431
G1 X89.212 Y77.922 E0.5264
G1 X90.618 Y77.106 E0.6016
G1 X92.052 Y76.338 E0.6768
G1 X93.511 Y75.619 E0.7520
G1 X94.992 Y74.950 E0.8272
G1 X96.496 Y74.331 E0.9024
G1 X98.020 Y73.764 E0.9776
G1 X99.563 Y73.249 E1.0528
G1 X101.122 Y72.787 E1.1281
G1 X102.696 Y72.378 E1.2033
G1 X104.282 Y72.022 E1.2785
G1 X105.880 Y71.720 E1.3537
G1 X107.488 Y71.473 E1.4289
G1 X109.102 Y71.280 E1.5041
G1 X110.722 Y71.143 E1.5793
G1 X112.346 Y71.060 E1.6545
G1 X113.972 Y71.032 E1.7297
G1 X115.598 Y71.060 E1.8049
G1 X117.222 Y71.143 E1.8801
G1 X118.843 Y71.280 E1.9553
G1 X120.457 Y71.473 E2.0305
G1 X122.064 Y71.720 E2.1057
G1 X123.663 Y72.022 E2.1809
G1 X125.249 Y72.378 E2.2561
G1 X126.823 Y72.787 E2.3313
G1 X128.382 Y73.249 E2.4066
G1 X129.924 Y73.764 E2.4818
G1 X131.448 Y74.331 E2.5570
G1 X132.952 Y74.950 E2.6322
G1 X134.434 Y75.619 E2.7074
G1 X135.893 Y76.338 E2.7826
G1 X137.326 Y77.106 E2.8578
G1 X138.733 Y77.922 E2.9330
G1 X140.258 Y78.883 E3.0164
G1 X141.459 Y79.695 E3.0834
G1 X142.775 Y80.650 E3.1586
G1 X144.058 Y81.649 E3.2338
G1 X145.439 Y82.808 E3.3172
G1 X146.519 Y83.775 E3.3842
G1 X147.694 Y84.899 E3.4594
G1 X148.830 Y86.062 E3.5346
G1 X150.042 Y87.397 E3.6180
G1 X150.981 Y88.501 E3.6850
G1 X151.993 Y89.773 E3.7602
G1 X153.063 Y91.224 E3.8436
G1 X153.885 Y92.418 E3.9107
G1 X154.762 Y93.787 E3.9858
G1 X155.680 Y95.339 E4.0692
G1 X156.376 Y96.611 E4.1363
G1 X157.110 Y98.062 E4.2115
G1 X157.865 Y99.699 E4.2948
G1 X158.428 Y101.034 E4.3619
G1 X159.011 Y102.552 E4.4371
G1 X159.596 Y104.258 E4.5205
G1 X160.020 Y105.644 E4.5875
G1 X160.445 Y107.213 E4.6627
G1 X160.854 Y108.969 E4.7461
G1 X161.136 Y110.391 E4.8131
G1 X161.399 Y111.995 E4.8883
G1 X161.628 Y113.784 E4.9717
G1 X161.763 Y115.226 E5.0387
G1 X161.862 Y116.850 E5.1139
G1 X161.907 Y118.475 E5.1891
G1 X161.892 Y120.278 E5.2725
G1 X161.820 Y121.902 E5.3477
G1 X161.709 Y123.347 E5.4147
G1 X161.511 Y125.139 E5.4981
G1 X161.274 Y126.748 E5.5733
G1 X161.017 Y128.175 E5.6403
G1 X160.638 Y129.937 E5.7237
G1 X160.239 Y131.513 E5.7989
G1 X159.838 Y132.907 E5.8660
G1 X159.283 Y134.621 E5.9493
G1 X158.726 Y136.149 E6.0245
G1 X158.185 Y137.494 E6.0916
G1 X157.458 Y139.144 E6.1749
G1 X156.749 Y140.607 E6.2501
G1 X156.074 Y141.890 E6.3172
G1 X155.184 Y143.457 E6.4006
G1 X154.329 Y144.841 E6.4758
G1 X153.528 Y146.048 E6.5428
G1 X152.482 Y147.518 E6.6262
G1 X151.492 Y148.807 E6.7014
G1 X150.459 Y150.062 E6.7766
G1 X149.501 Y151.151 E6.8436
G1 X148.267 Y152.465 E6.9270
G1 X147.111 Y153.608 E7.0022
G1 X145.917 Y154.713 E7.0774
G1 X144.821 Y155.661 E7.1444
G1 X143.421 Y156.796 E7.2278
G1 X142.121 Y157.773 E7.3030
G1 X140.934 Y158.605 E7.3700
G1 X139.425 Y159.592 E7.4534
G1 X138.033 Y160.432 E7.5286
G1 X136.613 Y161.224 E7.6038
G1 X135.167 Y161.968 E7.6790
G1 X133.696 Y162.662 E7.7542
G1 X132.203 Y163.306 E7.8294
G1 X130.689 Y163.899 E7.9047
G1 X129.155 Y164.440 E7.9799
G1 X127.604 Y164.929 E8.0551
G1 X126.038 Y165.364 E8.1303
G1 X124.457 Y165.747 E8.2055
G1 X122.865 Y166.076 E8.2807
G1 X121.262 Y166.350 E8.3559
G1 X119.651 Y166.570 E8.4311
G1 X118.033 Y166.735 E8.5063
G1 X116.410 Y166.846 E8.5815
G1 X114.786 Y166.901 E8.6567
G1 X113.159 Y166.901 E8.7319
G1 X111.534 Y166.846 E8.8071
G1 X109.912 Y166.735 E8.8823
G1 X108.294 Y166.570 E8.9575
G1 X106.683 Y166.350 E9.0327
G1 X105.080 Y166.076 E9.1079
G1 X103.488 Y165.747 E9.1831
G1 X101.907 Y165.364 E9.2584
G1 X100.340 Y164.929 E9.3336
G1 X98.789 Y164.440 E9.4088
G1 X97.256 Y163.899 E9.4840
G1 X95.742 Y163.306 E9.5592
G1 X94.249 Y162.662 E9.6344
G1 X92.778 Y161.968 E9.7096
G1 X91.332 Y161.224 E9.7848
G1 X89.912 Y160.432 E9.8600
G1 X88.519 Y159.592 E9.9352
G1 X87.156 Y158.705 E10.0104
G1 X85.824 Y157.773 E10.0856
G1 X84.386 Y156.686 E10.1690
G1 X83.258 Y155.776 E10.2360
G1 X82.028 Y154.713 E10.3112
G1 X80.707 Y153.485 E10.3946
G1 X79.678 Y152.465 E10.4616
G1 X78.561 Y151.282 E10.5368
G1 X77.373 Y149.927 E10.6202
G1 X76.452 Y148.807 E10.6872
G1 X75.462 Y147.517 E10.7624
G1 X74.417 Y146.049 E10.8458
G1 X73.615 Y144.841 E10.9129
G1 X72.761 Y143.457 E10.9881
G1 X71.954 Y142.045 E11.0633
G1 X71.117 Y140.449 E11.1466
G1 X70.487 Y139.144 E11.2137
G1 X69.827 Y137.657 E11.2889
G1 X69.219 Y136.149 E11.3641
G1 X68.605 Y134.454 E11.4475
G1 X68.157 Y133.076 E11.5145
G1 X67.705 Y131.514 E11.5897
G1 X67.267 Y129.765 E11.6731
G1 X66.962 Y128.348 E11.7401
G1 X66.671 Y126.748 E11.8153
G1 X66.412 Y124.964 E11.8987
G1 X66.252 Y123.523 E11.9657
G1 X66.125 Y121.902 E12.0409
G1 X66.049 Y120.101 E12.1243
G1 X66.038 Y118.475 E12.1995
