; G-Code generated by Simplify3D(R) Version 4.0.0
; Oct 30, 2019 at 12:11:27 AM
; Settings Summary
;   processName,Process1
;   applyToModels,ramp_fix_hagi2
;   profileName,Default(2) (modified)
;   profileVersion,2019-07-27 15:21:07
;   baseProfile,
;   printMaterial,PLA
;   printQuality,Medium
;   printExtruders,
;   extruderName,Primary Extruder
;   extruderToolheadNumber,0
;   extruderDiameter,0.4
;   extruderAutoWidth,1
;   extruderWidth,0.48
;   extrusionMultiplier,0.9
;   extruderUseRetract,1
;   extruderRetractionDistance,1
;   extruderExtraRestartDistance,0
;   extruderRetractionZLift,0
;   extruderRetractionSpeed,1800
;   extruderUseCoasting,0
;   extruderCoastingDistance,0.2
;   extruderUseWipe,0
;   extruderWipeDistance,5
;   primaryExtruder,0
;   layerHeight,0.3
;   topSolidLayers,3
;   bottomSolidLayers,2
;   perimeterOutlines,2
;   printPerimetersInsideOut,1
;   startPointOption,2
;   startPointOriginX,0
;   startPointOriginY,0
;   sequentialIslands,0
;   spiralVaseMode,0
;   firstLayerHeightPercentage,90
;   firstLayerWidthPercentage,100
;   firstLayerUnderspeed,0.5
;   useRaft,0
;   raftExtruder,0
;   raftTopLayers,3
;   raftBaseLayers,2
;   raftOffset,3
;   raftSeparationDistance,0.14
;   raftTopInfill,100
;   aboveRaftSpeedMultiplier,0.3
;   useSkirt,0
;   skirtExtruder,0
;   skirtLayers,1
;   skirtOutlines,2
;   skirtOffset,4
;   usePrimePillar,0
;   primePillarExtruder,999
;   primePillarWidth,12
;   primePillarLocation,7
;   primePillarSpeedMultiplier,1
;   useOozeShield,0
;   oozeShieldExtruder,999
;   oozeShieldOffset,2
;   oozeShieldOutlines,1
;   oozeShieldSidewallShape,1
;   oozeShieldSidewallAngle,30
;   oozeShieldSpeedMultiplier,1
;   infillExtruder,0
;   internalInfillPattern,Rectilinear
;   externalInfillPattern,Rectilinear
;   infillPercentage,20
;   outlineOverlapPercentage,15
;   infillExtrusionWidthPercentage,100
;   minInfillLength,5
;   infillLayerInterval,1
;   internalInfillAngles,45,-45
;   overlapInternalInfillAngles,0
;   externalInfillAngles,45,-45
;   generateSupport,1
;   supportExtruder,0
;   supportInfillPercentage,30
;   supportExtraInflation,0
;   supportBaseLayers,0
;   denseSupportExtruder,0
;   denseSupportLayers,0
;   denseSupportInfillPercentage,70
;   supportLayerInterval,1
;   supportHorizontalPartOffset,0.4
;   supportUpperSeparationLayers,1
;   supportLowerSeparationLayers,1
;   supportType,0
;   supportGridSpacing,4
;   maxOverhangAngle,45
;   supportAngles,0
;   temperatureName,Primary Extruder,Hot Bed
;   temperatureNumber,0,1
;   temperatureSetpointCount,1,1
;   temperatureSetpointLayers,1,1
;   temperatureSetpointTemperatures,200,60
;   temperatureStabilizeAtStartup,1,0
;   temperatureHeatedBed,0,1
;   temperatureRelayBetweenLayers,0,0
;   temperatureRelayBetweenLoops,0,0
;   fanLayers,1,2
;   fanSpeeds,0,100
;   blipFanToFullPower,0
;   adjustSpeedForCooling,1
;   minSpeedLayerTime,15
;   minCoolingSpeedSlowdown,20
;   increaseFanForCooling,0
;   minFanLayerTime,45
;   maxCoolingFanSpeed,100
;   increaseFanForBridging,0
;   bridgingFanSpeed,100
;   use5D,1
;   relativeEdistances,0
;   allowEaxisZeroing,1
;   independentExtruderAxes,0
;   includeM10123,0
;   stickySupport,1
;   applyToolheadOffsets,0
;   gcodeXoffset,-9
;   gcodeYoffset,-4
;   gcodeZoffset,0
;   overrideMachineDefinition,0
;   machineTypeOverride,0
;   strokeXoverride,200
;   strokeYoverride,200
;   strokeZoverride,200
;   originOffsetXoverride,0
;   originOffsetYoverride,0
;   originOffsetZoverride,0
;   homeXdirOverride,-1
;   homeYdirOverride,-1
;   homeZdirOverride,-1
;   flipXoverride,1
;   flipYoverride,-1
;   flipZoverride,1
;   toolheadOffsets,0,0|0,0|0,0|0,0|0,0|0,0
;   overrideFirmwareConfiguration,0
;   firmwareTypeOverride,RepRap (Marlin/Repetier/Sprinter)
;   GPXconfigOverride,r2
;   baudRateOverride,115200
;   overridePrinterModels,0
;   printerModelsOverride
;   startingGcode,G28 ; home all axes,G1 X2 Y15 Z0.2 F3000 ; get ready to prime,G92 E0 ; reset extrusion distance,G1 Y150 E20 F600 ; prime nozzle
;   layerChangeGcode,
;   retractionGcode,
;   toolChangeGcode,
;   endingGcode,M104 S0 ; turn off extruder,M140 S0 ; turn off bed,G28 X Y ; home X & Y,M84 ; disable motors,M107; Fan off
;   exportFileFormat,gcode
;   celebration,0
;   celebrationSong,Random Song
;   postProcessing,
;   defaultSpeed,4000
;   outlineUnderspeed,0.5
;   solidInfillUnderspeed,0.8
;   supportUnderspeed,0.8
;   rapidXYspeed,4800
;   rapidZspeed,1000
;   minBridgingArea,50
;   bridgingExtraInflation,0
;   bridgingExtrusionMultiplier,1
;   bridgingSpeedMultiplier,1
;   useFixedBridgingAngle,0
;   fixedBridgingAngle,0
;   applyBridgingToPerimeters,0
;   filamentDiameters,1.75|1.75|1.75|1.75|1.75|1.75
;   filamentPricesPerKg,46|46|46|46|46|46
;   filamentDensities,1.25|1.25|1.25|1.25|1.25|1.25
;   useMinPrintHeight,0
;   minPrintHeight,46.5
;   useMaxPrintHeight,0
;   maxPrintHeight,46.3
;   useDiaphragm,0
;   diaphragmLayerInterval,20
;   robustSlicing,1
;   mergeAllIntoSolid,0
;   onlyRetractWhenCrossingOutline,1
;   retractBetweenLayers,1
;   useRetractionMinTravel,0
;   retractionMinTravel,3
;   retractWhileWiping,0
;   onlyWipeOutlines,1
;   avoidCrossingOutline,0
;   maxMovementDetourFactor,3
;   toolChangeRetractionDistance,12
;   toolChangeExtraRestartDistance,-0.5
;   toolChangeRetractionSpeed,600
;   externalThinWallType,1
;   internalThinWallType,2
;   thinWallAllowedOverlapPercentage,10
;   singleExtrusionMinLength,1
;   singleExtrusionMinPrintingWidthPercentage,50
;   singleExtrusionMaxPrintingWidthPercentage,200
;   singleExtrusionEndpointExtension,0.2
;   horizontalSizeCompensation,0
G90
M82
M106 S0
M140 S60
M104 S200 T0
M109 S200 T0
G28 ; home all axes
G1 X2 Y15 Z0.2 F3000 ; get ready to prime
G92 E0 ; reset extrusion distance
G1 Y150 E20 F600 ; prime nozzle
G92 E0
G1 E-1.0000 F1800
G1 Z0.270 F1000
; process Process1
; layer 1, Z = 0.270
T0
; tool H0.300 W0.480
; inner perimeter
G1 X110.720 Y38.220 F4800
G1 E0.0000 F540
G92 E0
G1 X114.280 Y38.220 E0.1918 F1500
G1 X114.280 Y186.780 E8.1964
G1 X110.720 Y186.780 E8.3883
G1 X110.720 Y38.220 E16.3929
; outer perimeter
G1 X110.240 Y37.740 F4800
G92 E0
G1 X114.760 Y37.740 E0.2435 F1000
G1 X114.760 Y187.260 E8.2999
G1 X110.240 Y187.260 E8.5434
G1 X110.240 Y37.740 E16.5998
; solid layer
G1 X113.298 Y38.628 F4800
G92 E0
G1 X113.872 Y39.202 E0.0437 F1600
G1 X113.872 Y39.880 E0.0803
G1 X112.620 Y38.628 E0.1757
G1 X111.941 Y38.628 E0.2123
G1 X113.872 Y40.559 E0.3594
G1 X113.872 Y41.238 E0.3960
G1 X111.262 Y38.628 E0.5949
G1 X111.128 Y38.628 E0.6021
G1 X111.128 Y39.173 E0.6315
G1 X113.872 Y41.917 E0.8406
G1 X113.872 Y42.596 E0.8771
G1 X111.128 Y39.852 E1.0862
G1 X111.128 Y40.530 E1.1228
G1 X113.872 Y43.274 E1.3319
G1 X113.872 Y43.953 E1.3685
G1 X111.128 Y41.209 E1.5776
G1 X111.128 Y41.888 E1.6141
G1 X113.872 Y44.632 E1.8232
G1 X113.872 Y45.311 E1.8598
G1 X111.128 Y42.567 E2.0689
G1 X111.128 Y43.246 E2.1055
G1 X113.872 Y45.990 E2.3146
G1 X113.872 Y46.669 E2.3511
G1 X111.128 Y43.925 E2.5602
G1 X111.128 Y44.603 E2.5968
G1 X113.872 Y47.347 E2.8059
G1 X113.872 Y48.026 E2.8425
G1 X111.128 Y45.282 E3.0516
G1 X111.128 Y45.961 E3.0881
G1 X113.872 Y48.705 E3.2972
G1 X113.872 Y49.384 E3.3338
G1 X111.128 Y46.640 E3.5429
G1 X111.128 Y47.319 E3.5795
G1 X113.872 Y50.063 E3.7886
G1 X113.872 Y50.741 E3.8252
G1 X111.128 Y47.997 E4.0342
G1 X111.128 Y48.676 E4.0708
G1 X113.872 Y51.420 E4.2799
G1 X113.872 Y52.099 E4.3165
G1 X111.128 Y49.355 E4.5256
G1 X111.128 Y50.034 E4.5622
G1 X113.872 Y52.778 E4.7713
G1 X113.872 Y53.457 E4.8078
G1 X111.128 Y50.713 E5.0169
G1 X111.128 Y51.392 E5.0535
G1 X113.872 Y54.136 E5.2626
G1 X113.872 Y54.814 E5.2992
G1 X111.128 Y52.070 E5.5083
G1 X111.128 Y52.749 E5.5448
G1 X113.872 Y55.493 E5.7539
G1 X113.872 Y56.172 E5.7905
G1 X111.128 Y53.428 E5.9996
G1 X111.128 Y54.107 E6.0362
G1 X113.872 Y56.851 E6.2453
G1 X113.872 Y57.530 E6.2818
G1 X111.128 Y54.786 E6.4909
G1 X111.128 Y55.465 E6.5275
G1 X113.872 Y58.209 E6.7366
G1 X113.872 Y58.887 E6.7732
G1 X111.128 Y56.143 E6.9823
G1 X111.128 Y56.822 E7.0188
G1 X113.872 Y59.566 E7.2279
G1 X113.872 Y60.245 E7.2645
G1 X111.128 Y57.501 E7.4736
G1 X111.128 Y58.180 E7.5102
G1 X113.872 Y60.924 E7.7193
G1 X113.872 Y61.603 E7.7558
G1 X111.128 Y58.859 E7.9649
G1 X111.128 Y59.537 E8.0015
G1 X113.872 Y62.281 E8.2106
G1 X113.872 Y62.960 E8.2472
G1 X111.128 Y60.216 E8.4563
G1 X111.128 Y60.895 E8.4929
G1 X113.872 Y63.639 E8.7019
G1 X113.872 Y64.318 E8.7385
G1 X111.128 Y61.574 E8.9476
G1 X111.128 Y62.253 E8.9842
G1 X113.872 Y64.997 E9.1933
G1 X113.872 Y65.676 E9.2299
G1 X111.128 Y62.932 E9.4389
G1 X111.128 Y63.610 E9.4755
G1 X113.872 Y66.354 E9.6846
G1 X113.872 Y67.033 E9.7212
G1 X111.128 Y64.289 E9.9303
G1 X111.128 Y64.968 E9.9669
G1 X113.872 Y67.712 E10.1760
G1 X113.872 Y68.391 E10.2125
G1 X111.128 Y65.647 E10.4216
G1 X111.128 Y66.326 E10.4582
G1 X113.872 Y69.070 E10.6673
G1 X113.872 Y69.749 E10.7039
G1 X111.128 Y67.005 E10.9130
G1 X111.128 Y67.683 E10.9495
G1 X113.872 Y70.427 E11.1586
G1 X113.872 Y71.106 E11.1952
G1 X111.128 Y68.362 E11.4043
G1 X111.128 Y69.041 E11.4409
G1 X113.872 Y71.785 E11.6500
G1 X113.872 Y72.464 E11.6865
G1 X111.128 Y69.720 E11.8956
G1 X111.128 Y70.399 E11.9322
G1 X113.872 Y73.143 E12.1413
G1 X113.872 Y73.821 E12.1779
G1 X111.128 Y71.077 E12.3870
G1 X111.128 Y71.756 E12.4235
G1 X113.872 Y74.500 E12.6326
G1 X113.872 Y75.179 E12.6692
G1 X111.128 Y72.435 E12.8783
G1 X111.128 Y73.114 E12.9149
G1 X113.872 Y75.858 E13.1240
G1 X113.872 Y76.537 E13.1605
G1 X111.128 Y73.793 E13.3696
G1 X111.128 Y74.472 E13.4062
G1 X113.872 Y77.216 E13.6153
G1 X113.872 Y77.894 E13.6519
G1 X111.128 Y75.150 E13.8610
G1 X111.128 Y75.829 E13.8976
G1 X113.872 Y78.573 E14.1066
G1 X113.872 Y79.252 E14.1432
G1 X111.128 Y76.508 E14.3523
G1 X111.128 Y77.187 E14.3889
G1 X113.872 Y79.931 E14.5980
G1 X113.872 Y80.610 E14.6346
G1 X111.128 Y77.866 E14.8436
G1 X111.128 Y78.545 E14.8802
G1 X113.872 Y81.289 E15.0893
G1 X113.872 Y81.967 E15.1259
G1 X111.128 Y79.223 E15.3350
G1 X111.128 Y79.902 E15.3716
G1 X113.872 Y82.646 E15.5807
G1 X113.872 Y83.325 E15.6172
G1 X111.128 Y80.581 E15.8263
G1 X111.128 Y81.260 E15.8629
G1 X113.872 Y84.004 E16.0720
G1 X113.872 Y84.683 E16.1086
G1 X111.128 Y81.939 E16.3177
G1 X111.128 Y82.617 E16.3542
G1 X113.872 Y85.361 E16.5633
G1 X113.872 Y86.040 E16.5999
G1 X111.128 Y83.296 E16.8090
G1 X111.128 Y83.975 E16.8456
G1 X113.872 Y86.719 E17.0547
G1 X113.872 Y87.398 E17.0912
G1 X111.128 Y84.654 E17.3003
G1 X111.128 Y85.333 E17.3369
G1 X113.872 Y88.077 E17.5460
G1 X113.872 Y88.756 E17.5826
G1 X111.128 Y86.012 E17.7917
G1 X111.128 Y86.690 E17.8282
G1 X113.872 Y89.434 E18.0373
G1 X113.872 Y90.113 E18.0739
G1 X111.128 Y87.369 E18.2830
G1 X111.128 Y88.048 E18.3196
G1 X113.872 Y90.792 E18.5287
G1 X113.872 Y91.471 E18.5652
G1 X111.128 Y88.727 E18.7743
G1 X111.128 Y89.406 E18.8109
G1 X113.872 Y92.150 E19.0200
G1 X113.872 Y92.828 E19.0566
G1 X111.128 Y90.084 E19.2657
G1 X111.128 Y90.763 E19.3023
G1 X113.872 Y93.507 E19.5113
G1 X113.872 Y94.186 E19.5479
G1 X111.128 Y91.442 E19.7570
G1 X111.128 Y92.121 E19.7936
G1 X113.872 Y94.865 E20.0027
G1 X113.872 Y95.544 E20.0393
G1 X111.128 Y92.800 E20.2484
G1 X111.128 Y93.479 E20.2849
G1 X113.872 Y96.223 E20.4940
G1 X113.872 Y96.901 E20.5306
G1 X111.128 Y94.157 E20.7397
G1 X111.128 Y94.836 E20.7763
G1 X113.872 Y97.580 E20.9854
G1 X113.872 Y98.259 E21.0219
G1 X111.128 Y95.515 E21.2310
G1 X111.128 Y96.194 E21.2676
G1 X113.872 Y98.938 E21.4767
G1 X113.872 Y99.617 E21.5133
G1 X111.128 Y96.873 E21.7224
G1 X111.128 Y97.552 E21.7589
G1 X113.872 Y100.296 E21.9680
G1 X113.872 Y100.974 E22.0046
G1 X111.128 Y98.230 E22.2137
G1 X111.128 Y98.909 E22.2503
G1 X113.872 Y101.653 E22.4594
G1 X113.872 Y102.332 E22.4959
G1 X111.128 Y99.588 E22.7050
G1 X111.128 Y100.267 E22.7416
G1 X113.872 Y103.011 E22.9507
G1 X113.872 Y103.690 E22.9873
G1 X111.128 Y100.946 E23.1964
G1 X111.128 Y101.624 E23.2329
G1 X113.872 Y104.368 E23.4420
G1 X113.872 Y105.047 E23.4786
G1 X111.128 Y102.303 E23.6877
G1 X111.128 Y102.982 E23.7243
G1 X113.872 Y105.726 E23.9334
G1 X113.872 Y106.405 E23.9700
G1 X111.128 Y103.661 E24.1790
G1 X111.128 Y104.340 E24.2156
G1 X113.872 Y107.084 E24.4247
G1 X113.872 Y107.763 E24.4613
G1 X111.128 Y105.019 E24.6704
G1 X111.128 Y105.697 E24.7070
G1 X113.872 Y108.441 E24.9160
G1 X113.872 Y109.120 E24.9526
G1 X111.128 Y106.376 E25.1617
G1 X111.128 Y107.055 E25.1983
G1 X113.872 Y109.799 E25.4074
G1 X113.872 Y110.478 E25.4440
G1 X111.128 Y107.734 E25.6531
G1 X111.128 Y108.413 E25.6896
G1 X113.872 Y111.157 E25.8987
G1 X113.872 Y111.836 E25.9353
G1 X111.128 Y109.092 E26.1444
G1 X111.128 Y109.770 E26.1810
G1 X113.872 Y112.514 E26.3901
G1 X113.872 Y113.193 E26.4266
G1 X111.128 Y110.449 E26.6357
G1 X111.128 Y111.128 E26.6723
G1 X113.872 Y113.872 E26.8814
G1 X113.872 Y114.551 E26.9180
G1 X111.128 Y111.807 E27.1271
G1 X111.128 Y112.486 E27.1636
G1 X113.872 Y115.230 E27.3727
G1 X113.872 Y115.908 E27.4093
G1 X111.128 Y113.164 E27.6184
G1 X111.128 Y113.843 E27.6550
G1 X113.872 Y116.587 E27.8641
G1 X113.872 Y117.266 E27.9006
G1 X111.128 Y114.522 E28.1097
G1 X111.128 Y115.201 E28.1463
G1 X113.872 Y117.945 E28.3554
G1 X113.872 Y118.624 E28.3920
G1 X111.128 Y115.880 E28.6011
G1 X111.128 Y116.559 E28.6376
G1 X113.872 Y119.303 E28.8467
G1 X113.872 Y119.981 E28.8833
G1 X111.128 Y117.237 E29.0924
G1 X111.128 Y117.916 E29.1290
G1 X113.872 Y120.660 E29.3381
G1 X113.872 Y121.339 E29.3747
G1 X111.128 Y118.595 E29.5837
G1 X111.128 Y119.274 E29.6203
G1 X113.872 Y122.018 E29.8294
G1 X113.872 Y122.697 E29.8660
G1 X111.128 Y119.953 E30.0751
G1 X111.128 Y120.632 E30.1117
G1 X113.872 Y123.376 E30.3207
G1 X113.872 Y124.054 E30.3573
G1 X111.128 Y121.310 E30.5664
G1 X111.128 Y121.989 E30.6030
G1 X113.872 Y124.733 E30.8121
G1 X113.872 Y125.412 E30.8487
G1 X111.128 Y122.668 E31.0578
G1 X111.128 Y123.347 E31.0943
G1 X113.872 Y126.091 E31.3034
G1 X113.872 Y126.770 E31.3400
G1 X111.128 Y124.026 E31.5491
G1 X111.128 Y124.704 E31.5857
G1 X113.872 Y127.448 E31.7948
G1 X113.872 Y128.127 E31.8313
G1 X111.128 Y125.383 E32.0404
G1 X111.128 Y126.062 E32.0770
G1 X113.872 Y128.806 E32.2861
G1 X113.872 Y129.485 E32.3227
G1 X111.128 Y126.741 E32.5318
G1 X111.128 Y127.420 E32.5683
G1 X113.872 Y130.164 E32.7774
G1 X113.872 Y130.843 E32.8140
G1 X111.128 Y128.099 E33.0231
G1 X111.128 Y128.777 E33.0597
G1 X113.872 Y131.521 E33.2688
G1 X113.872 Y132.200 E33.3053
G1 X111.128 Y129.456 E33.5144
G1 X111.128 Y130.135 E33.5510
G1 X113.872 Y132.879 E33.7601
G1 X113.872 Y133.558 E33.7967
G1 X111.128 Y130.814 E34.0058
G1 X111.128 Y131.493 E34.0423
G1 X113.872 Y134.237 E34.2514
G1 X113.872 Y134.915 E34.2880
G1 X111.128 Y132.171 E34.4971
G1 X111.128 Y132.850 E34.5337
G1 X113.872 Y135.594 E34.7428
G1 X113.872 Y136.273 E34.7794
G1 X111.128 Y133.529 E34.9884
G1 X111.128 Y134.208 E35.0250
G1 X113.872 Y136.952 E35.2341
G1 X113.872 Y137.631 E35.2707
G1 X111.128 Y134.887 E35.4798
G1 X111.128 Y135.566 E35.5164
G1 X113.872 Y138.310 E35.7255
G1 X113.872 Y138.988 E35.7620
G1 X111.128 Y136.244 E35.9711
G1 X111.128 Y136.923 E36.0077
G1 X113.872 Y139.667 E36.2168
G1 X113.872 Y140.346 E36.2534
G1 X111.128 Y137.602 E36.4625
G1 X111.128 Y138.281 E36.4990
G1 X113.872 Y141.025 E36.7081
G1 X113.872 Y141.704 E36.7447
G1 X111.128 Y138.960 E36.9538
G1 X111.128 Y139.639 E36.9904
G1 X113.872 Y142.383 E37.1995
G1 X113.872 Y143.061 E37.2360
G1 X111.128 Y140.317 E37.4451
G1 X111.128 Y140.996 E37.4817
G1 X113.872 Y143.740 E37.6908
G1 X113.872 Y144.419 E37.7274
G1 X111.128 Y141.675 E37.9365
G1 X111.128 Y142.354 E37.9730
G1 X113.872 Y145.098 E38.1821
G1 X113.872 Y145.777 E38.2187
G1 X111.128 Y143.033 E38.4278
G1 X111.128 Y143.711 E38.4644
G1 X113.872 Y146.455 E38.6735
G1 X113.872 Y147.134 E38.7100
G1 X111.128 Y144.390 E38.9191
G1 X111.128 Y145.069 E38.9557
G1 X113.872 Y147.813 E39.1648
G1 X113.872 Y148.492 E39.2014
G1 X111.128 Y145.748 E39.4105
G1 X111.128 Y146.427 E39.4471
G1 X113.872 Y149.171 E39.6561
G1 X113.872 Y149.850 E39.6927
G1 X111.128 Y147.106 E39.9018
G1 X111.128 Y147.784 E39.9384
G1 X113.872 Y150.528 E40.1475
G1 X113.872 Y151.207 E40.1841
