; G-Code generated by Simplify3D(R) Version 4.0.0
; May 4, 2018 at 5:08:45 PM
; Settings Summary
;   processName,nozzle 0.4
;   applyToModels,copple_final,copple_final(2),copple_final(3),copple_final(4)
;   profileName,Flying Bear 902 Update 7-2017 (modified)
;   profileVersion,2017-07-10 09:45:20
;   baseProfile,Default
;   printMaterial,PLA
;   printQuality,Medium
;   printExtruders,
;   extruderName,Extruder 1
;   extruderToolheadNumber,0
;   extruderDiameter,0.4
;   extruderAutoWidth,1
;   extruderWidth,0.48
;   extrusionMultiplier,0.9
;   extruderUseRetract,1
;   extruderRetractionDistance,2
;   extruderExtraRestartDistance,0
;   extruderRetractionZLift,0
;   extruderRetractionSpeed,3000
;   extruderUseCoasting,0
;   extruderCoastingDistance,0.2
;   extruderUseWipe,1
;   extruderWipeDistance,5
;   primaryExtruder,0
;   layerHeight,0.2
;   topSolidLayers,2
;   bottomSolidLayers,2
;   perimeterOutlines,4
;   printPerimetersInsideOut,0
;   startPointOption,2
;   startPointOriginX,0
;   startPointOriginY,0
;   sequentialIslands,0
;   spiralVaseMode,0
;   firstLayerHeightPercentage,20
;   firstLayerWidthPercentage,115
;   firstLayerUnderspeed,0.3
;   useRaft,1
;   raftExtruder,0
;   raftTopLayers,2
;   raftBaseLayers,2
;   raftOffset,2
;   raftSeparationDistance,0.3
;   raftTopInfill,100
;   aboveRaftSpeedMultiplier,0.3
;   useSkirt,0
;   skirtExtruder,0
;   skirtLayers,1
;   skirtOutlines,2
;   skirtOffset,4
;   usePrimePillar,0
;   primePillarExtruder,999
;   primePillarWidth,12
;   primePillarLocation,7
;   primePillarSpeedMultiplier,1
;   useOozeShield,0
;   oozeShieldExtruder,999
;   oozeShieldOffset,2
;   oozeShieldOutlines,1
;   oozeShieldSidewallShape,1
;   oozeShieldSidewallAngle,30
;   oozeShieldSpeedMultiplier,1
;   infillExtruder,0
;   internalInfillPattern,Rectilinear
;   externalInfillPattern,Concentric
;   infillPercentage,100
;   outlineOverlapPercentage,60
;   infillExtrusionWidthPercentage,100
;   minInfillLength,5
;   infillLayerInterval,1
;   internalInfillAngles,45,-45
;   overlapInternalInfillAngles,0
;   externalInfillAngles,45,-45
;   generateSupport,0
;   supportExtruder,0
;   supportInfillPercentage,30
;   supportExtraInflation,0
;   supportBaseLayers,0
;   denseSupportExtruder,0
;   denseSupportLayers,0
;   denseSupportInfillPercentage,50
;   supportLayerInterval,1
;   supportHorizontalPartOffset,0.3
;   supportUpperSeparationLayers,1
;   supportLowerSeparationLayers,1
;   supportType,0
;   supportGridSpacing,4
;   maxOverhangAngle,70
;   supportAngles,0
;   temperatureName,Extruder 1,Heated Bed
;   temperatureNumber,0,0
;   temperatureSetpointCount,1,1
;   temperatureSetpointLayers,1,1
;   temperatureSetpointTemperatures,210,60
;   temperatureStabilizeAtStartup,1,0
;   temperatureHeatedBed,0,1
;   temperatureRelayBetweenLayers,0,0
;   temperatureRelayBetweenLoops,0,0
;   fanLayers,1
;   fanSpeeds,255
;   blipFanToFullPower,0
;   adjustSpeedForCooling,1
;   minSpeedLayerTime,15
;   minCoolingSpeedSlowdown,20
;   increaseFanForCooling,0
;   minFanLayerTime,45
;   maxCoolingFanSpeed,100
;   increaseFanForBridging,0
;   bridgingFanSpeed,100
;   use5D,1
;   relativeEdistances,0
;   allowEaxisZeroing,1
;   independentExtruderAxes,0
;   includeM10123,0
;   stickySupport,1
;   applyToolheadOffsets,0
;   gcodeXoffset,0
;   gcodeYoffset,0
;   gcodeZoffset,0
;   overrideMachineDefinition,1
;   machineTypeOverride,0
;   strokeXoverride,220
;   strokeYoverride,220
;   strokeZoverride,280
;   originOffsetXoverride,0
;   originOffsetYoverride,0
;   originOffsetZoverride,0
;   homeXdirOverride,-1
;   homeYdirOverride,-1
;   homeZdirOverride,-1
;   flipXoverride,1
;   flipYoverride,-1
;   flipZoverride,1
;   toolheadOffsets,0,0|0,0|0,0|0,0|0,0|0,0
;   overrideFirmwareConfiguration,1
;   firmwareTypeOverride,RepRap (Marlin/Repetier/Sprinter)
;   GPXconfigOverride,r2
;   baudRateOverride,250000
;   overridePrinterModels,0
;   printerModelsOverride
;   startingGcode,G28 ; home all axes,G1 X0 Y20 Z0.2 F3000 ; get ready to prime,G92 E0 ; reset extrusion distance,G1 X200 E20 F600 ; prime nozzle
;   layerChangeGcode,
;   retractionGcode,
;   toolChangeGcode,
;   endingGcode,M104 S0 ; turn off extruder,M140 S0 ; turn off bed,G28 X Y ; home x and y axes,M84 ; disable motors
;   exportFileFormat,gcode
;   celebration,0
;   celebrationSong,Random Song
;   postProcessing,
;   defaultSpeed,4400
;   outlineUnderspeed,0.6
;   solidInfillUnderspeed,0.85
;   supportUnderspeed,0.8
;   rapidXYspeed,5200
;   rapidZspeed,1002
;   minBridgingArea,50
;   bridgingExtraInflation,0
;   bridgingExtrusionMultiplier,1
;   bridgingSpeedMultiplier,1
;   useFixedBridgingAngle,0
;   fixedBridgingAngle,0
;   applyBridgingToPerimeters,0
;   filamentDiameters,1.75|1.75|1.75|1.75|1.75|1.75
;   filamentPricesPerKg,46|46|46|46|46|46
;   filamentDensities,1.25|1.25|1.25|1.25|1.25|1.25
;   useMinPrintHeight,0
;   minPrintHeight,0
;   useMaxPrintHeight,0
;   maxPrintHeight,4.3
;   useDiaphragm,0
;   diaphragmLayerInterval,20
;   robustSlicing,1
;   mergeAllIntoSolid,0
;   onlyRetractWhenCrossingOutline,1
;   retractBetweenLayers,1
;   useRetractionMinTravel,0
;   retractionMinTravel,3
;   retractWhileWiping,0
;   onlyWipeOutlines,1
;   avoidCrossingOutline,0
;   maxMovementDetourFactor,3
;   toolChangeRetractionDistance,12
;   toolChangeExtraRestartDistance,-0.5
;   toolChangeRetractionSpeed,600
;   externalThinWallType,1
;   internalThinWallType,1
;   thinWallAllowedOverlapPercentage,20
;   singleExtrusionMinLength,1
;   singleExtrusionMinPrintingWidthPercentage,50
;   singleExtrusionMaxPrintingWidthPercentage,200
;   singleExtrusionEndpointExtension,0.2
;   horizontalSizeCompensation,0
G90
M82
M106 S650
M140 S60
M104 S210 T0
M109 S210 T0
G28 ; home all axes
G1 X0 Y20 Z0.2 F3000 ; get ready to prime
G92 E0 ; reset extrusion distance
G1 X200 E20 F600 ; prime nozzle
G92 E0
G1 E-2.0000 F3000
G1 Z0.100 F1002
; process nozzle 0.4
; layer 1, Z = 0.100
T0
; tool H0.500 W0.920
; raft
G1 X105.291 Y85.379 F5200
G1 E0.0000 F900
G92 E0
G1 X105.349 Y85.308 E0.0158 F330
G1 X105.754 Y84.867 E0.1188
G1 X105.820 Y84.804 E0.1346
G1 X106.272 Y84.411 E0.2377
G1 X106.345 Y84.356 E0.2534
G1 X106.839 Y84.017 E0.3565
G1 X106.918 Y83.970 E0.3722
G1 X107.441 Y83.694 E0.4742
G1 X107.524 Y83.656 E0.4897
G1 X108.087 Y83.436 E0.5939
G1 X108.175 Y83.407 E0.6098
G1 X108.755 Y83.255 E0.7130
G1 X108.844 Y83.237 E0.7287
G1 X109.437 Y83.152 E0.8318
G1 X109.528 Y83.144 E0.8475
G1 X110.127 Y83.127 E0.9506
G1 X110.218 Y83.129 E0.9664
G1 X110.815 Y83.180 E1.0694
G1 X110.906 Y83.194 E1.0852
G1 X111.492 Y83.312 E1.1882
G1 X111.581 Y83.336 E1.2040
G1 X112.150 Y83.521 E1.3071
G1 X112.236 Y83.554 E1.3228
G1 X112.780 Y83.803 E1.4259
G1 X112.861 Y83.845 E1.4416
G1 X113.374 Y84.155 E1.5447
G1 X113.450 Y84.206 E1.5604
G1 X113.924 Y84.572 E1.6636
G1 X113.993 Y84.632 E1.6793
G1 X114.423 Y85.049 E1.7823
G1 X114.485 Y85.117 E1.7981
G1 X114.864 Y85.580 E1.9012
G1 X114.917 Y85.654 E1.9170
G1 X115.241 Y86.158 E2.0200
G1 X115.286 Y86.238 E2.0358
G1 X115.550 Y86.775 E2.1389
G1 X115.586 Y86.859 E2.1546
G1 X115.787 Y87.424 E2.2577
G1 X115.813 Y87.511 E2.2734
G1 X115.949 Y88.095 E2.3765
G1 X115.964 Y88.185 E2.3923
G1 X116.033 Y88.783 E2.4960
G1 X116.038 Y88.874 E2.5117
G1 X116.038 Y89.470 E2.6142
G1 X116.033 Y89.561 E2.6299
G1 X115.964 Y90.156 E2.7330
G1 X115.949 Y90.246 E2.7487
G1 X115.813 Y90.830 E2.8518
G1 X115.787 Y90.917 E2.8675
G1 X115.586 Y91.481 E2.9706
G1 X115.550 Y91.566 E2.9863
G1 X115.286 Y92.103 E3.0894
G1 X115.241 Y92.183 E3.1052
G1 X114.917 Y92.687 E3.2083
G1 X114.864 Y92.761 E3.2240
G1 X114.485 Y93.224 E3.3271
G1 X114.423 Y93.292 E3.3428
G1 X113.993 Y93.709 E3.4459
G1 X113.924 Y93.769 E3.4616
G1 X113.450 Y94.135 E3.5647
G1 X113.374 Y94.186 E3.5805
G1 X112.861 Y94.496 E3.6836
G1 X112.781 Y94.538 E3.6993
G1 X112.236 Y94.787 E3.8024
G1 X112.150 Y94.820 E3.8181
G1 X111.581 Y95.005 E3.9212
G1 X111.493 Y95.028 E3.9369
G1 X110.906 Y95.147 E4.0400
G1 X110.815 Y95.160 E4.0558
G1 X110.218 Y95.212 E4.1588
G1 X110.127 Y95.214 E4.1746
G1 X109.528 Y95.197 E4.2777
G1 X109.437 Y95.189 E4.2934
G1 X108.844 Y95.104 E4.3965
G1 X108.755 Y95.086 E4.4122
G1 X108.175 Y94.934 E4.5153
G1 X108.089 Y94.906 E4.5310
G1 X107.530 Y94.688 E4.6342
G1 X107.447 Y94.650 E4.6499
G1 X106.917 Y94.371 E4.7530
G1 X106.839 Y94.324 E4.7687
G1 X106.345 Y93.985 E4.8718
G1 X106.272 Y93.930 E4.8875
G1 X105.820 Y93.537 E4.9906
G1 X105.754 Y93.474 E5.0064
G1 X105.349 Y93.032 E5.1094
G1 X105.291 Y92.962 E5.1252
G1 X104.939 Y92.477 E5.2283
G1 X104.890 Y92.400 E5.2440
G1 X104.595 Y91.879 E5.3471
G1 X104.555 Y91.797 E5.3628
G1 X104.322 Y91.245 E5.4659
G1 X104.291 Y91.159 E5.4817
G1 X104.122 Y90.584 E5.5847
G1 X104.102 Y90.495 E5.6005
G1 X104.000 Y89.905 E5.7036
G1 X103.989 Y89.814 E5.7193
G1 X103.955 Y89.216 E5.8224
G1 X103.955 Y89.125 E5.8381
G1 X103.989 Y88.527 E5.9412
G1 X104.000 Y88.436 E5.9570
G1 X104.102 Y87.846 E6.0600
G1 X104.122 Y87.757 E6.0758
G1 X104.291 Y87.182 E6.1789
G1 X104.322 Y87.096 E6.1946
G1 X104.555 Y86.544 E6.2977
G1 X104.595 Y86.462 E6.3134
G1 X104.890 Y85.941 E6.4165
G1 X104.939 Y85.864 E6.4322
G1 X105.291 Y85.379 E6.5353
G92 E0
G1 E-2.0000 F3000
G1 X109.070 Y87.727 F5200
G1 E0.0000 F3000
G92 E0
G1 X109.070 Y90.614 E0.4970 F330
G1 X109.429 Y90.770 E0.5643
G1 X109.645 Y90.831 E0.6029
G1 X109.866 Y90.863 E0.6415
G1 X110.090 Y90.866 E0.6800
G1 X110.313 Y90.839 E0.7186
G1 X110.530 Y90.784 E0.7572
G1 X110.738 Y90.700 E0.7958
G1 X110.933 Y90.589 E0.8344
G1 X111.112 Y90.454 E0.8729
G1 X111.271 Y90.296 E0.9115
G1 X111.408 Y90.119 E0.9501
G1 X111.521 Y89.925 E0.9887
G1 X111.607 Y89.719 E1.0273
G1 X111.665 Y89.502 E1.0658
G1 X111.695 Y89.280 E1.1044
G1 X111.694 Y89.056 E1.1430
G1 X111.664 Y88.834 E1.1816
G1 X111.606 Y88.617 E1.2202
G1 X111.519 Y88.411 E1.2588
G1 X111.405 Y88.217 E1.2973
G1 X111.268 Y88.040 E1.3359
G1 X111.108 Y87.883 E1.3745
G1 X110.929 Y87.749 E1.4131
G1 X110.733 Y87.639 E1.4517
G1 X110.525 Y87.555 E1.4902
G1 X110.308 Y87.500 E1.5288
G1 X110.085 Y87.474 E1.5674
G1 X109.861 Y87.478 E1.6060
G1 X109.639 Y87.511 E1.6446
G1 X109.423 Y87.573 E1.6834
G1 X109.070 Y87.727 E1.7496
G92 E0
G1 E-2.0000 F3000
G1 X109.528 Y97.030 F5200
G1 E0.0000 F3000
G92 E0
G1 X110.127 Y97.013 E0.1031 F330
G1 X110.218 Y97.016 E0.1189
G1 X110.815 Y97.067 E0.2219
G1 X110.906 Y97.080 E0.2377
G1 X111.493 Y97.199 E0.3408
G1 X111.581 Y97.222 E0.3565
G1 X112.150 Y97.407 E0.4596
G1 X112.236 Y97.440 E0.4753
G1 X112.781 Y97.689 E0.5784
G1 X112.861 Y97.732 E0.5941
G1 X113.374 Y98.041 E0.6972
G1 X113.450 Y98.093 E0.7130
G1 X113.924 Y98.458 E0.8160
G1 X113.993 Y98.518 E0.8318
G1 X114.423 Y98.936 E0.9349
G1 X114.484 Y99.003 E0.9506
G1 X114.864 Y99.467 E1.0537
G1 X114.917 Y99.541 E1.0694
G1 X115.241 Y100.044 E1.1725
G1 X115.286 Y100.124 E1.1883
G1 X115.550 Y100.662 E1.2913
G1 X115.586 Y100.746 E1.3071
G1 X115.787 Y101.310 E1.4102
G1 X115.813 Y101.398 E1.4259
G1 X115.949 Y101.981 E1.5290
G1 X115.964 Y102.072 E1.5448
G1 X116.033 Y102.670 E1.6485
G1 X116.038 Y102.761 E1.6641
G1 X116.038 Y103.356 E1.7667
G1 X116.033 Y103.448 E1.7824
G1 X115.964 Y104.043 E1.8855
G1 X115.949 Y104.133 E1.9012
G1 X115.813 Y104.716 E2.0043
G1 X115.787 Y104.804 E2.0200
G1 X115.586 Y105.368 E2.1231
G1 X115.550 Y105.452 E2.1389
G1 X115.286 Y105.990 E2.2419
G1 X115.241 Y106.069 E2.2577
G1 X114.917 Y106.573 E2.3608
G1 X114.864 Y106.647 E2.3765
G1 X114.484 Y107.111 E2.4796
G1 X114.423 Y107.178 E2.4953
G1 X113.993 Y107.595 E2.5984
G1 X113.924 Y107.655 E2.6142
G1 X113.450 Y108.021 E2.7172
G1 X113.374 Y108.073 E2.7330
G1 X112.861 Y108.382 E2.8361
G1 X112.781 Y108.425 E2.8518
G1 X112.236 Y108.673 E2.9549
G1 X112.150 Y108.707 E2.9706
G1 X111.581 Y108.892 E3.0737
G1 X111.493 Y108.915 E3.0894
G1 X110.906 Y109.034 E3.1925
G1 X110.815 Y109.047 E3.2083
G1 X110.218 Y109.098 E3.3113
G1 X110.127 Y109.101 E3.3271
G1 X109.528 Y109.084 E3.4302
G1 X109.437 Y109.076 E3.4459
G1 X108.844 Y108.990 E3.5490
G1 X108.755 Y108.972 E3.5648
G1 X108.175 Y108.820 E3.6678
G1 X108.088 Y108.792 E3.6836
G1 X107.530 Y108.575 E3.7867
G1 X107.447 Y108.537 E3.8024
G1 X106.918 Y108.257 E3.9055
G1 X106.839 Y108.210 E3.9212
G1 X106.345 Y107.872 E4.0243
G1 X106.272 Y107.816 E4.0400
G1 X105.820 Y107.424 E4.1431
G1 X105.754 Y107.360 E4.1589
G1 X105.349 Y106.919 E4.2620
G1 X105.291 Y106.848 E4.2777
G1 X104.939 Y106.364 E4.3808
G1 X104.890 Y106.287 E4.3965
G1 X104.595 Y105.765 E4.4996
G1 X104.555 Y105.683 E4.5153
G1 X104.322 Y105.131 E4.6184
G1 X104.291 Y105.045 E4.6341
G1 X104.122 Y104.471 E4.7373
G1 X104.102 Y104.381 E4.7530
G1 X104.000 Y103.791 E4.8561
G1 X103.989 Y103.701 E4.8718
G1 X103.955 Y103.102 E4.9749
G1 X103.955 Y103.011 E4.9906
G1 X103.989 Y102.413 E5.0938
G1 X104.000 Y102.322 E5.1095
G1 X104.102 Y101.732 E5.2126
G1 X104.122 Y101.643 E5.2283
G1 X104.291 Y101.068 E5.3314
G1 X104.322 Y100.982 E5.3471
G1 X104.555 Y100.431 E5.4502
G1 X104.595 Y100.349 E5.4659
G1 X104.890 Y99.827 E5.5690
G1 X104.939 Y99.750 E5.5848
G1 X105.291 Y99.266 E5.6879
G1 X105.349 Y99.195 E5.7036
G1 X105.754 Y98.754 E5.8067
G1 X105.820 Y98.690 E5.8224
G1 X106.272 Y98.298 E5.9255
G1 X106.345 Y98.242 E5.9412
G1 X106.839 Y97.904 E6.0443
G1 X106.918 Y97.857 E6.0601
G1 X107.441 Y97.580 E6.1620
G1 X107.523 Y97.543 E6.1776
G1 X108.087 Y97.322 E6.2817
G1 X108.175 Y97.294 E6.2976
G1 X108.755 Y97.141 E6.4008
G1 X108.844 Y97.123 E6.4165
G1 X109.437 Y97.038 E6.5196
G1 X109.528 Y97.030 E6.5353
G92 E0
G1 E-2.0000 F3000
G1 X109.861 Y101.364 F5200
G1 E0.0000 F3000
G92 E0
G1 X109.639 Y101.397 E0.0386 F330
G1 X109.423 Y101.460 E0.0774
G1 X109.070 Y101.613 E0.1436
G1 X109.070 Y104.501 E0.6405
G1 X109.429 Y104.656 E0.7079
G1 X109.645 Y104.717 E0.7464
G1 X109.866 Y104.750 E0.7850
G1 X110.090 Y104.753 E0.8236
G1 X110.313 Y104.726 E0.8622
G1 X110.530 Y104.670 E0.9008
G1 X110.738 Y104.586 E0.9394
G1 X110.933 Y104.476 E0.9780
G1 X111.112 Y104.340 E1.0165
G1 X111.271 Y104.183 E1.0551
G1 X111.408 Y104.006 E1.0937
G1 X111.521 Y103.812 E1.1323
G1 X111.607 Y103.605 E1.1708
G1 X111.665 Y103.388 E1.2094
G1 X111.695 Y103.166 E1.2480
G1 X111.694 Y102.942 E1.2866
G1 X111.664 Y102.720 E1.3252
G1 X111.606 Y102.504 E1.3637
G1 X111.519 Y102.297 E1.4023
G1 X111.405 Y102.104 E1.4409
G1 X111.268 Y101.927 E1.4795
G1 X111.108 Y101.770 E1.5181
G1 X110.929 Y101.635 E1.5566
G1 X110.733 Y101.525 E1.5952
G1 X110.525 Y101.442 E1.6338
G1 X110.308 Y101.387 E1.6724
G1 X110.085 Y101.361 E1.7110
G1 X109.861 Y101.364 E1.7496
G92 E0
G1 E-2.0000 F3000
G1 X110.127 Y110.899 F5200
G1 E0.0000 F3000
G92 E0
G1 X110.218 Y110.902 E0.0158 F330
G1 X110.815 Y110.953 E0.1188
G1 X110.906 Y110.966 E0.1346
G1 X111.493 Y111.085 E0.2377
G1 X111.581 Y111.108 E0.2534
G1 X112.150 Y111.293 E0.3565
G1 X112.236 Y111.327 E0.3722
G1 X112.781 Y111.575 E0.4753
G1 X112.861 Y111.618 E0.4910
G1 X113.374 Y111.927 E0.5941
G1 X113.450 Y111.979 E0.6099
G1 X113.924 Y112.345 E0.7130
G1 X113.993 Y112.405 E0.7287
G1 X114.423 Y112.822 E0.8318
G1 X114.484 Y112.889 E0.8475
G1 X114.864 Y113.353 E0.9506
G1 X114.917 Y113.427 E0.9663
G1 X115.241 Y113.931 E1.0694
G1 X115.286 Y114.010 E1.0852
G1 X115.550 Y114.548 E1.1882
G1 X115.586 Y114.632 E1.2040
G1 X115.787 Y115.196 E1.3071
G1 X115.813 Y115.284 E1.3228
G1 X115.949 Y115.868 E1.4260
G1 X115.964 Y115.958 E1.4417
G1 X116.033 Y116.556 E1.5454
G1 X116.038 Y116.647 E1.5610
G1 X116.038 Y117.243 E1.6636
G1 X116.033 Y117.334 E1.6793
G1 X115.964 Y117.929 E1.7824
G1 X115.949 Y118.019 E1.7981
G1 X115.813 Y118.602 E1.9012
G1 X115.787 Y118.690 E1.9169
G1 X115.586 Y119.254 E2.0200
G1 X115.550 Y119.338 E2.0358
G1 X115.286 Y119.876 E2.1388
G1 X115.241 Y119.956 E2.1546
G1 X114.917 Y120.459 E2.2576
G1 X114.864 Y120.533 E2.2734
G1 X114.484 Y120.997 E2.3765
G1 X114.423 Y121.064 E2.3922
G1 X113.993 Y121.482 E2.4953
G1 X113.924 Y121.542 E2.5110
G1 X113.450 Y121.907 E2.6142
G1 X113.374 Y121.959 E2.6299
G1 X112.861 Y122.268 E2.7330
G1 X112.781 Y122.311 E2.7487
G1 X112.236 Y122.560 E2.8518
G1 X112.150 Y122.593 E2.8675
G1 X111.581 Y122.778 E2.9706
G1 X111.493 Y122.801 E2.9863
G1 X110.906 Y122.920 E3.0894
G1 X110.815 Y122.933 E3.1052
G1 X110.218 Y122.984 E3.2082
G1 X110.127 Y122.987 E3.2240
