; G-Code generated by Simplify3D(R) Version 4.0.0
; Oct 21, 2019 at 5:47:10 PM
; Settings Summary
;   processName,Process2
;   applyToModels,Rick_and_Morty_Stencil_V1
;   profileName,Default(2) (modified)
;   profileVersion,2019-07-27 15:21:07
;   baseProfile,
;   printMaterial,PLA
;   printQuality,Medium
;   printExtruders,
;   extruderName,Primary Extruder
;   extruderToolheadNumber,0
;   extruderDiameter,0.4
;   extruderAutoWidth,1
;   extruderWidth,0.48
;   extrusionMultiplier,0.9
;   extruderUseRetract,1
;   extruderRetractionDistance,1
;   extruderExtraRestartDistance,0
;   extruderRetractionZLift,0
;   extruderRetractionSpeed,1800
;   extruderUseCoasting,0
;   extruderCoastingDistance,0.2
;   extruderUseWipe,0
;   extruderWipeDistance,5
;   primaryExtruder,0
;   layerHeight,0.3
;   topSolidLayers,3
;   bottomSolidLayers,2
;   perimeterOutlines,2
;   printPerimetersInsideOut,1
;   startPointOption,2
;   startPointOriginX,0
;   startPointOriginY,0
;   sequentialIslands,0
;   spiralVaseMode,0
;   firstLayerHeightPercentage,90
;   firstLayerWidthPercentage,100
;   firstLayerUnderspeed,0.5
;   useRaft,0
;   raftExtruder,0
;   raftTopLayers,3
;   raftBaseLayers,2
;   raftOffset,3
;   raftSeparationDistance,0.14
;   raftTopInfill,100
;   aboveRaftSpeedMultiplier,0.3
;   useSkirt,0
;   skirtExtruder,0
;   skirtLayers,1
;   skirtOutlines,2
;   skirtOffset,4
;   usePrimePillar,0
;   primePillarExtruder,999
;   primePillarWidth,12
;   primePillarLocation,7
;   primePillarSpeedMultiplier,1
;   useOozeShield,0
;   oozeShieldExtruder,999
;   oozeShieldOffset,2
;   oozeShieldOutlines,1
;   oozeShieldSidewallShape,1
;   oozeShieldSidewallAngle,30
;   oozeShieldSpeedMultiplier,1
;   infillExtruder,0
;   internalInfillPattern,Rectilinear
;   externalInfillPattern,Rectilinear
;   infillPercentage,10
;   outlineOverlapPercentage,15
;   infillExtrusionWidthPercentage,100
;   minInfillLength,5
;   infillLayerInterval,1
;   internalInfillAngles,45,-45
;   overlapInternalInfillAngles,0
;   externalInfillAngles,45,-45
;   generateSupport,0
;   supportExtruder,0
;   supportInfillPercentage,30
;   supportExtraInflation,0
;   supportBaseLayers,0
;   denseSupportExtruder,0
;   denseSupportLayers,0
;   denseSupportInfillPercentage,70
;   supportLayerInterval,1
;   supportHorizontalPartOffset,0.3
;   supportUpperSeparationLayers,1
;   supportLowerSeparationLayers,1
;   supportType,0
;   supportGridSpacing,4
;   maxOverhangAngle,45
;   supportAngles,0
;   temperatureName,Primary Extruder,Hot Bed
;   temperatureNumber,0,1
;   temperatureSetpointCount,1,1
;   temperatureSetpointLayers,1,1
;   temperatureSetpointTemperatures,200,60
;   temperatureStabilizeAtStartup,1,0
;   temperatureHeatedBed,0,1
;   temperatureRelayBetweenLayers,0,0
;   temperatureRelayBetweenLoops,0,0
;   fanLayers,1,2
;   fanSpeeds,0,100
;   blipFanToFullPower,0
;   adjustSpeedForCooling,1
;   minSpeedLayerTime,15
;   minCoolingSpeedSlowdown,20
;   increaseFanForCooling,0
;   minFanLayerTime,45
;   maxCoolingFanSpeed,100
;   increaseFanForBridging,0
;   bridgingFanSpeed,100
;   use5D,1
;   relativeEdistances,0
;   allowEaxisZeroing,1
;   independentExtruderAxes,0
;   includeM10123,0
;   stickySupport,1
;   applyToolheadOffsets,0
;   gcodeXoffset,-9
;   gcodeYoffset,-4
;   gcodeZoffset,0
;   overrideMachineDefinition,0
;   machineTypeOverride,0
;   strokeXoverride,200
;   strokeYoverride,200
;   strokeZoverride,200
;   originOffsetXoverride,0
;   originOffsetYoverride,0
;   originOffsetZoverride,0
;   homeXdirOverride,-1
;   homeYdirOverride,-1
;   homeZdirOverride,-1
;   flipXoverride,1
;   flipYoverride,-1
;   flipZoverride,1
;   toolheadOffsets,0,0|0,0|0,0|0,0|0,0|0,0
;   overrideFirmwareConfiguration,0
;   firmwareTypeOverride,RepRap (Marlin/Repetier/Sprinter)
;   GPXconfigOverride,r2
;   baudRateOverride,115200
;   overridePrinterModels,0
;   printerModelsOverride
;   startingGcode,G28 ; home all axes,G1 X2 Y15 Z0.2 F3000 ; get ready to prime,G92 E0 ; reset extrusion distance,G1 Y150 E20 F600 ; prime nozzle
;   layerChangeGcode,
;   retractionGcode,
;   toolChangeGcode,
;   endingGcode,M104 S0 ; turn off extruder,M140 S0 ; turn off bed,G28 X Y ; home X & Y,M84 ; disable motors
;   exportFileFormat,gcode
;   celebration,0
;   celebrationSong,Random Song
;   postProcessing,
;   defaultSpeed,4800
;   outlineUnderspeed,0.5
;   solidInfillUnderspeed,0.8
;   supportUnderspeed,0.8
;   rapidXYspeed,4800
;   rapidZspeed,1000
;   minBridgingArea,50
;   bridgingExtraInflation,0
;   bridgingExtrusionMultiplier,1
;   bridgingSpeedMultiplier,1
;   useFixedBridgingAngle,0
;   fixedBridgingAngle,0
;   applyBridgingToPerimeters,0
;   filamentDiameters,1.75|1.75|1.75|1.75|1.75|1.75
;   filamentPricesPerKg,46|46|46|46|46|46
;   filamentDensities,1.25|1.25|1.25|1.25|1.25|1.25
;   useMinPrintHeight,0
;   minPrintHeight,0
;   useMaxPrintHeight,0
;   maxPrintHeight,0
;   useDiaphragm,0
;   diaphragmLayerInterval,20
;   robustSlicing,1
;   mergeAllIntoSolid,0
;   onlyRetractWhenCrossingOutline,1
;   retractBetweenLayers,1
;   useRetractionMinTravel,0
;   retractionMinTravel,3
;   retractWhileWiping,0
;   onlyWipeOutlines,1
;   avoidCrossingOutline,0
;   maxMovementDetourFactor,3
;   toolChangeRetractionDistance,12
;   toolChangeExtraRestartDistance,-0.5
;   toolChangeRetractionSpeed,600
;   externalThinWallType,1
;   internalThinWallType,1
;   thinWallAllowedOverlapPercentage,10
;   singleExtrusionMinLength,1
;   singleExtrusionMinPrintingWidthPercentage,50
;   singleExtrusionMaxPrintingWidthPercentage,200
;   singleExtrusionEndpointExtension,0.2
;   horizontalSizeCompensation,0
G90
M82
M106 S0
M140 S60
M104 S200 T0
M109 S200 T0
G28 ; home all axes
G1 X2 Y15 Z0.2 F3000 ; get ready to prime
G92 E0 ; reset extrusion distance
G1 Y150 E20 F600 ; prime nozzle
G92 E0
G1 E-1.0000 F1800
G1 Z0.270 F1000
; process Process2
; layer 1, Z = 0.270
T0
; tool H0.300 W0.480
; inner perimeter
G1 X8.101 Y14.284 F4800
G1 E0.0000 F540
G92 E0
G1 X216.899 Y14.284 E11.2504 F1800
G1 X216.899 Y210.716 E21.8344
G1 X8.101 Y210.716 E33.0848
G1 X8.101 Y14.284 E43.6688
; outer perimeter
G1 X7.621 Y13.804 F4800
G92 E0
G1 X217.380 Y13.804 E11.3021 F1200
G1 X217.380 Y211.196 E21.9379
G1 X7.621 Y211.196 E33.2400
G1 X7.621 Y13.804 E43.8757
; inner perimeter
G1 X11.112 Y16.825 F4800
G92 E0
G1 X10.642 Y17.296 E0.0358 F1800
G1 X10.261 Y17.840 E0.0716
G1 X9.980 Y18.443 E0.1075
G1 X9.807 Y19.085 E0.1433
G1 X9.750 Y19.747 E0.1791
G1 X9.807 Y20.410 E0.2150
G1 X9.980 Y21.052 E0.2508
G1 X10.261 Y21.655 E0.2866
G1 X10.642 Y22.199 E0.3224
G1 X11.112 Y22.670 E0.3583
G1 X11.657 Y23.051 E0.3941
G1 X12.259 Y23.332 E0.4299
G1 X12.902 Y23.504 E0.4657
G1 X13.564 Y23.562 E0.5016
G1 X14.226 Y23.504 E0.5374
G1 X14.869 Y23.332 E0.5732
G1 X15.471 Y23.051 E0.6090
G1 X16.016 Y22.670 E0.6449
G1 X16.486 Y22.199 E0.6807
G1 X16.867 Y21.655 E0.7165
G1 X17.148 Y21.052 E0.7524
G1 X17.321 Y20.410 E0.7882
G1 X17.379 Y19.747 E0.8240
G1 X17.321 Y19.085 E0.8598
G1 X17.148 Y18.443 E0.8957
G1 X16.867 Y17.840 E0.9315
G1 X16.486 Y17.296 E0.9673
G1 X16.016 Y16.825 E1.0031
G1 X15.471 Y16.444 E1.0390
G1 X14.869 Y16.163 E1.0748
G1 X14.226 Y15.991 E1.1106
G1 X13.564 Y15.933 E1.1464
G1 X12.902 Y15.991 E1.1823
G1 X12.259 Y16.163 E1.2181
G1 X11.657 Y16.444 E1.2539
G1 X11.112 Y16.825 E1.2897
; outer perimeter
G1 X11.422 Y17.195 F4800
G92 E0
G1 X11.011 Y17.605 E0.0313 F1200
G1 X10.678 Y18.081 E0.0626
G1 X10.432 Y18.608 E0.0939
G1 X10.282 Y19.169 E0.1252
G1 X10.231 Y19.747 E0.1565
G1 X10.282 Y20.326 E0.1878
G1 X10.432 Y20.887 E0.2191
G1 X10.678 Y21.414 E0.2504
G1 X11.011 Y21.890 E0.2817
G1 X11.422 Y22.300 E0.3130
G1 X11.898 Y22.634 E0.3443
G1 X12.424 Y22.879 E0.3756
G1 X12.985 Y23.030 E0.4069
G1 X13.564 Y23.080 E0.4382
G1 X14.143 Y23.030 E0.4695
G1 X14.704 Y22.879 E0.5008
G1 X15.230 Y22.634 E0.5321
G1 X15.706 Y22.300 E0.5634
G1 X16.117 Y21.890 E0.5947
G1 X16.450 Y21.414 E0.6260
G1 X16.696 Y20.887 E0.6573
G1 X16.846 Y20.326 E0.6886
G1 X16.897 Y19.747 E0.7199
G1 X16.846 Y19.169 E0.7512
G1 X16.696 Y18.608 E0.7825
G1 X16.450 Y18.081 E0.8138
G1 X16.117 Y17.605 E0.8451
G1 X15.706 Y17.195 E0.8764
G1 X15.230 Y16.861 E0.9077
G1 X14.704 Y16.616 E0.9390
G1 X14.143 Y16.465 E0.9703
G1 X13.564 Y16.415 E1.0016
G1 X12.985 Y16.465 E1.0329
G1 X12.424 Y16.616 E1.0642
G1 X11.898 Y16.861 E1.0955
G1 X11.422 Y17.195 E1.1268
G92 E0
G1 E-1.0000 F1800
; inner perimeter
G1 X27.624 Y33.209 F4800
G1 E0.0000 F1800
G92 E0
G1 X27.340 Y33.594 E0.0258 F1800
G1 X27.322 Y34.118 E0.0540
G1 X27.570 Y34.474 E0.0774
G1 X27.845 Y34.677 E0.0958
G1 X28.059 Y34.790 E0.1088
G1 X28.469 Y34.954 E0.1326
G1 X28.928 Y35.089 E0.1584
G1 X29.346 Y35.204 E0.1818
G1 X29.745 Y35.375 E0.2051
G1 X29.764 Y35.638 E0.2194
G1 X28.889 Y36.169 E0.2745
G1 X28.470 Y36.463 E0.3021
G1 X28.124 Y36.770 E0.3270
G1 X27.869 Y37.117 E0.3502
G1 X27.765 Y37.385 E0.3657
G1 X27.729 Y37.662 E0.3807
G1 X27.771 Y37.964 E0.3972
G1 X27.933 Y38.294 E0.4170
G1 X28.161 Y38.545 E0.4353
G1 X28.354 Y38.699 E0.4486
G1 X28.758 Y38.943 E0.4740
G1 X29.064 Y39.089 E0.4922
G1 X29.759 Y39.371 E0.5327
G1 X30.613 Y39.672 E0.5814
G1 X31.585 Y39.981 E0.6364
G1 X32.641 Y40.287 E0.6957
G1 X33.741 Y40.578 E0.7570
G1 X34.849 Y40.842 E0.8183
G1 X37.039 Y41.298 E0.9388
G1 X38.119 Y41.578 E0.9990
G1 X39.040 Y41.865 E1.0509
G1 X39.377 Y41.987 E1.0703
G1 X39.865 Y42.203 E1.0990
G1 X40.157 Y42.305 E1.1157
G1 X40.497 Y42.392 E1.1346
G1 X40.888 Y42.465 E1.1560
G1 X41.347 Y42.526 E1.1810
G1 X42.490 Y42.618 E1.2428
G1 X43.223 Y42.653 E1.2823
G1 X45.576 Y42.715 E1.4091
G1 X50.470 Y42.752 E1.6728
G1 X67.678 Y42.756 E2.6001
G1 X71.920 Y40.679 E2.8545
G1 X72.116 Y41.049 E2.8771
G1 X71.204 Y41.569 E2.9336
G1 X70.847 Y41.829 E2.9574
G1 X70.639 Y42.059 E2.9741
G1 X70.541 Y42.428 E2.9947
G1 X70.584 Y42.682 E3.0086
G1 X70.703 Y42.954 E3.0246
G1 X70.952 Y43.197 E3.0434
G1 X71.176 Y43.331 E3.0574
G1 X71.539 Y43.472 E3.0784
G1 X71.972 Y43.580 E3.1024
G1 X72.473 Y43.665 E3.1298
G1 X73.050 Y43.729 E3.1611
G1 X73.708 Y43.775 E3.1967
G1 X74.941 Y43.801 E3.2631
G1 X75.420 Y43.754 E3.2891
G1 X75.694 Y43.694 E3.3042
G1 X76.133 Y43.524 E3.3295
G1 X76.386 Y43.377 E3.3453
G1 X76.799 Y43.061 E3.3733
G1 X77.217 Y42.657 E3.4046
G1 X77.692 Y42.135 E3.4427
G1 X78.638 Y41.026 E3.5212
G1 X78.977 Y40.599 E3.5505
G1 X79.500 Y39.864 E3.5992
G1 X79.697 Y39.536 E3.6198
G1 X79.842 Y39.239 E3.6376
G1 X79.930 Y38.951 E3.6538
G1 X79.910 Y38.420 E3.6824
G1 X79.377 Y38.009 E3.7187
G1 X79.258 Y38.021 E3.7252
G1 X79.187 Y37.627 E3.7468
G1 X79.599 Y37.521 E3.7697
G1 X80.229 Y37.394 E3.8043
G1 X80.873 Y37.324 E3.8392
G1 X81.508 Y37.305 E3.8734
G1 X82.091 Y37.336 E3.9049
G1 X82.689 Y37.425 E3.9375
G1 X82.337 Y37.990 E3.9734
G1 X82.103 Y38.337 E3.9959
G1 X80.942 Y39.950 E4.1030
G1 X80.135 Y41.130 E4.1800
G1 X79.746 Y41.759 E4.2198
G1 X78.603 Y43.874 E4.3494
G1 X88.309 Y43.874 E4.8724
G1 X91.676 Y43.855 E5.0538
G1 X95.181 Y43.788 E5.2427
G1 X96.686 Y43.732 E5.3239
G1 X97.377 Y43.690 E5.3612
G1 X97.833 Y43.635 E5.3859
G1 X98.184 Y43.504 E5.4061
G1 X98.565 Y43.273 E5.4301
G1 X98.809 Y43.028 E5.4488
G1 X98.995 Y42.734 E5.4675
G1 X99.141 Y42.301 E5.4921
G1 X99.188 Y41.971 E5.5101
G1 X99.218 Y41.445 E5.5385
G1 X99.259 Y41.262 E5.5486
G1 X99.337 Y41.051 E5.5607
G1 X99.457 Y40.814 E5.5750
G1 X99.625 Y40.550 E5.5919
G1 X99.844 Y40.260 E5.6115
G1 X100.113 Y39.948 E5.6336
G1 X102.739 Y37.300 E5.8346
G1 X98.495 Y35.807 E6.0770
G1 X96.590 Y35.077 E6.1869
G1 X93.934 Y33.983 E6.3417
G1 X91.058 Y32.706 E6.5112
G1 X90.024 Y32.277 E6.5716
G1 X89.068 Y31.943 E6.6261
G1 X88.088 Y31.689 E6.6806
G1 X86.988 Y31.494 E6.7408
G1 X86.348 Y31.409 E6.7756
G1 X84.857 Y31.252 E6.8564
G1 X80.813 Y30.916 E7.0751
G1 X78.715 Y30.784 E7.1883
G1 X77.576 Y30.732 E7.2498
G1 X75.053 Y30.653 E7.3857
G1 X72.871 Y30.615 E7.5034
G1 X69.478 Y30.591 E7.6862
G1 X65.405 Y30.595 E7.9057
G1 X53.081 Y30.695 E8.5697
G1 X30.766 Y30.958 E9.7721
G1 X28.537 Y32.450 E9.9167
G1 X28.019 Y32.847 E9.9518
G1 X27.624 Y33.209 E9.9807
; outer perimeter
G1 X27.983 Y33.532 F4800
G92 E0
G1 X27.815 Y33.759 E0.0152 F1200
G1 X27.807 Y33.975 E0.0269
G1 X27.919 Y34.135 E0.0374
G1 X28.101 Y34.270 E0.0496
G1 X28.261 Y34.354 E0.0593
G1 X28.626 Y34.500 E0.0805
G1 X29.059 Y34.627 E0.1048
G1 X29.505 Y34.750 E0.1297
G1 X29.921 Y34.928 E0.1541
G1 X30.271 Y35.131 E0.1759
G1 X30.386 Y35.218 E0.1837
G1 X30.520 Y35.365 E0.1944
G1 X30.614 Y35.534 E0.2049
G1 X30.447 Y35.725 E0.2185
G1 X30.263 Y35.877 E0.2314
G1 X29.993 Y36.060 E0.2490
G1 X29.152 Y36.571 E0.3020
G1 X28.768 Y36.840 E0.3273
G1 X28.481 Y37.096 E0.3480
G1 X28.293 Y37.350 E0.3650
G1 X28.234 Y37.504 E0.3739
G1 X28.213 Y37.660 E0.3824
G1 X28.236 Y37.822 E0.3912
G1 X28.334 Y38.022 E0.4032
G1 X28.491 Y38.194 E0.4157
G1 X28.629 Y38.305 E0.4253
G1 X28.986 Y38.520 E0.4477
G1 X29.257 Y38.649 E0.4639
G1 X29.929 Y38.922 E0.5030
G1 X30.765 Y39.217 E0.5507
G1 X31.725 Y39.522 E0.6050
G1 X32.770 Y39.825 E0.6636
G1 X33.858 Y40.113 E0.7243
G1 X34.953 Y40.374 E0.7849
G1 X37.148 Y40.830 E0.9057
G1 X38.251 Y41.116 E0.9671
G1 X39.193 Y41.410 E1.0203
G1 X39.556 Y41.541 E1.0411
G1 X40.042 Y41.756 E1.0697
G1 X40.297 Y41.845 E1.0843
G1 X40.601 Y41.923 E1.1012
G1 X40.963 Y41.990 E1.1211
G1 X41.398 Y42.048 E1.1447
G1 X42.521 Y42.139 E1.2054
G1 X43.241 Y42.174 E1.2442
G1 X45.584 Y42.235 E1.3705
G1 X50.472 Y42.272 E1.6339
G1 X67.567 Y42.276 E2.5550
G1 X74.404 Y38.928 E2.9652
G1 X75.904 Y38.242 E3.0541
G1 X77.126 Y37.752 E3.1250
G1 X77.877 Y37.497 E3.1678
G1 X78.648 Y37.270 E3.2111
G1 X79.491 Y37.053 E3.2580
G1 X80.155 Y36.919 E3.2944
G1 X80.840 Y36.845 E3.3315
G1 X81.514 Y36.825 E3.3679
G1 X82.139 Y36.857 E3.4016
G1 X82.680 Y36.938 E3.4311
G1 X82.899 Y36.993 E3.4433
G1 X83.082 Y37.056 E3.4537
G1 X83.344 Y37.185 E3.4694
G1 X83.247 Y37.411 E3.4827
G1 X83.124 Y37.635 E3.4964
G1 X82.740 Y38.252 E3.5356
G1 X82.497 Y38.611 E3.5589
G1 X81.335 Y40.226 E3.6661
G1 X80.538 Y41.391 E3.7422
G1 X80.162 Y41.999 E3.7807
G1 X79.408 Y43.394 E3.8662
G1 X88.308 Y43.394 E4.3457
G1 X91.670 Y43.375 E4.5269
G1 X95.167 Y43.308 E4.7154
G1 X96.663 Y43.253 E4.7960
G1 X97.334 Y43.212 E4.8322
G1 X97.719 Y43.166 E4.8531
G1 X97.974 Y43.070 E4.8678
G1 X98.266 Y42.893 E4.8862
G1 X98.432 Y42.726 E4.8989
G1 X98.559 Y42.526 E4.9116
G1 X98.672 Y42.190 E4.9308
G1 X98.710 Y41.923 E4.9453
G1 X98.741 Y41.378 E4.9747
G1 X98.798 Y41.125 E4.9886
G1 X98.897 Y40.858 E5.0040
G1 X99.040 Y40.576 E5.0210
G1 X99.231 Y40.276 E5.0402
G1 X99.470 Y39.959 E5.0616
G1 X99.760 Y39.622 E5.0855
G1 X101.864 Y37.501 E5.2465
G1 X98.330 Y36.258 E5.4484
G1 X96.412 Y35.523 E5.5590
G1 X93.745 Y34.425 E5.7144
G1 X90.869 Y33.147 E5.8840
G1 X89.852 Y32.725 E5.9433
G1 X88.929 Y32.403 E5.9960
G1 X87.986 Y32.158 E6.0485
G1 X86.915 Y31.968 E6.1071
G1 X86.291 Y31.885 E6.1410
G1 X84.812 Y31.730 E6.2211
G1 X80.778 Y31.394 E6.4393
G1 X78.689 Y31.264 E6.5520
G1 X77.557 Y31.212 E6.6131
G1 X75.042 Y31.133 E6.7487
G1 X72.865 Y31.095 E6.8660
G1 X69.477 Y31.071 E7.0485
G1 X65.407 Y31.075 E7.2678
G1 X53.086 Y31.175 E7.9317
G1 X30.915 Y31.437 E9.1264
G1 X28.817 Y32.841 E9.2625
G1 X28.328 Y33.215 E9.2956
G1 X27.983 Y33.532 E9.3209
; inner perimeter
G1 X30.051 Y57.812 F4800
G92 E0
G1 X29.618 Y57.987 E0.0252 F1800
G1 X29.360 Y58.177 E0.0424
G1 X29.141 Y58.492 E0.0631
G1 X29.060 Y58.796 E0.0801
G1 X29.046 Y59.016 E0.0919
G1 X29.079 Y59.346 E0.1098
G1 X29.162 Y59.715 E0.1302
G1 X29.360 Y60.368 E0.1670
G1 X29.446 Y60.629 E0.1818
G1 X29.593 Y61.028 E0.2047
G1 X29.771 Y61.441 E0.2289
G1 X30.186 Y62.259 E0.2783
G1 X30.653 Y63.033 E0.3271
G1 X30.901 Y63.390 E0.3505
G1 X31.137 Y63.695 E0.3712
G1 X32.528 Y65.344 E0.4875
G1 X35.109 Y63.968 E0.6451
G1 X36.057 Y63.443 E0.7035
G1 X37.660 Y62.520 E0.8031
G1 X39.221 Y61.580 E0.9013
G1 X40.234 Y61.008 E0.9640
G1 X41.121 Y60.577 E1.0171
G1 X41.507 Y60.417 E1.0396
G1 X41.866 Y60.290 E1.0601
G1 X42.191 Y60.195 E1.0784
G1 X42.483 Y60.133 E1.0945
G1 X42.739 Y60.100 E1.1084
G1 X42.960 Y60.093 E1.1203
G1 X43.147 Y60.110 E1.1304
G1 X43.302 Y60.144 E1.1390
G1 X43.434 Y60.194 E1.1466
G1 X43.549 Y60.260 E1.1537
G1 X43.672 Y60.358 E1.1622
G1 X43.910 Y60.583 E1.1799
G1 X44.499 Y61.216 E1.2264
G1 X45.156 Y62.007 E1.2818
