; G-Code generated by Simplify3D(R) Version 4.0.0
; Jun 17, 2018 at 8:36:28 PM
; Settings Summary
;   processName,Process1
;   applyToModels,rj45-2_repair
;   profileName,Flyingbear p902 (modified)
;   profileVersion,2017-02-06 00:22:54
;   baseProfile,Default
;   printMaterial,PLA
;   printQuality,Medium
;   printExtruders,
;   extruderName,Extruder 1
;   extruderToolheadNumber,0
;   extruderDiameter,0.4
;   extruderAutoWidth,1
;   extruderWidth,0.48
;   extrusionMultiplier,1
;   extruderUseRetract,1
;   extruderRetractionDistance,1
;   extruderExtraRestartDistance,0
;   extruderRetractionZLift,0
;   extruderRetractionSpeed,3400
;   extruderUseCoasting,0
;   extruderCoastingDistance,0.2
;   extruderUseWipe,0
;   extruderWipeDistance,5
;   primaryExtruder,0
;   layerHeight,0.3
;   topSolidLayers,3
;   bottomSolidLayers,3
;   perimeterOutlines,2
;   printPerimetersInsideOut,0
;   startPointOption,2
;   startPointOriginX,0
;   startPointOriginY,0
;   sequentialIslands,0
;   spiralVaseMode,0
;   firstLayerHeightPercentage,90
;   firstLayerWidthPercentage,100
;   firstLayerUnderspeed,0.5
;   useRaft,0
;   raftExtruder,0
;   raftTopLayers,3
;   raftBaseLayers,1
;   raftOffset,2
;   raftSeparationDistance,0.2
;   raftTopInfill,100
;   aboveRaftSpeedMultiplier,0.3
;   useSkirt,0
;   skirtExtruder,0
;   skirtLayers,1
;   skirtOutlines,2
;   skirtOffset,4
;   usePrimePillar,0
;   primePillarExtruder,999
;   primePillarWidth,12
;   primePillarLocation,7
;   primePillarSpeedMultiplier,1
;   useOozeShield,0
;   oozeShieldExtruder,999
;   oozeShieldOffset,2
;   oozeShieldOutlines,1
;   oozeShieldSidewallShape,1
;   oozeShieldSidewallAngle,30
;   oozeShieldSpeedMultiplier,1
;   infillExtruder,0
;   internalInfillPattern,Rectilinear
;   externalInfillPattern,Rectilinear
;   infillPercentage,12
;   outlineOverlapPercentage,15
;   infillExtrusionWidthPercentage,100
;   minInfillLength,5
;   infillLayerInterval,1
;   internalInfillAngles,45,-45
;   overlapInternalInfillAngles,0
;   externalInfillAngles,45,-45
;   generateSupport,0
;   supportExtruder,0
;   supportInfillPercentage,30
;   supportExtraInflation,0
;   supportBaseLayers,0
;   denseSupportExtruder,0
;   denseSupportLayers,0
;   denseSupportInfillPercentage,70
;   supportLayerInterval,1
;   supportHorizontalPartOffset,0.3
;   supportUpperSeparationLayers,1
;   supportLowerSeparationLayers,1
;   supportType,0
;   supportGridSpacing,4
;   maxOverhangAngle,45
;   supportAngles,0
;   temperatureName,Extruder 1,Heated Bed
;   temperatureNumber,0,0
;   temperatureSetpointCount,1,1
;   temperatureSetpointLayers,1,1
;   temperatureSetpointTemperatures,210,60
;   temperatureStabilizeAtStartup,1,1
;   temperatureHeatedBed,0,1
;   temperatureRelayBetweenLayers,0,0
;   temperatureRelayBetweenLoops,0,0
;   fanLayers,1,2
;   fanSpeeds,0,100
;   blipFanToFullPower,0
;   adjustSpeedForCooling,1
;   minSpeedLayerTime,15
;   minCoolingSpeedSlowdown,20
;   increaseFanForCooling,0
;   minFanLayerTime,45
;   maxCoolingFanSpeed,100
;   increaseFanForBridging,1
;   bridgingFanSpeed,100
;   use5D,1
;   relativeEdistances,0
;   allowEaxisZeroing,1
;   independentExtruderAxes,0
;   includeM10123,0
;   stickySupport,1
;   applyToolheadOffsets,0
;   gcodeXoffset,0
;   gcodeYoffset,0
;   gcodeZoffset,0
;   overrideMachineDefinition,1
;   machineTypeOverride,0
;   strokeXoverride,220
;   strokeYoverride,220
;   strokeZoverride,280
;   originOffsetXoverride,0
;   originOffsetYoverride,0
;   originOffsetZoverride,0
;   homeXdirOverride,-1
;   homeYdirOverride,-1
;   homeZdirOverride,-1
;   flipXoverride,1
;   flipYoverride,-1
;   flipZoverride,1
;   toolheadOffsets,0,0|0,0|0,0|0,0|0,0|0,0
;   overrideFirmwareConfiguration,1
;   firmwareTypeOverride,RepRap (Marlin/Repetier/Sprinter)
;   GPXconfigOverride,r2
;   baudRateOverride,250000
;   overridePrinterModels,0
;   printerModelsOverride
;   startingGcode,G28 ; home all axes,G1 X0 Y0 Z0.2 F3000 ; get ready to prime,G92 E0 ; reset extrusion distance,G1 X200 E20 F600 ; prime nozzle
;   layerChangeGcode,
;   retractionGcode,
;   toolChangeGcode,
;   endingGcode,M104 S0 ; turn off extruder,M140 S0 ; turn off bed,G91 ; use relative coordinates,G1 Z0.6 F5000 ; lift nozzle by 0.6mm,G90 ; use absolute coordinates,G28 X0 ; home X axis,G28 Y0 ; home X axis,M84 ; disable motors,M107 ; turn off fan
;   exportFileFormat,gcode
;   celebration,0
;   celebrationSong,Random Song
;   postProcessing,
;   defaultSpeed,4200
;   outlineUnderspeed,0.9
;   solidInfillUnderspeed,1
;   supportUnderspeed,0.8
;   rapidXYspeed,4200
;   rapidZspeed,1002
;   minBridgingArea,50
;   bridgingExtraInflation,0
;   bridgingExtrusionMultiplier,1
;   bridgingSpeedMultiplier,1
;   useFixedBridgingAngle,0
;   fixedBridgingAngle,0
;   applyBridgingToPerimeters,0
;   filamentDiameters,1.75|1.75|1.75|1.75|1.75|1.75
;   filamentPricesPerKg,46|46|46|46|46|46
;   filamentDensities,1.25|1.25|1.25|1.25|1.25|1.25
;   useMinPrintHeight,0
;   minPrintHeight,0
;   useMaxPrintHeight,0
;   maxPrintHeight,0
;   useDiaphragm,0
;   diaphragmLayerInterval,20
;   robustSlicing,1
;   mergeAllIntoSolid,0
;   onlyRetractWhenCrossingOutline,1
;   retractBetweenLayers,1
;   useRetractionMinTravel,0
;   retractionMinTravel,3
;   retractWhileWiping,0
;   onlyWipeOutlines,1
;   avoidCrossingOutline,0
;   maxMovementDetourFactor,3
;   toolChangeRetractionDistance,12
;   toolChangeExtraRestartDistance,-0.5
;   toolChangeRetractionSpeed,600
;   externalThinWallType,1
;   internalThinWallType,1
;   thinWallAllowedOverlapPercentage,10
;   singleExtrusionMinLength,1
;   singleExtrusionMinPrintingWidthPercentage,50
;   singleExtrusionMaxPrintingWidthPercentage,200
;   singleExtrusionEndpointExtension,0.2
;   horizontalSizeCompensation,0
G90
M82
M106 S0
M140 S60
M190 S60
M104 S210 T0
M109 S210 T0
G28 ; home all axes
G1 X0 Y0 Z0.2 F3000 ; get ready to prime
G92 E0 ; reset extrusion distance
G1 X200 E20 F600 ; prime nozzle
G92 E0
G1 E-1.0000 F3400
G1 Z0.270 F1002
; process Process1
; layer 1, Z = 0.270
T0
; tool H0.300 W0.480
; outer perimeter
G1 X99.763 Y110.553 F4200
G1 E0.0000 F1020
G92 E0
G1 X107.856 Y110.553 E0.4845 F756
G1 X107.971 Y110.570 E0.4915
G1 X108.051 Y110.626 E0.4973
G1 X108.099 Y110.687 E0.5020
G1 X108.133 Y110.778 E0.5078
G1 X108.124 Y110.875 E0.5136
G1 X108.093 Y110.947 E0.5183
G1 X107.980 Y111.081 E0.5288
G1 X107.916 Y111.391 E0.5477
G1 X107.897 Y111.663 E0.5641
G1 X107.915 Y111.930 E0.5801
G1 X107.969 Y112.193 E0.5962
G1 X108.058 Y112.446 E0.6122
G1 X108.180 Y112.685 E0.6283
G1 X108.332 Y112.905 E0.6443
G1 X108.514 Y113.102 E0.6603
G1 X108.720 Y113.274 E0.6764
G1 X108.947 Y113.416 E0.6924
G1 X109.191 Y113.526 E0.7085
G1 X109.448 Y113.602 E0.7245
G1 X109.713 Y113.643 E0.7406
G1 X109.981 Y113.649 E0.7566
G1 X110.247 Y113.618 E0.7727
G1 X110.507 Y113.551 E0.7887
G1 X110.755 Y113.450 E0.8048
G1 X110.988 Y113.317 E0.8208
G1 X111.200 Y113.154 E0.8368
G1 X111.389 Y112.963 E0.8529
G1 X111.550 Y112.749 E0.8689
G1 X111.681 Y112.515 E0.8850
G1 X111.779 Y112.266 E0.9010
G1 X111.843 Y112.006 E0.9171
G1 X111.871 Y111.739 E0.9331
G1 X111.863 Y111.471 E0.9492
G1 X111.820 Y111.207 E0.9652
G1 X111.741 Y110.951 E0.9813
G1 X111.628 Y110.707 E0.9973
G1 X111.484 Y110.482 E1.0134
G1 X111.310 Y110.277 E1.0294
G1 X111.111 Y110.098 E1.0454
G1 X110.891 Y109.949 E1.0613
G1 X110.650 Y109.822 E1.0777
G1 X110.553 Y109.714 E1.0863
G1 X110.539 Y109.612 E1.0925
G1 X110.551 Y109.537 E1.0970
G1 X110.580 Y109.473 E1.1013
G1 X113.304 Y106.781 E1.3306
G1 X113.843 Y106.371 E1.3711
G1 X114.438 Y106.056 E1.4114
G1 X115.075 Y105.840 E1.4517
G1 X115.740 Y105.731 E1.4920
G1 X116.413 Y105.730 E1.5323
G1 X117.077 Y105.838 E1.5726
G1 X117.715 Y106.051 E1.6129
G1 X118.311 Y106.365 E1.6532
G1 X118.848 Y106.770 E1.6934
G1 X119.312 Y107.257 E1.7337
G1 X119.692 Y107.813 E1.7740
G1 X119.977 Y108.423 E1.8143
G1 X120.160 Y109.070 E1.8546
G1 X120.236 Y109.739 E1.8949
G1 X120.204 Y110.411 E1.9352
G1 X120.063 Y111.070 E1.9755
G1 X119.981 Y111.279 E1.9889
G1 X119.867 Y111.465 E2.0020
G1 X119.805 Y111.542 E2.0079
G1 X119.642 Y111.694 E2.0213
G1 X119.459 Y111.813 E2.0343
G1 X119.254 Y111.899 E2.0477
G1 X119.159 Y111.924 E2.0536
G1 X118.937 Y111.953 E2.0669
G1 X118.720 Y111.942 E2.0800
G1 X118.503 Y111.891 E2.0933
G1 X118.406 Y111.854 E2.0995
G1 X118.313 Y111.809 E2.1057
G1 X118.122 Y111.682 E2.1194
G1 X118.049 Y111.617 E2.1253
G1 X117.902 Y111.449 E2.1386
G1 X117.788 Y111.257 E2.1520
G1 X117.749 Y111.163 E2.1581
G1 X117.691 Y110.951 E2.1712
G1 X117.671 Y110.733 E2.1844
G1 X117.686 Y110.545 E2.1957
G1 X117.730 Y110.360 E2.2071
G1 X117.803 Y110.184 E2.2185
G1 X117.902 Y110.021 E2.2299
G1 X118.025 Y109.876 E2.2413
G1 X118.169 Y109.752 E2.2526
G1 X118.330 Y109.651 E2.2640
G1 X118.588 Y109.544 E2.2807
G1 X118.721 Y109.465 E2.2900
G1 X118.879 Y109.301 E2.3036
G1 X118.982 Y109.089 E2.3177
G1 X119.013 Y108.856 E2.3318
G1 X118.969 Y108.625 E2.3459
G1 X118.764 Y108.240 E2.3720
G1 X118.554 Y107.946 E2.3936
G1 X118.313 Y107.678 E2.4152
G1 X118.043 Y107.439 E2.4368
G1 X117.748 Y107.233 E2.4583
G1 X117.432 Y107.061 E2.4799
G1 X117.098 Y106.927 E2.5014
G1 X116.751 Y106.831 E2.5230
G1 X116.395 Y106.775 E2.5446
G1 X116.035 Y106.760 E2.5661
G1 X115.676 Y106.785 E2.5877
G1 X115.322 Y106.851 E2.6092
G1 X114.978 Y106.957 E2.6308
G1 X114.648 Y107.102 E2.6523
G1 X114.336 Y107.283 E2.6739
G1 X114.045 Y107.499 E2.6956
G1 X112.304 Y109.212 E2.8419
G1 X112.156 Y109.430 E2.8576
G1 X112.100 Y109.651 E2.8713
G1 X112.112 Y109.866 E2.8841
G1 X112.158 Y110.015 E2.8935
G1 X112.326 Y110.311 E2.9139
G1 X112.444 Y110.589 E2.9320
G1 X112.532 Y110.877 E2.9500
G1 X112.587 Y111.174 E2.9681
G1 X112.610 Y111.475 E2.9861
G1 X112.599 Y111.776 E3.0042
G1 X112.556 Y112.075 E3.0223
G1 X112.479 Y112.367 E3.0403
G1 X112.372 Y112.648 E3.0584
G1 X112.234 Y112.917 E3.0764
G1 X112.067 Y113.168 E3.0945
G1 X111.874 Y113.400 E3.1126
G1 X111.656 Y113.609 E3.1306
G1 X111.417 Y113.793 E3.1487
G1 X111.159 Y113.950 E3.1668
G1 X110.886 Y114.077 E3.1848
G1 X110.600 Y114.174 E3.2029
G1 X110.305 Y114.238 E3.2209
G1 X110.005 Y114.270 E3.2390
G1 X109.703 Y114.269 E3.2571
G1 X109.404 Y114.235 E3.2751
G1 X109.110 Y114.168 E3.2932
G1 X108.825 Y114.069 E3.3113
G1 X108.552 Y113.939 E3.3293
G1 X108.295 Y113.781 E3.3474
G1 X108.058 Y113.595 E3.3654
G1 X107.842 Y113.384 E3.3835
G1 X107.651 Y113.151 E3.4016
G1 X107.486 Y112.898 E3.4196
G1 X107.350 Y112.628 E3.4377
G1 X107.245 Y112.346 E3.4558
G1 X107.160 Y112.010 E3.4765
G1 X107.097 Y111.898 E3.4842
G1 X106.959 Y111.741 E3.4967
G1 X106.698 Y111.601 E3.5144
G1 X106.500 Y111.573 E3.5264
G1 X99.763 Y111.573 E3.9297
G1 X99.763 Y110.553 E3.9908
G92 E0
G1 E-1.0000 F3400
; inner perimeter
G1 X118.153 Y110.730 F4200
G1 E0.0000 F3400
G92 E0
G1 X118.161 Y110.620 E0.0067 F798
G1 X118.188 Y110.508 E0.0135
G1 X118.232 Y110.401 E0.0204
G1 X118.292 Y110.303 E0.0273
G1 X118.367 Y110.215 E0.0342
G1 X118.454 Y110.140 E0.0411
G1 X118.551 Y110.080 E0.0480
G1 X118.804 Y109.974 E0.0644
G1 X119.021 Y109.844 E0.0795
G1 X119.278 Y109.579 E0.1016
G1 X119.394 Y109.339 E0.1176
G1 X119.714 Y109.394 E0.1370
G1 X119.755 Y109.755 E0.1588
G1 X119.726 Y110.349 E0.1944
G1 X119.601 Y110.931 E0.2301
G1 X119.549 Y111.064 E0.2386
G1 X119.474 Y111.187 E0.2472
G1 X119.453 Y111.214 E0.2493
G1 X119.345 Y111.315 E0.2581
G1 X119.234 Y111.386 E0.2660
G1 X119.098 Y111.443 E0.2749
G1 X119.066 Y111.452 E0.2769
G1 X118.919 Y111.471 E0.2857
G1 X118.787 Y111.464 E0.2936
G1 X118.643 Y111.431 E0.3025
G1 X118.597 Y111.413 E0.3055
G1 X118.552 Y111.391 E0.3085
G1 X118.415 Y111.300 E0.3183
G1 X118.390 Y111.278 E0.3203
G1 X118.293 Y111.166 E0.3291
G1 X118.218 Y111.040 E0.3379
G1 X118.203 Y111.005 E0.3402
G1 X118.165 Y110.866 E0.3489
G1 X118.153 Y110.731 E0.3570
; internal single extrusion
G1 X119.480 Y108.529 F4200
G92 E0
; tool H0.300 W0.519
G1 X119.281 Y108.131 E0.0288 F756
; tool H0.300 W0.527
G1 X119.244 Y108.059 E0.0341
; tool H0.300 W0.523
G1 X119.192 Y107.975 E0.0405
; tool H0.300 W0.519
G1 X119.138 Y107.897 E0.0467
; tool H0.300 W0.522
G1 X119.004 Y107.704 E0.0619
; tool H0.300 W0.525
G1 X118.950 Y107.628 E0.0681
; tool H0.300 W0.529
G1 X118.891 Y107.557 E0.0742
G1 X118.733 Y107.386 E0.0895
; tool H0.300 W0.525
G1 X118.670 Y107.318 E0.0956
; tool H0.300 W0.527
G1 X118.603 Y107.254 E0.1017
; tool H0.300 W0.534
G1 X118.547 Y107.200 E0.1069
; tool H0.300 W0.540
G1 X118.491 Y107.147 E0.1121
; tool H0.300 W0.539
G1 X118.431 Y107.098 E0.1173
; tool H0.300 W0.532
G1 X118.359 Y107.039 E0.1235
; tool H0.300 W0.530
G1 X118.284 Y106.985 E0.1296
; tool H0.300 W0.536
G1 X118.096 Y106.848 E0.1451
; tool H0.300 W0.541
G1 X118.020 Y106.794 E0.1514
G1 X117.938 Y106.750 E0.1577
; tool H0.300 W0.539
G1 X117.732 Y106.640 E0.1733
; tool H0.300 W0.537
G1 X117.650 Y106.597 E0.1795
; tool H0.300 W0.541
G1 X117.566 Y106.557 E0.1858
; tool H0.300 W0.548
G1 X117.495 Y106.526 E0.1911
; tool H0.300 W0.546
G1 X117.350 Y106.472 E0.2017
; tool H0.300 W0.539
G1 X117.262 Y106.440 E0.2080
G1 X117.174 Y106.413 E0.2142
; tool H0.300 W0.545
G1 X117.025 Y106.368 E0.2247
; tool H0.300 W0.551
G1 X116.951 Y106.345 E0.2301
; tool H0.300 W0.548
G1 X116.860 Y106.326 E0.2364
; tool H0.300 W0.543
G1 X116.768 Y106.311 E0.2427
G1 X116.538 Y106.274 E0.2585
; tool H0.300 W0.545
G1 X116.446 Y106.259 E0.2648
; tool H0.300 W0.549
G1 X116.353 Y106.251 E0.2712
; tool H0.300 W0.548
G1 X116.120 Y106.246 E0.2871
; tool H0.300 W0.541
G1 X116.028 Y106.245 E0.2934
; tool H0.300 W0.542
G1 X115.935 Y106.248 E0.2997
; tool H0.300 W0.548
G1 X115.857 Y106.251 E0.3050
; tool H0.300 W0.553
G1 X115.779 Y106.254 E0.3104
; tool H0.300 W0.552
G1 X115.702 Y106.263 E0.3157
; tool H0.300 W0.544
G1 X115.610 Y106.274 E0.3220
; tool H0.300 W0.541
G1 X115.518 Y106.290 E0.3283
; tool H0.300 W0.544
G1 X115.289 Y106.330 E0.3441
; tool H0.300 W0.548
G1 X115.197 Y106.347 E0.3505
G1 X115.109 Y106.375 E0.3568
; tool H0.300 W0.542
G1 X114.887 Y106.447 E0.3726
; tool H0.300 W0.538
G1 X114.799 Y106.476 E0.3788
; tool H0.300 W0.541
G1 X114.712 Y106.509 E0.3851
; tool H0.300 W0.548
G1 X114.640 Y106.537 E0.3904
; tool H0.300 W0.545
G1 X114.500 Y106.605 E0.4009
; tool H0.300 W0.536
G1 X114.417 Y106.646 E0.4071
; tool H0.300 W0.534
G1 X114.335 Y106.690 E0.4133
; tool H0.300 W0.540
G1 X114.132 Y106.803 E0.4290
G1 X114.054 Y106.854 E0.4353
; tool H0.300 W0.534
G1 X113.979 Y106.911 E0.4415
; tool H0.300 W0.533
G1 X113.790 Y107.053 E0.4572
; tool H0.300 W0.531
G1 X113.713 Y107.111 E0.4636
; tool H0.300 W0.537
G1 X113.627 Y107.187 E0.4713
; tool H0.300 W0.539
G1 X111.995 Y108.796 E0.6254
; tool H0.300 W0.537
G1 X111.908 Y108.882 E0.6336
; tool H0.300 W0.547
G1 X111.837 Y108.967 E0.6411
; tool H0.300 W0.574
G1 X111.731 Y109.095 E0.6530
; tool H0.300 W0.606
G1 X111.645 Y109.202 E0.6634
; tool H0.300 W0.656
G1 X111.575 Y109.319 E0.6746
; tool H0.300 W0.712
G1 X111.536 Y109.389 E0.6817
; tool H0.300 W0.755
G1 X111.496 Y109.458 E0.6892
; tool H0.300 W0.768
G1 X111.476 Y109.591 E0.7021
; tool H0.300 W0.694
G1 X111.546 Y109.738 E0.7162
; tool H0.300 W0.589
G1 X111.589 Y109.830 E0.7236
; tool H0.300 W0.500
G1 X111.647 Y109.949 E0.7319
; tool H0.300 W0.429
G1 X111.695 Y110.038 E0.7373
; tool H0.300 W0.393
G1 X111.730 Y110.101 E0.7408
; tool H0.300 W0.361
G1 X111.775 Y110.181 E0.7449
; tool H0.300 W0.335
G1 X111.833 Y110.270 E0.7494
; tool H0.300 W0.323
G1 X111.924 Y110.421 E0.7565
; tool H0.300 W0.316
G1 X111.965 Y110.490 E0.7597
; tool H0.300 W0.310
G1 X112.001 Y110.565 E0.7629
; tool H0.300 W0.306
G1 X112.038 Y110.648 E0.7664
; tool H0.300 W0.303
G1 X112.072 Y110.724 E0.7695
; tool H0.300 W0.296
G1 X112.102 Y110.802 E0.7726
; tool H0.300 W0.289
G1 X112.129 Y110.890 E0.7759
G1 X112.154 Y110.970 E0.7789
; tool H0.300 W0.284
G1 X112.174 Y111.051 E0.7819
; tool H0.300 W0.275
G1 X112.194 Y111.140 E0.7850
; tool H0.300 W0.272
G1 X112.209 Y111.223 E0.7879
; tool H0.300 W0.269
G1 X112.219 Y111.307 E0.7907
; tool H0.300 W0.261
G1 X112.230 Y111.398 E0.7937
; tool H0.300 W0.257
G1 X112.237 Y111.482 E0.7964
; tool H0.300 W0.253
G1 X112.236 Y111.567 E0.7991
; tool H0.300 W0.247
G1 X112.236 Y111.658 E0.8019
; tool H0.300 W0.242
