; G-Code generated by Simplify3D(R) Version 4.0.0
; May 4, 2018 at 5:09:14 PM
; Settings Summary
;   processName,nozzle 0.4
;   applyToModels,metaem_final,metaem_final(2)
;   profileName,Flying Bear 902 Update 7-2017 (modified)
;   profileVersion,2017-07-10 09:45:20
;   baseProfile,Default
;   printMaterial,PLA
;   printQuality,Medium
;   printExtruders,
;   extruderName,Extruder 1
;   extruderToolheadNumber,0
;   extruderDiameter,0.4
;   extruderAutoWidth,1
;   extruderWidth,0.48
;   extrusionMultiplier,0.9
;   extruderUseRetract,1
;   extruderRetractionDistance,2
;   extruderExtraRestartDistance,0
;   extruderRetractionZLift,0
;   extruderRetractionSpeed,3000
;   extruderUseCoasting,0
;   extruderCoastingDistance,0.2
;   extruderUseWipe,1
;   extruderWipeDistance,5
;   primaryExtruder,0
;   layerHeight,0.2
;   topSolidLayers,2
;   bottomSolidLayers,2
;   perimeterOutlines,4
;   printPerimetersInsideOut,0
;   startPointOption,2
;   startPointOriginX,0
;   startPointOriginY,0
;   sequentialIslands,0
;   spiralVaseMode,0
;   firstLayerHeightPercentage,20
;   firstLayerWidthPercentage,115
;   firstLayerUnderspeed,0.3
;   useRaft,1
;   raftExtruder,0
;   raftTopLayers,2
;   raftBaseLayers,2
;   raftOffset,2
;   raftSeparationDistance,0.3
;   raftTopInfill,100
;   aboveRaftSpeedMultiplier,0.3
;   useSkirt,0
;   skirtExtruder,0
;   skirtLayers,1
;   skirtOutlines,2
;   skirtOffset,4
;   usePrimePillar,0
;   primePillarExtruder,999
;   primePillarWidth,12
;   primePillarLocation,7
;   primePillarSpeedMultiplier,1
;   useOozeShield,0
;   oozeShieldExtruder,999
;   oozeShieldOffset,2
;   oozeShieldOutlines,1
;   oozeShieldSidewallShape,1
;   oozeShieldSidewallAngle,30
;   oozeShieldSpeedMultiplier,1
;   infillExtruder,0
;   internalInfillPattern,Rectilinear
;   externalInfillPattern,Concentric
;   infillPercentage,100
;   outlineOverlapPercentage,60
;   infillExtrusionWidthPercentage,100
;   minInfillLength,5
;   infillLayerInterval,1
;   internalInfillAngles,45,-45
;   overlapInternalInfillAngles,0
;   externalInfillAngles,45,-45
;   generateSupport,0
;   supportExtruder,0
;   supportInfillPercentage,30
;   supportExtraInflation,0
;   supportBaseLayers,0
;   denseSupportExtruder,0
;   denseSupportLayers,0
;   denseSupportInfillPercentage,50
;   supportLayerInterval,1
;   supportHorizontalPartOffset,0.3
;   supportUpperSeparationLayers,1
;   supportLowerSeparationLayers,1
;   supportType,0
;   supportGridSpacing,4
;   maxOverhangAngle,70
;   supportAngles,0
;   temperatureName,Extruder 1,Heated Bed
;   temperatureNumber,0,0
;   temperatureSetpointCount,1,1
;   temperatureSetpointLayers,1,1
;   temperatureSetpointTemperatures,210,60
;   temperatureStabilizeAtStartup,1,0
;   temperatureHeatedBed,0,1
;   temperatureRelayBetweenLayers,0,0
;   temperatureRelayBetweenLoops,0,0
;   fanLayers,1
;   fanSpeeds,255
;   blipFanToFullPower,0
;   adjustSpeedForCooling,1
;   minSpeedLayerTime,15
;   minCoolingSpeedSlowdown,20
;   increaseFanForCooling,0
;   minFanLayerTime,45
;   maxCoolingFanSpeed,100
;   increaseFanForBridging,0
;   bridgingFanSpeed,100
;   use5D,1
;   relativeEdistances,0
;   allowEaxisZeroing,1
;   independentExtruderAxes,0
;   includeM10123,0
;   stickySupport,1
;   applyToolheadOffsets,0
;   gcodeXoffset,0
;   gcodeYoffset,0
;   gcodeZoffset,0
;   overrideMachineDefinition,1
;   machineTypeOverride,0
;   strokeXoverride,220
;   strokeYoverride,220
;   strokeZoverride,280
;   originOffsetXoverride,0
;   originOffsetYoverride,0
;   originOffsetZoverride,0
;   homeXdirOverride,-1
;   homeYdirOverride,-1
;   homeZdirOverride,-1
;   flipXoverride,1
;   flipYoverride,-1
;   flipZoverride,1
;   toolheadOffsets,0,0|0,0|0,0|0,0|0,0|0,0
;   overrideFirmwareConfiguration,1
;   firmwareTypeOverride,RepRap (Marlin/Repetier/Sprinter)
;   GPXconfigOverride,r2
;   baudRateOverride,250000
;   overridePrinterModels,0
;   printerModelsOverride
;   startingGcode,G28 ; home all axes,G1 X0 Y20 Z0.2 F3000 ; get ready to prime,G92 E0 ; reset extrusion distance,G1 X200 E20 F600 ; prime nozzle
;   layerChangeGcode,
;   retractionGcode,
;   toolChangeGcode,
;   endingGcode,M104 S0 ; turn off extruder,M140 S0 ; turn off bed,G28 X Y ; home x and y axes,M84 ; disable motors
;   exportFileFormat,gcode
;   celebration,0
;   celebrationSong,Random Song
;   postProcessing,
;   defaultSpeed,4400
;   outlineUnderspeed,0.6
;   solidInfillUnderspeed,0.85
;   supportUnderspeed,0.8
;   rapidXYspeed,5200
;   rapidZspeed,1002
;   minBridgingArea,50
;   bridgingExtraInflation,0
;   bridgingExtrusionMultiplier,1
;   bridgingSpeedMultiplier,1
;   useFixedBridgingAngle,0
;   fixedBridgingAngle,0
;   applyBridgingToPerimeters,0
;   filamentDiameters,1.75|1.75|1.75|1.75|1.75|1.75
;   filamentPricesPerKg,46|46|46|46|46|46
;   filamentDensities,1.25|1.25|1.25|1.25|1.25|1.25
;   useMinPrintHeight,0
;   minPrintHeight,0
;   useMaxPrintHeight,0
;   maxPrintHeight,4.3
;   useDiaphragm,0
;   diaphragmLayerInterval,20
;   robustSlicing,1
;   mergeAllIntoSolid,0
;   onlyRetractWhenCrossingOutline,1
;   retractBetweenLayers,1
;   useRetractionMinTravel,0
;   retractionMinTravel,3
;   retractWhileWiping,0
;   onlyWipeOutlines,1
;   avoidCrossingOutline,0
;   maxMovementDetourFactor,3
;   toolChangeRetractionDistance,12
;   toolChangeExtraRestartDistance,-0.5
;   toolChangeRetractionSpeed,600
;   externalThinWallType,1
;   internalThinWallType,1
;   thinWallAllowedOverlapPercentage,20
;   singleExtrusionMinLength,1
;   singleExtrusionMinPrintingWidthPercentage,50
;   singleExtrusionMaxPrintingWidthPercentage,200
;   singleExtrusionEndpointExtension,0.2
;   horizontalSizeCompensation,0
G90
M82
M106 S650
M140 S60
M104 S210 T0
M109 S210 T0
G28 ; home all axes
G1 X0 Y20 Z0.2 F3000 ; get ready to prime
G92 E0 ; reset extrusion distance
G1 X200 E20 F600 ; prime nozzle
G92 E0
G1 E-2.0000 F3000
G1 Z0.100 F1002
; process nozzle 0.4
; layer 1, Z = 0.100
T0
; tool H0.500 W0.920
; raft
G1 X106.727 Y102.130 F5200
G1 E0.0000 F900
G92 E0
G1 X107.083 Y101.910 E0.0720 F330
G1 X107.505 Y101.782 E0.1478
G1 X107.737 Y101.174 E0.2598
G1 X108.055 Y100.780 E0.3470
G1 X108.550 Y100.457 E0.4488
G1 X108.993 Y100.325 E0.5283
G1 X110.844 Y100.318 E0.8469
G1 X111.074 Y100.350 E0.8869
G1 X111.444 Y100.459 E0.9533
G1 X111.772 Y100.648 E1.0185
G1 X112.120 Y100.977 E1.1010
G1 X112.340 Y101.333 E1.1730
G1 X112.468 Y101.755 E1.2488
G1 X113.076 Y101.987 E1.3608
G1 X113.470 Y102.305 E1.4480
G1 X113.793 Y102.800 E1.5497
G1 X113.925 Y103.243 E1.6293
G1 X113.932 Y105.094 E1.9479
G1 X113.900 Y105.324 E1.9879
G1 X113.791 Y105.694 E2.0543
G1 X113.602 Y106.022 E2.1195
G1 X113.273 Y106.370 E2.2019
G1 X112.917 Y106.590 E2.2739
G1 X112.495 Y106.718 E2.3497
G1 X112.263 Y107.326 E2.4617
G1 X111.945 Y107.720 E2.5490
G1 X111.450 Y108.043 E2.6507
G1 X111.007 Y108.175 E2.7302
G1 X109.156 Y108.182 E3.0488
G1 X108.926 Y108.150 E3.0888
G1 X108.556 Y108.041 E3.1552
G1 X108.228 Y107.852 E3.2204
G1 X107.880 Y107.523 E3.3029
G1 X107.660 Y107.167 E3.3749
G1 X107.526 Y106.725 E3.4543
G1 X107.151 Y106.615 E3.5216
G1 X106.872 Y106.468 E3.5758
G1 X106.560 Y106.217 E3.6448
G1 X106.329 Y105.917 E3.7100
G1 X106.152 Y105.521 E3.7845
G1 X106.085 Y105.256 E3.8318
G1 X106.070 Y105.069 E3.8640
G1 X106.067 Y105.006 E3.8749
G1 X106.068 Y103.401 E4.1511
G1 X106.101 Y103.174 E4.1905
G1 X106.209 Y102.806 E4.2566
G1 X106.398 Y102.478 E4.3218
G1 X106.727 Y102.130 E4.4042
G92 E0
G1 E-2.0000 F3000
G1 X108.993 Y111.825 F5200
G1 E0.0000 F3000
G92 E0
G1 X110.844 Y111.818 E0.3186 F330
G1 X111.074 Y111.850 E0.3586
G1 X111.444 Y111.959 E0.4250
G1 X111.772 Y112.148 E0.4902
G1 X112.120 Y112.477 E0.5726
G1 X112.340 Y112.833 E0.6446
G1 X112.468 Y113.255 E0.7204
G1 X113.076 Y113.487 E0.8324
G1 X113.470 Y113.805 E0.9197
G1 X113.793 Y114.300 E1.0214
G1 X113.925 Y114.743 E1.1010
G1 X113.932 Y116.594 E1.4195
G1 X113.900 Y116.824 E1.4595
G1 X113.791 Y117.194 E1.5260
G1 X113.602 Y117.522 E1.5911
G1 X113.273 Y117.870 E1.6736
G1 X112.917 Y118.090 E1.7456
G1 X112.495 Y118.218 E1.8214
G1 X112.263 Y118.826 E1.9334
G1 X111.945 Y119.220 E2.0206
G1 X111.450 Y119.543 E2.1223
G1 X111.007 Y119.675 E2.2019
G1 X109.156 Y119.682 E2.5205
G1 X108.926 Y119.650 E2.5605
G1 X108.556 Y119.541 E2.6269
G1 X108.228 Y119.352 E2.6921
G1 X107.880 Y119.023 E2.7745
G1 X107.660 Y118.667 E2.8465
G1 X107.526 Y118.225 E2.9260
G1 X107.151 Y118.115 E2.9932
G1 X106.872 Y117.968 E3.0475
G1 X106.560 Y117.717 E3.1165
G1 X106.329 Y117.417 E3.1817
G1 X106.152 Y117.021 E3.2562
G1 X106.085 Y116.756 E3.3034
G1 X106.070 Y116.569 E3.3356
G1 X106.067 Y116.506 E3.3465
G1 X106.068 Y114.901 E3.6227
G1 X106.101 Y114.674 E3.6621
G1 X106.209 Y114.306 E3.7283
G1 X106.398 Y113.978 E3.7935
G1 X106.727 Y113.630 E3.8759
G1 X107.083 Y113.410 E3.9479
G1 X107.505 Y113.282 E4.0237
G1 X107.737 Y112.674 E4.1357
G1 X108.055 Y112.280 E4.2229
G1 X108.550 Y111.957 E4.3247
G1 X108.993 Y111.825 E4.4042
G92 E0
G1 E-2.0000 F3000
G1 X106.979 Y114.571 F5200
G1 E0.0000 F3000
G92 E0
G1 X113.015 Y114.571 E1.0388 F330
G1 X113.059 Y114.640 E1.0529
G1 X113.126 Y114.862 E1.0927
G1 X113.132 Y116.539 E1.3814
G1 X113.116 Y116.654 E1.4014
G1 X113.056 Y116.857 E1.4379
G1 X106.955 Y116.857 E2.4879
G92 E0
G1 E-2.0000 F3000
G1 X106.987 Y105.429 F5200
G1 E0.0000 F3000
G92 E0
G1 X113.021 Y105.429 E1.0385 F330
G1 X113.050 Y105.377 E1.0486
G1 X113.116 Y105.154 E1.0887
G1 X113.132 Y105.039 E1.1088
G1 X113.126 Y103.362 E1.3974
G1 X113.060 Y103.143 E1.4367
G1 X106.944 Y103.143 E2.4894
G92 E0
G1 E-2.0000 F3000
; layer 2, Z = 0.600
; tool H0.500 W0.800
G1 X106.209 Y102.806 F5200
G1 Z0.600 F1002
G1 E0.0000 F3000
G92 E0
G1 X106.398 Y102.478 E0.0567 F1100
G1 X106.727 Y102.130 E0.1284
G1 X107.083 Y101.910 E0.1910
G1 X107.505 Y101.782 E0.2569
G1 X107.737 Y101.174 E0.3543
G1 X108.055 Y100.780 E0.4301
G1 X108.550 Y100.457 E0.5186
G1 X108.993 Y100.325 E0.5878
G1 X110.844 Y100.318 E0.8648
G1 X111.074 Y100.350 E0.8996
G1 X111.444 Y100.459 E0.9573
G1 X111.772 Y100.648 E1.0140
G1 X112.120 Y100.977 E1.0857
G1 X112.340 Y101.333 E1.1483
G1 X112.468 Y101.755 E1.2142
G1 X113.076 Y101.987 E1.3116
G1 X113.470 Y102.305 E1.3875
G1 X113.793 Y102.800 E1.4759
G1 X113.925 Y103.243 E1.5451
G1 X113.932 Y105.094 E1.8222
G1 X113.900 Y105.324 E1.8569
G1 X113.791 Y105.694 E1.9147
G1 X113.602 Y106.022 E1.9714
G1 X113.273 Y106.370 E2.0431
G1 X112.917 Y106.590 E2.1057
G1 X112.495 Y106.718 E2.1716
G1 X112.263 Y107.326 E2.2690
G1 X111.945 Y107.720 E2.3448
G1 X111.450 Y108.043 E2.4333
G1 X111.007 Y108.175 E2.5025
G1 X109.156 Y108.182 E2.7795
G1 X108.926 Y108.150 E2.8143
G1 X108.556 Y108.041 E2.8720
G1 X108.228 Y107.852 E2.9287
G1 X107.880 Y107.523 E3.0004
G1 X107.660 Y107.167 E3.0630
G1 X107.526 Y106.725 E3.1321
G1 X107.151 Y106.615 E3.1906
G1 X106.872 Y106.468 E3.2378
G1 X106.560 Y106.217 E3.2978
G1 X106.329 Y105.917 E3.3545
G1 X106.152 Y105.521 E3.4193
G1 X106.085 Y105.256 E3.4603
G1 X106.070 Y105.069 E3.4883
G1 X106.067 Y105.006 E3.4978
G1 X106.068 Y103.401 E3.7380
G1 X106.101 Y103.174 E3.7723
G1 X106.209 Y102.806 E3.8298
G92 E0
G1 E-2.0000 F3000
G1 X108.993 Y111.825 F5200
G1 E0.0000 F3000
G92 E0
G1 X110.844 Y111.818 E0.2770 F1100
G1 X111.074 Y111.850 E0.3118
G1 X111.444 Y111.959 E0.3696
G1 X111.772 Y112.148 E0.4263
G1 X112.120 Y112.477 E0.4979
G1 X112.340 Y112.833 E0.5606
G1 X112.468 Y113.255 E0.6265
G1 X113.076 Y113.487 E0.7239
G1 X113.470 Y113.805 E0.7997
G1 X113.793 Y114.300 E0.8882
G1 X113.925 Y114.743 E0.9573
G1 X113.932 Y116.594 E1.2344
G1 X113.900 Y116.824 E1.2692
G1 X113.791 Y117.194 E1.3269
G1 X113.602 Y117.522 E1.3836
G1 X113.273 Y117.870 E1.4553
G1 X112.917 Y118.090 E1.5179
G1 X112.495 Y118.218 E1.5838
G1 X112.263 Y118.826 E1.6812
G1 X111.945 Y119.220 E1.7571
G1 X111.450 Y119.543 E1.8455
G1 X111.007 Y119.675 E1.9147
G1 X109.156 Y119.682 E2.1917
G1 X108.926 Y119.650 E2.2265
G1 X108.556 Y119.541 E2.2843
G1 X108.228 Y119.352 E2.3410
G1 X107.880 Y119.023 E2.4126
G1 X107.660 Y118.667 E2.4752
G1 X107.526 Y118.225 E2.5444
G1 X107.151 Y118.115 E2.6028
G1 X106.872 Y117.968 E2.6500
G1 X106.560 Y117.717 E2.7100
G1 X106.329 Y117.417 E2.7667
G1 X106.152 Y117.021 E2.8315
G1 X106.085 Y116.756 E2.8725
G1 X106.070 Y116.569 E2.9005
G1 X106.067 Y116.506 E2.9100
G1 X106.068 Y114.901 E3.1502
G1 X106.101 Y114.674 E3.1845
G1 X106.209 Y114.306 E3.2420
G1 X106.398 Y113.978 E3.2987
G1 X106.727 Y113.630 E3.3703
G1 X107.083 Y113.410 E3.4330
G1 X107.505 Y113.282 E3.4989
G1 X107.737 Y112.674 E3.5963
G1 X108.055 Y112.280 E3.6721
G1 X108.550 Y111.957 E3.7606
G1 X108.993 Y111.825 E3.8298
G92 E0
G1 E-2.0000 F3000
G1 X106.979 Y114.571 F5200
G1 E0.0000 F3000
G92 E0
G1 X113.015 Y114.571 E0.9033 F1100
G1 X113.059 Y114.640 E0.9156
G1 X113.126 Y114.862 E0.9502
G1 X113.132 Y116.539 E1.2012
G1 X113.116 Y116.654 E1.2186
G1 X113.056 Y116.857 E1.2503
G1 X106.955 Y116.857 E2.1634
G92 E0
G1 E-2.0000 F3000
G1 X106.987 Y105.429 F5200
G1 E0.0000 F3000
G92 E0
G1 X113.021 Y105.429 E0.9030 F1100
G1 X113.050 Y105.377 E0.9118
G1 X113.116 Y105.154 E0.9467
G1 X113.132 Y105.039 E0.9641
G1 X113.126 Y103.362 E1.2152
G1 X113.060 Y103.143 E1.2493
G1 X106.944 Y103.143 E2.1647
G92 E0
G1 E-2.0000 F3000
; layer 3, Z = 0.822
; tool H0.222 W0.400
G1 X105.898 Y105.332 F5200
G1 Z0.822 F1002
G1 E0.0000 F3000
G92 E0
G1 X108.916 Y108.350 E0.1420 F3300
G1 X109.142 Y108.382 E0.1496
G1 X109.512 Y108.381 E0.1619
G1 X105.868 Y104.736 E0.3333
G1 X105.868 Y104.171 E0.3521
G1 X110.076 Y108.379 E0.5501
G1 X110.639 Y108.377 E0.5688
G1 X105.868 Y103.605 E0.7932
G1 X105.868 Y103.387 E0.8005
G1 X105.905 Y103.132 E0.8091
G1 X105.918 Y103.089 E0.8106
G1 X111.165 Y108.337 E1.0574
G1 X111.535 Y108.226 E1.0702
G1 X111.587 Y108.192 E1.0723
G1 X106.059 Y102.665 E1.3323
G1 X106.237 Y102.357 E1.3441
G1 X106.276 Y102.316 E1.3460
G1 X111.929 Y107.969 E1.6119
G1 X112.081 Y107.870 E1.6179
G1 X112.221 Y107.696 E1.6254
G1 X106.551 Y102.025 E1.8921
G1 X106.600 Y101.973 E1.8945
G1 X106.887 Y101.796 E1.9057
G1 X112.461 Y107.369 E2.1679
G1 X112.617 Y106.960 E2.1824
G1 X107.294 Y101.637 E2.4328
G1 X107.353 Y101.619 E2.4349
G1 X107.488 Y101.265 E2.4475
G1 X112.997 Y106.775 E2.7066
G1 X113.000 Y106.774 E2.7067
G1 X113.348 Y106.559 E2.7203
G1 X107.695 Y100.907 E2.9862
G1 X107.919 Y100.630 E2.9980
G1 X107.958 Y100.604 E2.9996
G1 X113.634 Y106.280 E3.2665
G1 X113.763 Y106.143 E3.2728
G1 X113.873 Y105.953 E3.2801
G1 X108.301 Y100.381 E3.5422
G1 X108.465 Y100.274 E3.5487
G1 X108.691 Y100.206 E3.5565
G1 X114.040 Y105.555 E3.8081
G1 X114.096 Y105.366 E3.8147
G1 X114.132 Y105.108 E3.8234
G1 X114.132 Y105.081 E3.8242
G1 X109.175 Y100.124 E4.0574
G1 X109.739 Y100.122 E4.0761
G1 X114.130 Y104.513 E4.2827
G1 X114.128 Y103.946 E4.3016
G1 X110.302 Y100.120 E4.4816
G1 X110.858 Y100.118 E4.5000
G1 X110.867 Y100.119 E4.5003
G1 X114.126 Y103.378 E4.6536
G1 X114.125 Y103.213 E4.6591
G1 X113.976 Y102.715 E4.6764
G1 X113.877 Y102.564 E4.6824
G1 X113.093 Y101.779 E4.7193
G1 X112.631 Y101.603 E4.7358
G1 X112.524 Y101.250 E4.7480
G1 X112.460 Y101.146 E4.7521
G1 X111.675 Y100.362 E4.7890
G92 E0
G1 E-2.0000 F3000
G1 X111.084 Y111.650 F5200
G1 E0.0000 F3000
G92 E0
G1 X114.116 Y114.681 E0.1426 F3300
G1 X114.125 Y114.713 E0.1437
G1 X114.127 Y115.259 E0.1618
G1 X110.488 Y111.619 E0.3330
G1 X109.924 Y111.621 E0.3518
G1 X114.129 Y115.826 E0.5496
G1 X114.132 Y116.394 E0.5685
G1 X109.361 Y111.623 E0.7929
G1 X108.963 Y111.625 E0.8061
G1 X108.835 Y111.663 E0.8105
G1 X114.082 Y116.911 E1.0574
G1 X113.976 Y117.273 E1.0699
G1 X113.941 Y117.335 E1.0723
G1 X108.413 Y111.808 E1.3323
G1 X108.071 Y112.031 E1.3459
G1 X113.724 Y117.684 E1.6118
G1 X113.449 Y117.975 E1.6251
G1 X107.779 Y112.304 E1.8918
G1 X107.561 Y112.574 E1.9033
G1 X107.539 Y112.631 E1.9054
G1 X113.113 Y118.204 E2.1675
G1 X113.000 Y118.274 E2.1720
G1 X112.706 Y118.363 E2.1822
G1 X107.383 Y113.040 E2.4326
G1 X107.353 Y113.119 E2.4354
G1 X107.003 Y113.225 E2.4475
G1 X112.512 Y118.735 E2.7067
G1 X112.439 Y118.926 E2.7135
G1 X112.305 Y119.093 E2.7206
G1 X106.652 Y113.441 E2.9865
G1 X106.600 Y113.473 E2.9886
G1 X106.366 Y113.720 E2.9999
G1 X112.042 Y119.396 E3.2668
G1 X111.699 Y119.619 E3.2804
G1 X106.127 Y114.047 E3.5425
G1 X106.024 Y114.227 E3.5494
