; G-Code generated by Simplify3D(R) Version 4.0.0
; Sep 5, 2020 at 12:12:11 PM
; Settings Summary
;   processName,Process2
;   applyToModels,Roboterrampe_opti_v2_1
;   profileName,bar (modified)
;   profileVersion,2019-07-15 16:42:33
;   baseProfile,Default (modified)
;   printMaterial,PLA
;   printQuality,Medium
;   printExtruders,
;   extruderName,Primary Extruder
;   extruderToolheadNumber,0
;   extruderDiameter,0.4
;   extruderAutoWidth,0
;   extruderWidth,0.4
;   extrusionMultiplier,0.9
;   extruderUseRetract,1
;   extruderRetractionDistance,1
;   extruderExtraRestartDistance,0
;   extruderRetractionZLift,0
;   extruderRetractionSpeed,1800
;   extruderUseCoasting,0
;   extruderCoastingDistance,0.2
;   extruderUseWipe,0
;   extruderWipeDistance,5
;   primaryExtruder,0
;   layerHeight,0.3
;   topSolidLayers,3
;   bottomSolidLayers,3
;   perimeterOutlines,2
;   printPerimetersInsideOut,1
;   startPointOption,2
;   startPointOriginX,0
;   startPointOriginY,0
;   sequentialIslands,0
;   spiralVaseMode,0
;   firstLayerHeightPercentage,100
;   firstLayerWidthPercentage,100
;   firstLayerUnderspeed,0.5
;   useRaft,0
;   raftExtruder,0
;   raftTopLayers,3
;   raftBaseLayers,2
;   raftOffset,3
;   raftSeparationDistance,0.14
;   raftTopInfill,100
;   aboveRaftSpeedMultiplier,0.3
;   useSkirt,0
;   skirtExtruder,0
;   skirtLayers,1
;   skirtOutlines,2
;   skirtOffset,4
;   usePrimePillar,0
;   primePillarExtruder,999
;   primePillarWidth,12
;   primePillarLocation,7
;   primePillarSpeedMultiplier,1
;   useOozeShield,0
;   oozeShieldExtruder,999
;   oozeShieldOffset,2
;   oozeShieldOutlines,1
;   oozeShieldSidewallShape,1
;   oozeShieldSidewallAngle,30
;   oozeShieldSpeedMultiplier,1
;   infillExtruder,0
;   internalInfillPattern,Rectilinear
;   externalInfillPattern,Rectilinear
;   infillPercentage,10
;   outlineOverlapPercentage,15
;   infillExtrusionWidthPercentage,100
;   minInfillLength,5
;   infillLayerInterval,1
;   internalInfillAngles,45,-45
;   overlapInternalInfillAngles,0
;   externalInfillAngles,45,-45
;   generateSupport,0
;   supportExtruder,0
;   supportInfillPercentage,30
;   supportExtraInflation,0
;   supportBaseLayers,0
;   denseSupportExtruder,0
;   denseSupportLayers,0
;   denseSupportInfillPercentage,70
;   supportLayerInterval,1
;   supportHorizontalPartOffset,0.3
;   supportUpperSeparationLayers,1
;   supportLowerSeparationLayers,1
;   supportType,0
;   supportGridSpacing,4
;   maxOverhangAngle,45
;   supportAngles,0
;   temperatureName,Primary Extruder,Hot Bed
;   temperatureNumber,0,1
;   temperatureSetpointCount,1,1
;   temperatureSetpointLayers,1,1
;   temperatureSetpointTemperatures,210,60
;   temperatureStabilizeAtStartup,1,1
;   temperatureHeatedBed,0,1
;   temperatureRelayBetweenLayers,0,0
;   temperatureRelayBetweenLoops,0,0
;   fanLayers,1,2
;   fanSpeeds,0,100
;   blipFanToFullPower,0
;   adjustSpeedForCooling,1
;   minSpeedLayerTime,15
;   minCoolingSpeedSlowdown,20
;   increaseFanForCooling,0
;   minFanLayerTime,45
;   maxCoolingFanSpeed,100
;   increaseFanForBridging,0
;   bridgingFanSpeed,100
;   use5D,1
;   relativeEdistances,0
;   allowEaxisZeroing,1
;   independentExtruderAxes,0
;   includeM10123,0
;   stickySupport,1
;   applyToolheadOffsets,0
;   gcodeXoffset,0
;   gcodeYoffset,0
;   gcodeZoffset,0
;   overrideMachineDefinition,0
;   machineTypeOverride,0
;   strokeXoverride,200
;   strokeYoverride,200
;   strokeZoverride,200
;   originOffsetXoverride,0
;   originOffsetYoverride,0
;   originOffsetZoverride,0
;   homeXdirOverride,-1
;   homeYdirOverride,-1
;   homeZdirOverride,-1
;   flipXoverride,1
;   flipYoverride,-1
;   flipZoverride,1
;   toolheadOffsets,0,0|0,0|0,0|0,0|0,0|0,0
;   overrideFirmwareConfiguration,0
;   firmwareTypeOverride,RepRap (Marlin/Repetier/Sprinter)
;   GPXconfigOverride,r2
;   baudRateOverride,115200
;   overridePrinterModels,0
;   printerModelsOverride
;   startingGcode,G28 ; home all axes,G1 X0 Y20 Z0.2 F3000 ; get ready to prime,G92 E0 ; reset extrusion distance,G1 X150 E20 F600 ; prime nozzle
;   layerChangeGcode,
;   retractionGcode,
;   toolChangeGcode,
;   endingGcode,M104 S0 ; turn off extruder,M140 S0 ; turn off bed,M84 ; disable motors,G1 X0 Y0; home
;   exportFileFormat,gcode
;   celebration,0
;   celebrationSong,Random Song
;   postProcessing,
;   defaultSpeed,4200
;   outlineUnderspeed,0.5
;   solidInfillUnderspeed,0.8
;   supportUnderspeed,0.8
;   rapidXYspeed,4800
;   rapidZspeed,1000
;   minBridgingArea,50
;   bridgingExtraInflation,0
;   bridgingExtrusionMultiplier,1
;   bridgingSpeedMultiplier,1
;   useFixedBridgingAngle,0
;   fixedBridgingAngle,0
;   applyBridgingToPerimeters,0
;   filamentDiameters,1.75|1.75|1.75|1.75|1.75|1.75
;   filamentPricesPerKg,46|46|46|46|46|46
;   filamentDensities,1.25|1.25|1.25|1.25|1.25|1.25
;   useMinPrintHeight,0
;   minPrintHeight,0
;   useMaxPrintHeight,0
;   maxPrintHeight,0
;   useDiaphragm,0
;   diaphragmLayerInterval,20
;   robustSlicing,1
;   mergeAllIntoSolid,0
;   onlyRetractWhenCrossingOutline,1
;   retractBetweenLayers,1
;   useRetractionMinTravel,0
;   retractionMinTravel,3
;   retractWhileWiping,0
;   onlyWipeOutlines,1
;   avoidCrossingOutline,0
;   maxMovementDetourFactor,3
;   toolChangeRetractionDistance,12
;   toolChangeExtraRestartDistance,-0.5
;   toolChangeRetractionSpeed,600
;   externalThinWallType,1
;   internalThinWallType,1
;   thinWallAllowedOverlapPercentage,10
;   singleExtrusionMinLength,1
;   singleExtrusionMinPrintingWidthPercentage,50
;   singleExtrusionMaxPrintingWidthPercentage,200
;   singleExtrusionEndpointExtension,0.2
;   horizontalSizeCompensation,0
G90
M82
M106 S0
M140 S60
M190 S60
M104 S210 T0
M109 S210 T0
G28 ; home all axes
G1 X0 Y20 Z0.2 F3000 ; get ready to prime
G92 E0 ; reset extrusion distance
G1 X150 E20 F600 ; prime nozzle
G92 E0
G1 E-1.0000 F1800
G1 Z0.300 F1000
; process Process2
; layer 1, Z = 0.300
T0
; tool H0.300 W0.400
; inner perimeter
G1 X39.701 Y25.678 F4800
G1 E0.0000 F540
G92 E0
G1 X159.231 Y25.523 E5.3671 F1575
G1 X159.424 Y174.323 E12.0483
G1 X39.894 Y174.478 E17.4154
G1 X39.701 Y25.678 E24.0967
; outer perimeter
G1 X39.301 Y25.278 F4800
G92 E0
G1 X159.631 Y25.123 E5.4030 F1050
G1 X159.824 Y174.723 E12.1202
G1 X39.494 Y174.878 E17.5232
G1 X39.301 Y25.278 E24.2404
; inner perimeter
G1 X47.487 Y34.682 F4800
G92 E0
G1 X46.800 Y35.370 E0.0436 F1575
G1 X46.238 Y36.174 E0.0877
G1 X45.826 Y37.059 E0.1315
G1 X45.576 Y37.999 E0.1752
G1 X45.491 Y38.976 E0.2192
G1 X45.577 Y39.949 E0.2631
G1 X45.831 Y40.892 E0.3069
G1 X46.245 Y41.776 E0.3508
G1 X46.806 Y42.575 E0.3946
G1 X47.498 Y43.265 E0.4385
G1 X48.298 Y43.824 E0.4823
G1 X49.184 Y44.236 E0.5262
G1 X50.128 Y44.487 E0.5700
G1 X51.101 Y44.571 E0.6139
G1 X52.073 Y44.485 E0.6577
G1 X53.016 Y44.231 E0.7016
G1 X53.901 Y43.817 E0.7454
G1 X54.700 Y43.256 E0.7893
G1 X55.390 Y42.564 E0.8331
G1 X55.949 Y41.763 E0.8770
G1 X56.360 Y40.878 E0.9208
G1 X56.612 Y39.934 E0.9647
G1 X56.696 Y38.961 E1.0085
G1 X56.609 Y37.989 E1.0524
G1 X56.355 Y37.046 E1.0962
G1 X55.941 Y36.161 E1.1401
G1 X55.380 Y35.362 E1.1839
G1 X54.689 Y34.672 E1.2277
G1 X53.888 Y34.113 E1.2716
G1 X53.003 Y33.702 E1.3154
G1 X52.059 Y33.450 E1.3593
G1 X51.086 Y33.366 E1.4031
G1 X50.113 Y33.453 E1.4470
G1 X49.170 Y33.707 E1.4908
G1 X48.286 Y34.120 E1.5347
G1 X47.487 Y34.682 E1.5785
; outer perimeter
G1 X47.745 Y34.989 F4800
G92 E0
G1 X47.108 Y35.627 E0.0405 F1050
G1 X46.586 Y36.374 E0.0814
G1 X46.204 Y37.196 E0.1221
G1 X45.971 Y38.069 E0.1627
G1 X45.893 Y38.975 E0.2035
G1 X45.973 Y39.878 E0.2442
G1 X46.209 Y40.754 E0.2849
G1 X46.593 Y41.575 E0.3256
G1 X47.114 Y42.317 E0.3663
G1 X47.755 Y42.957 E0.4071
G1 X48.499 Y43.476 E0.4478
G1 X49.321 Y43.858 E0.4885
G1 X50.197 Y44.092 E0.5292
G1 X51.100 Y44.169 E0.5699
G1 X52.003 Y44.089 E0.6106
G1 X52.878 Y43.853 E0.6513
G1 X53.700 Y43.469 E0.6920
G1 X54.441 Y42.948 E0.7327
G1 X55.082 Y42.306 E0.7734
G1 X55.601 Y41.563 E0.8141
G1 X55.983 Y40.741 E0.8548
G1 X56.216 Y39.865 E0.8955
G1 X56.294 Y38.962 E0.9362
G1 X56.214 Y38.059 E0.9769
G1 X55.978 Y37.184 E1.0176
G1 X55.594 Y36.362 E1.0583
G1 X55.073 Y35.620 E1.0990
G1 X54.431 Y34.980 E1.1397
G1 X53.688 Y34.461 E1.1805
G1 X52.866 Y34.079 E1.2212
G1 X51.990 Y33.846 E1.2619
G1 X51.087 Y33.768 E1.3026
G1 X50.184 Y33.848 E1.3433
G1 X49.308 Y34.084 E1.3840
G1 X48.487 Y34.468 E1.4247
G1 X47.745 Y34.989 E1.4654
G92 E0
G1 E-1.0000 F1800
; inner perimeter
G1 X57.500 Y44.669 F4800
G1 E0.0000 F1800
G92 E0
G1 X56.810 Y45.360 E0.0438 F1575
G1 X56.251 Y46.161 E0.0877
G1 X55.839 Y47.046 E0.1315
G1 X55.588 Y47.990 E0.1754
G1 X55.504 Y48.963 E0.2192
G1 X55.590 Y49.936 E0.2631
G1 X55.844 Y50.879 E0.3069
G1 X56.258 Y51.763 E0.3508
G1 X56.819 Y52.562 E0.3946
G1 X57.511 Y53.252 E0.4385
G1 X58.311 Y53.811 E0.4823
G1 X59.197 Y54.223 E0.5262
G1 X60.141 Y54.474 E0.5700
G1 X61.114 Y54.558 E0.6139
G1 X62.086 Y54.472 E0.6577
G1 X63.029 Y54.218 E0.7016
G1 X63.914 Y53.804 E0.7454
G1 X64.713 Y53.243 E0.7893
G1 X65.402 Y52.551 E0.8331
G1 X65.962 Y51.750 E0.8770
G1 X66.373 Y50.865 E0.9208
G1 X66.625 Y49.921 E0.9647
G1 X66.709 Y48.948 E1.0085
G1 X66.622 Y47.976 E1.0523
G1 X66.368 Y47.033 E1.0962
G1 X65.954 Y46.148 E1.1400
G1 X65.393 Y45.349 E1.1839
G1 X64.702 Y44.659 E1.2277
G1 X63.901 Y44.100 E1.2716
G1 X63.016 Y43.689 E1.3154
G1 X62.072 Y43.437 E1.3593
G1 X61.099 Y43.353 E1.4031
G1 X60.126 Y43.440 E1.4470
G1 X59.183 Y43.694 E1.4908
G1 X58.299 Y44.108 E1.5347
G1 X57.500 Y44.669 E1.5785
; outer perimeter
G1 X57.758 Y44.976 F4800
G92 E0
G1 X57.118 Y45.618 E0.0407 F1050
G1 X56.599 Y46.361 E0.0814
G1 X56.217 Y47.183 E0.1221
G1 X55.983 Y48.059 E0.1628
G1 X55.906 Y48.962 E0.2035
G1 X55.986 Y49.865 E0.2442
G1 X56.221 Y50.741 E0.2849
G1 X56.606 Y51.562 E0.3256
G1 X57.127 Y52.304 E0.3663
G1 X57.768 Y52.944 E0.4071
G1 X58.512 Y53.463 E0.4478
G1 X59.334 Y53.845 E0.4885
G1 X60.210 Y54.079 E0.5292
G1 X61.113 Y54.156 E0.5699
G1 X62.016 Y54.076 E0.6106
G1 X62.891 Y53.840 E0.6513
G1 X63.712 Y53.456 E0.6920
G1 X64.454 Y52.935 E0.7327
G1 X65.095 Y52.294 E0.7734
G1 X65.614 Y51.550 E0.8141
G1 X65.996 Y50.728 E0.8548
G1 X66.229 Y49.852 E0.8955
G1 X66.307 Y48.949 E0.9362
G1 X66.227 Y48.046 E0.9769
G1 X65.991 Y47.171 E1.0176
G1 X65.607 Y46.349 E1.0583
G1 X65.086 Y45.608 E1.0990
G1 X64.444 Y44.967 E1.1397
G1 X63.701 Y44.448 E1.1805
G1 X62.879 Y44.066 E1.2212
G1 X62.003 Y43.833 E1.2619
G1 X61.099 Y43.755 E1.3026
G1 X60.197 Y43.835 E1.3433
G1 X59.321 Y44.071 E1.3840
G1 X58.500 Y44.455 E1.4247
G1 X57.758 Y44.976 E1.4654
; inner perimeter
G1 X65.831 Y40.866 F4800
G92 E0
G1 X66.245 Y41.750 E0.0438 F1575
G1 X66.806 Y42.549 E0.0877
G1 X67.498 Y43.239 E0.1315
G1 X68.298 Y43.798 E0.1754
G1 X69.184 Y44.210 E0.2192
G1 X70.128 Y44.461 E0.2631
G1 X71.101 Y44.545 E0.3069
G1 X72.073 Y44.459 E0.3508
G1 X73.016 Y44.205 E0.3946
G1 X73.901 Y43.791 E0.4385
G1 X74.700 Y43.230 E0.4823
G1 X75.390 Y42.538 E0.5262
G1 X75.949 Y41.738 E0.5700
G1 X76.360 Y40.852 E0.6139
G1 X76.612 Y39.908 E0.6577
G1 X76.696 Y38.935 E0.7016
G1 X76.609 Y37.963 E0.7454
G1 X76.355 Y37.020 E0.7893
G1 X75.941 Y36.135 E0.8331
G1 X75.380 Y35.336 E0.8770
G1 X74.689 Y34.646 E0.9208
G1 X73.888 Y34.087 E0.9647
G1 X73.003 Y33.676 E1.0085
G1 X72.059 Y33.424 E1.0524
G1 X71.086 Y33.340 E1.0962
G1 X70.113 Y33.427 E1.1400
G1 X69.170 Y33.681 E1.1839
G1 X68.286 Y34.095 E1.2277
G1 X67.487 Y34.656 E1.2716
G1 X66.797 Y35.347 E1.3154
G1 X66.238 Y36.148 E1.3593
G1 X65.826 Y37.033 E1.4031
G1 X65.575 Y37.977 E1.4470
G1 X65.491 Y38.950 E1.4908
G1 X65.577 Y39.923 E1.5347
G1 X65.831 Y40.866 E1.5785
; outer perimeter
G1 X66.208 Y40.728 F4800
G92 E0
G1 X66.593 Y41.549 E0.0407 F1050
G1 X67.114 Y42.291 E0.0814
G1 X67.755 Y42.931 E0.1221
G1 X68.499 Y43.450 E0.1628
G1 X69.321 Y43.832 E0.2035
G1 X70.197 Y44.066 E0.2442
G1 X71.100 Y44.143 E0.2849
G1 X72.003 Y44.063 E0.3256
G1 X72.878 Y43.828 E0.3663
G1 X73.700 Y43.443 E0.4071
G1 X74.441 Y42.922 E0.4478
G1 X75.082 Y42.281 E0.4885
G1 X75.601 Y41.537 E0.5292
G1 X75.983 Y40.715 E0.5699
G1 X76.216 Y39.839 E0.6106
G1 X76.294 Y38.936 E0.6513
G1 X76.214 Y38.033 E0.6920
G1 X75.978 Y37.158 E0.7327
G1 X75.594 Y36.336 E0.7734
G1 X75.073 Y35.595 E0.8141
G1 X74.431 Y34.954 E0.8548
G1 X73.688 Y34.435 E0.8955
G1 X72.866 Y34.053 E0.9362
G1 X71.990 Y33.820 E0.9769
G1 X71.087 Y33.742 E1.0176
G1 X70.184 Y33.822 E1.0583
G1 X69.308 Y34.058 E1.0990
G1 X68.487 Y34.442 E1.1398
G1 X67.745 Y34.963 E1.1805
G1 X67.105 Y35.605 E1.2212
G1 X66.586 Y36.348 E1.2619
G1 X66.204 Y37.170 E1.3026
G1 X65.970 Y38.046 E1.3433
G1 X65.893 Y38.949 E1.3840
G1 X65.973 Y39.852 E1.4247
G1 X66.208 Y40.728 E1.4654
G92 E0
G1 E-1.0000 F1800
; inner perimeter
G1 X76.251 Y46.135 F4800
G1 E0.0000 F1800
G92 E0
G1 X75.839 Y47.020 E0.0438 F1575
G1 X75.588 Y47.964 E0.0877
G1 X75.504 Y48.937 E0.1315
G1 X75.590 Y49.910 E0.1754
G1 X75.844 Y50.853 E0.2192
G1 X76.258 Y51.737 E0.2631
G1 X76.819 Y52.536 E0.3069
G1 X77.511 Y53.226 E0.3508
G1 X78.311 Y53.785 E0.3946
G1 X79.197 Y54.197 E0.4385
G1 X80.141 Y54.448 E0.4823
G1 X81.114 Y54.532 E0.5262
G1 X82.086 Y54.446 E0.5700
G1 X83.029 Y54.192 E0.6139
G1 X83.914 Y53.778 E0.6577
G1 X84.713 Y53.217 E0.7016
G1 X85.403 Y52.525 E0.7454
G1 X85.962 Y51.725 E0.7893
G1 X86.373 Y50.839 E0.8331
G1 X86.625 Y49.895 E0.8770
G1 X86.709 Y48.922 E0.9208
G1 X86.622 Y47.950 E0.9647
G1 X86.368 Y47.007 E1.0085
G1 X85.954 Y46.122 E1.0524
G1 X85.393 Y45.323 E1.0962
G1 X84.702 Y44.634 E1.1400
G1 X83.901 Y44.074 E1.1839
G1 X83.016 Y43.663 E1.2277
G1 X82.072 Y43.411 E1.2716
G1 X81.099 Y43.328 E1.3154
G1 X80.126 Y43.414 E1.3593
G1 X79.183 Y43.668 E1.4031
G1 X78.299 Y44.082 E1.4470
G1 X77.500 Y44.643 E1.4908
G1 X76.810 Y45.334 E1.5347
G1 X76.251 Y46.135 E1.5785
; outer perimeter
G1 X76.599 Y46.335 F4800
G92 E0
G1 X76.217 Y47.157 E0.0407 F1050
G1 X75.983 Y48.033 E0.0814
G1 X75.905 Y48.937 E0.1221
G1 X75.986 Y49.840 E0.1628
G1 X76.221 Y50.715 E0.2035
G1 X76.606 Y51.536 E0.2442
G1 X77.127 Y52.278 E0.2849
G1 X77.768 Y52.918 E0.3256
G1 X78.512 Y53.437 E0.3663
G1 X79.334 Y53.819 E0.4071
G1 X80.210 Y54.053 E0.4478
G1 X81.113 Y54.131 E0.4885
G1 X82.016 Y54.050 E0.5292
G1 X82.891 Y53.815 E0.5699
G1 X83.712 Y53.430 E0.6106
G1 X84.454 Y52.910 E0.6513
G1 X85.095 Y52.268 E0.6920
G1 X85.614 Y51.524 E0.7327
G1 X85.996 Y50.702 E0.7734
G1 X86.229 Y49.826 E0.8141
G1 X86.307 Y48.923 E0.8548
G1 X86.227 Y48.020 E0.8955
G1 X85.991 Y47.145 E0.9362
G1 X85.607 Y46.324 E0.9769
G1 X85.086 Y45.582 E1.0176
G1 X84.444 Y44.941 E1.0583
G1 X83.701 Y44.422 E1.0990
G1 X82.879 Y44.040 E1.1397
G1 X82.003 Y43.807 E1.1805
G1 X81.099 Y43.729 E1.2212
G1 X80.197 Y43.809 E1.2619
G1 X79.321 Y44.045 E1.3026
G1 X78.500 Y44.429 E1.3433
G1 X77.758 Y44.950 E1.3840
G1 X77.118 Y45.592 E1.4247
G1 X76.599 Y46.335 E1.4654
; inner perimeter
G1 X73.028 Y53.676 F4800
G92 E0
G1 X72.085 Y53.424 E0.0438 F1575
G1 X71.112 Y53.340 E0.0877
G1 X70.139 Y53.427 E0.1315
G1 X69.196 Y53.681 E0.1754
G1 X68.312 Y54.095 E0.2192
G1 X67.513 Y54.656 E0.2631
G1 X66.823 Y55.347 E0.3069
G1 X66.264 Y56.148 E0.3508
G1 X65.852 Y57.033 E0.3946
G1 X65.601 Y57.977 E0.4385
G1 X65.517 Y58.950 E0.4823
G1 X65.603 Y59.923 E0.5262
G1 X65.857 Y60.866 E0.5700
G1 X66.271 Y61.750 E0.6139
G1 X66.832 Y62.549 E0.6577
G1 X67.524 Y63.239 E0.7016
G1 X68.324 Y63.798 E0.7454
G1 X69.210 Y64.210 E0.7893
G1 X70.153 Y64.461 E0.8331
G1 X71.127 Y64.545 E0.8770
G1 X72.099 Y64.459 E0.9208
G1 X73.042 Y64.205 E0.9647
G1 X73.927 Y63.791 E1.0085
G1 X74.726 Y63.230 E1.0524
G1 X75.415 Y62.538 E1.0962
G1 X75.975 Y61.738 E1.1400
G1 X76.386 Y60.852 E1.1839
G1 X76.638 Y59.908 E1.2277
G1 X76.721 Y58.935 E1.2716
G1 X76.635 Y57.963 E1.3154
G1 X76.381 Y57.020 E1.3593
G1 X75.967 Y56.135 E1.4031
G1 X75.406 Y55.336 E1.4470
G1 X74.715 Y54.646 E1.4908
G1 X73.914 Y54.087 E1.5347
G1 X73.028 Y53.676 E1.5785
; outer perimeter
G1 X72.892 Y54.053 F4800
G92 E0
G1 X72.016 Y53.820 E0.0407 F1050
G1 X71.112 Y53.742 E0.0814
G1 X70.209 Y53.822 E0.1221
G1 X69.334 Y54.058 E0.1628
G1 X68.513 Y54.442 E0.2035
G1 X67.771 Y54.963 E0.2442
G1 X67.131 Y55.605 E0.2849
G1 X66.612 Y56.348 E0.3256
G1 X66.230 Y57.170 E0.3663
G1 X65.996 Y58.046 E0.4071
G1 X65.918 Y58.950 E0.4478
G1 X65.999 Y59.852 E0.4885
