; G-Code generated by Simplify3D(R) Version 4.0.0
; Sep 6, 2020 at 9:59:06 PM
; Settings Summary
;   processName,Process2
;   applyToModels,Roboterrampe_opti_v2_1
;   profileName,bar (modified)
;   profileVersion,2019-07-15 16:42:33
;   baseProfile,Default (modified)
;   printMaterial,PLA
;   printQuality,Medium
;   printExtruders,
;   extruderName,Primary Extruder
;   extruderToolheadNumber,0
;   extruderDiameter,0.4
;   extruderAutoWidth,0
;   extruderWidth,0.4
;   extrusionMultiplier,0.9
;   extruderUseRetract,1
;   extruderRetractionDistance,1
;   extruderExtraRestartDistance,0
;   extruderRetractionZLift,0
;   extruderRetractionSpeed,1800
;   extruderUseCoasting,0
;   extruderCoastingDistance,0.2
;   extruderUseWipe,0
;   extruderWipeDistance,5
;   primaryExtruder,0
;   layerHeight,0.3
;   topSolidLayers,3
;   bottomSolidLayers,3
;   perimeterOutlines,2
;   printPerimetersInsideOut,1
;   startPointOption,2
;   startPointOriginX,0
;   startPointOriginY,0
;   sequentialIslands,0
;   spiralVaseMode,0
;   firstLayerHeightPercentage,100
;   firstLayerWidthPercentage,100
;   firstLayerUnderspeed,0.5
;   useRaft,0
;   raftExtruder,0
;   raftTopLayers,3
;   raftBaseLayers,2
;   raftOffset,3
;   raftSeparationDistance,0.14
;   raftTopInfill,100
;   aboveRaftSpeedMultiplier,0.3
;   useSkirt,0
;   skirtExtruder,0
;   skirtLayers,1
;   skirtOutlines,2
;   skirtOffset,4
;   usePrimePillar,0
;   primePillarExtruder,999
;   primePillarWidth,12
;   primePillarLocation,7
;   primePillarSpeedMultiplier,1
;   useOozeShield,0
;   oozeShieldExtruder,999
;   oozeShieldOffset,2
;   oozeShieldOutlines,1
;   oozeShieldSidewallShape,1
;   oozeShieldSidewallAngle,30
;   oozeShieldSpeedMultiplier,1
;   infillExtruder,0
;   internalInfillPattern,Rectilinear
;   externalInfillPattern,Rectilinear
;   infillPercentage,10
;   outlineOverlapPercentage,15
;   infillExtrusionWidthPercentage,100
;   minInfillLength,5
;   infillLayerInterval,1
;   internalInfillAngles,45,-45
;   overlapInternalInfillAngles,0
;   externalInfillAngles,45,-45
;   generateSupport,0
;   supportExtruder,0
;   supportInfillPercentage,30
;   supportExtraInflation,0
;   supportBaseLayers,0
;   denseSupportExtruder,0
;   denseSupportLayers,0
;   denseSupportInfillPercentage,70
;   supportLayerInterval,1
;   supportHorizontalPartOffset,0.3
;   supportUpperSeparationLayers,1
;   supportLowerSeparationLayers,1
;   supportType,1
;   supportGridSpacing,4
;   maxOverhangAngle,45
;   supportAngles,0
;   temperatureName,Primary Extruder,Hot Bed
;   temperatureNumber,0,1
;   temperatureSetpointCount,1,1
;   temperatureSetpointLayers,1,1
;   temperatureSetpointTemperatures,210,60
;   temperatureStabilizeAtStartup,1,1
;   temperatureHeatedBed,0,1
;   temperatureRelayBetweenLayers,0,0
;   temperatureRelayBetweenLoops,0,0
;   fanLayers,1,2
;   fanSpeeds,0,100
;   blipFanToFullPower,0
;   adjustSpeedForCooling,1
;   minSpeedLayerTime,15
;   minCoolingSpeedSlowdown,20
;   increaseFanForCooling,0
;   minFanLayerTime,45
;   maxCoolingFanSpeed,100
;   increaseFanForBridging,0
;   bridgingFanSpeed,100
;   use5D,1
;   relativeEdistances,0
;   allowEaxisZeroing,1
;   independentExtruderAxes,0
;   includeM10123,0
;   stickySupport,1
;   applyToolheadOffsets,0
;   gcodeXoffset,0
;   gcodeYoffset,0
;   gcodeZoffset,0
;   overrideMachineDefinition,0
;   machineTypeOverride,0
;   strokeXoverride,200
;   strokeYoverride,200
;   strokeZoverride,200
;   originOffsetXoverride,0
;   originOffsetYoverride,0
;   originOffsetZoverride,0
;   homeXdirOverride,-1
;   homeYdirOverride,-1
;   homeZdirOverride,-1
;   flipXoverride,1
;   flipYoverride,-1
;   flipZoverride,1
;   toolheadOffsets,0,0|0,0|0,0|0,0|0,0|0,0
;   overrideFirmwareConfiguration,0
;   firmwareTypeOverride,RepRap (Marlin/Repetier/Sprinter)
;   GPXconfigOverride,r2
;   baudRateOverride,115200
;   overridePrinterModels,0
;   printerModelsOverride
;   startingGcode,G28 ; home all axes,G1 X0 Y20 Z0.2 F3000 ; get ready to prime,G92 E0 ; reset extrusion distance,G1 X150 E20 F600 ; prime nozzle
;   layerChangeGcode,
;   retractionGcode,
;   toolChangeGcode,
;   endingGcode,M104 S0 ; turn off extruder,M140 S0 ; turn off bed,M84 ; disable motors,G1 X0 Y0; home
;   exportFileFormat,gcode
;   celebration,0
;   celebrationSong,Random Song
;   postProcessing,
;   defaultSpeed,4600
;   outlineUnderspeed,0.5
;   solidInfillUnderspeed,0.8
;   supportUnderspeed,0.8
;   rapidXYspeed,4800
;   rapidZspeed,1000
;   minBridgingArea,50
;   bridgingExtraInflation,0
;   bridgingExtrusionMultiplier,1
;   bridgingSpeedMultiplier,1
;   useFixedBridgingAngle,0
;   fixedBridgingAngle,0
;   applyBridgingToPerimeters,0
;   filamentDiameters,1.75|1.75|1.75|1.75|1.75|1.75
;   filamentPricesPerKg,46|46|46|46|46|46
;   filamentDensities,1.25|1.25|1.25|1.25|1.25|1.25
;   useMinPrintHeight,0
;   minPrintHeight,0
;   useMaxPrintHeight,0
;   maxPrintHeight,0
;   useDiaphragm,0
;   diaphragmLayerInterval,20
;   robustSlicing,1
;   mergeAllIntoSolid,0
;   onlyRetractWhenCrossingOutline,1
;   retractBetweenLayers,1
;   useRetractionMinTravel,0
;   retractionMinTravel,3
;   retractWhileWiping,0
;   onlyWipeOutlines,1
;   avoidCrossingOutline,0
;   maxMovementDetourFactor,3
;   toolChangeRetractionDistance,12
;   toolChangeExtraRestartDistance,-0.5
;   toolChangeRetractionSpeed,600
;   externalThinWallType,1
;   internalThinWallType,1
;   thinWallAllowedOverlapPercentage,10
;   singleExtrusionMinLength,1
;   singleExtrusionMinPrintingWidthPercentage,50
;   singleExtrusionMaxPrintingWidthPercentage,200
;   singleExtrusionEndpointExtension,0.2
;   horizontalSizeCompensation,0
G90
M82
M106 S0
M140 S60
M190 S60
M104 S210 T0
M109 S210 T0
G28 ; home all axes
G1 X0 Y20 Z0.2 F3000 ; get ready to prime
G92 E0 ; reset extrusion distance
G1 X150 E20 F600 ; prime nozzle
G92 E0
G1 E-1.0000 F1800
G1 Z0.300 F1000
; process Process2
; layer 1, Z = 0.300
T0
; tool H0.300 W0.400
; inner perimeter
G1 X13.174 Y41.185 F4800
G1 E0.0000 F540
G92 E0
G1 X185.971 Y40.258 E7.7589 F1725
G1 X186.833 Y159.737 E13.1238
G1 X14.036 Y160.663 E20.8826
G1 X13.174 Y41.185 E26.2475
; outer perimeter
G1 X12.771 Y40.787 F4800
G92 E0
G1 X186.368 Y39.856 E7.7948 F1150
G1 X187.235 Y160.135 E13.1956
G1 X13.639 Y161.065 E20.9904
G1 X12.771 Y40.787 E26.3912
; inner perimeter
G1 X25.704 Y64.356 F4800
G92 E0
G1 X24.795 Y64.913 E0.0479 F1725
G1 X24.006 Y65.601 E0.0949
G1 X23.363 Y66.404 E0.1410
G1 X22.887 Y67.297 E0.1865
G1 X22.597 Y68.254 E0.2314
G1 X22.504 Y69.244 E0.2760
G1 X22.611 Y70.232 E0.3206
G1 X22.915 Y71.185 E0.3656
G1 X23.403 Y72.073 E0.4111
G1 X24.058 Y72.868 E0.4573
G1 X24.856 Y73.548 E0.5044
G1 X25.773 Y74.094 E0.5523
G1 X26.780 Y74.492 E0.6009
G1 X27.848 Y74.733 E0.6501
G1 X28.946 Y74.810 E0.6995
G1 X30.043 Y74.721 E0.7489
G1 X31.108 Y74.469 E0.7981
G1 X32.110 Y74.060 E0.8467
G1 X33.019 Y73.504 E0.8945
G1 X33.808 Y72.815 E0.9415
G1 X34.451 Y72.013 E0.9877
G1 X34.926 Y71.119 E1.0332
G1 X35.217 Y70.162 E1.0781
G1 X35.310 Y69.173 E1.1227
G1 X35.202 Y68.185 E1.1673
G1 X34.899 Y67.231 E1.2122
G1 X34.410 Y66.343 E1.2577
G1 X33.756 Y65.548 E1.3040
G1 X32.958 Y64.868 E1.3511
G1 X32.041 Y64.322 E1.3990
G1 X31.034 Y63.924 E1.4476
G1 X29.966 Y63.683 E1.4968
G1 X28.868 Y63.607 E1.5462
G1 X27.770 Y63.695 E1.5956
G1 X26.706 Y63.947 E1.6447
G1 X25.704 Y64.356 E1.6933
; outer perimeter
G1 X25.885 Y64.715 F4800
G92 E0
G1 X25.032 Y65.236 E0.0449 F1150
G1 X24.296 Y65.879 E0.0888
G1 X23.698 Y66.625 E0.1317
G1 X23.259 Y67.451 E0.1737
G1 X22.992 Y68.332 E0.2150
G1 X22.906 Y69.241 E0.2560
G1 X23.005 Y70.148 E0.2970
G1 X23.284 Y71.027 E0.3384
G1 X23.736 Y71.848 E0.3805
G1 X24.344 Y72.587 E0.4235
G1 X25.090 Y73.221 E0.4674
G1 X25.950 Y73.734 E0.5124
G1 X26.898 Y74.109 E0.5582
G1 X27.906 Y74.336 E0.6046
G1 X28.944 Y74.409 E0.6513
G1 X29.981 Y74.325 E0.6980
G1 X30.986 Y74.087 E0.7444
G1 X31.929 Y73.702 E0.7901
G1 X32.781 Y73.180 E0.8350
G1 X33.518 Y72.537 E0.8789
G1 X34.115 Y71.792 E0.9218
G1 X34.555 Y70.966 E0.9638
G1 X34.822 Y70.085 E1.0051
G1 X34.908 Y69.176 E1.0461
G1 X34.809 Y68.268 E1.0871
G1 X34.529 Y67.390 E1.1285
G1 X34.078 Y66.569 E1.1706
G1 X33.470 Y65.830 E1.2136
G1 X32.724 Y65.195 E1.2575
G1 X31.864 Y64.682 E1.3025
G1 X30.916 Y64.307 E1.3483
G1 X29.908 Y64.080 E1.3947
G1 X28.870 Y64.008 E1.4414
G1 X27.833 Y64.091 E1.4881
G1 X26.828 Y64.329 E1.5345
G1 X25.885 Y64.715 E1.5802
; inner perimeter
G1 X34.443 Y61.123 F4800
G92 E0
G1 X34.931 Y62.011 E0.0455 F1725
G1 X35.585 Y62.806 E0.0917
G1 X36.384 Y63.486 E0.1388
G1 X37.300 Y64.032 E0.1867
G1 X38.307 Y64.430 E0.2353
G1 X39.375 Y64.671 E0.2845
G1 X40.474 Y64.748 E0.3339
G1 X41.571 Y64.659 E0.3834
G1 X42.636 Y64.407 E0.4325
G1 X43.637 Y63.998 E0.4811
G1 X44.547 Y63.442 E0.5289
G1 X45.335 Y62.753 E0.5760
G1 X45.979 Y61.951 E0.6221
G1 X46.454 Y61.057 E0.6676
G1 X46.744 Y60.100 E0.7125
G1 X46.837 Y59.111 E0.7571
G1 X46.730 Y58.123 E0.8017
G1 X46.426 Y57.169 E0.8467
G1 X45.938 Y56.281 E0.8922
G1 X45.284 Y55.486 E0.9384
G1 X44.485 Y54.806 E0.9855
G1 X43.539 Y54.247 E1.0348
G1 X42.560 Y53.862 E1.0821
G1 X41.460 Y53.618 E1.1327
G1 X40.395 Y53.545 E1.1806
G1 X39.332 Y53.629 E1.2285
G1 X38.300 Y53.868 E1.2761
G1 X38.223 Y53.890 E1.2797
G1 X37.232 Y54.294 E1.3277
G1 X36.322 Y54.851 E1.3756
G1 X35.534 Y55.539 E1.4226
G1 X34.890 Y56.342 E1.4688
G1 X34.415 Y57.235 E1.5142
G1 X34.125 Y58.192 E1.5591
G1 X34.032 Y59.182 E1.6037
G1 X34.139 Y60.170 E1.6484
G1 X34.443 Y61.123 E1.6933
; outer perimeter
G1 X34.812 Y60.965 F4800
G92 E0
G1 X35.263 Y61.786 E0.0421 F1150
G1 X35.872 Y62.525 E0.0850
G1 X36.617 Y63.159 E0.1290
G1 X37.477 Y63.672 E0.1740
G1 X38.426 Y64.047 E0.2198
G1 X39.434 Y64.274 E0.2662
G1 X40.472 Y64.347 E0.3129
G1 X41.508 Y64.263 E0.3596
G1 X42.513 Y64.025 E0.4059
G1 X43.456 Y63.640 E0.4517
G1 X44.309 Y63.118 E0.4966
G1 X45.046 Y62.475 E0.5405
G1 X45.643 Y61.730 E0.5834
G1 X46.083 Y60.904 E0.6254
G1 X46.350 Y60.023 E0.6667
G1 X46.435 Y59.114 E0.7077
G1 X46.337 Y58.206 E0.7487
G1 X46.057 Y57.328 E0.7901
G1 X45.606 Y56.507 E0.8322
G1 X44.997 Y55.768 E0.8751
G1 X44.251 Y55.133 E0.9191
G1 X43.363 Y54.608 E0.9655
G1 X42.443 Y54.245 E1.0099
G1 X41.402 Y54.015 E1.0577
G1 X40.397 Y53.946 E1.1029
G1 X39.394 Y54.026 E1.1482
G1 X38.398 Y54.256 E1.1940
G1 X38.352 Y54.269 E1.1962
G1 X37.413 Y54.653 E1.2417
G1 X36.560 Y55.174 E1.2866
G1 X35.823 Y55.817 E1.3305
G1 X35.226 Y56.563 E1.3734
G1 X34.786 Y57.389 E1.4154
G1 X34.519 Y58.270 E1.4568
G1 X34.434 Y59.179 E1.4978
G1 X34.532 Y60.087 E1.5388
G1 X34.812 Y60.965 E1.5802
G92 E0
G1 E-1.0000 F1800
; inner perimeter
G1 X46.087 Y67.173 F4800
G1 E0.0000 F1800
G92 E0
G1 X45.797 Y68.130 E0.0449 F1725
G1 X45.703 Y69.119 E0.0895
G1 X45.811 Y70.107 E0.1342
G1 X46.115 Y71.061 E0.1791
G1 X46.603 Y71.949 E0.2246
G1 X47.257 Y72.744 E0.2708
G1 X48.055 Y73.424 E0.3179
G1 X48.972 Y73.970 E0.3658
G1 X49.979 Y74.368 E0.4144
G1 X51.047 Y74.608 E0.4636
G1 X52.146 Y74.685 E0.5130
G1 X53.243 Y74.597 E0.5625
G1 X54.308 Y74.345 E0.6116
G1 X55.309 Y73.935 E0.6602
G1 X56.218 Y73.379 E0.7080
G1 X57.007 Y72.691 E0.7550
G1 X57.651 Y71.888 E0.8012
G1 X58.126 Y70.995 E0.8467
G1 X58.416 Y70.038 E0.8916
G1 X58.509 Y69.048 E0.9362
G1 X58.402 Y68.060 E0.9808
G1 X58.098 Y67.107 E1.0258
G1 X57.610 Y66.219 E1.0712
G1 X56.956 Y65.424 E1.1175
G1 X56.157 Y64.744 E1.1646
G1 X55.241 Y64.198 E1.2125
G1 X54.233 Y63.800 E1.2611
G1 X53.165 Y63.559 E1.3103
G1 X52.067 Y63.482 E1.3597
G1 X50.970 Y63.571 E1.4091
G1 X49.905 Y63.823 E1.4583
G1 X48.903 Y64.232 E1.5068
G1 X47.994 Y64.788 E1.5547
G1 X47.205 Y65.477 E1.6017
G1 X46.562 Y66.279 E1.6479
G1 X46.087 Y67.173 E1.6933
; outer perimeter
G1 X46.458 Y67.326 F4800
G92 E0
G1 X46.191 Y68.207 E0.0413 F1150
G1 X46.105 Y69.116 E0.0823
G1 X46.204 Y70.024 E0.1233
G1 X46.484 Y70.902 E0.1647
G1 X46.935 Y71.723 E0.2068
G1 X47.543 Y72.462 E0.2498
G1 X48.289 Y73.097 E0.2937
G1 X49.149 Y73.609 E0.3387
G1 X50.097 Y73.984 E0.3845
G1 X51.106 Y74.212 E0.4309
G1 X52.144 Y74.284 E0.4776
G1 X53.180 Y74.200 E0.5243
G1 X54.185 Y73.963 E0.5707
G1 X55.128 Y73.577 E0.6164
G1 X55.981 Y73.056 E0.6613
G1 X56.717 Y72.413 E0.7052
G1 X57.315 Y71.667 E0.7481
G1 X57.755 Y70.841 E0.7901
G1 X58.022 Y69.960 E0.8314
G1 X58.107 Y69.051 E0.8724
G1 X58.009 Y68.143 E0.9134
G1 X57.729 Y67.265 E0.9548
G1 X57.277 Y66.444 E0.9969
G1 X56.669 Y65.705 E1.0399
G1 X55.924 Y65.070 E1.0838
G1 X55.064 Y64.558 E1.1288
G1 X54.115 Y64.183 E1.1746
G1 X53.107 Y63.956 E1.2210
G1 X52.069 Y63.883 E1.2677
G1 X51.032 Y63.967 E1.3144
G1 X50.028 Y64.205 E1.3608
G1 X49.085 Y64.590 E1.4065
G1 X48.232 Y65.112 E1.4514
G1 X47.495 Y65.755 E1.4953
G1 X46.898 Y66.500 E1.5382
G1 X46.458 Y67.326 E1.5802
; inner perimeter
G1 X43.713 Y74.260 F4800
G92 E0
G1 X42.706 Y73.862 E0.0486 F1725
G1 X41.638 Y73.621 E0.0978
G1 X40.539 Y73.544 E0.1472
G1 X39.442 Y73.633 E0.1967
G1 X38.377 Y73.885 E0.2458
G1 X37.376 Y74.294 E0.2944
G1 X36.467 Y74.850 E0.3422
G1 X35.678 Y75.539 E0.3892
G1 X35.035 Y76.341 E0.4354
G1 X34.559 Y77.235 E0.4809
G1 X34.269 Y78.192 E0.5258
G1 X34.176 Y79.181 E0.5704
G1 X34.283 Y80.169 E0.6150
G1 X34.587 Y81.123 E0.6600
G1 X35.075 Y82.011 E0.7054
G1 X35.729 Y82.806 E0.7517
G1 X36.528 Y83.485 E0.7988
G1 X37.444 Y84.031 E0.8467
G1 X38.452 Y84.430 E0.8953
G1 X39.520 Y84.670 E0.9445
G1 X40.618 Y84.747 E0.9939
G1 X41.715 Y84.659 E1.0433
G1 X42.780 Y84.407 E1.0925
G1 X43.782 Y83.997 E1.1410
G1 X44.691 Y83.441 E1.1889
G1 X45.480 Y82.753 E1.2359
G1 X46.123 Y81.950 E1.2821
G1 X46.598 Y81.057 E1.3275
G1 X46.888 Y80.100 E1.3724
G1 X46.982 Y79.110 E1.4171
G1 X46.874 Y78.122 E1.4617
G1 X46.570 Y77.169 E1.5066
G1 X46.082 Y76.281 E1.5521
G1 X45.428 Y75.486 E1.5983
G1 X44.630 Y74.806 E1.6454
G1 X43.713 Y74.260 E1.6933
; outer perimeter
G1 X43.536 Y74.620 F4800
G92 E0
G1 X42.588 Y74.245 E0.0458 F1150
G1 X41.579 Y74.018 E0.0922
G1 X40.542 Y73.945 E0.1389
G1 X39.505 Y74.029 E0.1856
G1 X38.500 Y74.267 E0.2320
G1 X37.557 Y74.652 E0.2777
G1 X36.704 Y75.174 E0.3226
G1 X35.968 Y75.817 E0.3665
G1 X35.370 Y76.562 E0.4094
G1 X34.931 Y77.388 E0.4514
G1 X34.663 Y78.269 E0.4928
G1 X34.578 Y79.178 E0.5337
G1 X34.677 Y80.086 E0.5748
G1 X34.956 Y80.964 E0.6161
G1 X35.408 Y81.785 E0.6582
G1 X36.016 Y82.524 E0.7012
G1 X36.761 Y83.159 E0.7451
G1 X37.622 Y83.671 E0.7901
G1 X38.570 Y84.046 E0.8359
G1 X39.578 Y84.274 E0.8823
G1 X40.616 Y84.346 E0.9290
G1 X41.653 Y84.262 E0.9757
G1 X42.658 Y84.024 E1.0221
G1 X43.600 Y83.639 E1.0678
G1 X44.453 Y83.118 E1.1127
G1 X45.190 Y82.475 E1.1566
G1 X45.787 Y81.729 E1.1995
G1 X46.227 Y80.903 E1.2415
G1 X46.494 Y80.022 E1.2828
G1 X46.580 Y79.113 E1.3238
G1 X46.481 Y78.205 E1.3648
G1 X46.201 Y77.327 E1.4062
G1 X45.750 Y76.506 E1.4483
G1 X45.142 Y75.767 E1.4913
G1 X44.396 Y75.132 E1.5352
G1 X43.536 Y74.620 E1.5802
G92 E0
G1 E-1.0000 F1800
; inner perimeter
G1 X49.048 Y84.232 F4800
G1 E0.0000 F1800
G92 E0
G1 X48.139 Y84.788 E0.0478 F1725
G1 X47.350 Y85.476 E0.0949
G1 X46.706 Y86.279 E0.1410
G1 X46.231 Y87.172 E0.1865
G1 X45.941 Y88.129 E0.2314
G1 X45.848 Y89.119 E0.2760
G1 X45.955 Y90.107 E0.3206
G1 X46.259 Y91.060 E0.3656
G1 X46.747 Y91.948 E0.4111
G1 X47.401 Y92.743 E0.4573
G1 X48.200 Y93.423 E0.5044
G1 X49.116 Y93.969 E0.5523
G1 X50.123 Y94.367 E0.6009
G1 X51.192 Y94.608 E0.6501
G1 X52.290 Y94.685 E0.6995
G1 X53.387 Y94.596 E0.7489
G1 X54.452 Y94.344 E0.7981
G1 X55.454 Y93.935 E0.8467
G1 X56.363 Y93.379 E0.8945
G1 X57.152 Y92.690 E0.9415
G1 X57.795 Y91.888 E0.9877
G1 X58.270 Y90.994 E1.0332
G1 X58.560 Y90.037 E1.0781
G1 X58.654 Y89.048 E1.1227
G1 X58.546 Y88.060 E1.1673
G1 X58.242 Y87.106 E1.2122
G1 X57.754 Y86.218 E1.2577
G1 X57.100 Y85.423 E1.3040
G1 X56.302 Y84.744 E1.3511
G1 X55.385 Y84.198 E1.3990
G1 X54.378 Y83.799 E1.4476
G1 X53.310 Y83.559 E1.4968
G1 X52.211 Y83.482 E1.5462
G1 X51.114 Y83.570 E1.5956
G1 X50.049 Y83.823 E1.6447
G1 X49.048 Y84.232 E1.6933
; outer perimeter
G1 X49.229 Y84.590 F4800
G92 E0
G1 X48.376 Y85.111 E0.0449 F1150
G1 X47.640 Y85.754 E0.0888
G1 X47.042 Y86.500 E0.1317
G1 X46.602 Y87.326 E0.1737
G1 X46.335 Y88.207 E0.2150
G1 X46.250 Y89.116 E0.2560
G1 X46.348 Y90.024 E0.2970
G1 X46.628 Y90.902 E0.3384
G1 X47.080 Y91.723 E0.3805
G1 X47.688 Y92.462 E0.4235
