; G-Code generated by Simplify3D(R) Version 4.0.0
; Oct 25, 2019 at 11:09:48 PM
; Settings Summary
;   processName,Process1-1-1
;   applyToModels,round_box_140_90_50_0.4s
;   profileName,Default(2) (modified)
;   profileVersion,2019-07-27 15:21:07
;   baseProfile,
;   printMaterial,PLA
;   printQuality,Medium
;   printExtruders,
;   extruderName,Primary Extruder
;   extruderToolheadNumber,0
;   extruderDiameter,0.4
;   extruderAutoWidth,1
;   extruderWidth,0.48
;   extrusionMultiplier,0.9
;   extruderUseRetract,1
;   extruderRetractionDistance,1
;   extruderExtraRestartDistance,0
;   extruderRetractionZLift,0
;   extruderRetractionSpeed,1800
;   extruderUseCoasting,0
;   extruderCoastingDistance,0.2
;   extruderUseWipe,0
;   extruderWipeDistance,5
;   primaryExtruder,0
;   layerHeight,0.3
;   topSolidLayers,3
;   bottomSolidLayers,2
;   perimeterOutlines,2
;   printPerimetersInsideOut,1
;   startPointOption,2
;   startPointOriginX,0
;   startPointOriginY,0
;   sequentialIslands,0
;   spiralVaseMode,0
;   firstLayerHeightPercentage,90
;   firstLayerWidthPercentage,100
;   firstLayerUnderspeed,0.5
;   useRaft,0
;   raftExtruder,0
;   raftTopLayers,3
;   raftBaseLayers,2
;   raftOffset,3
;   raftSeparationDistance,0.14
;   raftTopInfill,100
;   aboveRaftSpeedMultiplier,0.3
;   useSkirt,0
;   skirtExtruder,0
;   skirtLayers,1
;   skirtOutlines,2
;   skirtOffset,4
;   usePrimePillar,0
;   primePillarExtruder,999
;   primePillarWidth,12
;   primePillarLocation,7
;   primePillarSpeedMultiplier,1
;   useOozeShield,0
;   oozeShieldExtruder,999
;   oozeShieldOffset,2
;   oozeShieldOutlines,1
;   oozeShieldSidewallShape,1
;   oozeShieldSidewallAngle,30
;   oozeShieldSpeedMultiplier,1
;   infillExtruder,0
;   internalInfillPattern,Rectilinear
;   externalInfillPattern,Rectilinear
;   infillPercentage,10
;   outlineOverlapPercentage,15
;   infillExtrusionWidthPercentage,100
;   minInfillLength,5
;   infillLayerInterval,1
;   internalInfillAngles,45,-45
;   overlapInternalInfillAngles,0
;   externalInfillAngles,45,-45
;   generateSupport,0
;   supportExtruder,0
;   supportInfillPercentage,30
;   supportExtraInflation,0
;   supportBaseLayers,0
;   denseSupportExtruder,0
;   denseSupportLayers,0
;   denseSupportInfillPercentage,70
;   supportLayerInterval,1
;   supportHorizontalPartOffset,0.3
;   supportUpperSeparationLayers,1
;   supportLowerSeparationLayers,1
;   supportType,0
;   supportGridSpacing,4
;   maxOverhangAngle,45
;   supportAngles,0
;   temperatureName,Primary Extruder,Hot Bed
;   temperatureNumber,0,1
;   temperatureSetpointCount,1,1
;   temperatureSetpointLayers,1,1
;   temperatureSetpointTemperatures,200,60
;   temperatureStabilizeAtStartup,1,0
;   temperatureHeatedBed,0,1
;   temperatureRelayBetweenLayers,0,0
;   temperatureRelayBetweenLoops,0,0
;   fanLayers,1,2
;   fanSpeeds,0,100
;   blipFanToFullPower,0
;   adjustSpeedForCooling,1
;   minSpeedLayerTime,15
;   minCoolingSpeedSlowdown,20
;   increaseFanForCooling,0
;   minFanLayerTime,45
;   maxCoolingFanSpeed,100
;   increaseFanForBridging,0
;   bridgingFanSpeed,100
;   use5D,1
;   relativeEdistances,0
;   allowEaxisZeroing,1
;   independentExtruderAxes,0
;   includeM10123,0
;   stickySupport,1
;   applyToolheadOffsets,0
;   gcodeXoffset,-9
;   gcodeYoffset,-4
;   gcodeZoffset,0
;   overrideMachineDefinition,0
;   machineTypeOverride,0
;   strokeXoverride,200
;   strokeYoverride,200
;   strokeZoverride,200
;   originOffsetXoverride,0
;   originOffsetYoverride,0
;   originOffsetZoverride,0
;   homeXdirOverride,-1
;   homeYdirOverride,-1
;   homeZdirOverride,-1
;   flipXoverride,1
;   flipYoverride,-1
;   flipZoverride,1
;   toolheadOffsets,0,0|0,0|0,0|0,0|0,0|0,0
;   overrideFirmwareConfiguration,0
;   firmwareTypeOverride,RepRap (Marlin/Repetier/Sprinter)
;   GPXconfigOverride,r2
;   baudRateOverride,115200
;   overridePrinterModels,0
;   printerModelsOverride
;   startingGcode,G28 ; home all axes,G1 X2 Y15 Z0.2 F3000 ; get ready to prime,G92 E0 ; reset extrusion distance,G1 Y150 E20 F600 ; prime nozzle
;   layerChangeGcode,
;   retractionGcode,
;   toolChangeGcode,
;   endingGcode,M104 S0 ; turn off extruder,M140 S0 ; turn off bed,G28 X Y ; home X & Y,M84 ; disable motors,M107; Fan off
;   exportFileFormat,gcode
;   celebration,0
;   celebrationSong,Random Song
;   postProcessing,
;   defaultSpeed,4000
;   outlineUnderspeed,0.5
;   solidInfillUnderspeed,0.8
;   supportUnderspeed,0.8
;   rapidXYspeed,4800
;   rapidZspeed,1000
;   minBridgingArea,50
;   bridgingExtraInflation,0
;   bridgingExtrusionMultiplier,1
;   bridgingSpeedMultiplier,1
;   useFixedBridgingAngle,0
;   fixedBridgingAngle,0
;   applyBridgingToPerimeters,0
;   filamentDiameters,1.75|1.75|1.75|1.75|1.75|1.75
;   filamentPricesPerKg,46|46|46|46|46|46
;   filamentDensities,1.25|1.25|1.25|1.25|1.25|1.25
;   useMinPrintHeight,0
;   minPrintHeight,45.2
;   useMaxPrintHeight,1
;   maxPrintHeight,46.5
;   useDiaphragm,0
;   diaphragmLayerInterval,20
;   robustSlicing,1
;   mergeAllIntoSolid,0
;   onlyRetractWhenCrossingOutline,1
;   retractBetweenLayers,1
;   useRetractionMinTravel,0
;   retractionMinTravel,3
;   retractWhileWiping,0
;   onlyWipeOutlines,1
;   avoidCrossingOutline,0
;   maxMovementDetourFactor,3
;   toolChangeRetractionDistance,12
;   toolChangeExtraRestartDistance,-0.5
;   toolChangeRetractionSpeed,600
;   externalThinWallType,1
;   internalThinWallType,2
;   thinWallAllowedOverlapPercentage,10
;   singleExtrusionMinLength,1
;   singleExtrusionMinPrintingWidthPercentage,50
;   singleExtrusionMaxPrintingWidthPercentage,200
;   singleExtrusionEndpointExtension,0.2
;   horizontalSizeCompensation,0
G90
M82
M106 S0
M140 S60
M104 S200 T0
M109 S200 T0
G28 ; home all axes
G1 X2 Y15 Z0.2 F3000 ; get ready to prime
G92 E0 ; reset extrusion distance
G1 Y150 E20 F600 ; prime nozzle
G92 E0
G1 E-1.0000 F1800
G1 Z0.270 F1000
; process Process1-1-1
; layer 1, Z = 0.270
T0
; tool H0.300 W0.480
; inner perimeter
G1 X39.360 Y65.295 F4800
G1 E0.0000 F540
G92 E0
G1 X40.177 Y64.933 E0.0481 F1500
G1 X41.051 Y64.748 E0.0963
G1 X183.947 Y64.748 E7.7957
G1 X184.821 Y64.933 E7.8438
G1 X185.636 Y65.295 E7.8919
G1 X186.361 Y65.822 E7.9402
G1 X186.958 Y66.485 E7.9883
G1 X187.405 Y67.258 E8.0364
G1 X187.681 Y68.108 E8.0845
G1 X187.780 Y69.035 E8.1348
G1 X187.780 Y155.962 E12.8185
G1 X187.682 Y156.885 E12.8685
G1 X187.407 Y157.737 E12.9168
G1 X186.960 Y158.512 E12.9650
G1 X186.363 Y159.176 E13.0131
G1 X185.637 Y159.703 E13.0614
G1 X184.820 Y160.065 E13.1096
G1 X183.946 Y160.252 E13.1577
G1 X41.052 Y160.252 E20.8571
G1 X40.177 Y160.065 E20.9053
G1 X39.359 Y159.703 E20.9535
G1 X38.636 Y159.178 E21.0016
G1 X38.042 Y158.517 E21.0495
G1 X37.595 Y157.742 E21.0977
G1 X37.317 Y156.890 E21.1460
G1 X37.220 Y155.965 E21.1961
G1 X37.220 Y69.037 E25.8799
G1 X37.316 Y68.113 E25.9300
G1 X37.593 Y67.263 E25.9782
G1 X38.039 Y66.487 E26.0264
G1 X38.635 Y65.823 E26.0744
G1 X39.360 Y65.295 E26.1228
; outer perimeter
G1 X39.119 Y64.877 F4800
G92 E0
G1 X40.028 Y64.474 E0.0536 F1000
G1 X41.001 Y64.268 E0.1072
G1 X183.997 Y64.268 E7.8120
G1 X184.970 Y64.474 E7.8656
G1 X185.877 Y64.877 E7.9191
G1 X186.684 Y65.463 E7.9728
G1 X187.349 Y66.202 E8.0264
G1 X187.846 Y67.062 E8.0799
G1 X188.153 Y68.007 E8.1335
G1 X188.260 Y69.010 E8.1878
G1 X188.260 Y155.987 E12.8743
G1 X188.154 Y156.985 E12.9283
G1 X187.848 Y157.933 E12.9820
G1 X187.350 Y158.796 E13.0357
G1 X186.686 Y159.535 E13.0892
G1 X185.878 Y160.121 E13.1430
G1 X184.969 Y160.524 E13.1966
G1 X183.997 Y160.732 E13.2501
G1 X41.001 Y160.732 E20.9549
G1 X40.028 Y160.524 E21.0085
G1 X39.118 Y160.121 E21.0622
G1 X38.313 Y159.537 E21.1158
G1 X37.651 Y158.800 E21.1691
G1 X37.154 Y157.938 E21.2228
G1 X36.845 Y156.990 E21.2765
G1 X36.740 Y155.990 E21.3307
G1 X36.740 Y69.012 E26.0171
G1 X36.844 Y68.013 E26.0713
G1 X37.152 Y67.067 E26.1249
G1 X37.648 Y66.204 E26.1785
G1 X38.312 Y65.465 E26.2320
G1 X39.119 Y64.877 E26.2858
; solid layer
G1 X40.122 Y159.594 F4800
G92 E0
G1 X37.905 Y157.378 E0.1689 F1600
G1 X37.718 Y156.805 E0.2014
G1 X37.684 Y156.478 E0.2191
G1 X41.038 Y159.832 E0.4746
G1 X41.095 Y159.844 E0.4778
G1 X41.729 Y159.844 E0.5119
G1 X37.628 Y155.743 E0.8244
G1 X37.628 Y155.065 E0.8610
G1 X42.408 Y159.844 E1.2252
G1 X43.087 Y159.844 E1.2617
G1 X37.628 Y154.386 E1.6777
G1 X37.628 Y153.707 E1.7142
G1 X43.765 Y159.844 E2.1819
G1 X44.444 Y159.844 E2.2185
G1 X37.628 Y153.028 E2.7378
G1 X37.628 Y152.349 E2.7744
G1 X45.123 Y159.844 E3.3455
G1 X45.802 Y159.844 E3.3821
G1 X37.628 Y151.670 E4.0049
G1 X37.628 Y150.992 E4.0415
G1 X46.481 Y159.844 E4.7160
G1 X47.159 Y159.844 E4.7526
G1 X37.628 Y150.313 E5.4789
G1 X37.628 Y149.634 E5.5154
G1 X47.838 Y159.844 E6.2935
G1 X48.517 Y159.844 E6.3300
G1 X37.628 Y148.955 E7.1598
G1 X37.628 Y148.276 E7.1963
G1 X49.196 Y159.844 E8.0778
G1 X49.875 Y159.844 E8.1144
G1 X37.628 Y147.598 E9.0475
G1 X37.628 Y146.919 E9.0841
G1 X50.554 Y159.844 E10.0690
G1 X51.232 Y159.844 E10.1056
G1 X37.628 Y146.240 E11.1422
G1 X37.628 Y145.561 E11.1788
G1 X51.911 Y159.844 E12.2672
G1 X52.590 Y159.844 E12.3038
G1 X37.628 Y144.882 E13.4438
G1 X37.628 Y144.203 E13.4804
G1 X53.269 Y159.844 E14.6722
G1 X53.948 Y159.844 E14.7088
G1 X37.628 Y143.525 E15.9523
G1 X37.628 Y142.846 E15.9889
G1 X54.627 Y159.844 E17.2842
G1 X55.305 Y159.844 E17.3208
G1 X37.628 Y142.167 E18.6678
G1 X37.628 Y141.488 E18.7043
G1 X55.984 Y159.844 E20.1031
G1 X56.663 Y159.844 E20.1396
G1 X37.628 Y140.809 E21.5901
G1 X37.628 Y140.130 E21.6266
G1 X57.342 Y159.844 E23.1288
G1 X58.021 Y159.844 E23.1654
G1 X37.628 Y139.452 E24.7193
G1 X37.628 Y138.773 E24.7559
G1 X58.699 Y159.844 E26.3615
G1 X59.378 Y159.844 E26.3981
G1 X37.628 Y138.094 E28.0554
G1 X37.628 Y137.415 E28.0920
G1 X60.057 Y159.844 E29.8011
G1 X60.736 Y159.844 E29.8376
G1 X37.628 Y136.736 E31.5985
G1 X37.628 Y136.057 E31.6350
G1 X61.415 Y159.844 E33.4476
G1 X62.094 Y159.844 E33.4841
G1 X37.628 Y135.379 E35.3484
G1 X37.628 Y134.700 E35.3850
G1 X62.772 Y159.844 E37.3009
G1 X63.451 Y159.844 E37.3375
G1 X37.628 Y134.021 E39.3052
G1 X37.628 Y133.342 E39.3418
G1 X64.130 Y159.844 E41.3612
G1 X64.809 Y159.844 E41.3978
G1 X37.628 Y132.663 E43.4690
G1 X37.628 Y131.985 E43.5056
G1 X65.488 Y159.844 E45.6284
G1 X66.167 Y159.844 E45.6650
G1 X37.628 Y131.306 E47.8396
G1 X37.628 Y130.627 E47.8762
G1 X66.845 Y159.844 E50.1025
G1 X67.524 Y159.844 E50.1391
G1 X37.628 Y129.948 E52.4172
G1 X37.628 Y129.269 E52.4538
G1 X68.203 Y159.844 E54.7836
G1 X68.882 Y159.844 E54.8201
G1 X37.628 Y128.590 E57.2017
G1 X37.628 Y127.912 E57.2382
G1 X69.561 Y159.844 E59.6715
G1 X70.239 Y159.844 E59.7081
G1 X37.628 Y127.233 E62.1930
G1 X37.628 Y126.554 E62.2296
G1 X70.918 Y159.844 E64.7663
G1 X71.597 Y159.844 E64.8029
G1 X37.628 Y125.875 E67.3913
G1 X37.628 Y125.196 E67.4279
G1 X72.276 Y159.844 E70.0680
G1 X72.955 Y159.844 E70.1046
G1 X37.628 Y124.517 E72.7965
G1 X37.628 Y123.839 E72.8331
G1 X73.634 Y159.844 E75.5767
G1 X74.312 Y159.844 E75.6132
G1 X37.628 Y123.160 E78.4086
G1 X37.628 Y122.481 E78.4451
G1 X74.991 Y159.844 E81.2922
G1 X75.670 Y159.844 E81.3288
G1 X37.628 Y121.802 E84.2276
G1 X37.628 Y121.123 E84.2641
G1 X76.349 Y159.844 E87.2146
G1 X77.028 Y159.844 E87.2512
G1 X37.628 Y120.445 E90.2535
G1 X37.628 Y119.766 E90.2900
G1 X77.706 Y159.844 E93.3440
G1 X78.385 Y159.844 E93.3806
G1 X37.628 Y119.087 E96.4863
G1 X37.628 Y118.408 E96.5228
G1 X79.064 Y159.844 E99.6802
G1 X79.743 Y159.844 E99.7168
G1 X37.628 Y117.729 E102.9260
G1 X37.628 Y117.050 E102.9625
G1 X80.422 Y159.844 E106.2234
G1 X81.101 Y159.844 E106.2600
G1 X37.628 Y116.372 E109.5726
G1 X37.628 Y115.693 E109.6091
G1 X81.779 Y159.844 E112.9735
G1 X82.458 Y159.844 E113.0100
G1 X37.628 Y115.014 E116.4261
G1 X37.628 Y114.335 E116.4627
G1 X83.137 Y159.844 E119.9304
G1 X83.816 Y159.844 E119.9670
G1 X37.628 Y113.656 E123.4865
G1 X37.628 Y112.977 E123.5231
G1 X84.495 Y159.844 E127.0943
G1 X85.174 Y159.844 E127.1309
G1 X37.628 Y112.299 E130.7538
G1 X37.628 Y111.620 E130.7904
G1 X85.852 Y159.844 E134.4651
G1 X86.531 Y159.844 E134.5017
G1 X37.628 Y110.941 E138.2281
G1 X37.628 Y110.262 E138.2646
G1 X87.210 Y159.844 E142.0428
G1 X87.889 Y159.844 E142.0794
G1 X37.628 Y109.583 E145.9092
G1 X37.628 Y108.904 E145.9458
G1 X88.568 Y159.844 E149.8274
G1 X89.246 Y159.844 E149.8639
G1 X37.628 Y108.226 E153.7973
G1 X37.628 Y107.547 E153.8338
G1 X89.925 Y159.844 E157.8189
G1 X90.604 Y159.844 E157.8554
G1 X37.628 Y106.868 E161.8922
G1 X37.628 Y106.189 E161.9288
G1 X91.283 Y159.844 E166.0173
G1 X91.962 Y159.844 E166.0538
G1 X37.628 Y105.510 E170.1941
G1 X37.628 Y104.832 E170.2306
G1 X92.641 Y159.844 E174.4226
G1 X93.319 Y159.844 E174.4592
G1 X37.628 Y104.153 E178.7028
G1 X37.628 Y103.474 E178.7394
G1 X93.998 Y159.844 E183.0348
G1 X94.677 Y159.844 E183.0714
G1 X37.628 Y102.795 E187.4185
G1 X37.628 Y102.116 E187.4551
G1 X95.356 Y159.844 E191.8539
G1 X96.035 Y159.844 E191.8905
G1 X37.628 Y101.437 E196.3411
G1 X37.628 Y100.759 E196.3776
G1 X96.714 Y159.844 E200.8799
G1 X97.392 Y159.844 E200.9165
G1 X37.628 Y100.080 E205.4705
G1 X37.628 Y99.401 E205.5071
G1 X98.071 Y159.844 E210.1129
G1 X98.750 Y159.844 E210.1494
G1 X37.628 Y98.722 E214.8069
G1 X37.628 Y98.043 E214.8435
G1 X99.429 Y159.844 E219.5527
G1 X100.108 Y159.844 E219.5893
G1 X37.628 Y97.364 E224.3502
G1 X37.628 Y96.686 E224.3868
G1 X100.786 Y159.844 E229.1994
G1 X101.465 Y159.844 E229.2360
G1 X37.628 Y96.007 E234.1004
G1 X37.628 Y95.328 E234.1370
G1 X102.144 Y159.844 E239.0531
G1 X102.823 Y159.844 E239.0897
G1 X37.628 Y94.649 E244.0575
G1 X37.628 Y93.970 E244.0941
G1 X103.502 Y159.844 E249.1136
G1 X104.181 Y159.844 E249.1502
G1 X37.628 Y93.292 E254.2215
G1 X37.628 Y92.613 E254.2581
G1 X104.859 Y159.844 E259.3811
G1 X105.538 Y159.844 E259.4177
G1 X37.628 Y91.934 E264.5924
G1 X37.628 Y91.255 E264.6290
G1 X106.217 Y159.844 E269.8554
G1 X106.896 Y159.844 E269.8920
G1 X37.628 Y90.576 E275.1702
G1 X37.628 Y89.897 E275.2068
G1 X107.575 Y159.844 E280.5367
G1 X108.254 Y159.844 E280.5733
G1 X37.628 Y89.219 E285.9549
G1 X37.628 Y88.540 E285.9915
G1 X108.932 Y159.844 E291.4249
G1 X109.611 Y159.844 E291.4615
G1 X37.628 Y87.861 E296.9466
G1 X37.628 Y87.182 E296.9831
G1 X110.290 Y159.844 E302.5200
G1 X110.969 Y159.844 E302.5565
G1 X37.628 Y86.503 E308.1451
G1 X37.628 Y85.824 E308.1817
G1 X111.648 Y159.844 E313.8219
G1 X112.326 Y159.844 E313.8585
G1 X37.628 Y85.146 E319.5505
G1 X37.628 Y84.467 E319.5871
G1 X113.005 Y159.844 E325.3308
G1 X113.684 Y159.844 E325.3674
G1 X37.628 Y83.788 E331.1629
G1 X37.628 Y83.109 E331.1994
G1 X114.363 Y159.844 E337.0466
G1 X115.042 Y159.844 E337.0832
G1 X37.628 Y82.430 E342.9821
G1 X37.628 Y81.752 E343.0187
G1 X115.721 Y159.844 E348.9693
G1 X116.399 Y159.844 E349.0059
G1 X37.628 Y81.073 E355.0083
G1 X37.628 Y80.394 E355.0448
G1 X117.078 Y159.844 E361.0989
G1 X117.757 Y159.844 E361.1355
G1 X37.628 Y79.715 E367.2413
G1 X37.628 Y79.036 E367.2779
G1 X118.436 Y159.844 E373.4354
G1 X119.115 Y159.844 E373.4720
G1 X37.628 Y78.357 E379.6813
G1 X37.628 Y77.679 E379.7178
G1 X119.793 Y159.844 E385.9788
G1 X120.472 Y159.844 E386.0154
G1 X37.628 Y77.000 E392.3281
G1 X37.628 Y76.321 E392.3647
G1 X121.151 Y159.844 E398.7292
G1 X121.830 Y159.844 E398.7657
G1 X37.628 Y75.642 E405.1819
G1 X37.628 Y74.963 E405.2185
G1 X122.509 Y159.844 E411.6864
G1 X123.188 Y159.844 E411.7230
G1 X37.628 Y74.284 E418.2426
G1 X37.628 Y73.606 E418.2792
G1 X123.866 Y159.844 E424.8505
G1 X124.545 Y159.844 E424.8871
G1 X37.628 Y72.927 E431.5102
G1 X37.628 Y72.248 E431.5467
G1 X125.224 Y159.844 E438.2216
G1 X125.903 Y159.844 E438.2581
G1 X37.628 Y71.569 E444.9847
G1 X37.628 Y70.890 E445.0212
G1 X126.582 Y159.844 E451.7995
G1 X127.261 Y159.844 E451.8361
G1 X37.628 Y70.211 E458.6661
G1 X37.628 Y69.533 E458.7026
G1 X127.939 Y159.844 E465.5843
G1 X128.618 Y159.844 E465.6209
G1 X37.647 Y68.873 E472.5529
G1 X37.711 Y68.258 E472.5862
G1 X129.297 Y159.844 E479.5650
G1 X129.976 Y159.844 E479.6016
G1 X37.868 Y67.736 E486.6202
G1 X37.967 Y67.429 E486.6376
G1 X38.067 Y67.256 E486.6484
G1 X130.655 Y159.844 E493.7035
G1 X131.333 Y159.844 E493.7401
G1 X38.315 Y66.825 E500.8281
G1 X38.371 Y66.728 E500.8342
