; G-Code generated by Simplify3D(R) Version 4.0.0
; Oct 25, 2019 at 7:01:50 PM
; Settings Summary
;   processName,Process2
;   applyToModels,round_box_with_lid_140_90_50_0.4
;   profileName,Default(2) (modified)
;   profileVersion,2019-07-27 15:21:07
;   baseProfile,
;   printMaterial,PLA
;   printQuality,Medium
;   printExtruders,
;   extruderName,Primary Extruder
;   extruderToolheadNumber,0
;   extruderDiameter,0.4
;   extruderAutoWidth,1
;   extruderWidth,0.48
;   extrusionMultiplier,0.9
;   extruderUseRetract,1
;   extruderRetractionDistance,1
;   extruderExtraRestartDistance,0
;   extruderRetractionZLift,0
;   extruderRetractionSpeed,1800
;   extruderUseCoasting,0
;   extruderCoastingDistance,0.2
;   extruderUseWipe,0
;   extruderWipeDistance,5
;   primaryExtruder,0
;   layerHeight,0.2
;   topSolidLayers,3
;   bottomSolidLayers,2
;   perimeterOutlines,2
;   printPerimetersInsideOut,1
;   startPointOption,2
;   startPointOriginX,0
;   startPointOriginY,0
;   sequentialIslands,0
;   spiralVaseMode,0
;   firstLayerHeightPercentage,90
;   firstLayerWidthPercentage,100
;   firstLayerUnderspeed,0.5
;   useRaft,0
;   raftExtruder,0
;   raftTopLayers,3
;   raftBaseLayers,2
;   raftOffset,3
;   raftSeparationDistance,0.14
;   raftTopInfill,100
;   aboveRaftSpeedMultiplier,0.3
;   useSkirt,0
;   skirtExtruder,0
;   skirtLayers,1
;   skirtOutlines,2
;   skirtOffset,4
;   usePrimePillar,0
;   primePillarExtruder,999
;   primePillarWidth,12
;   primePillarLocation,7
;   primePillarSpeedMultiplier,1
;   useOozeShield,0
;   oozeShieldExtruder,999
;   oozeShieldOffset,2
;   oozeShieldOutlines,1
;   oozeShieldSidewallShape,1
;   oozeShieldSidewallAngle,30
;   oozeShieldSpeedMultiplier,1
;   infillExtruder,0
;   internalInfillPattern,Rectilinear
;   externalInfillPattern,Rectilinear
;   infillPercentage,10
;   outlineOverlapPercentage,15
;   infillExtrusionWidthPercentage,100
;   minInfillLength,5
;   infillLayerInterval,1
;   internalInfillAngles,45,-45
;   overlapInternalInfillAngles,0
;   externalInfillAngles,45,-45
;   generateSupport,0
;   supportExtruder,0
;   supportInfillPercentage,30
;   supportExtraInflation,0
;   supportBaseLayers,0
;   denseSupportExtruder,0
;   denseSupportLayers,0
;   denseSupportInfillPercentage,70
;   supportLayerInterval,1
;   supportHorizontalPartOffset,0.3
;   supportUpperSeparationLayers,1
;   supportLowerSeparationLayers,1
;   supportType,0
;   supportGridSpacing,4
;   maxOverhangAngle,45
;   supportAngles,0
;   temperatureName,Primary Extruder,Hot Bed
;   temperatureNumber,0,1
;   temperatureSetpointCount,1,1
;   temperatureSetpointLayers,1,1
;   temperatureSetpointTemperatures,200,60
;   temperatureStabilizeAtStartup,1,0
;   temperatureHeatedBed,0,1
;   temperatureRelayBetweenLayers,0,0
;   temperatureRelayBetweenLoops,0,0
;   fanLayers,1,2
;   fanSpeeds,0,100
;   blipFanToFullPower,0
;   adjustSpeedForCooling,1
;   minSpeedLayerTime,15
;   minCoolingSpeedSlowdown,20
;   increaseFanForCooling,0
;   minFanLayerTime,45
;   maxCoolingFanSpeed,100
;   increaseFanForBridging,0
;   bridgingFanSpeed,100
;   use5D,1
;   relativeEdistances,0
;   allowEaxisZeroing,1
;   independentExtruderAxes,0
;   includeM10123,0
;   stickySupport,1
;   applyToolheadOffsets,0
;   gcodeXoffset,-9
;   gcodeYoffset,-4
;   gcodeZoffset,0
;   overrideMachineDefinition,0
;   machineTypeOverride,0
;   strokeXoverride,200
;   strokeYoverride,200
;   strokeZoverride,200
;   originOffsetXoverride,0
;   originOffsetYoverride,0
;   originOffsetZoverride,0
;   homeXdirOverride,-1
;   homeYdirOverride,-1
;   homeZdirOverride,-1
;   flipXoverride,1
;   flipYoverride,-1
;   flipZoverride,1
;   toolheadOffsets,0,0|0,0|0,0|0,0|0,0|0,0
;   overrideFirmwareConfiguration,0
;   firmwareTypeOverride,RepRap (Marlin/Repetier/Sprinter)
;   GPXconfigOverride,r2
;   baudRateOverride,115200
;   overridePrinterModels,0
;   printerModelsOverride
;   startingGcode,G28 ; home all axes,G1 X2 Y15 Z0.2 F3000 ; get ready to prime,G92 E0 ; reset extrusion distance,G1 Y150 E20 F600 ; prime nozzle
;   layerChangeGcode,
;   retractionGcode,
;   toolChangeGcode,
;   endingGcode,M104 S0 ; turn off extruder,M140 S0 ; turn off bed,G28 X Y ; home X & Y,M84 ; disable motors,M107; Fan off
;   exportFileFormat,gcode
;   celebration,0
;   celebrationSong,Random Song
;   postProcessing,
;   defaultSpeed,4000
;   outlineUnderspeed,0.5
;   solidInfillUnderspeed,0.8
;   supportUnderspeed,0.8
;   rapidXYspeed,4800
;   rapidZspeed,1000
;   minBridgingArea,50
;   bridgingExtraInflation,0
;   bridgingExtrusionMultiplier,1
;   bridgingSpeedMultiplier,1
;   useFixedBridgingAngle,0
;   fixedBridgingAngle,0
;   applyBridgingToPerimeters,0
;   filamentDiameters,1.75|1.75|1.75|1.75|1.75|1.75
;   filamentPricesPerKg,46|46|46|46|46|46
;   filamentDensities,1.25|1.25|1.25|1.25|1.25|1.25
;   useMinPrintHeight,0
;   minPrintHeight,0
;   useMaxPrintHeight,0
;   maxPrintHeight,0
;   useDiaphragm,0
;   diaphragmLayerInterval,20
;   robustSlicing,1
;   mergeAllIntoSolid,0
;   onlyRetractWhenCrossingOutline,1
;   retractBetweenLayers,1
;   useRetractionMinTravel,0
;   retractionMinTravel,3
;   retractWhileWiping,0
;   onlyWipeOutlines,1
;   avoidCrossingOutline,0
;   maxMovementDetourFactor,3
;   toolChangeRetractionDistance,12
;   toolChangeExtraRestartDistance,-0.5
;   toolChangeRetractionSpeed,600
;   externalThinWallType,1
;   internalThinWallType,2
;   thinWallAllowedOverlapPercentage,10
;   singleExtrusionMinLength,1
;   singleExtrusionMinPrintingWidthPercentage,50
;   singleExtrusionMaxPrintingWidthPercentage,200
;   singleExtrusionEndpointExtension,0.2
;   horizontalSizeCompensation,0
G90
M82
M106 S0
M140 S60
M104 S200 T0
M109 S200 T0
G28 ; home all axes
G1 X2 Y15 Z0.2 F3000 ; get ready to prime
G92 E0 ; reset extrusion distance
G1 Y150 E20 F600 ; prime nozzle
G92 E0
G1 E-1.0000 F1800
G1 Z0.180 F1000
; process Process2
; layer 1, Z = 0.180
T0
; tool H0.200 W0.480
; inner perimeter
G1 X37.421 Y17.830 F4800
G1 E0.0000 F540
G92 E0
G1 X37.659 Y17.418 E0.0171 F1500
G1 X37.977 Y17.064 E0.0342
G1 X38.362 Y16.784 E0.0513
G1 X38.797 Y16.591 E0.0684
G1 X39.262 Y16.492 E0.0855
G1 X183.738 Y16.492 E5.2752
G1 X184.203 Y16.591 E5.2923
G1 X184.638 Y16.784 E5.3093
G1 X185.023 Y17.064 E5.3264
G1 X185.342 Y17.418 E5.3435
G1 X185.579 Y17.830 E5.3606
G1 X185.726 Y18.282 E5.3777
G1 X185.780 Y18.793 E5.3962
G1 X185.780 Y105.218 E8.5006
G1 X185.726 Y105.729 E8.5191
G1 X185.579 Y106.181 E8.5362
G1 X185.341 Y106.593 E8.5533
G1 X185.023 Y106.947 E8.5704
G1 X184.638 Y107.227 E8.5874
G1 X184.203 Y107.420 E8.6045
G1 X183.738 Y107.519 E8.6216
G1 X39.262 Y107.519 E13.8113
G1 X38.797 Y107.420 E13.8284
G1 X38.362 Y107.227 E13.8455
G1 X37.977 Y106.947 E13.8626
G1 X37.659 Y106.593 E13.8797
G1 X37.421 Y106.181 E13.8968
G1 X37.274 Y105.729 E13.9139
G1 X37.220 Y105.218 E13.9323
G1 X37.220 Y18.793 E17.0368
G1 X37.274 Y18.282 E17.0552
G1 X37.421 Y17.830 E17.0723
; outer perimeter
G1 X36.980 Y17.633 F4800
G92 E0
G1 X37.268 Y17.134 E0.0207 F1000
G1 X37.654 Y16.705 E0.0414
G1 X38.121 Y16.366 E0.0622
G1 X38.648 Y16.132 E0.0829
G1 X39.212 Y16.012 E0.1036
G1 X183.789 Y16.012 E5.2969
G1 X184.352 Y16.132 E5.3176
G1 X184.879 Y16.366 E5.3383
G1 X185.346 Y16.705 E5.3591
G1 X185.732 Y17.134 E5.3798
G1 X186.020 Y17.633 E5.4005
G1 X186.198 Y18.182 E5.4212
G1 X186.260 Y18.768 E5.4424
G1 X186.260 Y105.243 E8.5486
G1 X186.198 Y105.829 E8.5698
G1 X186.020 Y106.378 E8.5905
G1 X185.732 Y106.877 E8.6112
G1 X185.346 Y107.306 E8.6320
G1 X184.879 Y107.645 E8.6527
G1 X184.352 Y107.879 E8.6734
G1 X183.789 Y107.999 E8.6941
G1 X39.212 Y107.999 E13.8874
G1 X38.648 Y107.879 E13.9082
G1 X38.121 Y107.645 E13.9289
G1 X37.654 Y107.306 E13.9496
G1 X37.268 Y106.877 E13.9703
G1 X36.980 Y106.378 E13.9910
G1 X36.802 Y105.829 E14.0117
G1 X36.740 Y105.243 E14.0329
G1 X36.740 Y18.768 E17.1392
G1 X36.802 Y18.182 E17.1603
G1 X36.980 Y17.633 E17.1811
; inner perimeter
G1 X182.945 Y61.259 F4800
G92 E0
G1 X182.945 Y62.752 E0.0536 F1500
G1 X183.587 Y63.684 E0.0943
G1 X184.599 Y63.370 E0.1324
G1 X184.599 Y60.641 E0.2304
G1 X183.587 Y60.327 E0.2685
G1 X182.945 Y61.259 E0.3091
; outer perimeter
G1 X183.425 Y61.408 F4800
G92 E0
G1 X183.425 Y62.603 E0.0429 F1000
G1 X183.782 Y63.121 E0.0655
G1 X184.119 Y63.016 E0.0782
G1 X184.119 Y60.995 E0.1508
G1 X183.782 Y60.890 E0.1635
G1 X183.425 Y61.408 E0.1861
G92 E0
G1 E-1.0000 F1800
; solid layer
G1 X185.007 Y61.462 F4800
G1 E0.0000 F1800
G92 E0
G1 X185.372 Y61.826 E0.0185 F1600
G1 X185.372 Y62.505 E0.0429
G1 X185.007 Y62.140 E0.0614
G1 X185.007 Y62.819 E0.0858
G1 X185.372 Y63.184 E0.1043
G1 X185.372 Y63.863 E0.1287
G1 X185.007 Y63.498 E0.1472
G1 X185.007 Y63.670 E0.1534
G1 X184.621 Y63.790 E0.1680
G1 X185.372 Y64.542 E0.2061
G1 X185.372 Y65.220 E0.2305
G1 X184.103 Y63.951 E0.2950
G1 X183.943 Y16.953 F4800
G92 E0
G1 X185.309 Y18.318 E0.0694 F1600
G1 X185.325 Y18.367 E0.0712
G1 X185.372 Y18.815 E0.0874
G1 X185.372 Y19.060 E0.0962
G1 X183.211 Y16.900 E0.2060
G1 X182.533 Y16.900 E0.2304
G1 X185.372 Y19.739 E0.3746
G1 X185.372 Y20.418 E0.3990
G1 X181.854 Y16.900 E0.5777
G1 X181.175 Y16.900 E0.6021
G1 X185.372 Y21.097 E0.8153
G1 X185.372 Y21.776 E0.8397
G1 X180.496 Y16.900 E1.0874
G1 X179.817 Y16.900 E1.1118
G1 X185.372 Y22.455 E1.3939
G1 X185.372 Y23.133 E1.4183
G1 X179.138 Y16.900 E1.7350
G1 X178.460 Y16.900 E1.7594
G1 X185.372 Y23.812 E2.1105
G1 X185.372 Y24.491 E2.1349
G1 X177.781 Y16.900 E2.5205
G1 X177.102 Y16.900 E2.5449
G1 X185.372 Y25.170 E2.9650
G1 X185.372 Y25.849 E2.9894
G1 X176.423 Y16.900 E3.4440
G1 X175.744 Y16.900 E3.4684
G1 X185.372 Y26.528 E3.9575
G1 X185.372 Y27.206 E3.9819
G1 X175.066 Y16.900 E4.5054
G1 X174.387 Y16.900 E4.5298
G1 X185.372 Y27.885 E5.0879
G1 X185.372 Y28.564 E5.1122
G1 X173.708 Y16.900 E5.7048
G1 X173.029 Y16.900 E5.7292
G1 X185.372 Y29.243 E6.3562
G1 X185.372 Y29.922 E6.3806
G1 X172.350 Y16.900 E7.0421
G1 X171.671 Y16.900 E7.0665
G1 X185.372 Y30.600 E7.7624
G1 X185.372 Y31.279 E7.7868
G1 X170.993 Y16.900 E8.5173
G1 X170.314 Y16.900 E8.5417
G1 X185.372 Y31.958 E9.3066
G1 X185.372 Y32.637 E9.3310
G1 X169.635 Y16.900 E10.1305
G1 X168.956 Y16.900 E10.1548
G1 X185.372 Y33.316 E10.9888
G1 X185.372 Y33.995 E11.0131
G1 X168.277 Y16.900 E11.8816
G1 X167.599 Y16.900 E11.9059
G1 X185.372 Y34.673 E12.8088
G1 X185.372 Y35.352 E12.8332
G1 X166.920 Y16.900 E13.7706
G1 X166.241 Y16.900 E13.7950
G1 X185.372 Y36.031 E14.7668
G1 X185.372 Y36.710 E14.7912
G1 X165.562 Y16.900 E15.7976
G1 X164.883 Y16.900 E15.8219
G1 X185.372 Y37.389 E16.8628
G1 X185.372 Y38.067 E16.8872
G1 X164.204 Y16.900 E17.9625
G1 X163.526 Y16.900 E17.9869
G1 X185.372 Y38.746 E19.0967
G1 X185.372 Y39.425 E19.1210
G1 X162.847 Y16.900 E20.2653
G1 X162.168 Y16.900 E20.2897
G1 X185.372 Y40.104 E21.4685
G1 X185.372 Y40.783 E21.4928
G1 X161.489 Y16.900 E22.7061
G1 X160.810 Y16.900 E22.7305
G1 X185.372 Y41.462 E23.9782
G1 X185.372 Y42.140 E24.0026
G1 X160.131 Y16.900 E25.2848
G1 X159.453 Y16.900 E25.3092
G1 X185.372 Y42.819 E26.6259
G1 X185.372 Y43.498 E26.6503
G1 X158.774 Y16.900 E28.0015
G1 X158.095 Y16.900 E28.0259
G1 X185.372 Y44.177 E29.4115
G1 X185.372 Y44.856 E29.4359
G1 X157.416 Y16.900 E30.8561
G1 X156.737 Y16.900 E30.8804
G1 X185.372 Y45.535 E32.3351
G1 X185.372 Y46.213 E32.3595
G1 X156.059 Y16.900 E33.8486
G1 X155.380 Y16.900 E33.8730
G1 X185.372 Y46.892 E35.3966
G1 X185.372 Y47.571 E35.4210
G1 X154.701 Y16.900 E36.9790
G1 X154.022 Y16.900 E37.0034
G1 X185.372 Y48.250 E38.5960
G1 X185.372 Y48.929 E38.6204
G1 X153.343 Y16.900 E40.2474
G1 X152.664 Y16.900 E40.2718
G1 X185.372 Y49.607 E41.9334
G1 X185.372 Y50.286 E41.9578
G1 X151.986 Y16.900 E43.6538
G1 X151.307 Y16.900 E43.6782
G1 X185.372 Y50.965 E45.4087
G1 X185.372 Y51.644 E45.4331
G1 X150.628 Y16.900 E47.1981
G1 X149.949 Y16.900 E47.2224
G1 X185.372 Y52.323 E49.0219
G1 X185.372 Y53.002 E49.0463
G1 X149.270 Y16.900 E50.8803
G1 X148.591 Y16.900 E50.9046
G1 X185.372 Y53.680 E52.7731
G1 X185.372 Y54.359 E52.7975
G1 X147.913 Y16.900 E54.7004
G1 X147.234 Y16.900 E54.7248
G1 X185.372 Y55.038 E56.6622
G1 X185.372 Y55.717 E56.6866
G1 X146.555 Y16.900 E58.6585
G1 X145.876 Y16.900 E58.6829
G1 X185.372 Y56.396 E60.6893
G1 X185.372 Y57.075 E60.7136
G1 X145.197 Y16.900 E62.7545
G1 X144.519 Y16.900 E62.7789
G1 X185.372 Y57.753 E64.8542
G1 X185.372 Y58.432 E64.8786
G1 X143.840 Y16.900 E66.9885
G1 X143.161 Y16.900 E67.0128
G1 X185.372 Y59.111 E69.1572
G1 X185.372 Y59.790 E69.1815
G1 X142.482 Y16.900 E71.3604
G1 X141.803 Y16.900 E71.3847
G1 X185.372 Y60.469 E73.5980
G1 X185.372 Y61.147 E73.6224
G1 X185.007 Y60.783 E73.6409
G1 X185.007 Y60.341 E73.6568
G1 X184.366 Y60.141 E73.6809
G1 X141.124 Y16.900 E75.8776
G1 X140.446 Y16.900 E75.9020
G1 X183.410 Y59.864 E78.0846
G1 X183.133 Y60.266 E78.1021
G1 X139.767 Y16.900 E80.3051
G1 X139.088 Y16.900 E80.3295
G1 X182.856 Y60.668 E82.5529
G1 X182.580 Y61.071 E82.5704
G1 X138.409 Y16.900 E84.8143
G1 X137.730 Y16.900 E84.8387
G1 X182.537 Y61.707 E87.1149
G1 X182.537 Y62.386 E87.1393
G1 X137.051 Y16.900 E89.4499
G1 X136.373 Y16.900 E89.4743
G1 X182.947 Y63.474 E91.8403
G1 X183.421 Y64.163 E91.8703
G1 X183.585 Y64.112 E91.8765
G1 X185.372 Y65.899 E91.9673
G1 X185.372 Y66.578 E91.9917
G1 X135.694 Y16.900 E94.5153
G1 X135.015 Y16.900 E94.5397
G1 X185.372 Y67.257 E97.0978
G1 X185.372 Y67.936 E97.1222
G1 X134.336 Y16.900 E99.7148
G1 X133.657 Y16.900 E99.7392
G1 X185.372 Y68.615 E102.3663
G1 X185.372 Y69.293 E102.3907
G1 X132.979 Y16.900 E105.0523
G1 X132.300 Y16.900 E105.0766
G1 X185.372 Y69.972 E107.7727
G1 X185.372 Y70.651 E107.7971
G1 X131.621 Y16.900 E110.5276
G1 X130.942 Y16.900 E110.5520
G1 X185.372 Y71.330 E113.3171
G1 X185.372 Y72.009 E113.3414
G1 X130.263 Y16.900 E116.1410
G1 X129.584 Y16.900 E116.1653
G1 X185.372 Y72.687 E118.9993
G1 X185.372 Y73.366 E119.0237
G1 X128.906 Y16.900 E121.8922
G1 X128.227 Y16.900 E121.9166
G1 X185.372 Y74.045 E124.8196
G1 X185.372 Y74.724 E124.8440
G1 X127.548 Y16.900 E127.7814
G1 X126.869 Y16.900 E127.8058
G1 X185.372 Y75.403 E130.7777
G1 X185.372 Y76.082 E130.8021
G1 X126.190 Y16.900 E133.8085
G1 X125.512 Y16.900 E133.8329
G1 X185.372 Y76.760 E136.8738
G1 X185.372 Y77.439 E136.8982
G1 X124.833 Y16.900 E139.9736
G1 X124.154 Y16.900 E139.9980
G1 X185.372 Y78.118 E143.1079
G1 X185.372 Y78.797 E143.1322
G1 X123.475 Y16.900 E146.2766
G1 X122.796 Y16.900 E146.3010
G1 X185.372 Y79.476 E149.4798
G1 X185.372 Y80.154 E149.5042
G1 X122.117 Y16.900 E152.7175
G1 X121.439 Y16.900 E152.7419
G1 X185.372 Y80.833 E155.9897
G1 X185.372 Y81.512 E156.0141
G1 X120.760 Y16.900 E159.2964
G1 X120.081 Y16.900 E159.3208
G1 X185.372 Y82.191 E162.6376
G1 X185.372 Y82.870 E162.6620
G1 X119.402 Y16.900 E166.0132
G1 X118.723 Y16.900 E166.0376
G1 X185.372 Y83.549 E169.4234
G1 X185.372 Y84.227 E169.4477
G1 X118.044 Y16.900 E172.8680
G1 X117.366 Y16.900 E172.8924
G1 X185.372 Y84.906 E176.3471
G1 X185.372 Y85.585 E176.3715
G1 X116.687 Y16.900 E179.8607
G1 X116.008 Y16.900 E179.8850
G1 X185.372 Y86.264 E183.4087
G1 X185.372 Y86.943 E183.4331
G1 X115.329 Y16.900 E186.9913
G1 X114.650 Y16.900 E187.0157
G1 X185.372 Y87.622 E190.6083
G1 X185.372 Y88.300 E190.6327
G1 X113.972 Y16.900 E194.2598
G1 X113.293 Y16.900 E194.2842
G1 X185.372 Y88.979 E197.9458
G1 X185.372 Y89.658 E197.9702
G1 X112.614 Y16.900 E201.6663
G1 X111.935 Y16.900 E201.6907
G1 X185.372 Y90.337 E205.4213
G1 X185.372 Y91.016 E205.4457
G1 X111.256 Y16.900 E209.2107
G1 X110.577 Y16.900 E209.2351
G1 X185.372 Y91.694 E213.0347
G1 X185.372 Y92.373 E213.0591
G1 X109.899 Y16.900 E216.8931
G1 X109.220 Y16.900 E216.9175
G1 X185.372 Y93.052 E220.7860
G1 X185.372 Y93.731 E220.8104
G1 X108.541 Y16.900 E224.7134
G1 X107.862 Y16.900 E224.7378
G1 X185.372 Y94.410 E228.6753
G1 X185.372 Y95.089 E228.6997
G1 X107.183 Y16.900 E232.6717
G1 X106.504 Y16.900 E232.6960
G1 X185.372 Y95.767 E236.7025
G1 X185.372 Y96.446 E236.7269
G1 X105.826 Y16.900 E240.7678
G1 X105.147 Y16.900 E240.7922
G1 X185.372 Y97.125 E244.8676
G1 X185.372 Y97.804 E244.8920
G1 X104.468 Y16.900 E249.0019
G1 X103.789 Y16.900 E249.0263
G1 X185.372 Y98.483 E253.1707
G1 X185.372 Y99.162 E253.1951
G1 X103.110 Y16.900 E257.3740
