; G-Code generated by Simplify3D(R) Version 4.0.0
; Oct 24, 2019 at 11:46:13 PM
; Settings Summary
;   processName,Process2
;   applyToModels,round_box_with_lid
;   profileName,Default(2) (modified)
;   profileVersion,2019-07-27 15:21:07
;   baseProfile,
;   printMaterial,PLA
;   printQuality,Medium
;   printExtruders,
;   extruderName,Primary Extruder
;   extruderToolheadNumber,0
;   extruderDiameter,0.4
;   extruderAutoWidth,1
;   extruderWidth,0.48
;   extrusionMultiplier,0.9
;   extruderUseRetract,1
;   extruderRetractionDistance,1
;   extruderExtraRestartDistance,0
;   extruderRetractionZLift,0
;   extruderRetractionSpeed,1800
;   extruderUseCoasting,0
;   extruderCoastingDistance,0.2
;   extruderUseWipe,0
;   extruderWipeDistance,5
;   primaryExtruder,0
;   layerHeight,0.2
;   topSolidLayers,3
;   bottomSolidLayers,2
;   perimeterOutlines,2
;   printPerimetersInsideOut,1
;   startPointOption,2
;   startPointOriginX,0
;   startPointOriginY,0
;   sequentialIslands,0
;   spiralVaseMode,0
;   firstLayerHeightPercentage,90
;   firstLayerWidthPercentage,100
;   firstLayerUnderspeed,0.5
;   useRaft,0
;   raftExtruder,0
;   raftTopLayers,3
;   raftBaseLayers,2
;   raftOffset,3
;   raftSeparationDistance,0.14
;   raftTopInfill,100
;   aboveRaftSpeedMultiplier,0.3
;   useSkirt,0
;   skirtExtruder,0
;   skirtLayers,1
;   skirtOutlines,2
;   skirtOffset,4
;   usePrimePillar,0
;   primePillarExtruder,999
;   primePillarWidth,12
;   primePillarLocation,7
;   primePillarSpeedMultiplier,1
;   useOozeShield,0
;   oozeShieldExtruder,999
;   oozeShieldOffset,2
;   oozeShieldOutlines,1
;   oozeShieldSidewallShape,1
;   oozeShieldSidewallAngle,30
;   oozeShieldSpeedMultiplier,1
;   infillExtruder,0
;   internalInfillPattern,Rectilinear
;   externalInfillPattern,Rectilinear
;   infillPercentage,10
;   outlineOverlapPercentage,15
;   infillExtrusionWidthPercentage,100
;   minInfillLength,5
;   infillLayerInterval,1
;   internalInfillAngles,45,-45
;   overlapInternalInfillAngles,0
;   externalInfillAngles,45,-45
;   generateSupport,0
;   supportExtruder,0
;   supportInfillPercentage,30
;   supportExtraInflation,0
;   supportBaseLayers,0
;   denseSupportExtruder,0
;   denseSupportLayers,0
;   denseSupportInfillPercentage,70
;   supportLayerInterval,1
;   supportHorizontalPartOffset,0.3
;   supportUpperSeparationLayers,1
;   supportLowerSeparationLayers,1
;   supportType,0
;   supportGridSpacing,4
;   maxOverhangAngle,45
;   supportAngles,0
;   temperatureName,Primary Extruder,Hot Bed
;   temperatureNumber,0,1
;   temperatureSetpointCount,1,1
;   temperatureSetpointLayers,1,1
;   temperatureSetpointTemperatures,200,60
;   temperatureStabilizeAtStartup,1,0
;   temperatureHeatedBed,0,1
;   temperatureRelayBetweenLayers,0,0
;   temperatureRelayBetweenLoops,0,0
;   fanLayers,1,2
;   fanSpeeds,0,100
;   blipFanToFullPower,0
;   adjustSpeedForCooling,1
;   minSpeedLayerTime,15
;   minCoolingSpeedSlowdown,20
;   increaseFanForCooling,0
;   minFanLayerTime,45
;   maxCoolingFanSpeed,100
;   increaseFanForBridging,0
;   bridgingFanSpeed,100
;   use5D,1
;   relativeEdistances,0
;   allowEaxisZeroing,1
;   independentExtruderAxes,0
;   includeM10123,0
;   stickySupport,1
;   applyToolheadOffsets,0
;   gcodeXoffset,-9
;   gcodeYoffset,-4
;   gcodeZoffset,0
;   overrideMachineDefinition,0
;   machineTypeOverride,0
;   strokeXoverride,200
;   strokeYoverride,200
;   strokeZoverride,200
;   originOffsetXoverride,0
;   originOffsetYoverride,0
;   originOffsetZoverride,0
;   homeXdirOverride,-1
;   homeYdirOverride,-1
;   homeZdirOverride,-1
;   flipXoverride,1
;   flipYoverride,-1
;   flipZoverride,1
;   toolheadOffsets,0,0|0,0|0,0|0,0|0,0|0,0
;   overrideFirmwareConfiguration,0
;   firmwareTypeOverride,RepRap (Marlin/Repetier/Sprinter)
;   GPXconfigOverride,r2
;   baudRateOverride,115200
;   overridePrinterModels,0
;   printerModelsOverride
;   startingGcode,G28 ; home all axes,G1 X2 Y15 Z0.2 F3000 ; get ready to prime,G92 E0 ; reset extrusion distance,G1 Y150 E20 F600 ; prime nozzle
;   layerChangeGcode,
;   retractionGcode,
;   toolChangeGcode,
;   endingGcode,M104 S0 ; turn off extruder,M140 S0 ; turn off bed,G28 X Y ; home X & Y,M84 ; disable motors,M107; Fan off
;   exportFileFormat,gcode
;   celebration,0
;   celebrationSong,Random Song
;   postProcessing,
;   defaultSpeed,3200
;   outlineUnderspeed,0.5
;   solidInfillUnderspeed,0.8
;   supportUnderspeed,0.8
;   rapidXYspeed,4800
;   rapidZspeed,1000
;   minBridgingArea,50
;   bridgingExtraInflation,0
;   bridgingExtrusionMultiplier,1
;   bridgingSpeedMultiplier,1
;   useFixedBridgingAngle,0
;   fixedBridgingAngle,0
;   applyBridgingToPerimeters,0
;   filamentDiameters,1.75|1.75|1.75|1.75|1.75|1.75
;   filamentPricesPerKg,46|46|46|46|46|46
;   filamentDensities,1.25|1.25|1.25|1.25|1.25|1.25
;   useMinPrintHeight,0
;   minPrintHeight,0
;   useMaxPrintHeight,0
;   maxPrintHeight,0
;   useDiaphragm,0
;   diaphragmLayerInterval,20
;   robustSlicing,1
;   mergeAllIntoSolid,0
;   onlyRetractWhenCrossingOutline,1
;   retractBetweenLayers,1
;   useRetractionMinTravel,0
;   retractionMinTravel,3
;   retractWhileWiping,0
;   onlyWipeOutlines,1
;   avoidCrossingOutline,0
;   maxMovementDetourFactor,3
;   toolChangeRetractionDistance,12
;   toolChangeExtraRestartDistance,-0.5
;   toolChangeRetractionSpeed,600
;   externalThinWallType,1
;   internalThinWallType,1
;   thinWallAllowedOverlapPercentage,10
;   singleExtrusionMinLength,1
;   singleExtrusionMinPrintingWidthPercentage,50
;   singleExtrusionMaxPrintingWidthPercentage,200
;   singleExtrusionEndpointExtension,0.2
;   horizontalSizeCompensation,0
G90
M82
M106 S0
M140 S60
M104 S200 T0
M109 S200 T0
G28 ; home all axes
G1 X2 Y15 Z0.2 F3000 ; get ready to prime
G92 E0 ; reset extrusion distance
G1 Y150 E20 F600 ; prime nozzle
G92 E0
G1 E-1.0000 F1800
G1 Z0.180 F1000
; process Process2
; layer 1, Z = 0.180
T0
; tool H0.200 W0.480
; inner perimeter
G1 X83.659 Y74.368 F4800
G1 E0.0000 F540
G92 E0
G1 X83.977 Y74.014 E0.0171 F1200
G1 X84.362 Y73.734 E0.0342
G1 X84.797 Y73.541 E0.0513
G1 X85.262 Y73.442 E0.0684
G1 X137.538 Y73.442 E1.9462
G1 X138.003 Y73.541 E1.9633
G1 X138.438 Y73.734 E1.9803
G1 X138.823 Y74.014 E1.9974
G1 X139.141 Y74.368 E2.0145
G1 X139.379 Y74.780 E2.0316
G1 X139.526 Y75.232 E2.0487
G1 X139.580 Y75.743 E2.0672
G1 X139.580 Y105.268 E3.1277
G1 X139.526 Y105.779 E3.1462
G1 X139.379 Y106.231 E3.1633
G1 X139.141 Y106.643 E3.1804
G1 X138.823 Y106.997 E3.1974
G1 X138.438 Y107.277 E3.2145
G1 X138.003 Y107.470 E3.2316
G1 X137.538 Y107.569 E3.2487
G1 X85.262 Y107.569 E5.1265
G1 X84.797 Y107.470 E5.1436
G1 X84.362 Y107.277 E5.1607
G1 X83.977 Y106.997 E5.1778
G1 X83.659 Y106.643 E5.1949
G1 X83.421 Y106.231 E5.2120
G1 X83.274 Y105.779 E5.2291
G1 X83.220 Y105.268 E5.2475
G1 X83.220 Y75.743 E6.3081
G1 X83.274 Y75.232 E6.3265
G1 X83.421 Y74.780 E6.3436
G1 X83.659 Y74.368 E6.3607
; outer perimeter
G1 X83.268 Y74.084 F4800
G92 E0
G1 X83.654 Y73.655 E0.0207 F800
G1 X84.121 Y73.316 E0.0414
G1 X84.648 Y73.082 E0.0621
G1 X85.212 Y72.962 E0.0829
G1 X137.588 Y72.962 E1.9643
G1 X138.153 Y73.082 E1.9850
G1 X138.679 Y73.316 E2.0057
G1 X139.146 Y73.655 E2.0264
G1 X139.532 Y74.084 E2.0472
G1 X139.820 Y74.583 E2.0679
G1 X139.998 Y75.132 E2.0886
G1 X140.060 Y75.718 E2.1098
G1 X140.060 Y105.293 E3.1721
G1 X139.998 Y105.879 E3.1933
G1 X139.820 Y106.428 E3.2140
G1 X139.532 Y106.927 E3.2347
G1 X139.146 Y107.356 E3.2554
G1 X138.679 Y107.695 E3.2761
G1 X138.153 Y107.929 E3.2969
G1 X137.588 Y108.049 E3.3176
G1 X85.212 Y108.049 E5.1990
G1 X84.648 Y107.929 E5.2197
G1 X84.121 Y107.695 E5.2404
G1 X83.654 Y107.356 E5.2612
G1 X83.268 Y106.927 E5.2819
G1 X82.980 Y106.428 E5.3026
G1 X82.802 Y105.879 E5.3233
G1 X82.740 Y105.293 E5.3445
G1 X82.740 Y75.718 E6.4068
G1 X82.802 Y75.132 E6.4280
G1 X82.980 Y74.583 E6.4487
G1 X83.268 Y74.084 E6.4694
; solid layer
G1 X83.976 Y106.377 F4800
G92 E0
G1 X84.395 Y106.797 E0.0213 F1280
G1 X84.567 Y106.921 E0.0289
G1 X84.923 Y107.080 E0.0429
G1 X85.305 Y107.161 E0.0569
G1 X85.439 Y107.161 E0.0617
G1 X83.640 Y105.363 E0.1531
G1 X83.628 Y105.246 E0.1573
G1 X83.628 Y104.671 E0.1780
G1 X86.118 Y107.161 E0.3044
G1 X86.796 Y107.161 E0.3288
G1 X83.628 Y103.993 E0.4898
G1 X83.628 Y103.314 E0.5142
G1 X87.475 Y107.161 E0.7096
G1 X88.154 Y107.161 E0.7340
G1 X83.628 Y102.635 E0.9639
G1 X83.628 Y101.956 E0.9883
G1 X88.833 Y107.161 E1.2527
G1 X89.512 Y107.161 E1.2771
G1 X83.628 Y101.277 E1.5760
G1 X83.628 Y100.599 E1.6004
G1 X90.191 Y107.161 E1.9337
G1 X90.869 Y107.161 E1.9581
G1 X83.628 Y99.920 E2.3260
G1 X83.628 Y99.241 E2.3504
G1 X91.548 Y107.161 E2.7527
G1 X92.227 Y107.161 E2.7771
G1 X83.628 Y98.562 E3.2139
G1 X83.628 Y97.883 E3.2383
G1 X92.906 Y107.161 E3.7096
G1 X93.585 Y107.161 E3.7340
G1 X83.628 Y97.204 E4.2398
G1 X83.628 Y96.526 E4.2642
G1 X94.263 Y107.161 E4.8044
G1 X94.942 Y107.161 E4.8288
G1 X83.628 Y95.847 E5.4036
G1 X83.628 Y95.168 E5.4280
G1 X95.621 Y107.161 E6.0372
G1 X96.300 Y107.161 E6.0616
G1 X83.628 Y94.489 E6.7053
G1 X83.628 Y93.810 E6.7297
G1 X96.979 Y107.161 E7.4079
G1 X97.658 Y107.161 E7.4323
G1 X83.628 Y93.131 E8.1450
G1 X83.628 Y92.453 E8.1694
G1 X98.336 Y107.161 E8.9166
G1 X99.015 Y107.161 E8.9410
G1 X83.628 Y91.774 E9.7227
G1 X83.628 Y91.095 E9.7470
G1 X99.694 Y107.161 E10.5632
G1 X100.373 Y107.161 E10.5876
G1 X83.628 Y90.416 E11.4382
G1 X83.628 Y89.737 E11.4626
G1 X101.052 Y107.161 E12.3477
G1 X101.731 Y107.161 E12.3721
G1 X83.628 Y89.059 E13.2917
G1 X83.628 Y88.380 E13.3161
G1 X102.409 Y107.161 E14.2702
G1 X103.088 Y107.161 E14.2946
G1 X83.628 Y87.701 E15.2831
G1 X83.628 Y87.022 E15.3075
G1 X103.767 Y107.161 E16.3306
G1 X104.446 Y107.161 E16.3550
G1 X83.628 Y86.343 E17.4125
G1 X83.628 Y85.664 E17.4369
G1 X105.125 Y107.161 E18.5289
G1 X105.803 Y107.161 E18.5533
G1 X83.628 Y84.986 E19.6798
G1 X83.628 Y84.307 E19.7042
G1 X106.482 Y107.161 E20.8652
G1 X107.161 Y107.161 E20.8896
G1 X83.628 Y83.628 E22.0850
G1 X83.628 Y82.949 E22.1094
G1 X107.840 Y107.161 E23.3394
G1 X108.519 Y107.161 E23.3638
G1 X83.628 Y82.270 E24.6282
G1 X83.628 Y81.592 E24.6526
G1 X109.198 Y107.161 E25.9515
G1 X109.876 Y107.161 E25.9759
G1 X83.628 Y80.913 E27.3093
G1 X83.628 Y80.234 E27.3337
G1 X110.555 Y107.161 E28.7016
G1 X111.234 Y107.161 E28.7260
G1 X83.628 Y79.555 E30.1284
G1 X83.628 Y78.876 E30.1528
G1 X111.913 Y107.161 E31.5896
G1 X112.592 Y107.161 E31.6140
G1 X83.628 Y78.197 E33.0854
G1 X83.628 Y77.519 E33.1098
G1 X113.270 Y107.161 E34.6156
G1 X113.949 Y107.161 E34.6400
G1 X83.628 Y76.840 E36.1803
G1 X83.628 Y76.161 E36.2047
G1 X114.628 Y107.161 E37.7795
G1 X115.307 Y107.161 E37.8039
G1 X83.655 Y75.509 E39.4118
G1 X83.675 Y75.317 E39.4187
G1 X83.790 Y74.965 E39.4320
G1 X115.986 Y107.161 E41.0676
G1 X116.665 Y107.161 E41.0920
G1 X84.048 Y74.545 E42.7489
G1 X84.252 Y74.319 E42.7598
G1 X84.396 Y74.214 E42.7662
G1 X117.343 Y107.161 E44.4399
G1 X118.022 Y107.161 E44.4643
G1 X84.833 Y73.971 E46.1503
G1 X84.923 Y73.931 E46.1539
G1 X85.305 Y73.850 E46.1679
G1 X85.390 Y73.850 E46.1710
G1 X118.701 Y107.161 E47.8632
G1 X119.380 Y107.161 E47.8876
G1 X86.069 Y73.850 E49.5798
G1 X86.748 Y73.850 E49.6041
G1 X120.059 Y107.161 E51.2963
G1 X120.738 Y107.161 E51.3207
G1 X87.426 Y73.850 E53.0129
G1 X88.105 Y73.850 E53.0373
G1 X121.416 Y107.161 E54.7295
G1 X122.095 Y107.161 E54.7539
G1 X88.784 Y73.850 E56.4461
G1 X89.463 Y73.850 E56.4705
G1 X122.774 Y107.161 E58.1627
G1 X123.453 Y107.161 E58.1871
G1 X90.142 Y73.850 E59.8793
G1 X90.820 Y73.850 E59.9037
G1 X124.132 Y107.161 E61.5959
G1 X124.810 Y107.161 E61.6203
G1 X91.499 Y73.850 E63.3125
G1 X92.178 Y73.850 E63.3368
G1 X125.489 Y107.161 E65.0291
G1 X126.168 Y107.161 E65.0534
G1 X92.857 Y73.850 E66.7456
G1 X93.536 Y73.850 E66.7700
G1 X126.847 Y107.161 E68.4622
G1 X127.526 Y107.161 E68.4866
G1 X94.215 Y73.850 E70.1788
G1 X94.893 Y73.850 E70.2032
G1 X128.205 Y107.161 E71.8954
G1 X128.883 Y107.161 E71.9198
G1 X95.572 Y73.850 E73.6120
G1 X96.251 Y73.850 E73.6364
G1 X129.562 Y107.161 E75.3286
G1 X130.241 Y107.161 E75.3530
G1 X96.930 Y73.850 E77.0452
G1 X97.609 Y73.850 E77.0695
G1 X130.920 Y107.161 E78.7618
G1 X131.599 Y107.161 E78.7861
G1 X98.288 Y73.850 E80.4783
G1 X98.966 Y73.850 E80.5027
G1 X132.278 Y107.161 E82.1949
G1 X132.956 Y107.161 E82.2193
G1 X99.645 Y73.850 E83.9115
G1 X100.324 Y73.850 E83.9359
G1 X133.635 Y107.161 E85.6281
G1 X134.314 Y107.161 E85.6525
G1 X101.003 Y73.850 E87.3447
G1 X101.682 Y73.850 E87.3691
G1 X134.993 Y107.161 E89.0613
G1 X135.672 Y107.161 E89.0857
G1 X102.360 Y73.850 E90.7779
G1 X103.039 Y73.850 E90.8023
G1 X136.350 Y107.161 E92.4945
G1 X137.029 Y107.161 E92.5188
G1 X103.718 Y73.850 E94.2110
G1 X104.397 Y73.850 E94.2354
G1 X137.671 Y107.124 E95.9257
G1 X137.877 Y107.080 E95.9333
G1 X138.174 Y106.948 E95.9450
G1 X105.076 Y73.850 E97.6263
G1 X105.755 Y73.850 E97.6507
G1 X138.571 Y106.667 E99.3178
G1 X138.809 Y106.402 E99.3306
G1 X138.874 Y106.290 E99.3352
G1 X106.433 Y73.850 E100.9832
G1 X107.112 Y73.850 E101.0076
G1 X139.083 Y105.821 E102.6317
G1 X139.125 Y105.693 E102.6365
G1 X139.172 Y105.246 E102.6527
G1 X139.172 Y105.231 E102.6532
G1 X107.791 Y73.850 E104.2474
G1 X108.470 Y73.850 E104.2718
G1 X139.172 Y104.552 E105.8314
G1 X139.172 Y103.873 E105.8558
G1 X109.149 Y73.850 E107.3810
G1 X109.828 Y73.850 E107.4054
G1 X139.172 Y103.194 E108.8961
G1 X139.172 Y102.516 E108.9205
G1 X110.506 Y73.850 E110.3767
G1 X111.185 Y73.850 E110.4011
G1 X139.172 Y101.837 E111.8228
G1 X139.172 Y101.158 E111.8472
G1 X111.864 Y73.850 E113.2344
G1 X112.543 Y73.850 E113.2588
G1 X139.172 Y100.479 E114.6116
G1 X139.172 Y99.800 E114.6360
G1 X113.222 Y73.850 E115.9542
G1 X113.900 Y73.850 E115.9786
G1 X139.172 Y99.121 E117.2624
G1 X139.172 Y98.443 E117.2868
G1 X114.579 Y73.850 E118.5361
G1 X115.258 Y73.850 E118.5605
G1 X139.172 Y97.764 E119.7753
G1 X139.172 Y97.085 E119.7997
G1 X115.937 Y73.850 E120.9800
G1 X116.616 Y73.850 E121.0044
G1 X139.172 Y96.406 E122.1503
G1 X139.172 Y95.727 E122.1747
G1 X117.295 Y73.850 E123.2860
G1 X117.973 Y73.850 E123.3104
G1 X139.172 Y95.049 E124.3873
G1 X139.172 Y94.370 E124.4117
G1 X118.652 Y73.850 E125.4541
G1 X119.331 Y73.850 E125.4785
G1 X139.172 Y93.691 E126.4864
G1 X139.172 Y93.012 E126.5108
G1 X120.010 Y73.850 E127.4842
G1 X120.689 Y73.850 E127.5086
G1 X139.172 Y92.333 E128.4475
G1 X139.172 Y91.654 E128.4719
G1 X121.367 Y73.850 E129.3764
G1 X122.046 Y73.850 E129.4008
G1 X139.172 Y90.976 E130.2708
G1 X139.172 Y90.297 E130.2952
G1 X122.725 Y73.850 E131.1307
G1 X123.404 Y73.850 E131.1550
G1 X139.172 Y89.618 E131.9560
G1 X139.172 Y88.939 E131.9804
G1 X124.083 Y73.850 E132.7470
G1 X124.762 Y73.850 E132.7713
G1 X139.172 Y88.260 E133.5034
G1 X139.172 Y87.581 E133.5278
G1 X125.440 Y73.850 E134.2253
G1 X126.119 Y73.850 E134.2497
G1 X139.172 Y86.903 E134.9128
G1 X139.172 Y86.224 E134.9372
G1 X126.798 Y73.850 E135.5658
G1 X127.477 Y73.850 E135.5902
G1 X139.172 Y85.545 E136.1843
G1 X139.172 Y84.866 E136.2087
G1 X128.156 Y73.850 E136.7683
G1 X128.835 Y73.850 E136.7927
G1 X139.172 Y84.187 E137.3178
G1 X139.172 Y83.509 E137.3422
G1 X129.513 Y73.850 E137.8329
G1 X130.192 Y73.850 E137.8572
G1 X139.172 Y82.830 E138.3134
G1 X139.172 Y82.151 E138.3378
G1 X130.871 Y73.850 E138.7595
G1 X131.550 Y73.850 E138.7839
G1 X139.172 Y81.472 E139.1711
G1 X139.172 Y80.793 E139.1955
G1 X132.229 Y73.850 E139.5482
G1 X132.907 Y73.850 E139.5726
G1 X139.172 Y80.114 E139.8908
G1 X139.172 Y79.436 E139.9152
G1 X133.586 Y73.850 E140.1989
G1 X134.265 Y73.850 E140.2233
G1 X139.172 Y78.757 E140.4726
G1 X139.172 Y78.078 E140.4970
G1 X134.944 Y73.850 E140.7118
G1 X135.623 Y73.850 E140.7361
G1 X139.172 Y77.399 E140.9164
G1 X139.172 Y76.720 E140.9408
G1 X136.302 Y73.850 E141.0866
G1 X136.980 Y73.850 E141.1110
G1 X139.172 Y76.041 E141.2224
G1 X139.172 Y75.765 E141.2323
G1 X139.125 Y75.318 E141.2484
G1 X139.124 Y75.315 E141.2486
G1 X137.704 Y73.894 E141.3207
G92 E0
G1 E-1.0000 F1800
; inner perimeter
G1 X137.947 Y113.053 F4800
G1 E0.0000 F1800
G92 E0
G1 X138.817 Y113.238 E0.0320 F1200
G1 X139.634 Y113.601 E0.0641
G1 X140.358 Y114.125 E0.0962
G1 X140.957 Y114.789 E0.1283
G1 X141.406 Y115.567 E0.1606
