; G-Code generated by Simplify3D(R) Version 4.0.0
; Oct 24, 2019 at 11:53:22 PM
; Settings Summary
;   processName,Process2
;   applyToModels,round_box_with_lid
;   profileName,Default(2) (modified)
;   profileVersion,2019-07-27 15:21:07
;   baseProfile,
;   printMaterial,PLA
;   printQuality,Medium
;   printExtruders,
;   extruderName,Primary Extruder
;   extruderToolheadNumber,0
;   extruderDiameter,0.4
;   extruderAutoWidth,1
;   extruderWidth,0.48
;   extrusionMultiplier,0.9
;   extruderUseRetract,1
;   extruderRetractionDistance,1
;   extruderExtraRestartDistance,0
;   extruderRetractionZLift,0
;   extruderRetractionSpeed,1800
;   extruderUseCoasting,0
;   extruderCoastingDistance,0.2
;   extruderUseWipe,0
;   extruderWipeDistance,5
;   primaryExtruder,0
;   layerHeight,0.2
;   topSolidLayers,3
;   bottomSolidLayers,2
;   perimeterOutlines,2
;   printPerimetersInsideOut,1
;   startPointOption,2
;   startPointOriginX,0
;   startPointOriginY,0
;   sequentialIslands,0
;   spiralVaseMode,0
;   firstLayerHeightPercentage,90
;   firstLayerWidthPercentage,100
;   firstLayerUnderspeed,0.5
;   useRaft,0
;   raftExtruder,0
;   raftTopLayers,3
;   raftBaseLayers,2
;   raftOffset,3
;   raftSeparationDistance,0.14
;   raftTopInfill,100
;   aboveRaftSpeedMultiplier,0.3
;   useSkirt,0
;   skirtExtruder,0
;   skirtLayers,1
;   skirtOutlines,2
;   skirtOffset,4
;   usePrimePillar,0
;   primePillarExtruder,999
;   primePillarWidth,12
;   primePillarLocation,7
;   primePillarSpeedMultiplier,1
;   useOozeShield,0
;   oozeShieldExtruder,999
;   oozeShieldOffset,2
;   oozeShieldOutlines,1
;   oozeShieldSidewallShape,1
;   oozeShieldSidewallAngle,30
;   oozeShieldSpeedMultiplier,1
;   infillExtruder,0
;   internalInfillPattern,Rectilinear
;   externalInfillPattern,Concentric
;   infillPercentage,10
;   outlineOverlapPercentage,15
;   infillExtrusionWidthPercentage,100
;   minInfillLength,5
;   infillLayerInterval,1
;   internalInfillAngles,45,-45
;   overlapInternalInfillAngles,0
;   externalInfillAngles,45,-45
;   generateSupport,0
;   supportExtruder,0
;   supportInfillPercentage,30
;   supportExtraInflation,0
;   supportBaseLayers,0
;   denseSupportExtruder,0
;   denseSupportLayers,0
;   denseSupportInfillPercentage,70
;   supportLayerInterval,1
;   supportHorizontalPartOffset,0.3
;   supportUpperSeparationLayers,1
;   supportLowerSeparationLayers,1
;   supportType,0
;   supportGridSpacing,4
;   maxOverhangAngle,45
;   supportAngles,0
;   temperatureName,Primary Extruder,Hot Bed
;   temperatureNumber,0,1
;   temperatureSetpointCount,1,1
;   temperatureSetpointLayers,1,1
;   temperatureSetpointTemperatures,200,60
;   temperatureStabilizeAtStartup,1,0
;   temperatureHeatedBed,0,1
;   temperatureRelayBetweenLayers,0,0
;   temperatureRelayBetweenLoops,0,0
;   fanLayers,1,2
;   fanSpeeds,0,100
;   blipFanToFullPower,0
;   adjustSpeedForCooling,1
;   minSpeedLayerTime,15
;   minCoolingSpeedSlowdown,20
;   increaseFanForCooling,0
;   minFanLayerTime,45
;   maxCoolingFanSpeed,100
;   increaseFanForBridging,0
;   bridgingFanSpeed,100
;   use5D,1
;   relativeEdistances,0
;   allowEaxisZeroing,1
;   independentExtruderAxes,0
;   includeM10123,0
;   stickySupport,1
;   applyToolheadOffsets,0
;   gcodeXoffset,-9
;   gcodeYoffset,-4
;   gcodeZoffset,0
;   overrideMachineDefinition,0
;   machineTypeOverride,0
;   strokeXoverride,200
;   strokeYoverride,200
;   strokeZoverride,200
;   originOffsetXoverride,0
;   originOffsetYoverride,0
;   originOffsetZoverride,0
;   homeXdirOverride,-1
;   homeYdirOverride,-1
;   homeZdirOverride,-1
;   flipXoverride,1
;   flipYoverride,-1
;   flipZoverride,1
;   toolheadOffsets,0,0|0,0|0,0|0,0|0,0|0,0
;   overrideFirmwareConfiguration,0
;   firmwareTypeOverride,RepRap (Marlin/Repetier/Sprinter)
;   GPXconfigOverride,r2
;   baudRateOverride,115200
;   overridePrinterModels,0
;   printerModelsOverride
;   startingGcode,G28 ; home all axes,G1 X2 Y15 Z0.2 F3000 ; get ready to prime,G92 E0 ; reset extrusion distance,G1 Y150 E20 F600 ; prime nozzle
;   layerChangeGcode,
;   retractionGcode,
;   toolChangeGcode,
;   endingGcode,M104 S0 ; turn off extruder,M140 S0 ; turn off bed,G28 X Y ; home X & Y,M84 ; disable motors,M107; Fan off
;   exportFileFormat,gcode
;   celebration,0
;   celebrationSong,Random Song
;   postProcessing,
;   defaultSpeed,4000
;   outlineUnderspeed,0.5
;   solidInfillUnderspeed,0.8
;   supportUnderspeed,0.8
;   rapidXYspeed,4800
;   rapidZspeed,1000
;   minBridgingArea,50
;   bridgingExtraInflation,0
;   bridgingExtrusionMultiplier,1
;   bridgingSpeedMultiplier,1
;   useFixedBridgingAngle,0
;   fixedBridgingAngle,0
;   applyBridgingToPerimeters,0
;   filamentDiameters,1.75|1.75|1.75|1.75|1.75|1.75
;   filamentPricesPerKg,46|46|46|46|46|46
;   filamentDensities,1.25|1.25|1.25|1.25|1.25|1.25
;   useMinPrintHeight,0
;   minPrintHeight,0
;   useMaxPrintHeight,0
;   maxPrintHeight,0
;   useDiaphragm,0
;   diaphragmLayerInterval,20
;   robustSlicing,1
;   mergeAllIntoSolid,0
;   onlyRetractWhenCrossingOutline,1
;   retractBetweenLayers,1
;   useRetractionMinTravel,0
;   retractionMinTravel,3
;   retractWhileWiping,0
;   onlyWipeOutlines,1
;   avoidCrossingOutline,0
;   maxMovementDetourFactor,3
;   toolChangeRetractionDistance,12
;   toolChangeExtraRestartDistance,-0.5
;   toolChangeRetractionSpeed,600
;   externalThinWallType,1
;   internalThinWallType,1
;   thinWallAllowedOverlapPercentage,10
;   singleExtrusionMinLength,1
;   singleExtrusionMinPrintingWidthPercentage,50
;   singleExtrusionMaxPrintingWidthPercentage,200
;   singleExtrusionEndpointExtension,0.2
;   horizontalSizeCompensation,0
G90
M82
M106 S0
M140 S60
M104 S200 T0
M109 S200 T0
G28 ; home all axes
G1 X2 Y15 Z0.2 F3000 ; get ready to prime
G92 E0 ; reset extrusion distance
G1 Y150 E20 F600 ; prime nozzle
G92 E0
G1 E-1.0000 F1800
G1 Z0.180 F1000
; process Process2
; layer 1, Z = 0.180
T0
; tool H0.200 W0.480
; inner perimeter
G1 X83.659 Y74.368 F4800
G1 E0.0000 F540
G92 E0
G1 X83.977 Y74.014 E0.0171 F1500
G1 X84.362 Y73.734 E0.0342
G1 X84.797 Y73.541 E0.0513
G1 X85.262 Y73.442 E0.0684
G1 X137.538 Y73.442 E1.9462
G1 X138.003 Y73.541 E1.9633
G1 X138.438 Y73.734 E1.9803
G1 X138.823 Y74.014 E1.9974
G1 X139.141 Y74.368 E2.0145
G1 X139.379 Y74.780 E2.0316
G1 X139.526 Y75.232 E2.0487
G1 X139.580 Y75.743 E2.0672
G1 X139.580 Y105.268 E3.1277
G1 X139.526 Y105.779 E3.1462
G1 X139.379 Y106.231 E3.1633
G1 X139.141 Y106.643 E3.1804
G1 X138.823 Y106.997 E3.1974
G1 X138.438 Y107.277 E3.2145
G1 X138.003 Y107.470 E3.2316
G1 X137.538 Y107.569 E3.2487
G1 X85.262 Y107.569 E5.1265
G1 X84.797 Y107.470 E5.1436
G1 X84.362 Y107.277 E5.1607
G1 X83.977 Y106.997 E5.1778
G1 X83.659 Y106.643 E5.1949
G1 X83.421 Y106.231 E5.2120
G1 X83.274 Y105.779 E5.2291
G1 X83.220 Y105.268 E5.2475
G1 X83.220 Y75.743 E6.3081
G1 X83.274 Y75.232 E6.3265
G1 X83.421 Y74.780 E6.3436
G1 X83.659 Y74.368 E6.3607
; outer perimeter
G1 X83.268 Y74.084 F4800
G92 E0
G1 X83.654 Y73.655 E0.0207 F1000
G1 X84.121 Y73.316 E0.0414
G1 X84.648 Y73.082 E0.0621
G1 X85.212 Y72.962 E0.0829
G1 X137.588 Y72.962 E1.9643
G1 X138.153 Y73.082 E1.9850
G1 X138.679 Y73.316 E2.0057
G1 X139.146 Y73.655 E2.0264
G1 X139.532 Y74.084 E2.0472
G1 X139.820 Y74.583 E2.0679
G1 X139.998 Y75.132 E2.0886
G1 X140.060 Y75.718 E2.1098
G1 X140.060 Y105.293 E3.1721
G1 X139.998 Y105.879 E3.1933
G1 X139.820 Y106.428 E3.2140
G1 X139.532 Y106.927 E3.2347
G1 X139.146 Y107.356 E3.2554
G1 X138.679 Y107.695 E3.2761
G1 X138.153 Y107.929 E3.2969
G1 X137.588 Y108.049 E3.3176
G1 X85.212 Y108.049 E5.1990
G1 X84.648 Y107.929 E5.2197
G1 X84.121 Y107.695 E5.2404
G1 X83.654 Y107.356 E5.2612
G1 X83.268 Y106.927 E5.2819
G1 X82.980 Y106.428 E5.3026
G1 X82.802 Y105.879 E5.3233
G1 X82.740 Y105.293 E5.3445
G1 X82.740 Y75.718 E6.4068
G1 X82.802 Y75.132 E6.4280
G1 X82.980 Y74.583 E6.4487
G1 X83.268 Y74.084 E6.4694
; solid layer
G1 X83.991 Y74.609 F4800
G92 E0
G1 X84.252 Y74.319 E0.0140 F1600
G1 X84.567 Y74.090 E0.0280
G1 X84.923 Y73.931 E0.0420
G1 X85.305 Y73.850 E0.0560
G1 X137.495 Y73.850 E1.9308
G1 X137.877 Y73.931 E1.9448
G1 X138.233 Y74.090 E1.9588
G1 X138.549 Y74.319 E1.9728
G1 X138.809 Y74.609 E1.9868
G1 X139.004 Y74.946 E2.0008
G1 X139.125 Y75.318 E2.0148
G1 X139.172 Y75.765 E2.0310
G1 X139.172 Y105.246 E3.0900
G1 X139.125 Y105.693 E3.1061
G1 X139.004 Y106.064 E3.1201
G1 X138.809 Y106.402 E3.1342
G1 X138.548 Y106.692 E3.1482
G1 X138.233 Y106.921 E3.1622
G1 X137.877 Y107.080 E3.1762
G1 X137.495 Y107.161 E3.1902
G1 X85.305 Y107.161 E5.0649
G1 X84.923 Y107.080 E5.0789
G1 X84.567 Y106.921 E5.0929
G1 X84.251 Y106.692 E5.1070
G1 X83.991 Y106.402 E5.1210
G1 X83.795 Y106.064 E5.1350
G1 X83.675 Y105.693 E5.1490
G1 X83.628 Y105.246 E5.1651
G1 X83.628 Y75.765 E6.2241
G1 X83.675 Y75.317 E6.2403
G1 X83.796 Y74.947 E6.2543
G1 X83.991 Y74.609 E6.2683
G1 X84.381 Y74.892 F4800
G92 E0
G1 X84.574 Y74.678 E0.0104 F1600
G1 X84.809 Y74.508 E0.0208
G1 X85.073 Y74.390 E0.0312
G1 X85.355 Y74.330 E0.0415
G1 X137.445 Y74.330 E1.9126
G1 X137.727 Y74.390 E1.9230
G1 X137.991 Y74.508 E1.9334
G1 X138.226 Y74.678 E1.9438
G1 X138.419 Y74.892 E1.9542
G1 X138.563 Y75.143 E1.9646
G1 X138.653 Y75.418 E1.9750
G1 X138.692 Y75.790 E1.9884
G1 X138.692 Y105.221 E3.0456
G1 X138.653 Y105.593 E3.0590
G1 X138.564 Y105.868 E3.0694
G1 X138.419 Y106.118 E3.0798
G1 X138.226 Y106.333 E3.0902
G1 X137.992 Y106.503 E3.1006
G1 X137.727 Y106.621 E3.1110
G1 X137.445 Y106.681 E3.1213
G1 X85.355 Y106.681 E4.9924
G1 X85.073 Y106.621 E5.0028
G1 X84.808 Y106.503 E5.0132
G1 X84.574 Y106.333 E5.0236
G1 X84.381 Y106.119 E5.0340
G1 X84.236 Y105.868 E5.0444
G1 X84.147 Y105.593 E5.0548
G1 X84.108 Y105.221 E5.0682
G1 X84.108 Y75.790 E6.1254
G1 X84.147 Y75.418 E6.1388
G1 X84.236 Y75.143 E6.1492
G1 X84.381 Y74.892 E6.1596
G1 X84.771 Y75.176 F4800
G92 E0
G1 X84.897 Y75.036 E0.0068 F1600
G1 X85.050 Y74.926 E0.0135
G1 X85.222 Y74.849 E0.0203
G1 X85.406 Y74.810 E0.0270
G1 X137.394 Y74.810 E1.8945
G1 X137.578 Y74.849 E1.9013
G1 X137.750 Y74.926 E1.9080
G1 X137.903 Y75.036 E1.9148
G1 X138.029 Y75.176 E1.9216
G1 X138.123 Y75.339 E1.9283
G1 X138.181 Y75.518 E1.9351
G1 X138.212 Y75.815 E1.9458
G1 X138.212 Y105.196 E3.0012
G1 X138.181 Y105.493 E3.0119
G1 X138.123 Y105.672 E3.0187
G1 X138.029 Y105.835 E3.0254
G1 X137.903 Y105.975 E3.0322
G1 X137.750 Y106.085 E3.0390
G1 X137.578 Y106.162 E3.0457
G1 X137.394 Y106.201 E3.0525
G1 X85.406 Y106.201 E4.9200
G1 X85.222 Y106.162 E4.9267
G1 X85.050 Y106.085 E4.9335
G1 X84.897 Y105.975 E4.9403
G1 X84.772 Y105.835 E4.9470
G1 X84.677 Y105.672 E4.9538
G1 X84.619 Y105.493 E4.9605
G1 X84.588 Y105.196 E4.9713
G1 X84.588 Y75.815 E6.0266
G1 X84.619 Y75.518 E6.0374
G1 X84.677 Y75.339 E6.0441
G1 X84.771 Y75.176 E6.0509
G1 X85.162 Y75.460 F4800
G92 E0
G1 X85.220 Y75.395 E0.0031 F1600
G1 X85.291 Y75.344 E0.0063
G1 X85.371 Y75.308 E0.0094
G1 X85.456 Y75.290 E0.0126
G1 X137.344 Y75.290 E1.8764
G1 X137.429 Y75.308 E1.8795
G1 X137.509 Y75.343 E1.8827
G1 X137.580 Y75.395 E1.8858
G1 X137.638 Y75.460 E1.8889
G1 X137.682 Y75.535 E1.8921
G1 X137.709 Y75.619 E1.8952
G1 X137.732 Y75.840 E1.9032
G1 X137.732 Y105.171 E2.9568
G1 X137.709 Y105.392 E2.9648
G1 X137.682 Y105.476 E2.9680
G1 X137.638 Y105.551 E2.9711
G1 X137.580 Y105.616 E2.9742
G1 X137.509 Y105.667 E2.9774
G1 X137.429 Y105.703 E2.9805
G1 X137.344 Y105.721 E2.9836
G1 X85.456 Y105.721 E4.8475
G1 X85.371 Y105.703 E4.8506
G1 X85.291 Y105.667 E4.8538
G1 X85.220 Y105.616 E4.8569
G1 X85.162 Y105.551 E4.8600
G1 X85.118 Y105.475 E4.8632
G1 X85.091 Y105.392 E4.8663
G1 X85.068 Y105.171 E4.8743
G1 X85.068 Y75.840 E5.9279
G1 X85.091 Y75.618 E5.9359
G1 X85.118 Y75.536 E5.9390
G1 X85.162 Y75.460 E5.9422
G1 X85.558 Y75.770 F4800
G92 E0
G1 X137.242 Y75.770 E1.8565 F1600
G1 X137.252 Y75.865 E1.8600
G1 X137.252 Y105.146 E2.9118
G1 X137.242 Y105.241 E2.9152
G1 X85.558 Y105.241 E4.7717
G1 X85.548 Y105.146 E4.7752
G1 X85.548 Y75.865 E5.8270
G1 X85.558 Y75.770 E5.8304
G1 X86.028 Y76.250 F4800
G92 E0
G1 X136.772 Y76.250 E1.8228 F1600
G1 X136.772 Y104.761 E2.8469
G1 X86.028 Y104.761 E4.6697
G1 X86.028 Y76.250 E5.6938
G1 X86.508 Y76.730 F4800
G92 E0
G1 X136.292 Y76.730 E1.7883 F1600
G1 X136.292 Y104.281 E2.7780
G1 X86.508 Y104.281 E4.5662
G1 X86.508 Y76.730 E5.5559
G1 X86.988 Y77.210 F4800
G92 E0
G1 X135.812 Y77.210 E1.7538 F1600
G1 X135.812 Y103.801 E2.7090
G1 X86.988 Y103.801 E4.4628
G1 X86.988 Y77.210 E5.4180
G1 X87.468 Y77.690 F4800
G92 E0
G1 X135.332 Y77.690 E1.7193 F1600
G1 X135.332 Y103.321 E2.6400
G1 X87.468 Y103.321 E4.3593
G1 X87.468 Y77.690 E5.2800
G1 X87.948 Y78.170 F4800
G92 E0
G1 X134.852 Y78.170 E1.6848 F1600
G1 X134.852 Y102.841 E2.5710
G1 X87.948 Y102.841 E4.2559
G1 X87.948 Y78.170 E5.1421
G1 X88.428 Y78.650 F4800
G92 E0
G1 X134.372 Y78.650 E1.6504 F1600
G1 X134.372 Y102.361 E2.5021
G1 X88.428 Y102.361 E4.1524
G1 X88.428 Y78.650 E5.0042
G1 X88.908 Y79.130 F4800
G92 E0
G1 X133.892 Y79.130 E1.6159 F1600
G1 X133.892 Y101.881 E2.4331
G1 X88.908 Y101.881 E4.0490
G1 X88.908 Y79.130 E4.8662
G1 X89.388 Y79.610 F4800
G92 E0
G1 X133.412 Y79.610 E1.5814 F1600
G1 X133.412 Y101.401 E2.3641
G1 X89.388 Y101.401 E3.9455
G1 X89.388 Y79.610 E4.7283
G1 X89.868 Y80.090 F4800
G92 E0
G1 X132.932 Y80.090 E1.5469 F1600
G1 X132.932 Y100.921 E2.2952
G1 X89.868 Y100.921 E3.8421
G1 X89.868 Y80.090 E4.5904
G1 X90.348 Y80.570 F4800
G92 E0
G1 X132.452 Y80.570 E1.5124 F1600
G1 X132.452 Y100.441 E2.2262
G1 X90.348 Y100.441 E3.7386
G1 X90.348 Y80.570 E4.4524
G1 X90.828 Y81.050 F4800
G92 E0
G1 X131.972 Y81.050 E1.4779 F1600
G1 X131.972 Y99.961 E2.1572
G1 X90.828 Y99.961 E3.6352
G1 X90.828 Y81.050 E4.3145
G1 X91.308 Y81.530 F4800
G92 E0
G1 X131.492 Y81.530 E1.4434 F1600
G1 X131.492 Y99.481 E2.0883
G1 X91.308 Y99.481 E3.5317
G1 X91.308 Y81.530 E4.1765
G1 X91.788 Y82.010 F4800
G92 E0
G1 X131.012 Y82.010 E1.4090 F1600
G1 X131.012 Y99.001 E2.0193
G1 X91.788 Y99.001 E3.4283
G1 X91.788 Y82.010 E4.0386
G1 X92.268 Y82.490 F4800
G92 E0
G1 X130.532 Y82.490 E1.3745 F1600
G1 X130.532 Y98.521 E1.9503
G1 X92.268 Y98.521 E3.3248
G1 X92.268 Y82.490 E3.9007
G1 X92.748 Y82.970 F4800
G92 E0
G1 X130.052 Y82.970 E1.3400 F1600
G1 X130.052 Y98.041 E1.8814
G1 X92.748 Y98.041 E3.2214
G1 X92.748 Y82.970 E3.7627
G1 X93.228 Y83.450 F4800
G92 E0
G1 X129.572 Y83.450 E1.3055 F1600
G1 X129.572 Y97.561 E1.8124
G1 X93.228 Y97.561 E3.1179
G1 X93.228 Y83.450 E3.6248
G1 X93.708 Y83.930 F4800
G92 E0
G1 X129.092 Y83.930 E1.2710 F1600
G1 X129.092 Y97.081 E1.7434
G1 X93.708 Y97.081 E3.0145
G1 X93.708 Y83.930 E3.4869
G1 X94.188 Y84.410 F4800
G92 E0
G1 X128.612 Y84.410 E1.2365 F1600
G1 X128.612 Y96.601 E1.6745
G1 X94.188 Y96.601 E2.9110
G1 X94.188 Y84.410 E3.3489
G1 X94.668 Y84.890 F4800
G92 E0
G1 X128.132 Y84.890 E1.2021 F1600
G1 X128.132 Y96.121 E1.6055
G1 X94.668 Y96.121 E2.8075
G1 X94.668 Y84.890 E3.2110
G1 X95.148 Y85.370 F4800
G92 E0
G1 X127.652 Y85.370 E1.1676 F1600
G1 X127.652 Y95.641 E1.5365
G1 X95.148 Y95.641 E2.7041
G1 X95.148 Y85.370 E3.0730
G1 X95.628 Y85.850 F4800
G92 E0
G1 X127.172 Y85.850 E1.1331 F1600
G1 X127.172 Y95.161 E1.4676
G1 X95.628 Y95.161 E2.6006
G1 X95.628 Y85.850 E2.9351
G1 X96.108 Y86.330 F4800
G92 E0
G1 X126.692 Y86.330 E1.0986 F1600
G1 X126.692 Y94.681 E1.3986
G1 X96.108 Y94.681 E2.4972
G1 X96.108 Y86.330 E2.7972
G1 X96.588 Y86.810 F4800
G92 E0
G1 X126.212 Y86.810 E1.0641 F1600
G1 X126.212 Y94.201 E1.3296
G1 X96.588 Y94.201 E2.3937
G1 X96.588 Y86.810 E2.6592
G1 X97.068 Y87.290 F4800
G92 E0
G1 X125.732 Y87.290 E1.0296 F1600
G1 X125.732 Y93.721 E1.2607
G1 X97.068 Y93.721 E2.2903
G1 X97.068 Y87.290 E2.5213
G1 X97.548 Y87.770 F4800
G92 E0
G1 X125.252 Y87.770 E0.9952 F1600
G1 X125.252 Y93.241 E1.1917
G1 X97.548 Y93.241 E2.1868
G1 X97.548 Y87.770 E2.3834
G1 X98.028 Y88.250 F4800
G92 E0
G1 X124.772 Y88.250 E0.9607 F1600
G1 X124.772 Y92.761 E1.1227
G1 X98.028 Y92.761 E2.0834
G1 X98.028 Y88.250 E2.2454
G1 X98.508 Y88.730 F4800
G92 E0
G1 X124.292 Y88.730 E0.9262 F1600
G1 X124.292 Y92.281 E1.0537
G1 X98.508 Y92.281 E1.9799
G1 X98.508 Y88.730 E2.1075
G1 X98.988 Y89.210 F4800
G92 E0
G1 X123.812 Y89.210 E0.8917 F1600
G1 X123.812 Y91.801 E0.9848
G1 X98.988 Y91.801 E1.8765
G1 X98.988 Y89.210 E1.9696
