; G-Code generated by Simplify3D(R) Version 4.0.0
; May 1, 2018 at 8:53:07 PM
; Settings Summary
;   processName,nozzle 0.4
;   applyToModels,spool_mount
;   profileName,Flying Bear 902 Update 7-2017 (modified)
;   profileVersion,2017-07-10 09:45:20
;   baseProfile,Default
;   printMaterial,PLA
;   printQuality,Medium
;   printExtruders,
;   extruderName,Extruder 1
;   extruderToolheadNumber,0
;   extruderDiameter,0.4
;   extruderAutoWidth,1
;   extruderWidth,0.48
;   extrusionMultiplier,0.9
;   extruderUseRetract,1
;   extruderRetractionDistance,2
;   extruderExtraRestartDistance,0
;   extruderRetractionZLift,0
;   extruderRetractionSpeed,3000
;   extruderUseCoasting,0
;   extruderCoastingDistance,0.2
;   extruderUseWipe,1
;   extruderWipeDistance,5
;   primaryExtruder,0
;   layerHeight,0.15
;   topSolidLayers,4
;   bottomSolidLayers,4
;   perimeterOutlines,3
;   printPerimetersInsideOut,0
;   startPointOption,2
;   startPointOriginX,0
;   startPointOriginY,0
;   sequentialIslands,0
;   spiralVaseMode,0
;   firstLayerHeightPercentage,20
;   firstLayerWidthPercentage,100
;   firstLayerUnderspeed,0.5
;   useRaft,1
;   raftExtruder,0
;   raftTopLayers,2
;   raftBaseLayers,2
;   raftOffset,2
;   raftSeparationDistance,0.55
;   raftTopInfill,100
;   aboveRaftSpeedMultiplier,0.3
;   useSkirt,0
;   skirtExtruder,0
;   skirtLayers,1
;   skirtOutlines,2
;   skirtOffset,4
;   usePrimePillar,0
;   primePillarExtruder,999
;   primePillarWidth,12
;   primePillarLocation,7
;   primePillarSpeedMultiplier,1
;   useOozeShield,0
;   oozeShieldExtruder,999
;   oozeShieldOffset,2
;   oozeShieldOutlines,1
;   oozeShieldSidewallShape,1
;   oozeShieldSidewallAngle,30
;   oozeShieldSpeedMultiplier,1
;   infillExtruder,0
;   internalInfillPattern,Rectilinear
;   externalInfillPattern,Rectilinear
;   infillPercentage,16
;   outlineOverlapPercentage,60
;   infillExtrusionWidthPercentage,100
;   minInfillLength,5
;   infillLayerInterval,1
;   internalInfillAngles,45,-45
;   overlapInternalInfillAngles,0
;   externalInfillAngles,45,-45
;   generateSupport,0
;   supportExtruder,0
;   supportInfillPercentage,30
;   supportExtraInflation,0
;   supportBaseLayers,0
;   denseSupportExtruder,0
;   denseSupportLayers,0
;   denseSupportInfillPercentage,50
;   supportLayerInterval,1
;   supportHorizontalPartOffset,0.3
;   supportUpperSeparationLayers,1
;   supportLowerSeparationLayers,1
;   supportType,0
;   supportGridSpacing,4
;   maxOverhangAngle,70
;   supportAngles,0
;   temperatureName,Extruder 1,Heated Bed
;   temperatureNumber,0,0
;   temperatureSetpointCount,1,1
;   temperatureSetpointLayers,1,1
;   temperatureSetpointTemperatures,210,60
;   temperatureStabilizeAtStartup,1,0
;   temperatureHeatedBed,0,1
;   temperatureRelayBetweenLayers,0,0
;   temperatureRelayBetweenLoops,0,0
;   fanLayers,1
;   fanSpeeds,255
;   blipFanToFullPower,0
;   adjustSpeedForCooling,1
;   minSpeedLayerTime,15
;   minCoolingSpeedSlowdown,20
;   increaseFanForCooling,0
;   minFanLayerTime,45
;   maxCoolingFanSpeed,100
;   increaseFanForBridging,0
;   bridgingFanSpeed,100
;   use5D,1
;   relativeEdistances,0
;   allowEaxisZeroing,1
;   independentExtruderAxes,0
;   includeM10123,0
;   stickySupport,1
;   applyToolheadOffsets,0
;   gcodeXoffset,0
;   gcodeYoffset,0
;   gcodeZoffset,0
;   overrideMachineDefinition,1
;   machineTypeOverride,0
;   strokeXoverride,220
;   strokeYoverride,220
;   strokeZoverride,280
;   originOffsetXoverride,0
;   originOffsetYoverride,0
;   originOffsetZoverride,0
;   homeXdirOverride,-1
;   homeYdirOverride,-1
;   homeZdirOverride,-1
;   flipXoverride,1
;   flipYoverride,-1
;   flipZoverride,1
;   toolheadOffsets,0,0|0,0|0,0|0,0|0,0|0,0
;   overrideFirmwareConfiguration,1
;   firmwareTypeOverride,RepRap (Marlin/Repetier/Sprinter)
;   GPXconfigOverride,r2
;   baudRateOverride,250000
;   overridePrinterModels,0
;   printerModelsOverride
;   startingGcode,G28 ; home all axes,G1 X0 Y20 Z0.2 F3000 ; get ready to prime,G92 E0 ; reset extrusion distance,G1 X200 E20 F600 ; prime nozzle
;   layerChangeGcode,
;   retractionGcode,
;   toolChangeGcode,
;   endingGcode,M104 S0 ; turn off extruder,M140 S0 ; turn off bed,G28 X Y ; home x and y axes,M84 ; disable motors
;   exportFileFormat,gcode
;   celebration,0
;   celebrationSong,Random Song
;   postProcessing,
;   defaultSpeed,5000
;   outlineUnderspeed,0.6
;   solidInfillUnderspeed,0.85
;   supportUnderspeed,0.8
;   rapidXYspeed,5200
;   rapidZspeed,1002
;   minBridgingArea,50
;   bridgingExtraInflation,0
;   bridgingExtrusionMultiplier,1
;   bridgingSpeedMultiplier,1
;   useFixedBridgingAngle,0
;   fixedBridgingAngle,0
;   applyBridgingToPerimeters,0
;   filamentDiameters,1.75|1.75|1.75|1.75|1.75|1.75
;   filamentPricesPerKg,46|46|46|46|46|46
;   filamentDensities,1.25|1.25|1.25|1.25|1.25|1.25
;   useMinPrintHeight,0
;   minPrintHeight,0
;   useMaxPrintHeight,0
;   maxPrintHeight,2.3
;   useDiaphragm,0
;   diaphragmLayerInterval,20
;   robustSlicing,1
;   mergeAllIntoSolid,0
;   onlyRetractWhenCrossingOutline,1
;   retractBetweenLayers,1
;   useRetractionMinTravel,0
;   retractionMinTravel,3
;   retractWhileWiping,0
;   onlyWipeOutlines,1
;   avoidCrossingOutline,0
;   maxMovementDetourFactor,3
;   toolChangeRetractionDistance,12
;   toolChangeExtraRestartDistance,-0.5
;   toolChangeRetractionSpeed,600
;   externalThinWallType,1
;   internalThinWallType,0
;   thinWallAllowedOverlapPercentage,15
;   singleExtrusionMinLength,1
;   singleExtrusionMinPrintingWidthPercentage,50
;   singleExtrusionMaxPrintingWidthPercentage,200
;   singleExtrusionEndpointExtension,0.2
;   horizontalSizeCompensation,0
G90
M82
M106 S650
M140 S60
M104 S210 T0
M109 S210 T0
G28 ; home all axes
G1 X0 Y20 Z0.2 F3000 ; get ready to prime
G92 E0 ; reset extrusion distance
G1 X200 E20 F600 ; prime nozzle
G92 E0
G1 E-2.0000 F3000
G1 Z0.100 F1002
; process nozzle 0.4
; layer 1, Z = 0.100
T0
; tool H0.500 W0.800
; raft
G1 X88.400 Y81.837 F5200
G1 E0.0000 F900
G92 E0
G1 X89.337 Y80.900 E0.1984 F625
G1 X130.663 Y80.900 E6.3836
G1 X131.600 Y81.837 E6.5820
G1 X131.600 Y138.163 E15.0123
G1 X130.663 Y139.100 E15.2106
G1 X89.337 Y139.100 E21.3958
G1 X88.400 Y138.163 E21.5942
G1 X88.400 Y81.837 E30.0245
G92 E0
G1 E-2.0000 F3000
G1 X107.603 Y87.246 F5200
G1 E0.0000 F3000
G92 E0
G1 X107.553 Y87.444 E0.0305 F625
G1 X107.520 Y87.645 E0.0610
G1 X107.503 Y87.848 E0.0915
G1 X107.503 Y88.052 E0.1220
G1 X107.520 Y88.255 E0.1525
G1 X107.553 Y88.456 E0.1830
G1 X107.603 Y88.654 E0.2136
G1 X107.668 Y88.847 E0.2440
G1 X107.749 Y89.034 E0.2746
G1 X107.845 Y89.214 E0.3051
G1 X107.955 Y89.385 E0.3356
G1 X108.079 Y89.547 E0.3661
G1 X108.215 Y89.699 E0.3966
G1 X108.364 Y89.838 E0.4271
G1 X108.523 Y89.965 E0.4576
G1 X108.692 Y90.079 E0.4881
G1 X108.870 Y90.179 E0.5186
G1 X109.056 Y90.263 E0.5491
G1 X109.247 Y90.333 E0.5796
G1 X109.444 Y90.386 E0.6102
G1 X109.644 Y90.423 E0.6407
G1 X109.847 Y90.444 E0.6712
G1 X110.051 Y90.448 E0.7017
G1 X110.254 Y90.436 E0.7322
G1 X110.456 Y90.407 E0.7627
G1 X110.655 Y90.361 E0.7932
G1 X110.849 Y90.300 E0.8237
G1 X111.038 Y90.223 E0.8542
G1 X111.220 Y90.131 E0.8847
G1 X111.393 Y90.024 E0.9152
G1 X111.558 Y89.903 E0.9458
G1 X111.712 Y89.770 E0.9762
G1 X111.855 Y89.624 E1.0068
G1 X111.985 Y89.468 E1.0373
G1 X112.102 Y89.301 E1.0678
G1 X112.205 Y89.125 E1.0983
G1 X112.294 Y88.941 E1.1288
G1 X112.367 Y88.751 E1.1593
G1 X112.424 Y88.556 E1.1898
G1 X112.465 Y88.356 E1.2203
G1 X112.490 Y88.154 E1.2508
G1 X112.499 Y87.950 E1.2813
G1 X112.490 Y87.746 E1.3118
G1 X112.465 Y87.544 E1.3423
G1 X112.424 Y87.344 E1.3728
G1 X112.367 Y87.149 E1.4034
G1 X112.294 Y86.959 E1.4339
G1 X112.205 Y86.775 E1.4644
G1 X112.102 Y86.599 E1.4949
G1 X111.985 Y86.432 E1.5254
G1 X111.855 Y86.276 E1.5559
G1 X111.712 Y86.130 E1.5864
G1 X111.558 Y85.997 E1.6169
G1 X111.393 Y85.876 E1.6474
G1 X111.220 Y85.769 E1.6779
G1 X111.038 Y85.677 E1.7084
G1 X110.849 Y85.600 E1.7390
G1 X110.655 Y85.539 E1.7695
G1 X110.456 Y85.493 E1.8000
G1 X110.254 Y85.464 E1.8305
G1 X110.051 Y85.452 E1.8610
G1 X109.847 Y85.456 E1.8915
G1 X109.644 Y85.477 E1.9220
G1 X109.444 Y85.514 E1.9525
G1 X109.247 Y85.567 E1.9830
G1 X109.056 Y85.637 E2.0135
G1 X108.870 Y85.721 E2.0440
G1 X108.692 Y85.821 E2.0745
G1 X108.523 Y85.935 E2.1050
G1 X108.364 Y86.062 E2.1356
G1 X108.215 Y86.201 E2.1661
G1 X108.079 Y86.353 E2.1966
G1 X107.955 Y86.515 E2.2271
G1 X107.845 Y86.685 E2.2574
G1 X107.747 Y86.870 E2.2887
G1 X107.668 Y87.053 E2.3186
G1 X107.603 Y87.246 E2.3491
G92 E0
G1 E-2.0000 F3000
G1 X108.711 Y99.127 F5200
G1 E0.0000 F3000
G92 E0
G1 X108.203 Y99.199 E0.0768 F625
G1 X107.699 Y99.295 E0.1537
G1 X107.200 Y99.415 E0.2305
G1 X106.707 Y99.558 E0.3073
G1 X106.221 Y99.724 E0.3842
G1 X105.743 Y99.912 E0.4610
G1 X105.275 Y100.123 E0.5378
G1 X104.817 Y100.355 E0.6147
G1 X104.371 Y100.608 E0.6915
G1 X103.937 Y100.883 E0.7683
G1 X103.516 Y101.177 E0.8452
G1 X103.109 Y101.491 E0.9221
G1 X102.725 Y101.817 E0.9976
G1 X102.343 Y102.173 E1.0757
G1 X101.985 Y102.541 E1.1525
G1 X101.644 Y102.924 E1.2294
G1 X101.321 Y103.324 E1.3062
G1 X101.018 Y103.738 E1.3830
G1 X100.734 Y104.166 E1.4599
G1 X100.471 Y104.607 E1.5367
G1 X100.229 Y105.059 E1.6135
G1 X100.008 Y105.523 E1.6904
G1 X99.809 Y105.996 E1.7672
G1 X99.633 Y106.478 E1.8440
G1 X99.479 Y106.968 E1.9209
G1 X99.348 Y107.464 E1.9977
G1 X99.241 Y107.966 E2.0745
G1 X99.158 Y108.473 E2.1514
G1 X99.098 Y108.983 E2.2282
G1 X99.062 Y109.495 E2.3051
G1 X99.051 Y110.008 E2.3819
G1 X99.063 Y110.521 E2.4587
G1 X99.100 Y111.033 E2.5356
G1 X99.160 Y111.543 E2.6124
G1 X99.244 Y112.050 E2.6892
G1 X99.352 Y112.551 E2.7660
G1 X99.483 Y113.048 E2.8429
G1 X99.638 Y113.537 E2.9197
G1 X99.815 Y114.019 E2.9966
G1 X100.015 Y114.492 E3.0734
G1 X100.236 Y114.955 E3.1502
G1 X100.479 Y115.407 E3.2271
G1 X100.743 Y115.848 E3.3039
G1 X101.027 Y116.275 E3.3807
G1 X101.331 Y116.689 E3.4576
G1 X101.654 Y117.088 E3.5344
G1 X101.996 Y117.471 E3.6112
G1 X102.355 Y117.838 E3.6881
G1 X102.730 Y118.188 E3.7649
G1 X103.122 Y118.520 E3.8417
G1 X103.529 Y118.833 E3.9186
G1 X103.950 Y119.126 E3.9954
G1 X104.385 Y119.400 E4.0723
G1 X104.832 Y119.653 E4.1491
G1 X105.290 Y119.884 E4.2259
G1 X105.758 Y120.094 E4.3028
G1 X106.236 Y120.282 E4.3796
G1 X106.722 Y120.447 E4.4565
G1 X107.215 Y120.589 E4.5333
G1 X107.715 Y120.708 E4.6101
G1 X108.219 Y120.804 E4.6869
G1 X108.727 Y120.875 E4.7638
G1 X109.239 Y120.923 E4.8406
G1 X109.751 Y120.947 E4.9174
G1 X110.265 Y120.946 E4.9943
G1 X110.777 Y120.922 E5.0711
G1 X111.289 Y120.873 E5.1480
G1 X111.797 Y120.801 E5.2248
G1 X112.301 Y120.705 E5.3016
G1 X112.800 Y120.585 E5.3784
G1 X113.293 Y120.442 E5.4553
G1 X113.779 Y120.276 E5.5321
G1 X114.257 Y120.088 E5.6090
G1 X114.725 Y119.877 E5.6858
G1 X115.183 Y119.645 E5.7626
G1 X115.629 Y119.392 E5.8395
G1 X116.063 Y119.117 E5.9163
G1 X116.484 Y118.823 E5.9931
G1 X116.890 Y118.510 E6.0700
G1 X117.282 Y118.177 E6.1468
G1 X117.657 Y117.827 E6.2236
G1 X118.015 Y117.459 E6.3005
G1 X118.356 Y117.076 E6.3773
G1 X118.679 Y116.676 E6.4541
G1 X118.982 Y116.262 E6.5310
G1 X119.266 Y115.834 E6.6078
G1 X119.529 Y115.393 E6.6847
G1 X119.771 Y114.941 E6.7615
G1 X119.992 Y114.477 E6.8383
G1 X120.191 Y114.004 E6.9152
G1 X120.367 Y113.522 E6.9920
G1 X120.521 Y113.032 E7.0688
G1 X120.652 Y112.536 E7.1457
G1 X120.759 Y112.034 E7.2225
G1 X120.842 Y111.527 E7.2994
G1 X120.902 Y111.017 E7.3762
G1 X120.938 Y110.505 E7.4530
G1 X120.949 Y109.992 E7.5298
G1 X120.937 Y109.479 E7.6067
G1 X120.900 Y108.967 E7.6835
G1 X120.840 Y108.457 E7.7604
G1 X120.756 Y107.951 E7.8371
G1 X120.648 Y107.448 E7.9140
G1 X120.517 Y106.952 E7.9908
G1 X120.362 Y106.463 E8.0677
G1 X120.185 Y105.981 E8.1445
G1 X119.985 Y105.508 E8.2214
G1 X119.764 Y105.045 E8.2982
G1 X119.521 Y104.593 E8.3750
G1 X119.257 Y104.152 E8.4519
G1 X118.973 Y103.725 E8.5287
G1 X118.669 Y103.311 E8.6055
G1 X118.346 Y102.912 E8.6824
G1 X118.004 Y102.529 E8.7592
G1 X117.645 Y102.162 E8.8360
G1 X117.269 Y101.812 E8.9129
G1 X116.878 Y101.480 E8.9897
G1 X116.471 Y101.167 E9.0665
G1 X116.050 Y100.874 E9.1434
G1 X115.615 Y100.600 E9.2202
G1 X115.168 Y100.347 E9.2971
G1 X114.710 Y100.116 E9.3739
G1 X114.242 Y99.906 E9.4507
G1 X113.764 Y99.718 E9.5275
G1 X113.278 Y99.553 E9.6044
G1 X112.785 Y99.411 E9.6812
G1 X112.285 Y99.292 E9.7580
G1 X111.781 Y99.196 E9.8349
G1 X111.273 Y99.125 E9.9117
G1 X110.761 Y99.077 E9.9886
G1 X110.249 Y99.053 E10.0654
G1 X109.735 Y99.054 E10.1423
G1 X109.223 Y99.078 E10.2190
G1 X108.711 Y99.127 E10.2959
G92 E0
G1 E-2.0000 F3000
G1 X109.847 Y129.556 F5200
G1 E0.0000 F3000
G92 E0
G1 X109.644 Y129.577 E0.0305 F625
G1 X109.444 Y129.614 E0.0610
G1 X109.247 Y129.667 E0.0915
G1 X109.056 Y129.737 E0.1220
G1 X108.870 Y129.821 E0.1525
G1 X108.692 Y129.921 E0.1831
G1 X108.523 Y130.035 E0.2136
G1 X108.364 Y130.162 E0.2441
G1 X108.215 Y130.301 E0.2746
G1 X108.079 Y130.453 E0.3051
G1 X107.955 Y130.615 E0.3356
G1 X107.845 Y130.785 E0.3659
G1 X107.747 Y130.970 E0.3972
G1 X107.668 Y131.153 E0.4271
G1 X107.603 Y131.346 E0.4576
G1 X107.553 Y131.544 E0.4881
G1 X107.520 Y131.745 E0.5186
G1 X107.503 Y131.948 E0.5492
G1 X107.503 Y132.152 E0.5796
G1 X107.520 Y132.355 E0.6102
G1 X107.553 Y132.556 E0.6407
G1 X107.603 Y132.754 E0.6712
G1 X107.668 Y132.947 E0.7017
G1 X107.749 Y133.134 E0.7322
G1 X107.845 Y133.314 E0.7627
G1 X107.955 Y133.485 E0.7932
G1 X108.079 Y133.647 E0.8237
G1 X108.215 Y133.799 E0.8542
G1 X108.364 Y133.938 E0.8847
G1 X108.523 Y134.065 E0.9152
G1 X108.692 Y134.179 E0.9457
G1 X108.870 Y134.279 E0.9762
G1 X109.056 Y134.363 E1.0068
G1 X109.247 Y134.433 E1.0373
G1 X109.444 Y134.486 E1.0678
G1 X109.644 Y134.523 E1.0983
G1 X109.847 Y134.544 E1.1288
G1 X110.051 Y134.548 E1.1593
G1 X110.254 Y134.536 E1.1898
G1 X110.456 Y134.507 E1.2203
G1 X110.655 Y134.461 E1.2509
G1 X110.849 Y134.400 E1.2813
G1 X111.038 Y134.323 E1.3119
G1 X111.220 Y134.231 E1.3423
G1 X111.393 Y134.124 E1.3728
G1 X111.558 Y134.003 E1.4034
G1 X111.712 Y133.870 E1.4339
G1 X111.855 Y133.724 E1.4644
G1 X111.985 Y133.568 E1.4949
G1 X112.102 Y133.401 E1.5254
G1 X112.205 Y133.225 E1.5559
G1 X112.294 Y133.041 E1.5864
G1 X112.367 Y132.851 E1.6169
G1 X112.424 Y132.656 E1.6474
G1 X112.465 Y132.456 E1.6779
G1 X112.490 Y132.254 E1.7084
G1 X112.499 Y132.050 E1.7390
G1 X112.490 Y131.846 E1.7695
G1 X112.465 Y131.644 E1.8000
G1 X112.424 Y131.444 E1.8305
G1 X112.367 Y131.249 E1.8610
G1 X112.294 Y131.059 E1.8915
G1 X112.205 Y130.875 E1.9220
G1 X112.102 Y130.699 E1.9525
G1 X111.985 Y130.532 E1.9830
G1 X111.855 Y130.376 E2.0135
G1 X111.712 Y130.230 E2.0440
G1 X111.558 Y130.096 E2.0745
G1 X111.393 Y129.976 E2.1051
G1 X111.220 Y129.869 E2.1356
G1 X111.038 Y129.777 E2.1661
G1 X110.849 Y129.700 E2.1966
G1 X110.655 Y129.639 E2.2271
G1 X110.456 Y129.593 E2.2576
G1 X110.254 Y129.564 E2.2881
G1 X110.051 Y129.552 E2.3186
G1 X109.847 Y129.556 E2.3491
G92 E0
G1 E-2.0000 F3000
G1 X112.714 Y121.429 F5200
G1 E0.0000 F3000
G92 E0
G1 X130.800 Y121.429 E2.7070 F625
G1 X130.800 Y119.143 E3.0491
G1 X117.379 Y119.143 E5.0578
G1 X117.394 Y119.132 E5.0606
G1 X117.814 Y118.775 E5.1431
G1 X118.216 Y118.399 E5.2255
G1 X118.601 Y118.005 E5.3080
G1 X118.967 Y117.593 E5.3904
G1 X119.313 Y117.164 E5.4729
G1 X119.538 Y116.857 E5.5298
G1 X130.800 Y116.857 E7.2154
G1 X130.800 Y114.571 E7.5575
G1 X120.820 Y114.571 E9.0512
G1 X120.936 Y114.297 E9.0958
G1 X121.125 Y113.779 E9.1783
G1 X121.290 Y113.254 E9.2607
G1 X121.430 Y112.721 E9.3432
G1 X121.523 Y112.286 E9.4098
G1 X130.800 Y112.286 E10.7983
G1 X130.800 Y110.000 E11.1404
G1 X121.749 Y110.000 E12.4950
G1 X121.750 Y109.992 E12.4963
G1 X121.736 Y109.440 E12.5788
G1 X121.697 Y108.891 E12.6612
G1 X121.632 Y108.344 E12.7436
G1 X121.542 Y107.801 E12.8261
G1 X121.523 Y107.714 E12.8393
G1 X130.800 Y107.714 E14.2277
G1 X130.800 Y105.429 E14.5699
G1 X120.820 Y105.429 E16.0635
G1 X120.715 Y105.180 E16.1040
G1 X120.478 Y104.683 E16.1864
G1 X120.217 Y104.197 E16.2689
G1 X119.933 Y103.725 E16.3513
G1 X119.628 Y103.266 E16.4338
G1 X119.538 Y103.143 E16.4567
G1 X130.800 Y103.143 E18.1423
G1 X130.800 Y100.857 E18.4844
G1 X117.380 Y100.857 E20.4930
G92 E0
G1 E-2.0000 F3000
G1 X112.947 Y89.429 F5200
G1 E0.0000 F3000
G92 E0
