; G-Code generated by Simplify3D(R) Version 4.0.0
; May 11, 2018 at 4:38:06 PM
; Settings Summary
;   processName,nozzle 0.4
;   applyToModels,dice-box-top-dnd
;   profileName,Flying Bear 902 Update 7-2017 (modified)
;   profileVersion,2017-07-10 09:45:20
;   baseProfile,Default
;   printMaterial,PLA
;   printQuality,Medium
;   printExtruders,
;   extruderName,Extruder 1
;   extruderToolheadNumber,0
;   extruderDiameter,0.4
;   extruderAutoWidth,1
;   extruderWidth,0.48
;   extrusionMultiplier,0.9
;   extruderUseRetract,1
;   extruderRetractionDistance,3
;   extruderExtraRestartDistance,0
;   extruderRetractionZLift,0
;   extruderRetractionSpeed,3000
;   extruderUseCoasting,0
;   extruderCoastingDistance,0.2
;   extruderUseWipe,1
;   extruderWipeDistance,5
;   primaryExtruder,0
;   layerHeight,0.3
;   topSolidLayers,2
;   bottomSolidLayers,2
;   perimeterOutlines,3
;   printPerimetersInsideOut,0
;   startPointOption,2
;   startPointOriginX,0
;   startPointOriginY,0
;   sequentialIslands,0
;   spiralVaseMode,0
;   firstLayerHeightPercentage,20
;   firstLayerWidthPercentage,115
;   firstLayerUnderspeed,0.3
;   useRaft,0
;   raftExtruder,0
;   raftTopLayers,2
;   raftBaseLayers,2
;   raftOffset,2
;   raftSeparationDistance,0.3
;   raftTopInfill,100
;   aboveRaftSpeedMultiplier,0.3
;   useSkirt,0
;   skirtExtruder,0
;   skirtLayers,1
;   skirtOutlines,2
;   skirtOffset,4
;   usePrimePillar,0
;   primePillarExtruder,999
;   primePillarWidth,12
;   primePillarLocation,7
;   primePillarSpeedMultiplier,1
;   useOozeShield,0
;   oozeShieldExtruder,999
;   oozeShieldOffset,2
;   oozeShieldOutlines,1
;   oozeShieldSidewallShape,1
;   oozeShieldSidewallAngle,30
;   oozeShieldSpeedMultiplier,1
;   infillExtruder,0
;   internalInfillPattern,Rectilinear
;   externalInfillPattern,Rectilinear
;   infillPercentage,10
;   outlineOverlapPercentage,60
;   infillExtrusionWidthPercentage,100
;   minInfillLength,5
;   infillLayerInterval,1
;   internalInfillAngles,45,-45
;   overlapInternalInfillAngles,0
;   externalInfillAngles,45,-45
;   generateSupport,1
;   supportExtruder,0
;   supportInfillPercentage,30
;   supportExtraInflation,0
;   supportBaseLayers,0
;   denseSupportExtruder,0
;   denseSupportLayers,0
;   denseSupportInfillPercentage,50
;   supportLayerInterval,1
;   supportHorizontalPartOffset,0.3
;   supportUpperSeparationLayers,1
;   supportLowerSeparationLayers,1
;   supportType,0
;   supportGridSpacing,4
;   maxOverhangAngle,60
;   supportAngles,0
;   temperatureName,Extruder 1,Heated Bed
;   temperatureNumber,0,0
;   temperatureSetpointCount,1,1
;   temperatureSetpointLayers,1,1
;   temperatureSetpointTemperatures,210,60
;   temperatureStabilizeAtStartup,1,0
;   temperatureHeatedBed,0,1
;   temperatureRelayBetweenLayers,0,0
;   temperatureRelayBetweenLoops,0,0
;   fanLayers,1
;   fanSpeeds,255
;   blipFanToFullPower,0
;   adjustSpeedForCooling,1
;   minSpeedLayerTime,15
;   minCoolingSpeedSlowdown,20
;   increaseFanForCooling,0
;   minFanLayerTime,45
;   maxCoolingFanSpeed,100
;   increaseFanForBridging,0
;   bridgingFanSpeed,100
;   use5D,1
;   relativeEdistances,0
;   allowEaxisZeroing,1
;   independentExtruderAxes,0
;   includeM10123,0
;   stickySupport,1
;   applyToolheadOffsets,0
;   gcodeXoffset,0
;   gcodeYoffset,0
;   gcodeZoffset,0
;   overrideMachineDefinition,1
;   machineTypeOverride,0
;   strokeXoverride,220
;   strokeYoverride,220
;   strokeZoverride,280
;   originOffsetXoverride,0
;   originOffsetYoverride,0
;   originOffsetZoverride,0
;   homeXdirOverride,-1
;   homeYdirOverride,-1
;   homeZdirOverride,-1
;   flipXoverride,1
;   flipYoverride,-1
;   flipZoverride,1
;   toolheadOffsets,0,0|0,0|0,0|0,0|0,0|0,0
;   overrideFirmwareConfiguration,1
;   firmwareTypeOverride,RepRap (Marlin/Repetier/Sprinter)
;   GPXconfigOverride,r2
;   baudRateOverride,250000
;   overridePrinterModels,0
;   printerModelsOverride
;   startingGcode,G28 ; home all axes,G1 X0 Y20 Z0.2 F3000 ; get ready to prime,G92 E0 ; reset extrusion distance,G1 X200 E20 F600 ; prime nozzle
;   layerChangeGcode,
;   retractionGcode,
;   toolChangeGcode,
;   endingGcode,M104 S0 ; turn off extruder,M140 S0 ; turn off bed,G28 X Y ; home x and y axes,M84 ; disable motors
;   exportFileFormat,gcode
;   celebration,0
;   celebrationSong,Random Song
;   postProcessing,
;   defaultSpeed,4400
;   outlineUnderspeed,0.6
;   solidInfillUnderspeed,0.85
;   supportUnderspeed,0.8
;   rapidXYspeed,4600
;   rapidZspeed,1002
;   minBridgingArea,50
;   bridgingExtraInflation,0
;   bridgingExtrusionMultiplier,1
;   bridgingSpeedMultiplier,1
;   useFixedBridgingAngle,0
;   fixedBridgingAngle,0
;   applyBridgingToPerimeters,0
;   filamentDiameters,1.75|1.75|1.75|1.75|1.75|1.75
;   filamentPricesPerKg,46|46|46|46|46|46
;   filamentDensities,1.25|1.25|1.25|1.25|1.25|1.25
;   useMinPrintHeight,0
;   minPrintHeight,0
;   useMaxPrintHeight,0
;   maxPrintHeight,4.3
;   useDiaphragm,0
;   diaphragmLayerInterval,20
;   robustSlicing,1
;   mergeAllIntoSolid,0
;   onlyRetractWhenCrossingOutline,1
;   retractBetweenLayers,1
;   useRetractionMinTravel,0
;   retractionMinTravel,3
;   retractWhileWiping,0
;   onlyWipeOutlines,1
;   avoidCrossingOutline,0
;   maxMovementDetourFactor,3
;   toolChangeRetractionDistance,12
;   toolChangeExtraRestartDistance,-0.5
;   toolChangeRetractionSpeed,600
;   externalThinWallType,0
;   internalThinWallType,0
;   thinWallAllowedOverlapPercentage,20
;   singleExtrusionMinLength,1
;   singleExtrusionMinPrintingWidthPercentage,50
;   singleExtrusionMaxPrintingWidthPercentage,200
;   singleExtrusionEndpointExtension,0.2
;   horizontalSizeCompensation,0
G90
M82
M106 S650
M140 S60
M104 S210 T0
M109 S210 T0
G28 ; home all axes
G1 X0 Y20 Z0.2 F3000 ; get ready to prime
G92 E0 ; reset extrusion distance
G1 X200 E20 F600 ; prime nozzle
G92 E0
G1 E-3.0000 F3000
G1 Z0.060 F1002
; process nozzle 0.4
; layer 1, Z = 0.060
T0
; tool H0.300 W0.552
; outer perimeter
G1 X71.808 Y84.648 F4600
G1 E0.0000 F900
G92 E0
G1 X72.561 Y84.038 E0.0600 F792
G1 X73.364 Y83.517 E0.1194
G1 X105.367 Y65.039 E2.4092
G1 X106.236 Y64.596 E2.4696
G1 X107.140 Y64.249 E2.5297
G1 X108.076 Y63.998 E2.5897
G1 X109.033 Y63.847 E2.6497
G1 X110.000 Y63.796 E2.7097
G1 X110.967 Y63.847 E2.7697
G1 X111.924 Y63.998 E2.8297
G1 X112.860 Y64.249 E2.8898
G1 X113.764 Y64.596 E2.9498
G1 X114.617 Y65.031 E3.0091
G1 X146.621 Y83.507 E5.2989
G1 X147.439 Y84.038 E5.3594
G1 X148.192 Y84.648 E5.4194
G1 X148.877 Y85.333 E5.4794
G1 X149.486 Y86.086 E5.5395
G1 X150.014 Y86.898 E5.5995
G1 X150.454 Y87.761 E5.6595
G1 X150.801 Y88.665 E5.7195
G1 X151.051 Y89.601 E5.7795
G1 X151.203 Y90.558 E5.8395
G1 X151.253 Y91.514 E5.8989
G1 X151.254 Y128.468 E8.1887
G1 X151.203 Y129.442 E8.2492
G1 X151.051 Y130.399 E8.3092
G1 X150.801 Y131.335 E8.3692
G1 X150.454 Y132.239 E8.4292
G1 X150.014 Y133.102 E8.4892
G1 X149.486 Y133.914 E8.5492
G1 X148.877 Y134.667 E8.6093
G1 X148.192 Y135.352 E8.6693
G1 X147.439 Y135.961 E8.7293
G1 X146.636 Y136.483 E8.7886
G1 X114.633 Y154.961 E11.0784
G1 X113.764 Y155.404 E11.1389
G1 X112.860 Y155.751 E11.1989
G1 X111.924 Y156.002 E11.2589
G1 X110.967 Y156.153 E11.3190
G1 X110.000 Y156.204 E11.3790
G1 X109.033 Y156.153 E11.4390
G1 X108.076 Y156.002 E11.4990
G1 X107.140 Y155.751 E11.5590
G1 X106.236 Y155.404 E11.6191
G1 X105.383 Y154.969 E11.6784
G1 X73.379 Y136.493 E13.9682
G1 X72.561 Y135.962 E14.0287
G1 X71.808 Y135.352 E14.0887
G1 X71.123 Y134.667 E14.1487
G1 X70.514 Y133.914 E14.2087
G1 X69.986 Y133.102 E14.2687
G1 X69.546 Y132.239 E14.3288
G1 X69.199 Y131.335 E14.3888
G1 X68.949 Y130.399 E14.4488
G1 X68.797 Y129.442 E14.5088
G1 X68.747 Y128.486 E14.5682
G1 X68.746 Y91.532 E16.8580
G1 X68.797 Y90.558 E16.9184
G1 X68.949 Y89.601 E16.9784
G1 X69.199 Y88.665 E17.0385
G1 X69.546 Y87.761 E17.0985
G1 X69.986 Y86.898 E17.1585
G1 X70.514 Y86.086 E17.2185
G1 X71.123 Y85.333 E17.2785
G1 X71.808 Y84.648 E17.3385
G1 X72.561 Y84.038 F4400
G1 X73.364 Y83.517 F4400
G1 X76.026 Y81.980 F4400
; inner perimeter
G1 X73.653 Y83.988 F4600
G92 E0
G1 X105.630 Y65.524 E2.2880 F1056
G1 X106.461 Y65.101 E2.3458
G1 X107.311 Y64.775 E2.4022
G1 X108.191 Y64.539 E2.4587
G1 X109.091 Y64.396 E2.5151
G1 X110.000 Y64.349 E2.5715
G1 X110.909 Y64.396 E2.6280
G1 X111.809 Y64.539 E2.6844
G1 X112.689 Y64.775 E2.7408
G1 X113.539 Y65.101 E2.7973
G1 X114.354 Y65.516 E2.8539
G1 X146.332 Y83.978 E5.1419
G1 X147.114 Y84.486 E5.1997
G1 X147.822 Y85.059 E5.2561
G1 X148.466 Y85.703 E5.3126
G1 X149.039 Y86.411 E5.3690
G1 X149.535 Y87.174 E5.4254
G1 X149.949 Y87.986 E5.4819
G1 X150.275 Y88.836 E5.5383
G1 X150.511 Y89.716 E5.5947
G1 X150.653 Y90.615 E5.6512
G1 X150.701 Y91.529 E5.7078
G1 X150.702 Y128.453 E7.9958
G1 X150.653 Y129.385 E8.0536
G1 X150.511 Y130.284 E8.1100
G1 X150.275 Y131.164 E8.1665
G1 X149.949 Y132.014 E8.2229
G1 X149.535 Y132.826 E8.2793
G1 X149.039 Y133.589 E8.3358
G1 X148.466 Y134.297 E8.3922
G1 X147.822 Y134.941 E8.4486
G1 X147.114 Y135.514 E8.5051
G1 X146.347 Y136.012 E8.5617
G1 X114.370 Y154.476 E10.8497
G1 X113.539 Y154.899 E10.9075
G1 X112.689 Y155.225 E10.9639
G1 X111.809 Y155.461 E11.0204
G1 X110.910 Y155.604 E11.0768
G1 X110.000 Y155.651 E11.1333
G1 X109.090 Y155.604 E11.1897
G1 X108.191 Y155.461 E11.2461
G1 X107.311 Y155.225 E11.3026
G1 X106.461 Y154.899 E11.3590
G1 X105.646 Y154.484 E11.4156
G1 X73.668 Y136.022 E13.7037
G1 X72.886 Y135.514 E13.7614
G1 X72.178 Y134.941 E13.8179
G1 X71.534 Y134.297 E13.8743
G1 X70.961 Y133.589 E13.9307
G1 X70.465 Y132.826 E13.9872
G1 X70.051 Y132.014 E14.0436
G1 X69.725 Y131.164 E14.1000
G1 X69.489 Y130.284 E14.1565
G1 X69.347 Y129.385 E14.2129
G1 X69.299 Y128.471 E14.2696
G1 X69.298 Y91.547 E16.5576
G1 X69.347 Y90.615 E16.6153
G1 X69.489 Y89.716 E16.6718
G1 X69.725 Y88.836 E16.7282
G1 X70.051 Y87.986 E16.7846
G1 X70.465 Y87.174 E16.8411
G1 X70.961 Y86.411 E16.8975
G1 X71.534 Y85.703 E16.9539
G1 X72.178 Y85.059 E17.0104
G1 X72.886 Y84.486 E17.0668
G1 X73.653 Y83.988 E17.1235
G1 X73.941 Y84.458 F4600
G92 E0
G1 X105.894 Y66.009 E2.2862 F1056
G1 X106.686 Y65.606 E2.3413
G1 X107.482 Y65.300 E2.3942
G1 X108.306 Y65.080 E2.4470
G1 X109.148 Y64.946 E2.4999
G1 X110.000 Y64.901 E2.5527
G1 X110.852 Y64.946 E2.6055
G1 X111.694 Y65.080 E2.6584
G1 X112.518 Y65.300 E2.7112
G1 X113.314 Y65.606 E2.7641
G1 X114.090 Y66.001 E2.8181
G1 X146.044 Y84.449 E5.1043
G1 X146.789 Y84.933 E5.1594
G1 X147.452 Y85.470 E5.2122
G1 X148.055 Y86.073 E5.2651
G1 X148.592 Y86.735 E5.3179
G1 X149.056 Y87.451 E5.3708
G1 X149.444 Y88.211 E5.4236
G1 X149.749 Y89.007 E5.4765
G1 X149.970 Y89.831 E5.5293
G1 X150.103 Y90.673 E5.5822
G1 X150.149 Y91.543 E5.6361
G1 X150.150 Y128.439 E7.9223
G1 X150.103 Y129.327 E7.9774
G1 X149.970 Y130.169 E8.0303
G1 X149.749 Y130.993 E8.0831
G1 X149.444 Y131.789 E8.1360
G1 X149.056 Y132.549 E8.1888
G1 X148.592 Y133.264 E8.2417
G1 X148.055 Y133.927 E8.2945
G1 X147.452 Y134.530 E8.3474
G1 X146.789 Y135.067 E8.4002
G1 X146.059 Y135.542 E8.4542
G1 X114.106 Y153.990 E10.7404
G1 X113.314 Y154.394 E10.7955
G1 X112.518 Y154.700 E10.8483
G1 X111.694 Y154.920 E10.9012
G1 X110.852 Y155.054 E10.9540
G1 X110.000 Y155.099 E11.0069
G1 X109.148 Y155.054 E11.0597
G1 X108.306 Y154.920 E11.1126
G1 X107.482 Y154.700 E11.1654
G1 X106.686 Y154.394 E11.2183
G1 X105.910 Y153.999 E11.2722
G1 X73.956 Y135.551 E13.5585
G1 X73.211 Y135.067 E13.6136
G1 X72.548 Y134.530 E13.6664
G1 X71.945 Y133.927 E13.7192
G1 X71.408 Y133.265 E13.7721
G1 X70.944 Y132.549 E13.8249
G1 X70.556 Y131.789 E13.8778
G1 X70.251 Y130.993 E13.9306
G1 X70.030 Y130.169 E13.9835
G1 X69.897 Y129.327 E14.0363
G1 X69.851 Y128.457 E14.0903
G1 X69.850 Y91.561 E16.3765
G1 X69.897 Y90.673 E16.4316
G1 X70.030 Y89.831 E16.4845
G1 X70.251 Y89.007 E16.5373
G1 X70.556 Y88.211 E16.5902
G1 X70.944 Y87.451 E16.6430
G1 X71.408 Y86.735 E16.6959
G1 X71.945 Y86.073 E16.7487
G1 X72.548 Y85.470 E16.8015
G1 X73.211 Y84.933 E16.8544
G1 X73.941 Y84.458 E16.9084
; outer perimeter
G1 X74.606 Y85.660 F4600
G92 E0
G1 X74.017 Y86.043 E0.0435 F792
G1 X73.466 Y86.489 E0.0875
G1 X72.964 Y86.991 E0.1314
G1 X72.518 Y87.542 E0.1754
G1 X72.131 Y88.137 E0.2193
G1 X71.809 Y88.769 E0.2633
G1 X71.555 Y89.431 E0.3072
G1 X71.372 Y90.116 E0.3512
G1 X71.261 Y90.816 E0.3951
G1 X71.224 Y91.518 E0.4386
G1 X71.224 Y128.482 E2.7291
G1 X71.261 Y129.184 E2.7726
G1 X71.372 Y129.884 E2.8165
G1 X71.555 Y130.569 E2.8605
G1 X71.809 Y131.231 E2.9044
G1 X72.131 Y131.863 E2.9484
G1 X72.518 Y132.458 E2.9923
G1 X72.964 Y133.009 E3.0363
G1 X73.466 Y133.511 E3.0802
G1 X74.017 Y133.957 E3.1242
G1 X74.606 Y134.340 E3.1677
G1 X106.618 Y152.822 E5.4582
G1 X107.244 Y153.141 E5.5017
G1 X107.906 Y153.395 E5.5456
G1 X108.591 Y153.579 E5.5896
G1 X109.292 Y153.690 E5.6335
G1 X110.000 Y153.727 E5.6775
G1 X110.708 Y153.690 E5.7214
G1 X111.409 Y153.579 E5.7654
G1 X112.094 Y153.395 E5.8093
G1 X112.756 Y153.141 E5.8533
G1 X113.382 Y152.822 E5.8968
G1 X145.394 Y134.340 E8.1873
G1 X145.983 Y133.957 E8.2308
G1 X146.534 Y133.511 E8.2747
G1 X147.036 Y133.009 E8.3187
G1 X147.482 Y132.458 E8.3626
G1 X147.869 Y131.863 E8.4066
G1 X148.191 Y131.231 E8.4505
G1 X148.445 Y130.569 E8.4945
G1 X148.628 Y129.884 E8.5384
G1 X148.739 Y129.184 E8.5824
G1 X148.776 Y128.482 E8.6259
G1 X148.776 Y91.518 E10.9163
G1 X148.739 Y90.816 E10.9598
G1 X148.628 Y90.116 E11.0038
G1 X148.445 Y89.431 E11.0477
G1 X148.191 Y88.769 E11.0917
G1 X147.869 Y88.137 E11.1357
G1 X147.482 Y87.542 E11.1796
G1 X147.036 Y86.991 E11.2236
G1 X146.534 Y86.489 E11.2675
G1 X145.983 Y86.043 E11.3115
G1 X145.394 Y85.660 E11.3550
G1 X113.382 Y67.178 E13.6454
G1 X112.756 Y66.859 E13.6889
G1 X112.094 Y66.605 E13.7329
G1 X111.409 Y66.421 E13.7768
G1 X110.708 Y66.310 E13.8208
G1 X110.000 Y66.273 E13.8647
G1 X109.292 Y66.310 E13.9087
G1 X108.591 Y66.421 E13.9526
G1 X107.906 Y66.605 E13.9966
G1 X107.244 Y66.859 E14.0405
G1 X106.618 Y67.178 E14.0840
G1 X74.606 Y85.660 E16.3745
G1 X74.017 Y86.043 F4400
G1 X73.466 Y86.489 F4400
G1 X72.964 Y86.991 F4400
G1 X72.518 Y87.542 F4400
G1 X72.131 Y88.137 F4400
G1 X71.809 Y88.769 F4400
G1 X71.555 Y89.431 F4400
G1 X71.544 Y89.471 F4400
; inner perimeter
G1 X71.030 Y89.260 F4600
G92 E0
G1 X70.831 Y90.001 E0.0475 F1056
G1 X70.711 Y90.759 E0.0951
G1 X70.672 Y91.503 E0.1413
G1 X70.672 Y128.497 E2.4335
G1 X70.711 Y129.241 E2.4797
G1 X70.831 Y129.999 E2.5273
G1 X71.030 Y130.740 E2.5748
G1 X71.305 Y131.456 E2.6223
G1 X71.653 Y132.140 E2.6699
G1 X72.071 Y132.783 E2.7174
G1 X72.553 Y133.379 E2.7649
G1 X73.096 Y133.922 E2.8125
G1 X73.692 Y134.405 E2.8600
G1 X74.317 Y134.811 E2.9062
G1 X106.355 Y153.307 E5.1985
G1 X107.019 Y153.646 E5.2447
G1 X107.735 Y153.921 E5.2922
G1 X108.476 Y154.119 E5.3397
G1 X109.234 Y154.239 E5.3873
G1 X110.000 Y154.280 E5.4348
G1 X110.766 Y154.239 E5.4823
G1 X111.524 Y154.119 E5.5299
G1 X112.265 Y153.921 E5.5774
G1 X112.981 Y153.646 E5.6249
G1 X113.645 Y153.307 E5.6711
G1 X145.683 Y134.811 E7.9634
G1 X146.308 Y134.405 E8.0096
G1 X146.904 Y133.922 E8.0571
G1 X147.447 Y133.379 E8.1047
G1 X147.929 Y132.783 E8.1522
G1 X148.347 Y132.140 E8.1997
G1 X148.695 Y131.456 E8.2473
G1 X148.970 Y130.740 E8.2948
G1 X149.169 Y129.999 E8.3423
G1 X149.289 Y129.241 E8.3899
G1 X149.328 Y128.497 E8.4361
G1 X149.328 Y91.503 E10.7283
G1 X149.289 Y90.759 E10.7745
G1 X149.169 Y90.001 E10.8221
G1 X148.970 Y89.260 E10.8696
G1 X148.696 Y88.544 E10.9171
G1 X148.347 Y87.860 E10.9647
G1 X147.929 Y87.217 E11.0122
G1 X147.447 Y86.621 E11.0597
G1 X146.904 Y86.078 E11.1073
G1 X146.308 Y85.595 E11.1548
G1 X145.683 Y85.189 E11.2010
G1 X113.645 Y66.692 E13.4933
G1 X112.981 Y66.354 E13.5395
G1 X112.265 Y66.079 E13.5870
G1 X111.524 Y65.881 E13.6345
G1 X110.766 Y65.761 E13.6821
G1 X110.000 Y65.720 E13.7296
G1 X109.234 Y65.761 E13.7771
G1 X108.476 Y65.881 E13.8247
G1 X107.735 Y66.079 E13.8722
G1 X107.019 Y66.354 E13.9197
G1 X106.355 Y66.692 E13.9659
G1 X74.317 Y85.189 E16.2582
G1 X73.692 Y85.595 E16.3044
G1 X73.096 Y86.078 E16.3519
G1 X72.553 Y86.621 E16.3995
G1 X72.071 Y87.217 E16.4470
G1 X71.653 Y87.860 E16.4945
G1 X71.304 Y88.544 E16.5421
G1 X71.030 Y89.260 E16.5896
G1 X70.504 Y89.089 F4600
G92 E0
G1 X70.290 Y89.886 E0.0511 F1056
G1 X70.161 Y90.701 E0.1022
