; G-Code generated by Simplify3D(R) Version 4.0.0
; Sep 9, 2018 at 2:34:45 PM
; Settings Summary
;   processName,Process1
;   applyToModels,screwless-cube-plate2
;   profileName,Flyingbear p902 (modified)
;   profileVersion,2017-02-06 00:22:54
;   baseProfile,Default
;   printMaterial,PLA
;   printQuality,Medium
;   printExtruders,
;   extruderName,Extruder 1
;   extruderToolheadNumber,0
;   extruderDiameter,0.4
;   extruderAutoWidth,1
;   extruderWidth,0.48
;   extrusionMultiplier,1
;   extruderUseRetract,1
;   extruderRetractionDistance,1
;   extruderExtraRestartDistance,0
;   extruderRetractionZLift,0
;   extruderRetractionSpeed,3400
;   extruderUseCoasting,0
;   extruderCoastingDistance,0.2
;   extruderUseWipe,0
;   extruderWipeDistance,5
;   primaryExtruder,0
;   layerHeight,0.3
;   topSolidLayers,3
;   bottomSolidLayers,3
;   perimeterOutlines,2
;   printPerimetersInsideOut,1
;   startPointOption,2
;   startPointOriginX,0
;   startPointOriginY,0
;   sequentialIslands,0
;   spiralVaseMode,0
;   firstLayerHeightPercentage,90
;   firstLayerWidthPercentage,100
;   firstLayerUnderspeed,0.5
;   useRaft,0
;   raftExtruder,0
;   raftTopLayers,3
;   raftBaseLayers,1
;   raftOffset,2
;   raftSeparationDistance,0.2
;   raftTopInfill,100
;   aboveRaftSpeedMultiplier,0.3
;   useSkirt,0
;   skirtExtruder,0
;   skirtLayers,1
;   skirtOutlines,2
;   skirtOffset,4
;   usePrimePillar,0
;   primePillarExtruder,999
;   primePillarWidth,12
;   primePillarLocation,7
;   primePillarSpeedMultiplier,1
;   useOozeShield,0
;   oozeShieldExtruder,999
;   oozeShieldOffset,2
;   oozeShieldOutlines,1
;   oozeShieldSidewallShape,1
;   oozeShieldSidewallAngle,30
;   oozeShieldSpeedMultiplier,1
;   infillExtruder,0
;   internalInfillPattern,Rectilinear
;   externalInfillPattern,Rectilinear
;   infillPercentage,10
;   outlineOverlapPercentage,15
;   infillExtrusionWidthPercentage,100
;   minInfillLength,5
;   infillLayerInterval,1
;   internalInfillAngles,45,-45
;   overlapInternalInfillAngles,0
;   externalInfillAngles,45,-45
;   generateSupport,1
;   supportExtruder,0
;   supportInfillPercentage,15
;   supportExtraInflation,0.5
;   supportBaseLayers,0
;   denseSupportExtruder,0
;   denseSupportLayers,0
;   denseSupportInfillPercentage,70
;   supportLayerInterval,1
;   supportHorizontalPartOffset,0.3
;   supportUpperSeparationLayers,1
;   supportLowerSeparationLayers,1
;   supportType,0
;   supportGridSpacing,1
;   maxOverhangAngle,60
;   supportAngles,0
;   temperatureName,Extruder 1,Heated Bed
;   temperatureNumber,0,0
;   temperatureSetpointCount,1,1
;   temperatureSetpointLayers,1,1
;   temperatureSetpointTemperatures,210,60
;   temperatureStabilizeAtStartup,1,1
;   temperatureHeatedBed,0,1
;   temperatureRelayBetweenLayers,0,0
;   temperatureRelayBetweenLoops,0,0
;   fanLayers,1,2
;   fanSpeeds,0,100
;   blipFanToFullPower,0
;   adjustSpeedForCooling,1
;   minSpeedLayerTime,15
;   minCoolingSpeedSlowdown,20
;   increaseFanForCooling,0
;   minFanLayerTime,45
;   maxCoolingFanSpeed,100
;   increaseFanForBridging,1
;   bridgingFanSpeed,100
;   use5D,1
;   relativeEdistances,0
;   allowEaxisZeroing,1
;   independentExtruderAxes,0
;   includeM10123,0
;   stickySupport,1
;   applyToolheadOffsets,0
;   gcodeXoffset,0
;   gcodeYoffset,0
;   gcodeZoffset,0
;   overrideMachineDefinition,1
;   machineTypeOverride,0
;   strokeXoverride,220
;   strokeYoverride,220
;   strokeZoverride,280
;   originOffsetXoverride,0
;   originOffsetYoverride,0
;   originOffsetZoverride,0
;   homeXdirOverride,-1
;   homeYdirOverride,-1
;   homeZdirOverride,-1
;   flipXoverride,1
;   flipYoverride,-1
;   flipZoverride,1
;   toolheadOffsets,0,0|0,0|0,0|0,0|0,0|0,0
;   overrideFirmwareConfiguration,1
;   firmwareTypeOverride,RepRap (Marlin/Repetier/Sprinter)
;   GPXconfigOverride,r2
;   baudRateOverride,250000
;   overridePrinterModels,0
;   printerModelsOverride
;   startingGcode,G28 ; home all axes,G1 X0 Y5 Z0.2 F3000 ; get ready to prime,G92 E0 ; reset extrusion distance,G1 X200 E20 F600 ; prime nozzle
;   layerChangeGcode,
;   retractionGcode,
;   toolChangeGcode,
;   endingGcode,M104 S0 ; turn off extruder,M140 S0 ; turn off bed,G91 ; use relative coordinates,G1 Z0.6 F5000 ; lift nozzle by 0.6mm,G90 ; use absolute coordinates,G28 X0 ; home X axis,G28 Y0 ; home X axis,M84 ; disable motors,M107 ; turn off fan
;   exportFileFormat,gcode
;   celebration,0
;   celebrationSong,Random Song
;   postProcessing,
;   defaultSpeed,4200
;   outlineUnderspeed,0.9
;   solidInfillUnderspeed,1
;   supportUnderspeed,0.8
;   rapidXYspeed,4200
;   rapidZspeed,1002
;   minBridgingArea,50
;   bridgingExtraInflation,0
;   bridgingExtrusionMultiplier,1
;   bridgingSpeedMultiplier,1
;   useFixedBridgingAngle,0
;   fixedBridgingAngle,0
;   applyBridgingToPerimeters,0
;   filamentDiameters,1.75|1.75|1.75|1.75|1.75|1.75
;   filamentPricesPerKg,46|46|46|46|46|46
;   filamentDensities,1.25|1.25|1.25|1.25|1.25|1.25
;   useMinPrintHeight,0
;   minPrintHeight,0
;   useMaxPrintHeight,0
;   maxPrintHeight,0
;   useDiaphragm,0
;   diaphragmLayerInterval,20
;   robustSlicing,1
;   mergeAllIntoSolid,0
;   onlyRetractWhenCrossingOutline,1
;   retractBetweenLayers,1
;   useRetractionMinTravel,0
;   retractionMinTravel,3
;   retractWhileWiping,0
;   onlyWipeOutlines,1
;   avoidCrossingOutline,0
;   maxMovementDetourFactor,3
;   toolChangeRetractionDistance,12
;   toolChangeExtraRestartDistance,-0.5
;   toolChangeRetractionSpeed,600
;   externalThinWallType,1
;   internalThinWallType,1
;   thinWallAllowedOverlapPercentage,10
;   singleExtrusionMinLength,1
;   singleExtrusionMinPrintingWidthPercentage,50
;   singleExtrusionMaxPrintingWidthPercentage,200
;   singleExtrusionEndpointExtension,0.2
;   horizontalSizeCompensation,0
G90
M82
M106 S0
M140 S60
M190 S60
M104 S210 T0
M109 S210 T0
G28 ; home all axes
G1 X0 Y5 Z0.2 F3000 ; get ready to prime
G92 E0 ; reset extrusion distance
G1 X200 E20 F600 ; prime nozzle
G92 E0
G1 E-1.0000 F3400
G1 Z0.270 F1002
; process Process1
; layer 1, Z = 0.270
T0
; tool H0.300 W0.480
; inner perimeter
G1 X71.017 Y67.609 F4200
G1 E0.0000 F1020
G92 E0
G1 X71.417 Y67.191 E0.0346 F1995
G1 X72.148 Y66.535 E0.0934
G1 X72.404 Y66.650 E0.1102
G1 X72.404 Y69.256 E0.2663
G1 X72.098 Y69.349 E0.2854
G1 X71.529 Y68.501 E0.3466
G1 X71.017 Y67.609 E0.4082
G92 E0
G1 E-1.0000 F3400
G1 X75.594 Y66.650 F4200
G1 E0.0000 F3400
G92 E0
G1 X75.850 Y66.535 E0.0168 F1995
G1 X76.581 Y67.191 E0.0756
G1 X76.981 Y67.609 E0.1102
G1 X76.469 Y68.501 E0.1718
G1 X75.900 Y69.349 E0.2329
G1 X75.594 Y69.256 E0.2521
G1 X75.594 Y66.650 E0.4082
G1 X75.616 Y74.971 F4200
G92 E0
G1 X75.946 Y75.051 E0.0203 F1995
G1 X75.946 Y84.949 E0.6129
G1 X75.616 Y85.029 E0.6333
G1 X75.295 Y84.408 E0.6751
G1 X74.944 Y84.053 E0.7050
G1 X74.494 Y83.824 E0.7353
G1 X74.000 Y83.747 E0.7652
G1 X73.504 Y83.824 E0.7952
G1 X73.054 Y84.053 E0.8255
G1 X72.703 Y84.408 E0.8554
G1 X72.382 Y85.029 E0.8972
G1 X72.052 Y84.949 E0.9176
G1 X72.052 Y75.051 E1.5102
G1 X72.382 Y74.971 E1.5305
G1 X72.703 Y75.592 E1.5724
G1 X73.054 Y75.947 E1.6023
G1 X73.504 Y76.176 E1.6325
G1 X74.000 Y76.253 E1.6626
G1 X74.494 Y76.176 E1.6925
G1 X74.944 Y75.947 E1.7227
G1 X75.295 Y75.592 E1.7526
G1 X75.616 Y74.971 E1.7945
G1 X75.900 Y90.650 F4200
G92 E0
G1 X76.469 Y91.500 E0.0612 F1995
G1 X76.981 Y92.392 E0.1228
G1 X76.581 Y92.810 E0.1575
G1 X75.850 Y93.466 E0.2162
G1 X75.594 Y93.351 E0.2330
G1 X75.594 Y90.743 E0.3891
G1 X75.900 Y90.650 E0.4083
G92 E0
G1 E-1.0000 F3400
G1 X72.404 Y90.743 F4200
G1 E0.0000 F3400
G92 E0
G1 X72.404 Y93.351 E0.1561 F1995
G1 X72.148 Y93.466 E0.1729
G1 X71.417 Y92.810 E0.2317
G1 X71.017 Y92.392 E0.2664
G1 X71.529 Y91.500 E0.3280
G1 X72.098 Y90.650 E0.3891
G1 X72.404 Y90.743 E0.4083
; outer perimeter
G1 X71.572 Y90.573 F4200
G92 E0
G1 X71.572 Y69.427 E1.2660 F1890
G1 X71.121 Y68.755 E1.3144
G1 X70.422 Y67.536 E1.3985
G1 X71.083 Y66.846 E1.4558
G1 X72.133 Y65.904 E1.5402
G1 X72.364 Y65.740 E1.5572
G1 X72.884 Y65.740 E1.5883
G1 X72.884 Y74.669 E2.1228
G1 X72.935 Y74.995 E2.1426
G1 X73.096 Y75.307 E2.1636
G1 X73.341 Y75.554 E2.1845
G1 X73.653 Y75.713 E2.2055
G1 X74.000 Y75.767 E2.2265
G1 X74.345 Y75.713 E2.2474
G1 X74.657 Y75.554 E2.2684
G1 X74.902 Y75.307 E2.2892
G1 X75.063 Y74.995 E2.3102
G1 X75.114 Y74.669 E2.3300
G1 X75.114 Y65.740 E2.8645
G1 X75.634 Y65.740 E2.8957
G1 X75.865 Y65.904 E2.9126
G1 X76.915 Y66.846 E2.9971
G1 X77.576 Y67.536 E3.0543
G1 X76.877 Y68.755 E3.1384
G1 X76.426 Y69.427 E3.1869
G1 X76.426 Y90.573 E4.4528
G1 X76.877 Y91.246 E4.5014
G1 X77.576 Y92.464 E4.5854
G1 X76.915 Y93.156 E4.6427
G1 X75.865 Y94.097 E4.7271
G1 X75.634 Y94.260 E4.7441
G1 X75.114 Y94.260 E4.7752
G1 X75.114 Y85.331 E5.3097
G1 X75.063 Y85.005 E5.3295
G1 X74.902 Y84.693 E5.3505
G1 X74.657 Y84.446 E5.3714
G1 X74.345 Y84.287 E5.3924
G1 X74.000 Y84.233 E5.4132
G1 X73.653 Y84.287 E5.4343
G1 X73.341 Y84.446 E5.4553
G1 X73.096 Y84.693 E5.4761
G1 X72.935 Y85.005 E5.4971
G1 X72.884 Y85.331 E5.5169
G1 X72.884 Y94.260 E6.0514
G1 X72.364 Y94.260 E6.0826
G1 X72.133 Y94.097 E6.0995
G1 X71.083 Y93.156 E6.1839
G1 X70.422 Y92.464 E6.2412
G1 X71.121 Y91.246 E6.3253
G1 X71.572 Y90.573 E6.3738
; internal single extrusion
G1 X71.845 Y90.535 F4200
G92 E0
; tool H0.300 W0.240
G1 X71.874 Y90.441 E0.0030 F1890
G1 X71.903 Y90.346 E0.0059
G1 X71.941 Y90.252 E0.0090
; tool H0.300 W0.333
G1 X72.025 Y90.157 E0.0142
; tool H0.300 W0.541
G1 X72.149 Y90.062 E0.0248
; tool H0.300 W0.744
G1 X72.228 Y89.968 E0.0362
; tool H0.300 W0.823
G1 X72.228 Y85.511 E0.4934
G92 E0
G1 E-1.0000 F3400
G1 X75.353 Y85.112 F4200
G1 E0.0000 F3400
; tool H0.300 W0.480
G92 E0
; tool H0.300 W0.240
G1 X75.360 Y85.131 E0.0006 F1890
G1 X75.388 Y85.217 E0.0033
G1 X75.418 Y85.308 E0.0062
G1 X75.458 Y85.408 E0.0094
; tool H0.300 W0.302
G1 X75.562 Y85.503 E0.0147
; tool H0.300 W0.527
G1 X75.683 Y85.599 E0.0249
; tool H0.300 W0.735
G1 X75.770 Y85.694 E0.0367
; tool H0.300 W0.823
G1 X75.770 Y90.187 E0.4976
G1 X75.298 Y75.060 F4200
; tool H0.300 W0.480
G92 E0
; tool H0.300 W0.240
G1 X75.388 Y74.783 E0.0087 F1890
G1 X75.418 Y74.692 E0.0116
G1 X75.458 Y74.592 E0.0148
; tool H0.300 W0.302
G1 X75.562 Y74.497 E0.0201
; tool H0.300 W0.527
G1 X75.683 Y74.401 E0.0303
; tool H0.300 W0.736
G1 X75.770 Y74.306 E0.0421
; tool H0.300 W0.823
G1 X75.770 Y69.813 E0.5031
G92 E0
G1 E-1.0000 F3400
G1 X72.228 Y69.813 F4200
G1 E0.0000 F3400
; tool H0.300 W0.480
G92 E0
; tool H0.300 W0.823
G1 X72.228 Y74.306 E0.4610 F1890
; tool H0.300 W0.736
G1 X72.315 Y74.401 E0.4728
; tool H0.300 W0.527
G1 X72.436 Y74.497 E0.4830
; tool H0.300 W0.302
G1 X72.540 Y74.592 E0.4883
; tool H0.300 W0.240
G1 X72.580 Y74.692 E0.4915
G1 X72.610 Y74.783 E0.4943
G1 X72.638 Y74.869 E0.4971
G1 X72.645 Y74.888 E0.4977
G92 E0
G1 E-1.0000 F3400
; tool H0.300 W0.480
; solid layer
G1 X75.394 Y76.073 F4200
G1 E0.0000 F3400
G92 E0
G1 X75.538 Y76.217 E0.0122 F2100
G1 X75.538 Y76.896 E0.0529
G1 X75.012 Y76.370 E0.0974
G1 X74.621 Y76.569 E0.1237
G1 X74.544 Y76.581 E0.1283
G1 X75.538 Y77.575 E0.2124
G1 X75.538 Y78.253 E0.2531
G1 X73.941 Y76.656 E0.3883
G1 X73.378 Y76.569 E0.4224
G1 X72.966 Y76.360 E0.4501
G1 X75.538 Y78.932 E0.6679
G1 X75.538 Y79.611 E0.7085
G1 X72.460 Y76.533 E0.9691
G1 X72.460 Y77.212 E1.0098
G1 X75.538 Y80.290 E1.2704
G1 X75.538 Y80.969 E1.3111
G1 X72.460 Y77.890 E1.5717
G1 X72.460 Y78.569 E1.6123
G1 X75.538 Y81.648 E1.8730
G1 X75.538 Y82.326 E1.9136
G1 X72.460 Y79.248 E2.1742
G1 X72.460 Y79.927 E2.2149
G1 X75.538 Y83.005 E2.4755
G1 X75.538 Y83.684 E2.5162
G1 X72.460 Y80.606 E2.7768
G1 X72.460 Y81.284 E2.8174
G1 X74.604 Y83.428 E2.9989
G1 X74.001 Y83.335 E3.0355
G1 X73.854 Y83.357 E3.0444
G1 X72.460 Y81.963 E3.1624
G1 X72.460 Y82.642 E3.2030
G1 X73.292 Y83.474 E3.2735
G1 X72.842 Y83.703 E3.3037
G1 X72.460 Y83.321 E3.3361
G1 X72.460 Y84.000 E3.3767
G1 X72.496 Y84.036 E3.3798
G1 X71.937 Y91.623 F4200
G92 E0
G1 X71.996 Y91.682 E0.0050 F2100
G1 X71.996 Y92.361 E0.0456
G1 X71.684 Y92.049 E0.0720
G92 E0
G1 E-1.0000 F3400
G1 X76.002 Y92.294 F4200
G1 E0.0000 F3400
G92 E0
G1 X76.259 Y92.551 E0.0218 F2100
G1 X76.297 Y92.517 E0.0248
G1 X76.475 Y92.330 E0.0403
G1 X76.149 Y91.762 E0.0795
G1 X76.002 Y91.615 E0.0920
G1 X76.235 Y68.089 F4200
G92 E0
G1 X76.002 Y67.856 E0.0197 F2100
G92 E0
G1 E-1.0000 F3400
G1 X71.983 Y67.231 F4200
G1 E0.0000 F3400
G92 E0
G1 X71.996 Y67.244 E0.0011 F2100
G1 X71.996 Y67.923 E0.0417
G1 X71.631 Y67.558 E0.0726
G92 E0
G1 E-1.0000 F3400
; inner perimeter
G1 X83.017 Y72.410 F4200
G1 E0.0000 F3400
G92 E0
G1 X83.417 Y71.991 E0.0347 F1995
G1 X84.148 Y71.336 E0.0935
G1 X84.404 Y71.451 E0.1102
G1 X84.404 Y74.059 E0.2664
G1 X84.098 Y74.152 E0.2856
G1 X83.529 Y73.302 E0.3467
G1 X83.017 Y72.410 E0.4083
G92 E0
G1 E-1.0000 F3400
G1 X87.594 Y71.451 F4200
G1 E0.0000 F3400
G92 E0
G1 X87.850 Y71.336 E0.0168 F1995
G1 X88.581 Y71.991 E0.0755
G1 X88.981 Y72.410 E0.1102
G1 X88.469 Y73.302 E0.1718
G1 X87.900 Y74.152 E0.2330
G1 X87.594 Y74.059 E0.2522
G1 X87.594 Y71.451 E0.4083
G1 X87.616 Y79.773 F4200
G92 E0
G1 X87.946 Y79.853 E0.0203 F1995
G1 X87.946 Y84.949 E0.3254
G1 X87.616 Y85.029 E0.3458
G1 X87.295 Y84.408 E0.3877
G1 X86.944 Y84.053 E0.4175
G1 X86.494 Y83.824 E0.4478
G1 X85.998 Y83.747 E0.4778
G1 X85.504 Y83.824 E0.5077
G1 X85.054 Y84.053 E0.5380
G1 X84.703 Y84.408 E0.5679
G1 X84.382 Y85.029 E0.6097
G1 X84.052 Y84.949 E0.6301
G1 X84.052 Y79.853 E0.9352
G1 X84.382 Y79.773 E0.9555
G1 X84.703 Y80.394 E0.9974
G1 X85.054 Y80.749 E1.0273
G1 X85.504 Y80.978 E1.0575
G1 X85.998 Y81.055 E1.0874
G1 X86.494 Y80.978 E1.1175
G1 X86.944 Y80.749 E1.1477
G1 X87.295 Y80.394 E1.1776
G1 X87.616 Y79.773 E1.2195
G1 X87.900 Y90.650 F4200
G92 E0
G1 X88.469 Y91.500 E0.0612 F1995
G1 X88.981 Y92.392 E0.1228
G1 X88.581 Y92.810 E0.1575
G1 X87.850 Y93.466 E0.2162
G1 X87.594 Y93.351 E0.2330
G1 X87.594 Y90.743 E0.3891
G1 X87.900 Y90.650 E0.4083
G92 E0
G1 E-1.0000 F3400
G1 X84.404 Y90.743 F4200
G1 E0.0000 F3400
G92 E0
G1 X84.404 Y93.351 E0.1561 F1995
G1 X84.148 Y93.466 E0.1729
G1 X83.417 Y92.810 E0.2317
G1 X83.017 Y92.392 E0.2664
G1 X83.529 Y91.500 E0.3280
G1 X84.098 Y90.650 E0.3891
G1 X84.404 Y90.743 E0.4083
; outer perimeter
G1 X83.572 Y90.573 F4200
G92 E0
G1 X83.572 Y74.229 E0.9785 F1890
G1 X83.121 Y73.556 E1.0270
G1 X82.422 Y72.338 E1.1111
G1 X83.083 Y71.646 E1.1684
G1 X84.133 Y70.705 E1.2528
G1 X84.364 Y70.542 E1.2697
G1 X84.884 Y70.542 E1.3008
G1 X84.884 Y79.471 E1.8354
G1 X84.935 Y79.797 E1.8552
G1 X85.096 Y80.109 E1.8761
G1 X85.341 Y80.356 E1.8970
G1 X85.653 Y80.515 E1.9180
G1 X85.998 Y80.569 E1.9389
G1 X86.345 Y80.515 E1.9599
G1 X86.657 Y80.356 E1.9809
G1 X86.902 Y80.109 E2.0017
G1 X87.063 Y79.797 E2.0227
G1 X87.114 Y79.471 E2.0425
G1 X87.114 Y70.542 E2.5771
G1 X87.634 Y70.542 E2.6082
G1 X87.865 Y70.705 E2.6251
G1 X88.915 Y71.646 E2.7095
G1 X89.576 Y72.338 E2.7668
G1 X88.877 Y73.555 E2.8509
G1 X88.426 Y74.229 E2.8994
G1 X88.426 Y90.573 E3.8779
G1 X88.877 Y91.246 E3.9264
G1 X89.576 Y92.464 E4.0105
G1 X88.915 Y93.156 E4.0678
G1 X87.865 Y94.097 E4.1522
G1 X87.634 Y94.260 E4.1691
G1 X87.114 Y94.260 E4.2003
G1 X87.114 Y85.331 E4.7348
G1 X87.063 Y85.005 E4.7546
G1 X86.902 Y84.693 E4.7756
G1 X86.657 Y84.446 E4.7964
G1 X86.345 Y84.287 E4.8174
G1 X85.998 Y84.233 E4.8384
G1 X85.653 Y84.287 E4.8593
G1 X85.341 Y84.446 E4.8803
G1 X85.096 Y84.693 E4.9012
G1 X84.935 Y85.005 E4.9221
G1 X84.884 Y85.331 E4.9419
G1 X84.884 Y94.260 E5.4765
G1 X84.364 Y94.260 E5.5076
G1 X84.133 Y94.097 E5.5246
G1 X83.083 Y93.156 E5.6090
G1 X82.422 Y92.464 E5.6663
G1 X83.121 Y91.246 E5.7503
G1 X83.572 Y90.573 E5.7988
; internal single extrusion
G1 X83.845 Y90.535 F4200
G92 E0
; tool H0.300 W0.240
G1 X83.874 Y90.441 E0.0030 F1890
G1 X83.903 Y90.346 E0.0059
G1 X83.941 Y90.252 E0.0090
; tool H0.300 W0.333
G1 X84.025 Y90.157 E0.0142
; tool H0.300 W0.541
G1 X84.149 Y90.062 E0.0248
; tool H0.300 W0.744
G1 X84.228 Y89.968 E0.0362
; tool H0.300 W0.823
G1 X84.228 Y85.511 E0.4934
G92 E0
G1 E-1.0000 F3400
G1 X87.353 Y85.112 F4200
G1 E0.0000 F3400
; tool H0.300 W0.480
G92 E0
; tool H0.300 W0.240
G1 X87.360 Y85.131 E0.0006 F1890
G1 X87.388 Y85.217 E0.0033
G1 X87.418 Y85.308 E0.0062
G1 X87.458 Y85.408 E0.0094
