; G-Code generated by Simplify3D(R) Version 4.0.0
; Jan 31, 2018 at 4:39:02 PM
; Settings Summary
;   processName,Process1
;   applyToModels,sili
;   profileName,Flying Bear 902 Update 7-2017 (modified)
;   profileVersion,2017-07-10 09:45:20
;   baseProfile,Default
;   printMaterial,PLA
;   printQuality,Medium
;   printExtruders,
;   extruderName,Extruder 1
;   extruderToolheadNumber,0
;   extruderDiameter,0.4
;   extruderAutoWidth,1
;   extruderWidth,0.48
;   extrusionMultiplier,1
;   extruderUseRetract,1
;   extruderRetractionDistance,2
;   extruderExtraRestartDistance,0
;   extruderRetractionZLift,0
;   extruderRetractionSpeed,3000
;   extruderUseCoasting,0
;   extruderCoastingDistance,0.2
;   extruderUseWipe,1
;   extruderWipeDistance,5
;   primaryExtruder,0
;   layerHeight,0.25
;   topSolidLayers,4
;   bottomSolidLayers,3
;   perimeterOutlines,2
;   printPerimetersInsideOut,0
;   startPointOption,2
;   startPointOriginX,0
;   startPointOriginY,0
;   sequentialIslands,0
;   spiralVaseMode,0
;   firstLayerHeightPercentage,20
;   firstLayerWidthPercentage,100
;   firstLayerUnderspeed,0.5
;   useRaft,0
;   raftExtruder,0
;   raftTopLayers,2
;   raftBaseLayers,2
;   raftOffset,3
;   raftSeparationDistance,0.5
;   raftTopInfill,100
;   aboveRaftSpeedMultiplier,0.3
;   useSkirt,0
;   skirtExtruder,0
;   skirtLayers,1
;   skirtOutlines,2
;   skirtOffset,4
;   usePrimePillar,0
;   primePillarExtruder,999
;   primePillarWidth,12
;   primePillarLocation,7
;   primePillarSpeedMultiplier,1
;   useOozeShield,0
;   oozeShieldExtruder,999
;   oozeShieldOffset,2
;   oozeShieldOutlines,1
;   oozeShieldSidewallShape,1
;   oozeShieldSidewallAngle,30
;   oozeShieldSpeedMultiplier,1
;   infillExtruder,0
;   internalInfillPattern,Rectilinear
;   externalInfillPattern,Rectilinear
;   infillPercentage,15
;   outlineOverlapPercentage,60
;   infillExtrusionWidthPercentage,100
;   minInfillLength,5
;   infillLayerInterval,1
;   internalInfillAngles,45,-45
;   overlapInternalInfillAngles,0
;   externalInfillAngles,45,-45
;   generateSupport,0
;   supportExtruder,0
;   supportInfillPercentage,30
;   supportExtraInflation,0
;   supportBaseLayers,0
;   denseSupportExtruder,0
;   denseSupportLayers,0
;   denseSupportInfillPercentage,50
;   supportLayerInterval,1
;   supportHorizontalPartOffset,0.3
;   supportUpperSeparationLayers,1
;   supportLowerSeparationLayers,1
;   supportType,0
;   supportGridSpacing,4
;   maxOverhangAngle,70
;   supportAngles,0
;   temperatureName,Extruder 1,Heated Bed
;   temperatureNumber,0,0
;   temperatureSetpointCount,1,2
;   temperatureSetpointLayers,1,1,10
;   temperatureSetpointTemperatures,210,70,60
;   temperatureStabilizeAtStartup,1,0
;   temperatureHeatedBed,0,1
;   temperatureRelayBetweenLayers,0,0
;   temperatureRelayBetweenLoops,0,0
;   fanLayers,1
;   fanSpeeds,255
;   blipFanToFullPower,0
;   adjustSpeedForCooling,1
;   minSpeedLayerTime,15
;   minCoolingSpeedSlowdown,20
;   increaseFanForCooling,0
;   minFanLayerTime,45
;   maxCoolingFanSpeed,100
;   increaseFanForBridging,0
;   bridgingFanSpeed,100
;   use5D,1
;   relativeEdistances,0
;   allowEaxisZeroing,1
;   independentExtruderAxes,0
;   includeM10123,0
;   stickySupport,1
;   applyToolheadOffsets,0
;   gcodeXoffset,0
;   gcodeYoffset,0
;   gcodeZoffset,0
;   overrideMachineDefinition,1
;   machineTypeOverride,0
;   strokeXoverride,220
;   strokeYoverride,220
;   strokeZoverride,280
;   originOffsetXoverride,0
;   originOffsetYoverride,0
;   originOffsetZoverride,0
;   homeXdirOverride,-1
;   homeYdirOverride,-1
;   homeZdirOverride,-1
;   flipXoverride,1
;   flipYoverride,-1
;   flipZoverride,1
;   toolheadOffsets,0,0|0,0|0,0|0,0|0,0|0,0
;   overrideFirmwareConfiguration,1
;   firmwareTypeOverride,RepRap (Marlin/Repetier/Sprinter)
;   GPXconfigOverride,r2
;   baudRateOverride,250000
;   overridePrinterModels,0
;   printerModelsOverride
;   startingGcode,G28 ; home all axes,G1 X0 Y20 Z0.2 F3000 ; get ready to prime,G92 E0 ; reset extrusion distance,G1 X200 E20 F600 ; prime nozzle
;   layerChangeGcode,
;   retractionGcode,
;   toolChangeGcode,
;   endingGcode,M104 S0 ; turn off extruder,M140 S0 ; turn off bed,G28 X Y ; home x and y axes,M84 ; disable motors
;   exportFileFormat,gcode
;   celebration,0
;   celebrationSong,Random Song
;   postProcessing,
;   defaultSpeed,4200
;   outlineUnderspeed,0.5
;   solidInfillUnderspeed,0.8
;   supportUnderspeed,0.8
;   rapidXYspeed,4998
;   rapidZspeed,1002
;   minBridgingArea,50
;   bridgingExtraInflation,0
;   bridgingExtrusionMultiplier,1
;   bridgingSpeedMultiplier,1
;   useFixedBridgingAngle,0
;   fixedBridgingAngle,0
;   applyBridgingToPerimeters,0
;   filamentDiameters,1.75|1.75|1.75|1.75|1.75|1.75
;   filamentPricesPerKg,46|46|46|46|46|46
;   filamentDensities,1.25|1.25|1.25|1.25|1.25|1.25
;   useMinPrintHeight,0
;   minPrintHeight,0
;   useMaxPrintHeight,0
;   maxPrintHeight,0.3
;   useDiaphragm,0
;   diaphragmLayerInterval,20
;   robustSlicing,1
;   mergeAllIntoSolid,0
;   onlyRetractWhenCrossingOutline,1
;   retractBetweenLayers,1
;   useRetractionMinTravel,0
;   retractionMinTravel,3
;   retractWhileWiping,0
;   onlyWipeOutlines,1
;   avoidCrossingOutline,0
;   maxMovementDetourFactor,3
;   toolChangeRetractionDistance,12
;   toolChangeExtraRestartDistance,-0.5
;   toolChangeRetractionSpeed,600
;   externalThinWallType,1
;   internalThinWallType,2
;   thinWallAllowedOverlapPercentage,15
;   singleExtrusionMinLength,1
;   singleExtrusionMinPrintingWidthPercentage,50
;   singleExtrusionMaxPrintingWidthPercentage,200
;   singleExtrusionEndpointExtension,0.2
;   horizontalSizeCompensation,0
G90
M82
M106 S650
M140 S70
M104 S210 T0
M109 S210 T0
G28 ; home all axes
G1 X0 Y20 Z0.2 F3000 ; get ready to prime
G92 E0 ; reset extrusion distance
G1 X200 E20 F600 ; prime nozzle
G92 E0
G1 E-2.0000 F3000
G1 Z0.050 F1002
; process Process1
; layer 1, Z = 0.050
T0
; tool H0.250 W0.480
; outer perimeter
G1 X28.936 Y51.773 F4998
G1 E0.0000 F900
G92 E0
G1 X29.831 Y51.276 E0.0511 F1050
G1 X32.166 Y50.142 E0.1805
G1 X34.615 Y49.111 E0.3131
G1 X37.167 Y48.191 E0.4484
G1 X39.812 Y47.389 E0.5864
G1 X42.541 Y46.712 E0.7266
G1 X45.339 Y46.165 E0.8689
G1 X48.215 Y45.750 E1.0139
G1 X51.118 Y45.478 E1.1593
G1 X54.049 Y45.348 E1.3057
G1 X56.990 Y45.364 E1.4524
G1 X59.928 Y45.524 E1.5992
G1 X62.848 Y45.829 E1.7457
G1 X65.728 Y46.276 E1.8911
G1 X68.554 Y46.863 E2.0351
G1 X71.314 Y47.585 E2.1774
G1 X73.994 Y48.438 E2.3177
G1 X76.221 Y49.271 E2.4364
G1 X78.717 Y50.348 E2.5720
G1 X81.100 Y51.538 E2.7049
G1 X81.517 Y51.774 E2.7288
G1 X81.438 Y52.078 E2.7445
G1 X29.015 Y52.078 E5.3598
G1 X28.936 Y51.773 E5.3756
G1 X29.831 Y51.276 F4200
G1 X32.166 Y50.142 F4200
G1 X33.439 Y49.606 F4200
; inner perimeter
G1 X34.790 Y49.558 F4998
G92 E0
G1 X37.318 Y48.647 E0.1341 F1575
G1 X39.939 Y47.852 E0.2707
G1 X42.645 Y47.181 E0.4098
G1 X45.419 Y46.638 E0.5509
G1 X48.272 Y46.227 E0.6946
G1 X51.151 Y45.957 E0.8389
G1 X54.059 Y45.829 E0.9841
G1 X56.976 Y45.844 E1.1296
G1 X59.890 Y46.002 E1.2753
G1 X62.786 Y46.305 E1.4205
G1 X65.643 Y46.749 E1.5648
G1 X68.444 Y47.330 E1.7075
G1 X71.180 Y48.046 E1.8486
G1 X73.837 Y48.892 E1.9877
G1 X76.042 Y49.716 E2.1051
G1 X78.514 Y50.784 E2.2395
G1 X79.516 Y51.284 E2.2953
G1 X79.442 Y51.598 E2.3115
G1 X30.990 Y51.598 E4.7287
G1 X30.918 Y51.282 E4.7449
G1 X32.364 Y50.580 E4.8251
G1 X34.790 Y49.558 E4.9564
; gap fill
G1 X30.248 Y51.292 F4998
G92 E0
G1 X30.838 Y51.881 E0.0416 F1680
G1 X30.159 Y51.881 E0.0755
G1 X29.797 Y51.520 E0.1010
G1 X29.361 Y51.762 E0.1259
G1 X29.480 Y51.881 E0.1344
G1 X79.713 Y51.881 F4998
G92 E0
G1 X79.603 Y51.771 E0.0078 F1680
G1 X79.733 Y51.222 E0.0359
G1 X80.392 Y51.881 E0.0825
G1 X81.071 Y51.881 E0.1163
G1 X80.796 Y51.607 E0.1357
; solid layer
G1 X79.145 Y51.313 F4998
G92 E0
G1 X79.238 Y51.406 E0.0066 F1680
G1 X78.559 Y51.406 E0.0404
G1 X77.866 Y50.713 E0.0893
G1 X76.671 Y50.197 E0.1543
G1 X77.880 Y51.406 E0.2396
G1 X77.202 Y51.406 E0.2735
G1 X75.522 Y49.727 E0.3920
G1 X74.438 Y49.322 E0.4497
G1 X76.523 Y51.406 E0.5968
G1 X75.844 Y51.406 E0.6307
G1 X73.388 Y48.951 E0.8039
G1 X72.392 Y48.634 E0.8561
G1 X75.165 Y51.406 E1.0517
G1 X74.486 Y51.406 E1.0856
G1 X71.397 Y48.317 E1.3036
G1 X71.127 Y48.231 E1.3177
G1 X70.457 Y48.055 E1.3523
G1 X73.807 Y51.406 E1.5887
G1 X73.129 Y51.406 E1.6226
G1 X69.537 Y47.815 E1.8760
G1 X68.618 Y47.574 E1.9234
G1 X72.450 Y51.406 E2.1937
G1 X71.771 Y51.406 E2.2276
G1 X67.746 Y47.382 E2.5116
G1 X66.890 Y47.204 E2.5552
G1 X71.092 Y51.406 E2.8517
G1 X70.413 Y51.406 E2.8856
G1 X66.033 Y47.026 E3.1947
G1 X65.608 Y46.938 E3.2163
G1 X65.203 Y46.875 E3.2368
G1 X69.735 Y51.406 E3.5565
G1 X69.056 Y51.406 E3.5904
G1 X64.399 Y46.750 E3.9189
G1 X63.595 Y46.625 E3.9595
G1 X68.377 Y51.406 E4.2969
G1 X67.698 Y51.406 E4.3307
G1 X62.792 Y46.500 E4.6769
G1 X62.761 Y46.495 E4.6784
G1 X62.032 Y46.419 E4.7150
G1 X67.019 Y51.406 E5.0669
G1 X66.340 Y51.406 E5.1008
G1 X61.274 Y46.340 E5.4582
G1 X60.516 Y46.261 E5.4962
G1 X65.662 Y51.406 E5.8593
G1 X64.983 Y51.406 E5.8931
G1 X59.764 Y46.188 E6.2613
G1 X59.046 Y46.149 E6.2972
G1 X64.304 Y51.406 E6.6681
G1 X63.625 Y51.406 E6.7020
G1 X58.328 Y46.110 E7.0757
G1 X57.610 Y46.070 E7.1116
G1 X62.946 Y51.406 E7.4881
G1 X62.267 Y51.406 E7.5219
G1 X56.896 Y46.035 E7.9009
G1 X56.214 Y46.032 E7.9350
G1 X61.589 Y51.406 E8.3142
G1 X60.910 Y51.406 E8.3480
G1 X55.532 Y46.028 E8.7275
G1 X54.849 Y46.025 E8.7615
G1 X60.231 Y51.406 E9.1412
G1 X59.552 Y51.406 E9.1751
G1 X54.167 Y46.021 E9.5551
G1 X54.063 Y46.021 E9.5603
G1 X53.512 Y46.045 E9.5878
G1 X58.873 Y51.406 E9.9660
G1 X58.195 Y51.406 E9.9999
G1 X52.862 Y46.074 E10.3762
G1 X52.212 Y46.102 E10.4086
G1 X57.516 Y51.406 E10.7829
G1 X56.837 Y51.406 E10.8167
G1 X51.562 Y46.131 E11.1889
G1 X51.164 Y46.149 E11.2088
G1 X50.923 Y46.171 E11.2209
G1 X56.158 Y51.406 E11.5902
G1 X55.479 Y51.406 E11.6241
G1 X50.302 Y46.229 E11.9893
G1 X49.682 Y46.288 E12.0204
G1 X54.800 Y51.406 E12.3816
G1 X54.122 Y51.406 E12.4155
G1 X49.061 Y46.346 E12.7725
G1 X48.440 Y46.404 E12.8036
G1 X53.443 Y51.406 E13.1565
G1 X52.764 Y51.406 E13.1904
G1 X47.841 Y46.483 E13.5378
G1 X47.247 Y46.569 E13.5677
G1 X52.085 Y51.406 E13.9090
G1 X51.406 Y51.406 E13.9429
G1 X46.654 Y46.654 E14.2782
G1 X46.061 Y46.740 E14.3081
G1 X50.727 Y51.406 E14.6373
G1 X50.049 Y51.406 E14.6712
G1 X45.467 Y46.825 E14.9944
G1 X45.452 Y46.827 E14.9952
G1 X44.899 Y46.935 E15.0233
G1 X49.370 Y51.406 E15.3388
G1 X48.691 Y51.406 E15.3726
G1 X44.331 Y47.046 E15.6802
G1 X43.763 Y47.158 E15.7091
G1 X48.012 Y51.406 E16.0089
G1 X47.333 Y51.406 E16.0427
G1 X43.196 Y47.269 E16.3347
G1 X42.686 Y47.368 E16.3606
G1 X42.630 Y47.382 E16.3634
G1 X46.655 Y51.406 E16.6474
G1 X45.976 Y51.406 E16.6812
G1 X42.086 Y47.517 E16.9557
G1 X41.543 Y47.652 E16.9836
G1 X45.297 Y51.406 E17.2485
G1 X44.618 Y51.406 E17.2824
G1 X40.999 Y47.787 E17.5377
G1 X40.455 Y47.922 E17.5657
G1 X43.939 Y51.406 E17.8115
G1 X43.260 Y51.406 E17.8454
G1 X39.914 Y48.060 E18.0815
G1 X39.393 Y48.218 E18.1086
G1 X42.582 Y51.406 E18.3336
G1 X41.903 Y51.406 E18.3674
G1 X38.873 Y48.376 E18.5813
G1 X38.352 Y48.534 E18.6084
G1 X41.224 Y51.406 E18.8111
G1 X40.545 Y51.406 E18.8449
G1 X37.831 Y48.692 E19.0365
G1 X37.378 Y48.829 E19.0601
G1 X37.313 Y48.853 E19.0635
G1 X39.866 Y51.406 E19.2437
G1 X39.188 Y51.406 E19.2776
G1 X36.814 Y49.032 E19.4451
G1 X36.315 Y49.212 E19.4715
G1 X38.509 Y51.406 E19.6263
G1 X37.830 Y51.406 E19.6602
G1 X35.816 Y49.392 E19.8023
G1 X35.317 Y49.572 E19.8287
G1 X37.151 Y51.406 E19.9581
G1 X36.472 Y51.406 E19.9920
G1 X34.820 Y49.754 E20.1086
G1 X34.342 Y49.955 E20.1345
G1 X35.793 Y51.406 E20.2369
G1 X35.115 Y51.406 E20.2707
G1 X33.864 Y50.156 E20.3589
G1 X33.387 Y50.357 E20.3848
G1 X34.436 Y51.406 E20.4588
G1 X33.757 Y51.406 E20.4927
G1 X32.909 Y50.558 E20.5525
G1 X32.443 Y50.755 E20.5777
G1 X32.432 Y50.760 E20.5784
G1 X33.078 Y51.406 E20.6240
G1 X32.399 Y51.406 E20.6578
G1 X31.975 Y50.982 E20.6878
G1 X31.518 Y51.204 E20.7131
G1 X31.720 Y51.406 E20.7274
G92 E0
G1 E-2.0000 F3000
; outer perimeter
G1 X26.993 Y52.881 F4998
G1 E0.0000 F3000
G92 E0
G1 X83.435 Y52.881 E2.8159 F1050
G1 X86.780 Y55.154 E3.0177
G1 X89.880 Y57.746 E3.2193
G1 X92.586 Y60.538 E3.4133
G1 X94.875 Y63.487 E3.5995
G1 X96.702 Y66.481 E3.7745
G1 X98.172 Y69.652 E3.9489
G1 X99.236 Y72.905 E4.1196
G1 X99.882 Y76.178 E4.2861
G1 X100.118 Y79.423 E4.4484
G1 X99.965 Y82.717 E4.6129
G1 X99.422 Y85.970 E4.7774
G1 X98.498 Y89.130 E4.9417
G1 X97.217 Y92.159 E5.1057
G1 X95.560 Y95.112 E5.2747
G1 X93.484 Y98.022 E5.4530
G1 X91.097 Y100.712 E5.6324
G1 X88.361 Y103.232 E5.8180
G1 X85.271 Y105.570 E6.0114
G1 X81.835 Y107.699 E6.2130
G1 X78.073 Y109.584 E6.4230
G1 X73.922 Y111.226 E6.6457
G1 X69.593 Y112.522 E6.8711
G1 X65.043 Y113.483 E7.1031
G1 X60.329 Y114.082 E7.3402
G1 X55.519 Y114.301 E7.5804
G1 X50.926 Y114.148 E7.8097
G1 X49.660 Y114.043 E7.8731
G1 X48.551 Y114.173 E7.9288
G1 X44.037 Y114.957 E8.1574
G1 X39.690 Y116.133 E8.3820
G1 X35.589 Y117.681 E8.6007
G1 X31.798 Y119.578 E8.8122
G1 X28.377 Y121.794 E9.0156
G1 X25.381 Y124.295 E9.2103
G1 X22.857 Y127.041 E9.3963
G1 X20.848 Y129.991 E9.5744
G1 X19.386 Y133.098 E9.7457
G1 X18.495 Y136.311 E9.9121
G1 X18.193 Y139.479 E10.0708
G1 X18.446 Y142.644 E10.2292
G1 X19.285 Y145.855 E10.3948
G1 X20.698 Y148.973 E10.5656
G1 X22.661 Y151.938 E10.7430
G1 X25.141 Y154.705 E10.9284
G1 X28.097 Y157.229 E11.1223
G1 X31.482 Y159.471 E11.3249
G1 X35.243 Y161.397 E11.5357
G1 X39.319 Y162.977 E11.7538
G1 X43.647 Y164.186 E11.9780
G1 X48.158 Y165.006 E12.2067
G1 X52.780 Y165.424 E12.4382
G1 X57.441 Y165.434 E12.6708
G1 X62.065 Y165.034 E12.9023
G1 X66.582 Y164.232 E13.1312
G1 X70.920 Y163.040 E13.3557
G1 X75.010 Y161.477 E13.5741
G1 X78.786 Y159.566 E13.7852
G1 X82.191 Y157.337 E13.9882
G1 X85.167 Y154.825 E14.1825
G1 X87.669 Y152.069 E14.3683
G1 X89.657 Y149.112 E14.5461
G1 X91.096 Y145.999 E14.7171
G1 X91.961 Y142.786 E14.8832
G1 X92.224 Y139.799 E15.0328
G1 X93.087 Y139.541 E15.0777
G1 X94.122 Y139.411 E15.1297
G1 X95.166 Y139.454 E15.1818
G1 X96.186 Y139.670 E15.2339
G1 X97.159 Y140.051 E15.2860
G1 X98.054 Y140.588 E15.3381
G1 X98.849 Y141.265 E15.3902
G1 X99.464 Y141.997 E15.4379
G1 X98.857 Y145.879 E15.6339
G1 X97.666 Y149.775 E15.8371
G1 X95.918 Y153.539 E16.0442
G1 X93.636 Y157.122 E16.2561
G1 X90.850 Y160.478 E16.4737
G1 X87.597 Y163.561 E16.6973
G1 X83.917 Y166.330 E16.9271
G1 X79.858 Y168.749 E17.1628
G1 X75.474 Y170.786 E17.4040
G1 X70.825 Y172.414 E17.6497
G1 X65.969 Y173.610 E17.8992
G1 X60.971 Y174.359 E18.1514
G1 X55.898 Y174.651 E18.4049
G1 X50.816 Y174.482 E18.6586
G1 X45.790 Y173.855 E18.9113
G1 X40.891 Y172.777 E19.1615
G1 X36.180 Y171.263 E19.4084
G1 X31.720 Y169.333 E19.6509
G1 X27.569 Y167.014 E19.8881
G1 X23.782 Y164.335 E20.1195
G1 X20.408 Y161.332 E20.3448
G1 X17.494 Y158.046 E20.5640
G1 X15.073 Y154.519 E20.7774
G1 X13.181 Y150.798 E20.9856
G1 X11.838 Y146.933 E21.1898
G1 X11.065 Y142.972 E21.3911
G1 X10.868 Y138.968 E21.5911
G1 X11.252 Y134.973 E21.7914
G1 X12.210 Y131.038 E21.9934
G1 X13.733 Y127.213 E22.1988
G1 X15.799 Y123.550 E22.4086
G1 X18.381 Y120.096 E22.6238
G1 X21.449 Y116.896 E22.8449
G1 X24.962 Y113.994 E23.0722
G1 X28.871 Y111.427 E23.3056
G1 X33.128 Y109.230 E23.5446
G1 X37.676 Y107.432 E23.7885
G1 X42.455 Y106.057 E24.0367
G1 X47.404 Y105.123 E24.2879
G1 X50.576 Y104.768 E24.4472
G1 X54.084 Y104.970 E24.6225
G1 X58.650 Y104.865 E24.8503
G1 X63.160 Y104.348 E25.0768
G1 X67.541 Y103.427 E25.3001
G1 X71.719 Y102.117 E25.5186
G1 X75.626 Y100.438 E25.7308
G1 X79.196 Y98.418 E25.9354
G1 X82.374 Y96.090 E26.1319
G1 X85.102 Y93.490 E26.3200
G1 X87.338 Y90.662 E26.4998
G1 X89.044 Y87.651 E26.6725
G1 X90.187 Y84.506 E26.8394
G1 X90.742 Y81.373 E26.9981
G1 X90.741 Y78.263 E27.1533
G1 X90.186 Y75.129 E27.3121
G1 X89.042 Y71.985 E27.4790
G1 X87.336 Y68.974 E27.6517
G1 X85.100 Y66.146 E27.8315
G1 X82.370 Y63.547 E28.0196
G1 X79.194 Y61.219 E28.2161
G1 X75.621 Y59.200 E28.4208
G1 X71.714 Y57.521 E28.6330
G1 X67.536 Y56.211 E28.8514
G1 X63.156 Y55.290 E29.0747
G1 X58.644 Y54.774 E29.3013
G1 X54.077 Y54.670 E29.5292
G1 X49.527 Y54.980 E29.7567
G1 X45.072 Y55.700 E29.9818
