; G-Code generated by Simplify3D(R) Version 4.0.0
; Jan 4, 2021 at 10:08:29 PM
; Settings Summary
;   processName,Process1
;   applyToModels,smoking_ashtray2
;   profileName,new profile (modified)
;   profileVersion,2020-09-07 14:01:24
;   baseProfile,Default (modified)
;   printMaterial,PLA
;   printQuality,Medium
;   printExtruders,
;   extruderName,Primary Extruder
;   extruderToolheadNumber,0
;   extruderDiameter,0.4
;   extruderAutoWidth,0
;   extruderWidth,0.4
;   extrusionMultiplier,0.9
;   extruderUseRetract,1
;   extruderRetractionDistance,1
;   extruderExtraRestartDistance,0
;   extruderRetractionZLift,0
;   extruderRetractionSpeed,1800
;   extruderUseCoasting,0
;   extruderCoastingDistance,0.2
;   extruderUseWipe,0
;   extruderWipeDistance,5
;   primaryExtruder,0
;   layerHeight,0.15
;   topSolidLayers,3
;   bottomSolidLayers,2
;   perimeterOutlines,3
;   printPerimetersInsideOut,1
;   startPointOption,2
;   startPointOriginX,0
;   startPointOriginY,0
;   sequentialIslands,0
;   spiralVaseMode,0
;   firstLayerHeightPercentage,90
;   firstLayerWidthPercentage,103
;   firstLayerUnderspeed,0.5
;   useRaft,0
;   raftExtruder,0
;   raftTopLayers,2
;   raftBaseLayers,2
;   raftOffset,1.4
;   raftSeparationDistance,0.14
;   raftTopInfill,100
;   aboveRaftSpeedMultiplier,0.3
;   useSkirt,0
;   skirtExtruder,0
;   skirtLayers,1
;   skirtOutlines,2
;   skirtOffset,4
;   usePrimePillar,0
;   primePillarExtruder,999
;   primePillarWidth,12
;   primePillarLocation,7
;   primePillarSpeedMultiplier,1
;   useOozeShield,0
;   oozeShieldExtruder,999
;   oozeShieldOffset,2
;   oozeShieldOutlines,1
;   oozeShieldSidewallShape,1
;   oozeShieldSidewallAngle,30
;   oozeShieldSpeedMultiplier,1
;   infillExtruder,0
;   internalInfillPattern,Rectilinear
;   externalInfillPattern,Rectilinear
;   infillPercentage,13
;   outlineOverlapPercentage,15
;   infillExtrusionWidthPercentage,100
;   minInfillLength,5
;   infillLayerInterval,1
;   internalInfillAngles,45,-45
;   overlapInternalInfillAngles,0
;   externalInfillAngles,45,-45
;   generateSupport,1
;   supportExtruder,0
;   supportInfillPercentage,30
;   supportExtraInflation,0
;   supportBaseLayers,0
;   denseSupportExtruder,0
;   denseSupportLayers,0
;   denseSupportInfillPercentage,70
;   supportLayerInterval,1
;   supportHorizontalPartOffset,0.3
;   supportUpperSeparationLayers,1
;   supportLowerSeparationLayers,1
;   supportType,0
;   supportGridSpacing,4
;   maxOverhangAngle,45
;   supportAngles,0
;   temperatureName,Primary Extruder,Hot Bed
;   temperatureNumber,0,1
;   temperatureSetpointCount,1,1
;   temperatureSetpointLayers,1,1
;   temperatureSetpointTemperatures,210,60
;   temperatureStabilizeAtStartup,1,0
;   temperatureHeatedBed,0,1
;   temperatureRelayBetweenLayers,0,0
;   temperatureRelayBetweenLoops,0,0
;   fanLayers,1,2
;   fanSpeeds,0,100
;   blipFanToFullPower,0
;   adjustSpeedForCooling,1
;   minSpeedLayerTime,15
;   minCoolingSpeedSlowdown,20
;   increaseFanForCooling,0
;   minFanLayerTime,45
;   maxCoolingFanSpeed,100
;   increaseFanForBridging,0
;   bridgingFanSpeed,100
;   use5D,1
;   relativeEdistances,0
;   allowEaxisZeroing,1
;   independentExtruderAxes,0
;   includeM10123,0
;   stickySupport,1
;   applyToolheadOffsets,0
;   gcodeXoffset,-0.03
;   gcodeYoffset,-0.03
;   gcodeZoffset,0
;   overrideMachineDefinition,0
;   machineTypeOverride,0
;   strokeXoverride,200
;   strokeYoverride,200
;   strokeZoverride,200
;   originOffsetXoverride,0
;   originOffsetYoverride,0
;   originOffsetZoverride,0
;   homeXdirOverride,-1
;   homeYdirOverride,-1
;   homeZdirOverride,-1
;   flipXoverride,1
;   flipYoverride,-1
;   flipZoverride,1
;   toolheadOffsets,0,0|0,0|0,0|0,0|0,0|0,0
;   overrideFirmwareConfiguration,0
;   firmwareTypeOverride,RepRap (Marlin/Repetier/Sprinter)
;   GPXconfigOverride,r2
;   baudRateOverride,115200
;   overridePrinterModels,0
;   printerModelsOverride
;   startingGcode,G28 ; home all axes,G1 X3 Y5 Z0.2 F3000 ; get ready to prime,G92 E0 ; reset extrusion distance,G1 Y150 E20 F600 ; prime nozzle
;   layerChangeGcode,
;   retractionGcode,
;   toolChangeGcode,
;   endingGcode,M104 S0 ; turn off extruder,M140 S0 ; turn off bedG1 X0 Y0; home,M84 ; disable motors,M107 ; fan off,G28 X Y; Home,M18; Disable steppers
;   exportFileFormat,gcode
;   celebration,0
;   celebrationSong,Random Song
;   postProcessing,
;   defaultSpeed,4600
;   outlineUnderspeed,0.5
;   solidInfillUnderspeed,0.8
;   supportUnderspeed,0.8
;   rapidXYspeed,4800
;   rapidZspeed,1000
;   minBridgingArea,50
;   bridgingExtraInflation,0
;   bridgingExtrusionMultiplier,1
;   bridgingSpeedMultiplier,1
;   useFixedBridgingAngle,0
;   fixedBridgingAngle,0
;   applyBridgingToPerimeters,0
;   filamentDiameters,1.75|1.75|1.75|1.75|1.75|1.75
;   filamentPricesPerKg,46|46|46|46|46|46
;   filamentDensities,1.25|1.25|1.25|1.25|1.25|1.25
;   useMinPrintHeight,0
;   minPrintHeight,0
;   useMaxPrintHeight,0
;   maxPrintHeight,0
;   useDiaphragm,0
;   diaphragmLayerInterval,20
;   robustSlicing,1
;   mergeAllIntoSolid,0
;   onlyRetractWhenCrossingOutline,1
;   retractBetweenLayers,1
;   useRetractionMinTravel,0
;   retractionMinTravel,3
;   retractWhileWiping,0
;   onlyWipeOutlines,1
;   avoidCrossingOutline,0
;   maxMovementDetourFactor,3
;   toolChangeRetractionDistance,12
;   toolChangeExtraRestartDistance,-0.5
;   toolChangeRetractionSpeed,600
;   externalThinWallType,1
;   internalThinWallType,1
;   thinWallAllowedOverlapPercentage,8
;   singleExtrusionMinLength,1
;   singleExtrusionMinPrintingWidthPercentage,50
;   singleExtrusionMaxPrintingWidthPercentage,200
;   singleExtrusionEndpointExtension,0.2
;   horizontalSizeCompensation,0
G90
M82
M106 S0
M140 S60
M104 S210 T0
M109 S210 T0
G28 ; home all axes
G1 X3 Y5 Z0.2 F3000 ; get ready to prime
G92 E0 ; reset extrusion distance
G1 Y150 E20 F600 ; prime nozzle
G92 E0
G1 E-1.0000 F1800
G1 Z0.135 F1000
; process Process1
; layer 1, Z = 0.135
T0
; tool H0.150 W0.412
; inner perimeter
G1 X85.951 Y99.455 F4800
G1 E0.0000 F540
G92 E0
G1 X86.305 Y99.327 E0.0087 F1725
G1 X86.446 Y99.708 E0.0181
G1 X86.112 Y99.849 E0.0265
G1 X86.028 Y99.672 E0.0310
G1 X85.951 Y99.455 E0.0363
G1 X87.083 Y101.897 F4800
G92 E0
G1 X87.422 Y101.733 E0.0087 F1725
G1 X87.791 Y102.483 E0.0280
G1 X87.473 Y102.658 E0.0364
G1 X87.338 Y102.435 E0.0424
G1 X87.083 Y101.897 E0.0562
G1 X88.676 Y104.637 F4800
G92 E0
G1 X88.995 Y104.439 E0.0087 F1725
G1 X89.442 Y105.146 E0.0280
G1 X89.144 Y105.353 E0.0364
G1 X88.978 Y105.135 E0.0428
G1 X88.676 Y104.637 E0.0562
G1 X90.366 Y106.966 F4800
G92 E0
G1 X90.662 Y106.737 E0.0087 F1725
G1 X91.336 Y107.588 E0.0338
G1 X91.060 Y107.825 E0.0422
G1 X90.825 Y107.573 E0.0502
G1 X90.366 Y106.966 E0.0677
G1 X92.357 Y109.218 F4800
G92 E0
G1 X92.628 Y108.960 E0.0087 F1725
G1 X93.459 Y109.807 E0.0361
G1 X93.209 Y110.073 E0.0445
G1 X92.910 Y109.811 E0.0537
G1 X92.357 Y109.218 E0.0725
G1 X94.707 Y111.382 F4800
G92 E0
G1 X94.948 Y111.097 E0.0086 F1725
G1 X95.855 Y111.844 E0.0358
G1 X95.633 Y112.134 E0.0442
G1 X95.288 Y111.890 E0.0540
G1 X94.707 Y111.382 E0.0719
G1 X97.125 Y113.188 F4800
G92 E0
G1 X97.335 Y112.880 E0.0086 F1725
G1 X98.390 Y113.575 E0.0378
G1 X98.199 Y113.888 E0.0463
G1 X97.785 Y113.655 E0.0573
G1 X97.125 Y113.188 E0.0760
G1 X99.868 Y114.827 F4800
G92 E0
G1 X100.045 Y114.499 E0.0086 F1725
G1 X101.150 Y115.070 E0.0374
G1 X100.993 Y115.401 E0.0459
G1 X100.537 Y115.203 E0.0573
G1 X99.868 Y114.827 E0.0751
G1 X102.632 Y116.113 F4800
G92 E0
G1 X102.774 Y115.769 E0.0086 F1725
G1 X103.998 Y116.246 E0.0390
G1 X103.876 Y116.592 E0.0475
G1 X103.347 Y116.424 E0.0603
G1 X102.632 Y116.113 E0.0783
G1 X105.554 Y117.126 F4800
G92 E0
G1 X105.659 Y116.771 E0.0086 F1725
G1 X106.928 Y117.115 E0.0390
G1 X106.842 Y117.473 E0.0475
G1 X106.257 Y117.350 E0.0613
G1 X105.554 Y117.126 E0.0784
G1 X108.604 Y117.842 F4800
G92 E0
G1 X108.671 Y117.478 E0.0086 F1725
G1 X109.887 Y117.673 E0.0370
G1 X109.839 Y118.039 E0.0455
G1 X109.250 Y117.978 E0.0592
G1 X108.604 Y117.842 E0.0745
G1 X111.842 Y118.246 F4800
G92 E0
G1 X111.871 Y117.878 E0.0085 F1725
G1 X113.119 Y117.944 E0.0374
G1 X113.109 Y118.312 E0.0460
G1 X112.491 Y118.313 E0.0603
G1 X111.842 Y118.246 E0.0753
G1 X114.878 Y118.310 F4800
G92 E0
G1 X114.868 Y117.941 E0.0085 F1725
G1 X116.203 Y117.870 E0.0395
G1 X116.232 Y118.239 E0.0480
G1 X115.549 Y118.310 E0.0639
G1 X114.878 Y118.310 E0.0794
G1 X117.980 Y118.058 F4800
G92 E0
G1 X117.932 Y117.693 E0.0085 F1725
G1 X119.230 Y117.485 E0.0389
G1 X119.297 Y117.849 E0.0475
G1 X118.603 Y117.994 E0.0639
G1 X117.980 Y118.058 E0.0784
G1 X121.103 Y117.471 F4800
G92 E0
G1 X121.017 Y117.113 E0.0085 F1725
G1 X122.281 Y116.771 E0.0388
G1 X122.385 Y117.127 E0.0474
G1 X121.683 Y117.350 E0.0644
G1 X121.103 Y117.471 E0.0781
G1 X124.065 Y116.592 F4800
G92 E0
G1 X123.943 Y116.245 E0.0085 F1725
G1 X125.174 Y115.766 E0.0390
G1 X125.316 Y116.110 E0.0476
G1 X124.597 Y116.422 E0.0658
G1 X124.065 Y116.592 E0.0787
G1 X126.947 Y115.401 F4800
G92 E0
G1 X126.790 Y115.070 E0.0085 F1725
G1 X127.895 Y114.499 E0.0373
G1 X128.072 Y114.827 E0.0459
G1 X127.403 Y115.203 E0.0636
G1 X126.947 Y115.401 E0.0751
G1 X129.741 Y113.888 F4800
G92 E0
G1 X129.550 Y113.576 E0.0085 F1725
G1 X130.605 Y112.880 E0.0377
G1 X130.815 Y113.188 E0.0463
G1 X130.155 Y113.655 E0.0650
G1 X129.741 Y113.888 E0.0760
G1 X132.307 Y112.134 F4800
G92 E0
G1 X132.085 Y111.844 E0.0084 F1725
G1 X133.015 Y111.078 E0.0363
G1 X133.257 Y111.363 E0.0450
G1 X132.653 Y111.889 E0.0635
G1 X132.307 Y112.134 E0.0733
G1 X134.688 Y110.115 F4800
G92 E0
G1 X134.438 Y109.850 E0.0084 F1725
G1 X135.181 Y109.093 E0.0330
G1 X135.452 Y109.352 E0.0416
G1 X134.958 Y109.879 E0.0583
G1 X134.688 Y110.115 E0.0666
G1 X136.884 Y107.819 F4800
G92 E0
G1 X136.608 Y107.582 E0.0084 F1725
G1 X137.279 Y106.736 E0.0334
G1 X137.575 Y106.965 E0.0420
G1 X137.117 Y107.570 E0.0596
G1 X136.884 Y107.819 E0.0675
G1 X138.796 Y105.353 F4800
G92 E0
G1 X138.498 Y105.146 E0.0084 F1725
G1 X138.945 Y104.439 E0.0278
G1 X139.264 Y104.637 E0.0364
G1 X138.962 Y105.135 E0.0499
G1 X138.796 Y105.353 E0.0563
G1 X140.467 Y102.658 F4800
G92 E0
G1 X140.149 Y102.483 E0.0084 F1725
G1 X140.518 Y101.733 E0.0277
G1 X140.857 Y101.897 E0.0364
G1 X140.602 Y102.435 E0.0502
G1 X140.467 Y102.658 E0.0562
G1 X141.828 Y99.849 F4800
G92 E0
G1 X141.494 Y99.709 E0.0084 F1725
G1 X141.636 Y99.324 E0.0178
G1 X141.990 Y99.452 E0.0266
G1 X141.912 Y99.672 E0.0320
G1 X141.828 Y99.849 E0.0365
; outer perimeter
G1 X142.293 Y99.830 F4800
G92 E0
G1 X140.965 Y102.631 E0.0717 F1150
G1 X139.303 Y105.367 E0.1457
G1 X137.433 Y107.836 E0.2173
G1 X135.245 Y110.176 E0.2914
G1 X132.908 Y112.214 E0.3631
G1 X130.376 Y114.003 E0.4348
G1 X127.586 Y115.573 E0.5088
G1 X124.742 Y116.808 E0.5805
G1 X121.788 Y117.749 E0.6522
G1 X118.667 Y118.401 E0.7260
G1 X115.570 Y118.722 E0.7980
G1 X112.470 Y118.725 E0.8696
G1 X109.187 Y118.385 E0.9460
G1 X106.152 Y117.749 E1.0177
G1 X103.202 Y116.810 E1.0893
G1 X100.354 Y115.573 E1.1611
G1 X97.564 Y114.003 E1.2351
G1 X95.032 Y112.214 E1.3068
G1 X92.622 Y110.107 E1.3808
G1 X90.509 Y107.838 E1.4525
G1 X88.637 Y105.367 E1.5242
G1 X86.975 Y102.631 E1.5982
G1 X85.647 Y99.830 E1.6699
G1 X84.579 Y96.812 E1.7439
G1 X83.850 Y93.798 E1.8156
G1 X83.430 Y90.725 E1.8874
G1 X83.311 Y88.337 E1.9426
G1 X80.926 Y88.334 E1.9978
G1 X80.926 Y87.890 E2.0080
G1 X84.544 Y87.890 E2.0917
G1 X84.544 Y88.387 E2.1032
G1 X84.501 Y88.401 E2.1042
G1 X84.618 Y90.677 E2.1569
G1 X85.053 Y93.766 E2.2291
G1 X85.814 Y96.793 E2.3012
G1 X86.890 Y99.723 E2.3734
G1 X88.270 Y102.522 E2.4456
G1 X89.938 Y105.160 E2.5178
G1 X91.871 Y107.599 E2.5897
G1 X94.063 Y109.834 E2.6621
G1 X96.472 Y111.818 E2.7343
G1 X99.078 Y113.536 E2.8065
G1 X101.851 Y114.968 E2.8786
G1 X104.759 Y116.100 E2.9508
G1 X107.772 Y116.917 E3.0230
G1 X110.853 Y117.411 E3.0951
G1 X113.970 Y117.576 E3.1673
G1 X117.087 Y117.411 E3.2395
G1 X120.168 Y116.917 E3.3117
G1 X123.181 Y116.100 E3.3838
G1 X126.089 Y114.968 E3.4560
G1 X128.862 Y113.536 E3.5282
G1 X131.468 Y111.818 E3.6003
G1 X133.870 Y109.840 E3.6723
G1 X136.063 Y107.606 E3.7447
G1 X138.002 Y105.160 E3.8169
G1 X139.670 Y102.522 E3.8890
G1 X141.050 Y99.723 E3.9612
G1 X142.126 Y96.793 E4.0334
G1 X142.887 Y93.766 E4.1055
G1 X143.322 Y90.680 E4.1776
G1 X143.440 Y88.360 E4.2313
G1 X143.396 Y88.355 E4.2324
G1 X143.396 Y87.890 E4.2431
G1 X147.014 Y87.890 E4.3268
G1 X147.014 Y88.334 E4.3370
G1 X144.629 Y88.345 E4.3922
G1 X144.510 Y90.724 E4.4473
G1 X144.091 Y93.788 E4.5188
G1 X143.361 Y96.812 E4.5907
G1 X142.293 Y99.830 E4.6648
; internal single extrusion
G1 X141.484 Y100.168 F4800
G92 E0
; tool H0.150 W0.763
G1 X140.863 Y101.453 E0.0611 F1150
G1 X140.114 Y102.910 F4800
; tool H0.150 W0.412
G92 E0
; tool H0.150 W0.758
G1 X139.423 Y104.025 E0.0558 F1150
; tool H0.150 W0.768
G1 X139.316 Y104.198 E0.0646
G1 X141.948 Y99.014 F4800
; tool H0.150 W0.412
G92 E0
; tool H0.150 W0.762
G1 X142.676 Y96.994 E0.0918 F1150
; tool H0.150 W0.752
G1 X142.700 Y96.920 E0.0951
; tool H0.150 W0.765
G1 X142.768 Y96.696 E0.1051
; tool H0.150 W0.779
G1 X142.784 Y96.641 E0.1076
; tool H0.150 W0.781
G1 X142.798 Y96.583 E0.1102
; tool H0.150 W0.769
G1 X143.443 Y93.968 E0.2264
; tool H0.150 W0.756
G1 X143.462 Y93.892 E0.2298
; tool H0.150 W0.759
G1 X143.477 Y93.814 E0.2331
; tool H0.150 W0.766
G1 X143.492 Y93.736 E0.2366
; tool H0.150 W0.773
G1 X143.503 Y93.677 E0.2391
; tool H0.150 W0.776
G1 X143.511 Y93.619 E0.2417
; tool H0.150 W0.769
G1 X143.901 Y90.809 E0.3641
; tool H0.150 W0.763
G1 X143.912 Y90.731 E0.3675
; tool H0.150 W0.766
G1 X143.918 Y90.669 E0.3702
; tool H0.150 W0.768
G1 X143.921 Y90.608 E0.3728
; tool H0.150 W0.767
G1 X144.027 Y88.506 E0.4634
; tool H0.150 W0.713
G1 X144.084 Y88.431 E0.4672
; tool H0.150 W0.586
G1 X144.162 Y88.356 E0.4707
; tool H0.150 W0.438
G1 X144.240 Y88.282 E0.4734
; tool H0.150 W0.289
G1 X144.318 Y88.208 E0.4751
; tool H0.150 W0.200
G1 X144.396 Y88.134 E0.4763
G1 X144.407 Y88.125 E0.4765
G1 X144.415 Y88.121 E0.4766
G92 E0
G1 E-1.0000 F1800
G1 X92.218 Y108.801 F4800
G1 E0.0000 F1800
; tool H0.150 W0.412
G92 E0
; tool H0.150 W0.762
G1 X92.033 Y108.607 E0.0114 F1150
; tool H0.150 W0.753
G1 X91.608 Y108.163 E0.0374
; tool H0.150 W0.697
G1 X91.589 Y108.075 E0.0409
; tool H0.150 W0.566
G1 X91.594 Y107.963 E0.0445
; tool H0.150 W0.394
G1 X91.608 Y107.639 E0.0517
G1 X90.270 Y106.537 F4800
; tool H0.150 W0.412
G92 E0
; tool H0.150 W0.757
G1 X89.668 Y105.760 E0.0418 F1150
; tool H0.150 W0.717
G1 X89.644 Y105.678 E0.0452
; tool H0.150 W0.601
G1 X89.661 Y105.565 E0.0491
; tool H0.150 W0.434
G1 X89.678 Y105.452 E0.0519
; tool H0.150 W0.262
G1 X89.725 Y105.134 E0.0566
G1 X88.624 Y104.198 F4800
; tool H0.150 W0.412
G92 E0
; tool H0.150 W0.759
G1 X87.938 Y103.091 E0.0554 F1150
; tool H0.150 W0.686
G1 X87.949 Y102.991 E0.0593
; tool H0.150 W0.539
G1 X87.978 Y102.880 E0.0628
; tool H0.150 W0.371
G1 X88.007 Y102.769 E0.0652
; tool H0.150 W0.201
G1 X88.087 Y102.459 E0.0688
G1 X87.077 Y101.453 F4800
; tool H0.150 W0.412
G92 E0
; tool H0.150 W0.763
G1 X86.456 Y100.168 E0.0611 F1150
G1 X85.993 Y99.017 F4800
; tool H0.150 W0.412
G92 E0
; tool H0.150 W0.762
G1 X85.264 Y96.995 E0.0919 F1150
; tool H0.150 W0.752
G1 X85.240 Y96.920 E0.0952
; tool H0.150 W0.765
G1 X85.172 Y96.696 E0.1052
; tool H0.150 W0.779
G1 X85.155 Y96.641 E0.1078
; tool H0.150 W0.781
G1 X85.142 Y96.583 E0.1103
; tool H0.150 W0.769
G1 X84.480 Y93.900 E0.2296
; tool H0.150 W0.759
G1 X84.464 Y93.823 E0.2329
; tool H0.150 W0.766
G1 X84.449 Y93.745 E0.2363
; tool H0.150 W0.773
G1 X84.438 Y93.687 E0.2389
; tool H0.150 W0.775
G1 X84.430 Y93.628 E0.2415
; tool H0.150 W0.769
G1 X84.039 Y90.810 E0.3642
; tool H0.150 W0.763
G1 X84.028 Y90.732 E0.3676
; tool H0.150 W0.765
G1 X84.022 Y90.669 E0.3703
; tool H0.150 W0.768
G1 X84.019 Y90.608 E0.3730
; tool H0.150 W0.767
G1 X83.903 Y88.299 E0.4724
G92 E0
G1 E-1.0000 F1800
; tool H0.150 W0.412
; support
G1 X97.950 Y71.484 F4800
G1 E0.0000 F1800
G92 E0
G1 X129.990 Y71.484 E0.7409 F1840
G1 X129.990 Y72.817 E0.7717
G1 X97.950 Y72.817 E1.5126
G1 X97.950 Y74.151 E1.5435
G1 X129.990 Y74.151 E2.2844
G1 X129.990 Y74.797 E2.2993
