; G-Code generated by Simplify3D(R) Version 4.0.0
; May 7, 2018 at 1:14:28 AM
; Settings Summary
;   processName,nozzle 0.4
;   applyToModels,Soldering_Fingers
;   profileName,Flying Bear 902 Update 7-2017 (modified)
;   profileVersion,2017-07-10 09:45:20
;   baseProfile,Default
;   printMaterial,PLA
;   printQuality,Medium
;   printExtruders,
;   extruderName,Extruder 1
;   extruderToolheadNumber,0
;   extruderDiameter,0.4
;   extruderAutoWidth,1
;   extruderWidth,0.48
;   extrusionMultiplier,0.9
;   extruderUseRetract,1
;   extruderRetractionDistance,2
;   extruderExtraRestartDistance,0
;   extruderRetractionZLift,0
;   extruderRetractionSpeed,3000
;   extruderUseCoasting,0
;   extruderCoastingDistance,0.2
;   extruderUseWipe,1
;   extruderWipeDistance,5
;   primaryExtruder,0
;   layerHeight,0.3
;   topSolidLayers,2
;   bottomSolidLayers,2
;   perimeterOutlines,4
;   printPerimetersInsideOut,0
;   startPointOption,2
;   startPointOriginX,0
;   startPointOriginY,0
;   sequentialIslands,0
;   spiralVaseMode,0
;   firstLayerHeightPercentage,20
;   firstLayerWidthPercentage,115
;   firstLayerUnderspeed,0.3
;   useRaft,0
;   raftExtruder,0
;   raftTopLayers,2
;   raftBaseLayers,2
;   raftOffset,2
;   raftSeparationDistance,0.3
;   raftTopInfill,100
;   aboveRaftSpeedMultiplier,0.3
;   useSkirt,0
;   skirtExtruder,0
;   skirtLayers,1
;   skirtOutlines,2
;   skirtOffset,4
;   usePrimePillar,0
;   primePillarExtruder,999
;   primePillarWidth,12
;   primePillarLocation,7
;   primePillarSpeedMultiplier,1
;   useOozeShield,0
;   oozeShieldExtruder,999
;   oozeShieldOffset,2
;   oozeShieldOutlines,1
;   oozeShieldSidewallShape,1
;   oozeShieldSidewallAngle,30
;   oozeShieldSpeedMultiplier,1
;   infillExtruder,0
;   internalInfillPattern,Rectilinear
;   externalInfillPattern,Concentric
;   infillPercentage,20
;   outlineOverlapPercentage,60
;   infillExtrusionWidthPercentage,100
;   minInfillLength,5
;   infillLayerInterval,1
;   internalInfillAngles,45,-45
;   overlapInternalInfillAngles,0
;   externalInfillAngles,45,-45
;   generateSupport,0
;   supportExtruder,0
;   supportInfillPercentage,30
;   supportExtraInflation,0
;   supportBaseLayers,0
;   denseSupportExtruder,0
;   denseSupportLayers,0
;   denseSupportInfillPercentage,50
;   supportLayerInterval,1
;   supportHorizontalPartOffset,0.3
;   supportUpperSeparationLayers,1
;   supportLowerSeparationLayers,1
;   supportType,0
;   supportGridSpacing,4
;   maxOverhangAngle,70
;   supportAngles,0
;   temperatureName,Extruder 1,Heated Bed
;   temperatureNumber,0,0
;   temperatureSetpointCount,1,1
;   temperatureSetpointLayers,1,1
;   temperatureSetpointTemperatures,210,60
;   temperatureStabilizeAtStartup,1,0
;   temperatureHeatedBed,0,1
;   temperatureRelayBetweenLayers,0,0
;   temperatureRelayBetweenLoops,0,0
;   fanLayers,1
;   fanSpeeds,255
;   blipFanToFullPower,0
;   adjustSpeedForCooling,1
;   minSpeedLayerTime,15
;   minCoolingSpeedSlowdown,20
;   increaseFanForCooling,0
;   minFanLayerTime,45
;   maxCoolingFanSpeed,100
;   increaseFanForBridging,0
;   bridgingFanSpeed,100
;   use5D,1
;   relativeEdistances,0
;   allowEaxisZeroing,1
;   independentExtruderAxes,0
;   includeM10123,0
;   stickySupport,1
;   applyToolheadOffsets,0
;   gcodeXoffset,0
;   gcodeYoffset,0
;   gcodeZoffset,0
;   overrideMachineDefinition,1
;   machineTypeOverride,0
;   strokeXoverride,220
;   strokeYoverride,220
;   strokeZoverride,280
;   originOffsetXoverride,0
;   originOffsetYoverride,0
;   originOffsetZoverride,0
;   homeXdirOverride,-1
;   homeYdirOverride,-1
;   homeZdirOverride,-1
;   flipXoverride,1
;   flipYoverride,-1
;   flipZoverride,1
;   toolheadOffsets,0,0|0,0|0,0|0,0|0,0|0,0
;   overrideFirmwareConfiguration,1
;   firmwareTypeOverride,RepRap (Marlin/Repetier/Sprinter)
;   GPXconfigOverride,r2
;   baudRateOverride,250000
;   overridePrinterModels,0
;   printerModelsOverride
;   startingGcode,G28 ; home all axes,G1 X0 Y20 Z0.2 F3000 ; get ready to prime,G92 E0 ; reset extrusion distance,G1 X200 E20 F600 ; prime nozzle
;   layerChangeGcode,
;   retractionGcode,
;   toolChangeGcode,
;   endingGcode,M104 S0 ; turn off extruder,M140 S0 ; turn off bed,G28 X Y ; home x and y axes,M84 ; disable motors
;   exportFileFormat,gcode
;   celebration,0
;   celebrationSong,Random Song
;   postProcessing,
;   defaultSpeed,4400
;   outlineUnderspeed,0.6
;   solidInfillUnderspeed,0.85
;   supportUnderspeed,0.8
;   rapidXYspeed,5200
;   rapidZspeed,1002
;   minBridgingArea,50
;   bridgingExtraInflation,0
;   bridgingExtrusionMultiplier,1
;   bridgingSpeedMultiplier,1
;   useFixedBridgingAngle,0
;   fixedBridgingAngle,0
;   applyBridgingToPerimeters,0
;   filamentDiameters,1.75|1.75|1.75|1.75|1.75|1.75
;   filamentPricesPerKg,46|46|46|46|46|46
;   filamentDensities,1.25|1.25|1.25|1.25|1.25|1.25
;   useMinPrintHeight,0
;   minPrintHeight,0
;   useMaxPrintHeight,0
;   maxPrintHeight,4.3
;   useDiaphragm,0
;   diaphragmLayerInterval,20
;   robustSlicing,1
;   mergeAllIntoSolid,0
;   onlyRetractWhenCrossingOutline,1
;   retractBetweenLayers,1
;   useRetractionMinTravel,0
;   retractionMinTravel,3
;   retractWhileWiping,0
;   onlyWipeOutlines,1
;   avoidCrossingOutline,0
;   maxMovementDetourFactor,3
;   toolChangeRetractionDistance,12
;   toolChangeExtraRestartDistance,-0.5
;   toolChangeRetractionSpeed,600
;   externalThinWallType,1
;   internalThinWallType,1
;   thinWallAllowedOverlapPercentage,20
;   singleExtrusionMinLength,1
;   singleExtrusionMinPrintingWidthPercentage,50
;   singleExtrusionMaxPrintingWidthPercentage,200
;   singleExtrusionEndpointExtension,0.2
;   horizontalSizeCompensation,0
G90
M82
M106 S650
M140 S60
M104 S210 T0
M109 S210 T0
G28 ; home all axes
G1 X0 Y20 Z0.2 F3000 ; get ready to prime
G92 E0 ; reset extrusion distance
G1 X200 E20 F600 ; prime nozzle
G92 E0
G1 E-2.0000 F3000
G1 Z0.060 F1002
; process nozzle 0.4
; layer 1, Z = 0.060
T0
; tool H0.300 W0.552
; outer perimeter
G1 X83.205 Y78.395 F5200
G1 E0.0000 F900
G92 E0
G1 X83.420 Y78.168 E0.0194 F792
G1 X83.650 Y77.957 E0.0387
G1 X83.894 Y77.761 E0.0581
G1 X84.146 Y77.584 E0.0772
G1 X84.616 Y77.315 E0.1107
G1 X84.981 Y77.150 E0.1356
G1 X85.274 Y77.044 E0.1549
G1 X85.485 Y76.982 E0.1685
G1 X85.880 Y76.891 E0.1936
G1 X86.188 Y76.845 E0.2129
G1 X86.499 Y76.819 E0.2322
G1 X86.811 Y76.814 E0.2516
G1 X87.120 Y76.829 E0.2707
G1 X87.659 Y76.906 E0.3045
G1 X134.273 Y86.738 E3.2564
G1 X134.576 Y86.815 E3.2758
G1 X134.870 Y86.910 E3.2949
G1 X135.154 Y87.023 E3.3139
G1 X135.632 Y87.265 E3.3471
G1 X135.891 Y87.425 E3.3659
G1 X136.211 Y87.660 E3.3905
G1 X136.610 Y88.016 E3.4236
G1 X136.819 Y88.239 E3.4426
G1 X137.014 Y88.477 E3.4616
G1 X137.242 Y88.802 E3.4863
G1 X137.505 Y89.267 E3.5194
G1 X137.632 Y89.545 E3.5383
G1 X137.740 Y89.835 E3.5575
G1 X137.830 Y90.130 E3.5766
G1 X137.900 Y90.431 E3.5958
G1 X137.951 Y90.736 E3.6149
G1 X137.981 Y91.039 E3.6338
G1 X137.991 Y128.445 E5.9516
G1 X137.981 Y128.757 E5.9709
G1 X137.951 Y129.064 E5.9900
G1 X137.901 Y129.368 E6.0091
G1 X137.831 Y129.668 E6.0282
G1 X137.742 Y129.964 E6.0473
G1 X137.634 Y130.249 E6.0662
G1 X137.402 Y130.729 E6.0993
G1 X137.197 Y131.069 E6.1239
G1 X137.019 Y131.318 E6.1429
G1 X136.826 Y131.555 E6.1618
G1 X136.452 Y131.936 E6.1949
G1 X136.220 Y132.135 E6.2138
G1 X135.973 Y132.320 E6.2329
G1 X135.715 Y132.488 E6.2520
G1 X135.446 Y132.639 E6.2711
G1 X135.168 Y132.772 E6.2902
G1 X134.882 Y132.887 E6.3093
G1 X134.589 Y132.983 E6.3284
G1 X134.287 Y133.060 E6.3478
G1 X87.443 Y143.133 E9.3167
G1 X87.136 Y143.170 E9.3359
G1 X86.823 Y143.186 E9.3553
G1 X86.511 Y143.182 E9.3746
G1 X86.199 Y143.157 E9.3940
G1 X85.889 Y143.111 E9.4134
G1 X85.585 Y143.046 E9.4327
G1 X85.201 Y142.931 E9.4576
G1 X84.698 Y142.727 E9.4912
G1 X84.424 Y142.585 E9.5103
G1 X84.156 Y142.423 E9.5297
G1 X83.899 Y142.243 E9.5491
G1 X83.655 Y142.048 E9.5685
G1 X83.425 Y141.836 E9.5879
G1 X83.209 Y141.610 E9.6073
G1 X83.008 Y141.370 E9.6267
G1 X82.824 Y141.117 E9.6460
G1 X82.657 Y140.852 E9.6654
G1 X82.508 Y140.577 E9.6848
G1 X82.377 Y140.293 E9.7042
G1 X82.266 Y140.000 E9.7236
G1 X82.174 Y139.701 E9.7430
G1 X82.102 Y139.397 E9.7624
G1 X82.050 Y139.088 E9.7818
G1 X82.019 Y138.777 E9.8011
G1 X82.009 Y138.460 E9.8208
G1 X82.009 Y81.540 E13.3477
G1 X82.019 Y81.224 E13.3674
G1 X82.050 Y80.913 E13.3867
G1 X82.102 Y80.605 E13.4061
G1 X82.173 Y80.301 E13.4254
G1 X82.265 Y80.002 E13.4448
G1 X82.376 Y79.710 E13.4641
G1 X82.506 Y79.427 E13.4835
G1 X82.655 Y79.152 E13.5028
G1 X82.821 Y78.887 E13.5222
G1 X83.005 Y78.635 E13.5415
G1 X83.205 Y78.395 E13.5609
G1 X83.420 Y78.168 F4400
G1 X83.650 Y77.957 F4400
G1 X83.894 Y77.761 F4400
G1 X84.146 Y77.584 F4400
G1 X84.616 Y77.315 F4400
G1 X84.981 Y77.150 F4400
G1 X85.274 Y77.044 F4400
G1 X85.485 Y76.982 F4400
G1 X85.880 Y76.891 F4400
G1 X86.188 Y76.845 F4400
G1 X86.499 Y76.819 F4400
G1 X86.811 Y76.814 F4400
G1 X87.120 Y76.829 F4400
G1 X87.659 Y76.906 F4400
G1 X87.743 Y76.923 F4400
; inner perimeter
G1 X87.564 Y77.450 F5200
G92 E0
G1 X134.149 Y87.276 E2.9501 F1056
G1 X134.423 Y87.345 E2.9676
G1 X134.683 Y87.430 E2.9846
G1 X134.927 Y87.527 E3.0009
G1 X135.362 Y87.746 E3.0310
G1 X135.582 Y87.883 E3.0471
G1 X135.864 Y88.090 E3.0687
G1 X136.224 Y88.411 E3.0987
G1 X136.404 Y88.603 E3.1149
G1 X136.574 Y88.810 E3.1315
G1 X136.774 Y89.097 E3.1532
G1 X137.013 Y89.518 E3.1832
G1 X137.121 Y89.757 E3.1995
G1 X137.217 Y90.012 E3.2164
G1 X137.297 Y90.273 E3.2333
G1 X137.359 Y90.539 E3.2502
G1 X137.403 Y90.808 E3.2671
G1 X137.429 Y91.067 E3.2832
G1 X137.439 Y128.436 E5.5987
G1 X137.430 Y128.722 E5.6164
G1 X137.403 Y128.992 E5.6333
G1 X137.359 Y129.261 E5.6501
G1 X137.297 Y129.526 E5.6670
G1 X137.218 Y129.786 E5.6839
G1 X137.126 Y130.032 E5.7001
G1 X136.917 Y130.466 E5.7300
G1 X136.736 Y130.765 E5.7517
G1 X136.580 Y130.983 E5.7682
G1 X136.414 Y131.186 E5.7845
G1 X136.075 Y131.532 E5.8145
G1 X135.875 Y131.704 E5.8309
G1 X135.657 Y131.867 E5.8477
G1 X135.429 Y132.015 E5.8646
G1 X135.191 Y132.149 E5.8815
G1 X134.946 Y132.267 E5.8983
G1 X134.693 Y132.368 E5.9152
G1 X134.434 Y132.453 E5.9321
G1 X134.160 Y132.523 E5.9496
G1 X87.352 Y142.588 E8.9163
G1 X87.089 Y142.619 E8.9328
G1 X86.813 Y142.634 E8.9499
G1 X86.537 Y142.630 E8.9670
G1 X86.261 Y142.608 E8.9841
G1 X85.988 Y142.568 E9.0012
G1 X85.723 Y142.511 E9.0180
G1 X85.384 Y142.409 E9.0399
G1 X84.929 Y142.225 E9.0704
G1 X84.693 Y142.103 E9.0868
G1 X84.457 Y141.960 E9.1039
G1 X84.231 Y141.801 E9.1211
G1 X84.015 Y141.629 E9.1382
G1 X83.812 Y141.442 E9.1553
G1 X83.621 Y141.242 E9.1724
G1 X83.444 Y141.030 E9.1895
G1 X83.281 Y140.806 E9.2067
G1 X83.134 Y140.573 E9.2238
G1 X83.002 Y140.330 E9.2409
G1 X82.886 Y140.079 E9.2580
G1 X82.788 Y139.821 E9.2751
G1 X82.707 Y139.557 E9.2922
G1 X82.643 Y139.288 E9.3094
G1 X82.598 Y139.015 E9.3265
G1 X82.570 Y138.741 E9.3436
G1 X82.561 Y138.451 E9.3615
G1 X82.561 Y81.549 E12.8874
G1 X82.570 Y81.259 E12.9054
G1 X82.598 Y80.986 E12.9224
G1 X82.643 Y80.714 E12.9395
G1 X82.706 Y80.445 E12.9566
G1 X82.787 Y80.182 E12.9737
G1 X82.885 Y79.924 E12.9908
G1 X83.000 Y79.673 E13.0078
G1 X83.132 Y79.430 E13.0249
G1 X83.279 Y79.197 E13.0420
G1 X83.441 Y78.974 E13.0591
G1 X83.617 Y78.762 E13.0762
G1 X83.808 Y78.562 E13.0933
G1 X84.011 Y78.375 E13.1104
G1 X84.225 Y78.203 E13.1275
G1 X84.443 Y78.050 E13.1439
G1 X84.868 Y77.807 E13.1743
G1 X85.189 Y77.661 E13.1961
G1 X85.446 Y77.569 E13.2131
G1 X85.625 Y77.516 E13.2246
G1 X85.983 Y77.433 E13.2474
G1 X86.251 Y77.393 E13.2642
G1 X86.526 Y77.371 E13.2813
G1 X86.802 Y77.366 E13.2984
G1 X87.067 Y77.379 E13.3148
G1 X87.564 Y77.450 E13.3459
G1 X87.468 Y77.994 F5200
G92 E0
G1 X134.024 Y87.814 E2.9482 F1056
G1 X134.270 Y87.876 E2.9640
G1 X134.495 Y87.949 E2.9787
G1 X134.700 Y88.031 E2.9923
G1 X135.091 Y88.228 E3.0195
G1 X135.272 Y88.341 E3.0327
G1 X135.516 Y88.519 E3.0514
G1 X135.838 Y88.807 E3.0781
G1 X135.989 Y88.967 E3.0918
G1 X136.134 Y89.144 E3.1059
G1 X136.307 Y89.392 E3.1247
G1 X136.521 Y89.768 E3.1515
G1 X136.611 Y89.968 E3.1651
G1 X136.695 Y90.190 E3.1798
G1 X136.763 Y90.416 E3.1945
G1 X136.817 Y90.647 E3.2091
G1 X136.856 Y90.880 E3.2238
G1 X136.877 Y91.094 E3.2371
G1 X136.887 Y128.428 E5.5504
G1 X136.879 Y128.687 E5.5665
G1 X136.856 Y128.920 E5.5810
G1 X136.817 Y129.153 E5.5956
G1 X136.764 Y129.383 E5.6103
G1 X136.695 Y129.609 E5.6249
G1 X136.618 Y129.814 E5.6385
G1 X136.431 Y130.203 E5.6652
G1 X136.274 Y130.462 E5.6839
G1 X136.142 Y130.647 E5.6981
G1 X136.003 Y130.817 E5.7117
G1 X135.697 Y131.129 E5.7387
G1 X135.529 Y131.273 E5.7524
G1 X135.340 Y131.414 E5.7671
G1 X135.143 Y131.543 E5.7817
G1 X134.937 Y131.659 E5.7963
G1 X134.724 Y131.761 E5.8110
G1 X134.504 Y131.849 E5.8256
G1 X134.280 Y131.923 E5.8403
G1 X134.034 Y131.986 E5.8560
G1 X87.261 Y142.043 E8.8204
G1 X87.041 Y142.069 E8.8341
G1 X86.802 Y142.082 E8.8490
G1 X86.562 Y142.078 E8.8638
G1 X86.323 Y142.059 E8.8787
G1 X86.086 Y142.024 E8.8936
G1 X85.860 Y141.976 E8.9079
G1 X85.567 Y141.888 E8.9268
G1 X85.160 Y141.723 E8.9540
G1 X84.963 Y141.621 E8.9678
G1 X84.758 Y141.497 E8.9826
G1 X84.562 Y141.359 E8.9975
G1 X84.375 Y141.209 E9.0123
G1 X84.198 Y141.047 E9.0272
G1 X84.033 Y140.874 E9.0421
G1 X83.879 Y140.690 E9.0569
G1 X83.738 Y140.496 E9.0718
G1 X83.610 Y140.294 E9.0866
G1 X83.496 Y140.083 E9.1015
G1 X83.396 Y139.865 E9.1163
G1 X83.310 Y139.641 E9.1312
G1 X83.240 Y139.412 E9.1460
G1 X83.185 Y139.179 E9.1609
G1 X83.145 Y138.942 E9.1757
G1 X83.122 Y138.705 E9.1905
G1 X83.113 Y138.443 E9.2068
G1 X83.113 Y81.557 E12.7316
G1 X83.122 Y81.295 E12.7478
G1 X83.145 Y81.059 E12.7626
G1 X83.184 Y80.823 E12.7774
G1 X83.239 Y80.590 E12.7922
G1 X83.310 Y80.361 E12.8070
G1 X83.395 Y80.137 E12.8219
G1 X83.494 Y79.920 E12.8367
G1 X83.608 Y79.709 E12.8515
G1 X83.736 Y79.507 E12.8664
G1 X83.877 Y79.313 E12.8812
G1 X84.030 Y79.129 E12.8960
G1 X84.195 Y78.956 E12.9108
G1 X84.371 Y78.794 E12.9257
G1 X84.557 Y78.644 E12.9405
G1 X84.739 Y78.517 E12.9542
G1 X85.119 Y78.299 E12.9814
G1 X85.397 Y78.173 E13.0003
G1 X85.618 Y78.093 E13.0148
G1 X85.765 Y78.050 E13.0243
G1 X86.086 Y77.976 E13.0448
G1 X86.315 Y77.942 E13.0591
G1 X86.553 Y77.922 E13.0739
G1 X86.792 Y77.918 E13.0887
G1 X87.015 Y77.930 E13.1025
G1 X87.468 Y77.994 E13.1309
G1 X87.372 Y78.538 F5200
G92 E0
G1 X133.899 Y88.352 E2.9464 F1056
G1 X134.117 Y88.407 E2.9604
G1 X134.308 Y88.469 E2.9728
G1 X134.474 Y88.535 E2.9838
G1 X134.820 Y88.710 E3.0079
G1 X134.963 Y88.799 E3.0183
G1 X135.169 Y88.949 E3.0341
G1 X135.452 Y89.202 E3.0577
G1 X135.573 Y89.331 E3.0686
G1 X135.693 Y89.477 E3.0803
G1 X135.840 Y89.687 E3.0962
G1 X136.028 Y90.019 E3.1198
G1 X136.101 Y90.179 E3.1308
G1 X136.172 Y90.367 E3.1432
G1 X136.230 Y90.559 E3.1556
G1 X136.275 Y90.755 E3.1681
G1 X136.308 Y90.952 E3.1805
G1 X136.325 Y91.121 E3.1910
G1 X136.335 Y128.420 E5.5021
G1 X136.327 Y128.651 E5.5165
G1 X136.308 Y128.848 E5.5287
G1 X136.276 Y129.046 E5.5411
G1 X136.230 Y129.240 E5.5535
G1 X136.172 Y129.432 E5.5659
G1 X136.110 Y129.597 E5.5768
G1 X135.945 Y129.940 E5.6004
G1 X135.813 Y130.158 E5.6163
G1 X135.703 Y130.311 E5.6279
G1 X135.591 Y130.448 E5.6389
G1 X135.320 Y130.725 E5.6629
G1 X135.184 Y130.842 E5.6740
G1 X135.024 Y130.962 E5.6864
G1 X134.856 Y131.071 E5.6988
G1 X134.682 Y131.169 E5.7112
G1 X134.501 Y131.256 E5.7236
G1 X134.316 Y131.330 E5.7360
G1 X134.125 Y131.392 E5.7484
G1 X133.907 Y131.448 E5.7624
G1 X87.170 Y141.498 E8.7245
G1 X86.994 Y141.519 E8.7355
G1 X86.791 Y141.530 E8.7481
G1 X86.588 Y141.527 E8.7607
G1 X86.386 Y141.511 E8.7733
G1 X86.185 Y141.481 E8.7859
G1 X85.998 Y141.441 E8.7977
G1 X85.751 Y141.367 E8.8137
G1 X85.391 Y141.221 E8.8377
G1 X85.233 Y141.139 E8.8488
G1 X85.059 Y141.034 E8.8614
G1 X84.893 Y140.918 E8.8739
G1 X84.735 Y140.790 E8.8865
G1 X84.585 Y140.653 E8.8991
G1 X84.445 Y140.506 E8.9117
G1 X84.315 Y140.350 E8.9243
G1 X84.195 Y140.186 E8.9369
G1 X84.087 Y140.014 E8.9495
G1 X83.990 Y139.836 E8.9620
G1 X83.905 Y139.651 E8.9746
G1 X83.832 Y139.461 E8.9872
G1 X83.773 Y139.267 E8.9998
G1 X83.726 Y139.070 E9.0124
G1 X83.693 Y138.869 E9.0250
G1 X83.673 Y138.669 E9.0374
G1 X83.665 Y138.434 E9.0520
G1 X83.665 Y81.566 E12.5758
G1 X83.673 Y81.331 E12.5903
G1 X83.693 Y81.132 E12.6027
