; G-Code generated by Simplify3D(R) Version 4.0.0
; May 1, 2018 at 8:39:41 PM
; Settings Summary
;   processName,nozzle 0.4
;   applyToModels,spool_mount
;   profileName,Flying Bear 902 Update 7-2017 (modified)
;   profileVersion,2017-07-10 09:45:20
;   baseProfile,Default
;   printMaterial,PLA
;   printQuality,Medium
;   printExtruders,
;   extruderName,Extruder 1
;   extruderToolheadNumber,0
;   extruderDiameter,0.4
;   extruderAutoWidth,1
;   extruderWidth,0.48
;   extrusionMultiplier,0.9
;   extruderUseRetract,1
;   extruderRetractionDistance,2
;   extruderExtraRestartDistance,0
;   extruderRetractionZLift,0
;   extruderRetractionSpeed,3000
;   extruderUseCoasting,0
;   extruderCoastingDistance,0.2
;   extruderUseWipe,1
;   extruderWipeDistance,5
;   primaryExtruder,0
;   layerHeight,0.15
;   topSolidLayers,4
;   bottomSolidLayers,4
;   perimeterOutlines,3
;   printPerimetersInsideOut,0
;   startPointOption,2
;   startPointOriginX,0
;   startPointOriginY,0
;   sequentialIslands,0
;   spiralVaseMode,0
;   firstLayerHeightPercentage,20
;   firstLayerWidthPercentage,100
;   firstLayerUnderspeed,0.5
;   useRaft,0
;   raftExtruder,0
;   raftTopLayers,2
;   raftBaseLayers,2
;   raftOffset,2
;   raftSeparationDistance,0.55
;   raftTopInfill,100
;   aboveRaftSpeedMultiplier,0.3
;   useSkirt,0
;   skirtExtruder,0
;   skirtLayers,1
;   skirtOutlines,2
;   skirtOffset,4
;   usePrimePillar,0
;   primePillarExtruder,999
;   primePillarWidth,12
;   primePillarLocation,7
;   primePillarSpeedMultiplier,1
;   useOozeShield,0
;   oozeShieldExtruder,999
;   oozeShieldOffset,2
;   oozeShieldOutlines,1
;   oozeShieldSidewallShape,1
;   oozeShieldSidewallAngle,30
;   oozeShieldSpeedMultiplier,1
;   infillExtruder,0
;   internalInfillPattern,Rectilinear
;   externalInfillPattern,Rectilinear
;   infillPercentage,16
;   outlineOverlapPercentage,60
;   infillExtrusionWidthPercentage,100
;   minInfillLength,5
;   infillLayerInterval,1
;   internalInfillAngles,45,-45
;   overlapInternalInfillAngles,0
;   externalInfillAngles,45,-45
;   generateSupport,0
;   supportExtruder,0
;   supportInfillPercentage,30
;   supportExtraInflation,0
;   supportBaseLayers,0
;   denseSupportExtruder,0
;   denseSupportLayers,0
;   denseSupportInfillPercentage,50
;   supportLayerInterval,1
;   supportHorizontalPartOffset,0.3
;   supportUpperSeparationLayers,1
;   supportLowerSeparationLayers,1
;   supportType,0
;   supportGridSpacing,4
;   maxOverhangAngle,70
;   supportAngles,0
;   temperatureName,Extruder 1,Heated Bed
;   temperatureNumber,0,0
;   temperatureSetpointCount,1,1
;   temperatureSetpointLayers,1,1
;   temperatureSetpointTemperatures,210,60
;   temperatureStabilizeAtStartup,1,0
;   temperatureHeatedBed,0,1
;   temperatureRelayBetweenLayers,0,0
;   temperatureRelayBetweenLoops,0,0
;   fanLayers,1
;   fanSpeeds,255
;   blipFanToFullPower,0
;   adjustSpeedForCooling,1
;   minSpeedLayerTime,15
;   minCoolingSpeedSlowdown,20
;   increaseFanForCooling,0
;   minFanLayerTime,45
;   maxCoolingFanSpeed,100
;   increaseFanForBridging,0
;   bridgingFanSpeed,100
;   use5D,1
;   relativeEdistances,0
;   allowEaxisZeroing,1
;   independentExtruderAxes,0
;   includeM10123,0
;   stickySupport,1
;   applyToolheadOffsets,0
;   gcodeXoffset,0
;   gcodeYoffset,0
;   gcodeZoffset,0
;   overrideMachineDefinition,1
;   machineTypeOverride,0
;   strokeXoverride,220
;   strokeYoverride,220
;   strokeZoverride,280
;   originOffsetXoverride,0
;   originOffsetYoverride,0
;   originOffsetZoverride,0
;   homeXdirOverride,-1
;   homeYdirOverride,-1
;   homeZdirOverride,-1
;   flipXoverride,1
;   flipYoverride,-1
;   flipZoverride,1
;   toolheadOffsets,0,0|0,0|0,0|0,0|0,0|0,0
;   overrideFirmwareConfiguration,1
;   firmwareTypeOverride,RepRap (Marlin/Repetier/Sprinter)
;   GPXconfigOverride,r2
;   baudRateOverride,250000
;   overridePrinterModels,0
;   printerModelsOverride
;   startingGcode,G28 ; home all axes,G1 X0 Y20 Z0.2 F3000 ; get ready to prime,G92 E0 ; reset extrusion distance,G1 X200 E20 F600 ; prime nozzle
;   layerChangeGcode,
;   retractionGcode,
;   toolChangeGcode,
;   endingGcode,M104 S0 ; turn off extruder,M140 S0 ; turn off bed,G28 X Y ; home x and y axes,M84 ; disable motors
;   exportFileFormat,gcode
;   celebration,0
;   celebrationSong,Random Song
;   postProcessing,
;   defaultSpeed,5000
;   outlineUnderspeed,0.6
;   solidInfillUnderspeed,0.85
;   supportUnderspeed,0.8
;   rapidXYspeed,5200
;   rapidZspeed,1002
;   minBridgingArea,50
;   bridgingExtraInflation,0
;   bridgingExtrusionMultiplier,1
;   bridgingSpeedMultiplier,1
;   useFixedBridgingAngle,0
;   fixedBridgingAngle,0
;   applyBridgingToPerimeters,0
;   filamentDiameters,1.75|1.75|1.75|1.75|1.75|1.75
;   filamentPricesPerKg,46|46|46|46|46|46
;   filamentDensities,1.25|1.25|1.25|1.25|1.25|1.25
;   useMinPrintHeight,0
;   minPrintHeight,0
;   useMaxPrintHeight,0
;   maxPrintHeight,2.3
;   useDiaphragm,0
;   diaphragmLayerInterval,20
;   robustSlicing,1
;   mergeAllIntoSolid,0
;   onlyRetractWhenCrossingOutline,1
;   retractBetweenLayers,1
;   useRetractionMinTravel,0
;   retractionMinTravel,3
;   retractWhileWiping,0
;   onlyWipeOutlines,1
;   avoidCrossingOutline,0
;   maxMovementDetourFactor,3
;   toolChangeRetractionDistance,12
;   toolChangeExtraRestartDistance,-0.5
;   toolChangeRetractionSpeed,600
;   externalThinWallType,1
;   internalThinWallType,0
;   thinWallAllowedOverlapPercentage,15
;   singleExtrusionMinLength,1
;   singleExtrusionMinPrintingWidthPercentage,50
;   singleExtrusionMaxPrintingWidthPercentage,200
;   singleExtrusionEndpointExtension,0.2
;   horizontalSizeCompensation,0
G90
M82
M106 S650
M140 S60
M104 S210 T0
M109 S210 T0
G28 ; home all axes
G1 X0 Y20 Z0.2 F3000 ; get ready to prime
G92 E0 ; reset extrusion distance
G1 X200 E20 F600 ; prime nozzle
G92 E0
G1 E-2.0000 F3000
G1 Z0.030 F1002
; process nozzle 0.4
; layer 1, Z = 0.030
T0
; tool H0.150 W0.480
; outer perimeter
G1 X98.743 Y124.239 F5200
G1 E0.0000 F900
G92 E0
G1 X138.263 Y124.239 E1.0647 F1500
G1 X138.263 Y178.759 E2.5335
G1 X98.743 Y178.759 E3.5982
G1 X98.743 Y124.239 E5.0670
G1 X103.743 Y124.239 F5000
; inner perimeter
G1 X99.223 Y124.719 F5200
G92 E0
G1 X117.593 Y124.719 E0.4949 F2000
G1 X117.430 Y124.749 E0.4994
G1 X117.051 Y124.852 E0.5100
G1 X116.681 Y124.986 E0.5206
G1 X116.323 Y125.149 E0.5312
G1 X115.980 Y125.341 E0.5418
G1 X115.653 Y125.560 E0.5523
G1 X115.346 Y125.805 E0.5629
G1 X115.060 Y126.075 E0.5735
G1 X114.796 Y126.367 E0.5841
G1 X114.557 Y126.679 E0.5947
G1 X114.344 Y127.010 E0.6053
G1 X114.159 Y127.358 E0.6159
G1 X114.004 Y127.718 E0.6265
G1 X113.877 Y128.090 E0.6371
G1 X113.782 Y128.472 E0.6477
G1 X113.718 Y128.860 E0.6583
G1 X113.686 Y129.252 E0.6689
G1 X113.686 Y129.645 E0.6795
G1 X113.718 Y130.037 E0.6901
G1 X113.782 Y130.425 E0.7007
G1 X113.877 Y130.807 E0.7113
G1 X114.004 Y131.179 E0.7219
G1 X114.160 Y131.540 E0.7325
G1 X114.345 Y131.887 E0.7430
G1 X114.557 Y132.218 E0.7536
G1 X114.796 Y132.530 E0.7642
G1 X115.060 Y132.822 E0.7748
G1 X115.346 Y133.092 E0.7854
G1 X115.653 Y133.337 E0.7960
G1 X115.980 Y133.556 E0.8066
G1 X116.323 Y133.748 E0.8172
G1 X116.681 Y133.912 E0.8278
G1 X117.051 Y134.045 E0.8384
G1 X117.430 Y134.148 E0.8490
G1 X117.817 Y134.220 E0.8596
G1 X118.208 Y134.260 E0.8702
G1 X118.601 Y134.268 E0.8808
G1 X118.994 Y134.244 E0.8914
G1 X119.383 Y134.188 E0.9020
G1 X119.766 Y134.101 E0.9126
G1 X120.141 Y133.982 E0.9232
G1 X120.505 Y133.834 E0.9337
G1 X120.856 Y133.656 E0.9443
G1 X121.191 Y133.450 E0.9549
G1 X121.508 Y133.218 E0.9655
G1 X121.806 Y132.960 E0.9761
G1 X122.081 Y132.679 E0.9867
G1 X122.332 Y132.377 E0.9973
G1 X122.558 Y132.055 E1.0079
G1 X122.757 Y131.716 E1.0185
G1 X122.928 Y131.361 E1.0291
G1 X123.069 Y130.994 E1.0397
G1 X123.180 Y130.617 E1.0503
G1 X123.259 Y130.232 E1.0609
G1 X123.307 Y129.841 E1.0715
G1 X123.323 Y129.449 E1.0821
G1 X123.307 Y129.056 E1.0927
G1 X123.259 Y128.665 E1.1033
G1 X123.180 Y128.280 E1.1139
G1 X123.069 Y127.903 E1.1244
G1 X122.928 Y127.536 E1.1350
G1 X122.757 Y127.182 E1.1456
G1 X122.558 Y126.842 E1.1562
G1 X122.332 Y126.520 E1.1668
G1 X122.081 Y126.218 E1.1774
G1 X121.806 Y125.937 E1.1880
G1 X121.508 Y125.680 E1.1986
G1 X121.191 Y125.447 E1.2092
G1 X120.856 Y125.241 E1.2198
G1 X120.505 Y125.064 E1.2304
G1 X120.141 Y124.915 E1.2410
G1 X119.766 Y124.797 E1.2516
G1 X119.425 Y124.719 E1.2610
G1 X137.783 Y124.719 E1.7556
G1 X137.783 Y178.279 E3.1985
G1 X119.425 Y178.279 E3.6931
G1 X119.766 Y178.201 E3.7025
G1 X120.141 Y178.082 E3.7131
G1 X120.505 Y177.934 E3.7237
G1 X120.856 Y177.756 E3.7343
G1 X121.191 Y177.550 E3.7449
G1 X121.508 Y177.317 E3.7555
G1 X121.806 Y177.060 E3.7661
G1 X122.081 Y176.779 E3.7767
G1 X122.332 Y176.477 E3.7873
G1 X122.558 Y176.155 E3.7979
G1 X122.757 Y175.816 E3.8085
G1 X122.928 Y175.461 E3.8191
G1 X123.069 Y175.094 E3.8297
G1 X123.180 Y174.717 E3.8403
G1 X123.259 Y174.332 E3.8509
G1 X123.307 Y173.942 E3.8615
G1 X123.323 Y173.549 E3.8721
G1 X123.307 Y173.156 E3.8827
G1 X123.259 Y172.765 E3.8932
G1 X123.180 Y172.380 E3.9038
G1 X123.069 Y172.003 E3.9144
G1 X122.928 Y171.636 E3.9250
G1 X122.757 Y171.282 E3.9356
G1 X122.558 Y170.942 E3.9462
G1 X122.332 Y170.620 E3.9568
G1 X122.081 Y170.318 E3.9674
G1 X121.806 Y170.037 E3.9780
G1 X121.508 Y169.780 E3.9886
G1 X121.191 Y169.547 E3.9992
G1 X120.856 Y169.341 E4.0098
G1 X120.505 Y169.164 E4.0204
G1 X120.141 Y169.015 E4.0310
G1 X119.766 Y168.897 E4.0416
G1 X119.383 Y168.809 E4.0522
G1 X118.994 Y168.753 E4.0628
G1 X118.601 Y168.729 E4.0734
G1 X118.208 Y168.737 E4.0839
G1 X117.817 Y168.777 E4.0945
G1 X117.430 Y168.849 E4.1051
G1 X117.051 Y168.952 E4.1157
G1 X116.681 Y169.086 E4.1263
G1 X116.323 Y169.249 E4.1369
G1 X115.980 Y169.441 E4.1475
G1 X115.653 Y169.660 E4.1581
G1 X115.346 Y169.905 E4.1687
G1 X115.060 Y170.175 E4.1793
G1 X114.796 Y170.467 E4.1899
G1 X114.557 Y170.779 E4.2005
G1 X114.344 Y171.110 E4.2111
G1 X114.159 Y171.458 E4.2217
G1 X114.004 Y171.818 E4.2323
G1 X113.877 Y172.190 E4.2429
G1 X113.782 Y172.572 E4.2535
G1 X113.718 Y172.960 E4.2641
G1 X113.686 Y173.352 E4.2746
G1 X113.686 Y173.745 E4.2852
G1 X113.718 Y174.137 E4.2958
G1 X113.782 Y174.525 E4.3064
G1 X113.877 Y174.907 E4.3170
G1 X114.004 Y175.279 E4.3276
G1 X114.160 Y175.640 E4.3382
G1 X114.345 Y175.987 E4.3488
G1 X114.557 Y176.318 E4.3594
G1 X114.796 Y176.630 E4.3700
G1 X115.060 Y176.922 E4.3806
G1 X115.346 Y177.192 E4.3912
G1 X115.653 Y177.437 E4.4018
G1 X115.980 Y177.656 E4.4124
G1 X116.323 Y177.848 E4.4230
G1 X116.681 Y178.012 E4.4336
G1 X117.051 Y178.145 E4.4442
G1 X117.430 Y178.248 E4.4548
G1 X117.593 Y178.279 E4.4592
G1 X99.223 Y178.279 E4.9541
G1 X99.223 Y124.719 E6.3971
G1 X99.703 Y125.199 F5200
G92 E0
G1 X115.337 Y125.199 E0.4212 F2000
G1 X115.031 Y125.442 E0.4317
G1 X114.716 Y125.739 E0.4434
G1 X114.427 Y126.060 E0.4550
G1 X114.164 Y126.403 E0.4667
G1 X113.930 Y126.767 E0.4783
G1 X113.726 Y127.150 E0.4900
G1 X113.555 Y127.546 E0.5016
G1 X113.417 Y127.955 E0.5133
G1 X113.312 Y128.375 E0.5249
G1 X113.241 Y128.801 E0.5366
G1 X113.206 Y129.232 E0.5482
G1 X113.206 Y129.665 E0.5599
G1 X113.241 Y130.096 E0.5715
G1 X113.312 Y130.523 E0.5832
G1 X113.417 Y130.942 E0.5948
G1 X113.555 Y131.352 E0.6065
G1 X113.727 Y131.749 E0.6181
G1 X113.930 Y132.130 E0.6298
G1 X114.164 Y132.494 E0.6414
G1 X114.427 Y132.838 E0.6531
G1 X114.716 Y133.159 E0.6647
G1 X115.031 Y133.455 E0.6764
G1 X115.370 Y133.724 E0.6880
G1 X115.728 Y133.966 E0.6997
G1 X116.106 Y134.177 E0.7113
G1 X116.499 Y134.356 E0.7230
G1 X116.906 Y134.503 E0.7346
G1 X117.323 Y134.617 E0.7463
G1 X117.748 Y134.696 E0.7579
G1 X118.179 Y134.740 E0.7696
G1 X118.611 Y134.748 E0.7812
G1 X119.043 Y134.722 E0.7929
G1 X119.471 Y134.661 E0.8045
G1 X119.892 Y134.564 E0.8162
G1 X120.305 Y134.434 E0.8278
G1 X120.705 Y134.271 E0.8395
G1 X121.091 Y134.075 E0.8511
G1 X121.459 Y133.849 E0.8628
G1 X121.808 Y133.593 E0.8744
G1 X122.135 Y133.310 E0.8861
G1 X122.437 Y133.001 E0.8977
G1 X122.714 Y132.668 E0.9094
G1 X122.962 Y132.315 E0.9210
G1 X123.181 Y131.941 E0.9327
G1 X123.369 Y131.552 E0.9443
G1 X123.524 Y131.148 E0.9560
G1 X123.646 Y130.733 E0.9676
G1 X123.733 Y130.310 E0.9793
G1 X123.786 Y129.881 E0.9909
G1 X123.804 Y129.449 E1.0026
G1 X123.786 Y129.017 E1.0142
G1 X123.733 Y128.587 E1.0259
G1 X123.646 Y128.164 E1.0375
G1 X123.524 Y127.749 E1.0492
G1 X123.369 Y127.345 E1.0608
G1 X123.181 Y126.956 E1.0725
G1 X122.962 Y126.583 E1.0841
G1 X122.714 Y126.229 E1.0958
G1 X122.437 Y125.896 E1.1074
G1 X122.135 Y125.587 E1.1191
G1 X121.808 Y125.304 E1.1307
G1 X121.664 Y125.199 E1.1356
G1 X137.303 Y125.199 E1.5569
G1 X137.303 Y177.799 E2.9740
G1 X121.664 Y177.799 E3.3953
G1 X121.808 Y177.693 E3.4001
G1 X122.135 Y177.410 E3.4117
G1 X122.437 Y177.101 E3.4234
G1 X122.714 Y176.768 E3.4350
G1 X122.962 Y176.415 E3.4467
G1 X123.181 Y176.041 E3.4583
G1 X123.369 Y175.652 E3.4700
G1 X123.524 Y175.248 E3.4816
G1 X123.646 Y174.833 E3.4933
G1 X123.733 Y174.410 E3.5049
G1 X123.786 Y173.981 E3.5166
G1 X123.804 Y173.549 E3.5282
G1 X123.786 Y173.117 E3.5399
G1 X123.733 Y172.687 E3.5515
G1 X123.646 Y172.264 E3.5632
G1 X123.524 Y171.849 E3.5748
G1 X123.369 Y171.445 E3.5865
G1 X123.181 Y171.056 E3.5981
G1 X122.962 Y170.683 E3.6098
G1 X122.714 Y170.329 E3.6214
G1 X122.437 Y169.996 E3.6331
G1 X122.135 Y169.687 E3.6447
G1 X121.808 Y169.404 E3.6564
G1 X121.459 Y169.148 E3.6680
G1 X121.091 Y168.922 E3.6797
G1 X120.705 Y168.727 E3.6913
G1 X120.305 Y168.563 E3.7030
G1 X119.892 Y168.433 E3.7146
G1 X119.471 Y168.337 E3.7263
G1 X119.043 Y168.275 E3.7379
G1 X118.611 Y168.249 E3.7496
G1 X118.179 Y168.258 E3.7612
G1 X117.748 Y168.302 E3.7729
G1 X117.323 Y168.381 E3.7845
G1 X116.906 Y168.494 E3.7962
G1 X116.499 Y168.641 E3.8078
G1 X116.106 Y168.820 E3.8195
G1 X115.728 Y169.032 E3.8312
G1 X115.370 Y169.273 E3.8428
G1 X115.031 Y169.542 E3.8545
G1 X114.716 Y169.839 E3.8661
G1 X114.427 Y170.160 E3.8778
G1 X114.164 Y170.503 E3.8894
G1 X113.930 Y170.867 E3.9011
G1 X113.726 Y171.250 E3.9127
G1 X113.555 Y171.646 E3.9244
G1 X113.417 Y172.055 E3.9360
G1 X113.312 Y172.475 E3.9477
G1 X113.241 Y172.901 E3.9593
G1 X113.206 Y173.332 E3.9710
G1 X113.206 Y173.765 E3.9826
G1 X113.241 Y174.196 E3.9943
G1 X113.312 Y174.623 E4.0059
G1 X113.417 Y175.042 E4.0176
G1 X113.555 Y175.452 E4.0292
G1 X113.727 Y175.849 E4.0409
G1 X113.930 Y176.230 E4.0525
G1 X114.164 Y176.594 E4.0642
G1 X114.427 Y176.938 E4.0758
G1 X114.716 Y177.259 E4.0875
G1 X115.031 Y177.555 E4.0991
G1 X115.337 Y177.799 E4.1096
G1 X99.703 Y177.799 E4.5308
G1 X99.703 Y125.199 E5.9479
; outer perimeter
G1 X114.253 Y128.569 F5200
G92 E0
G1 X114.195 Y128.919 E0.0095 F1500
G1 X114.166 Y129.272 E0.0191
G1 X114.166 Y129.626 E0.0286
G1 X114.195 Y129.978 E0.0382
G1 X114.253 Y130.328 E0.0477
G1 X114.338 Y130.671 E0.0572
G1 X114.452 Y131.007 E0.0668
G1 X114.592 Y131.332 E0.0763
G1 X114.759 Y131.644 E0.0858
G1 X114.950 Y131.942 E0.0954
G1 X115.165 Y132.223 E0.1049
G1 X115.403 Y132.486 E0.1145
G1 X115.661 Y132.729 E0.1240
G1 X115.937 Y132.949 E0.1335
G1 X116.231 Y133.147 E0.1431
G1 X116.540 Y133.320 E0.1526
G1 X116.862 Y133.467 E0.1622
G1 X117.195 Y133.587 E0.1717
G1 X117.537 Y133.680 E0.1812
G1 X117.885 Y133.745 E0.1908
G1 X118.237 Y133.781 E0.2003
G1 X118.591 Y133.788 E0.2099
G1 X118.945 Y133.766 E0.2194
G1 X119.295 Y133.716 E0.2289
G1 X119.640 Y133.637 E0.2385
G1 X119.978 Y133.530 E0.2480
G1 X120.306 Y133.397 E0.2575
G1 X120.622 Y133.236 E0.2671
G1 X120.923 Y133.051 E0.2766
G1 X121.209 Y132.842 E0.2862
G1 X121.477 Y132.610 E0.2957
G1 X121.724 Y132.357 E0.3052
G1 X121.951 Y132.085 E0.3148
G1 X122.154 Y131.795 E0.3243
G1 X122.333 Y131.490 E0.3339
G1 X122.487 Y131.171 E0.3434
G1 X122.614 Y130.840 E0.3529
G1 X122.714 Y130.500 E0.3625
G1 X122.785 Y130.154 E0.3720
G1 X122.829 Y129.802 E0.3815
G1 X122.843 Y129.449 E0.3911
G1 X122.829 Y129.095 E0.4006
G1 X122.785 Y128.743 E0.4102
G1 X122.714 Y128.397 E0.4197
G1 X122.614 Y128.057 E0.4292
G1 X122.487 Y127.727 E0.4388
G1 X122.333 Y127.407 E0.4483
G1 X122.154 Y127.102 E0.4579
G1 X121.951 Y126.812 E0.4674
G1 X121.724 Y126.540 E0.4769
G1 X121.476 Y126.287 E0.4865
G1 X121.209 Y126.055 E0.4960
G1 X120.923 Y125.846 E0.5055
