; G-Code generated by Simplify3D(R) Version 4.0.0
; May 1, 2018 at 8:49:44 PM
; Settings Summary
;   processName,nozzle 0.4
;   applyToModels,spool_mount
;   profileName,Flying Bear 902 Update 7-2017 (modified)
;   profileVersion,2017-07-10 09:45:20
;   baseProfile,Default
;   printMaterial,PLA
;   printQuality,Medium
;   printExtruders,
;   extruderName,Extruder 1
;   extruderToolheadNumber,0
;   extruderDiameter,0.4
;   extruderAutoWidth,1
;   extruderWidth,0.48
;   extrusionMultiplier,0.9
;   extruderUseRetract,1
;   extruderRetractionDistance,2
;   extruderExtraRestartDistance,0
;   extruderRetractionZLift,0
;   extruderRetractionSpeed,3000
;   extruderUseCoasting,0
;   extruderCoastingDistance,0.2
;   extruderUseWipe,1
;   extruderWipeDistance,5
;   primaryExtruder,0
;   layerHeight,0.15
;   topSolidLayers,4
;   bottomSolidLayers,4
;   perimeterOutlines,3
;   printPerimetersInsideOut,0
;   startPointOption,2
;   startPointOriginX,0
;   startPointOriginY,0
;   sequentialIslands,0
;   spiralVaseMode,0
;   firstLayerHeightPercentage,20
;   firstLayerWidthPercentage,100
;   firstLayerUnderspeed,0.5
;   useRaft,0
;   raftExtruder,0
;   raftTopLayers,2
;   raftBaseLayers,2
;   raftOffset,2
;   raftSeparationDistance,0.55
;   raftTopInfill,100
;   aboveRaftSpeedMultiplier,0.3
;   useSkirt,0
;   skirtExtruder,0
;   skirtLayers,1
;   skirtOutlines,2
;   skirtOffset,4
;   usePrimePillar,0
;   primePillarExtruder,999
;   primePillarWidth,12
;   primePillarLocation,7
;   primePillarSpeedMultiplier,1
;   useOozeShield,0
;   oozeShieldExtruder,999
;   oozeShieldOffset,2
;   oozeShieldOutlines,1
;   oozeShieldSidewallShape,1
;   oozeShieldSidewallAngle,30
;   oozeShieldSpeedMultiplier,1
;   infillExtruder,0
;   internalInfillPattern,Rectilinear
;   externalInfillPattern,Rectilinear
;   infillPercentage,16
;   outlineOverlapPercentage,60
;   infillExtrusionWidthPercentage,100
;   minInfillLength,5
;   infillLayerInterval,1
;   internalInfillAngles,45,-45
;   overlapInternalInfillAngles,0
;   externalInfillAngles,45,-45
;   generateSupport,0
;   supportExtruder,0
;   supportInfillPercentage,30
;   supportExtraInflation,0
;   supportBaseLayers,0
;   denseSupportExtruder,0
;   denseSupportLayers,0
;   denseSupportInfillPercentage,50
;   supportLayerInterval,1
;   supportHorizontalPartOffset,0.3
;   supportUpperSeparationLayers,1
;   supportLowerSeparationLayers,1
;   supportType,0
;   supportGridSpacing,4
;   maxOverhangAngle,70
;   supportAngles,0
;   temperatureName,Extruder 1,Heated Bed
;   temperatureNumber,0,0
;   temperatureSetpointCount,1,1
;   temperatureSetpointLayers,1,1
;   temperatureSetpointTemperatures,210,60
;   temperatureStabilizeAtStartup,1,0
;   temperatureHeatedBed,0,1
;   temperatureRelayBetweenLayers,0,0
;   temperatureRelayBetweenLoops,0,0
;   fanLayers,1
;   fanSpeeds,255
;   blipFanToFullPower,0
;   adjustSpeedForCooling,1
;   minSpeedLayerTime,15
;   minCoolingSpeedSlowdown,20
;   increaseFanForCooling,0
;   minFanLayerTime,45
;   maxCoolingFanSpeed,100
;   increaseFanForBridging,0
;   bridgingFanSpeed,100
;   use5D,1
;   relativeEdistances,0
;   allowEaxisZeroing,1
;   independentExtruderAxes,0
;   includeM10123,0
;   stickySupport,1
;   applyToolheadOffsets,0
;   gcodeXoffset,0
;   gcodeYoffset,0
;   gcodeZoffset,0
;   overrideMachineDefinition,1
;   machineTypeOverride,0
;   strokeXoverride,220
;   strokeYoverride,220
;   strokeZoverride,280
;   originOffsetXoverride,0
;   originOffsetYoverride,0
;   originOffsetZoverride,0
;   homeXdirOverride,-1
;   homeYdirOverride,-1
;   homeZdirOverride,-1
;   flipXoverride,1
;   flipYoverride,-1
;   flipZoverride,1
;   toolheadOffsets,0,0|0,0|0,0|0,0|0,0|0,0
;   overrideFirmwareConfiguration,1
;   firmwareTypeOverride,RepRap (Marlin/Repetier/Sprinter)
;   GPXconfigOverride,r2
;   baudRateOverride,250000
;   overridePrinterModels,0
;   printerModelsOverride
;   startingGcode,G28 ; home all axes,G1 X0 Y20 Z0.2 F3000 ; get ready to prime,G92 E0 ; reset extrusion distance,G1 X200 E20 F600 ; prime nozzle
;   layerChangeGcode,
;   retractionGcode,
;   toolChangeGcode,
;   endingGcode,M104 S0 ; turn off extruder,M140 S0 ; turn off bed,G28 X Y ; home x and y axes,M84 ; disable motors
;   exportFileFormat,gcode
;   celebration,0
;   celebrationSong,Random Song
;   postProcessing,
;   defaultSpeed,5000
;   outlineUnderspeed,0.6
;   solidInfillUnderspeed,0.85
;   supportUnderspeed,0.8
;   rapidXYspeed,5200
;   rapidZspeed,1002
;   minBridgingArea,50
;   bridgingExtraInflation,0
;   bridgingExtrusionMultiplier,1
;   bridgingSpeedMultiplier,1
;   useFixedBridgingAngle,0
;   fixedBridgingAngle,0
;   applyBridgingToPerimeters,0
;   filamentDiameters,1.75|1.75|1.75|1.75|1.75|1.75
;   filamentPricesPerKg,46|46|46|46|46|46
;   filamentDensities,1.25|1.25|1.25|1.25|1.25|1.25
;   useMinPrintHeight,0
;   minPrintHeight,0
;   useMaxPrintHeight,0
;   maxPrintHeight,2.3
;   useDiaphragm,0
;   diaphragmLayerInterval,20
;   robustSlicing,1
;   mergeAllIntoSolid,0
;   onlyRetractWhenCrossingOutline,1
;   retractBetweenLayers,1
;   useRetractionMinTravel,0
;   retractionMinTravel,3
;   retractWhileWiping,0
;   onlyWipeOutlines,1
;   avoidCrossingOutline,0
;   maxMovementDetourFactor,3
;   toolChangeRetractionDistance,12
;   toolChangeExtraRestartDistance,-0.5
;   toolChangeRetractionSpeed,600
;   externalThinWallType,1
;   internalThinWallType,0
;   thinWallAllowedOverlapPercentage,15
;   singleExtrusionMinLength,1
;   singleExtrusionMinPrintingWidthPercentage,50
;   singleExtrusionMaxPrintingWidthPercentage,200
;   singleExtrusionEndpointExtension,0.2
;   horizontalSizeCompensation,0
G90
M82
M106 S650
M140 S60
M104 S210 T0
M109 S210 T0
G28 ; home all axes
G1 X0 Y20 Z0.2 F3000 ; get ready to prime
G92 E0 ; reset extrusion distance
G1 X200 E20 F600 ; prime nozzle
G92 E0
G1 E-2.0000 F3000
G1 Z0.030 F1002
; process nozzle 0.4
; layer 1, Z = 0.030
T0
; tool H0.150 W0.480
; outer perimeter
G1 X90.240 Y82.740 F5200
G1 E0.0000 F900
G92 E0
G1 X129.760 Y82.740 E1.0647 F1500
G1 X129.760 Y137.260 E2.5335
G1 X90.240 Y137.260 E3.5982
G1 X90.240 Y82.740 E5.0670
G1 X95.240 Y82.740 F5000
; inner perimeter
G1 X90.720 Y83.220 F5200
G92 E0
G1 X109.090 Y83.220 E0.4949 F2000
G1 X108.927 Y83.250 E0.4994
G1 X108.548 Y83.353 E0.5100
G1 X108.178 Y83.487 E0.5206
G1 X107.820 Y83.650 E0.5312
G1 X107.477 Y83.842 E0.5418
G1 X107.151 Y84.062 E0.5523
G1 X106.843 Y84.307 E0.5629
G1 X106.557 Y84.576 E0.5735
G1 X106.293 Y84.868 E0.5841
G1 X106.054 Y85.181 E0.5947
G1 X105.842 Y85.511 E0.6053
G1 X105.656 Y85.859 E0.6159
G1 X105.501 Y86.219 E0.6265
G1 X105.375 Y86.592 E0.6371
G1 X105.279 Y86.973 E0.6477
G1 X105.215 Y87.361 E0.6583
G1 X105.183 Y87.753 E0.6689
G1 X105.183 Y88.147 E0.6795
G1 X105.215 Y88.539 E0.6901
G1 X105.279 Y88.927 E0.7007
G1 X105.375 Y89.308 E0.7113
G1 X105.501 Y89.681 E0.7219
G1 X105.657 Y90.042 E0.7325
G1 X105.842 Y90.389 E0.7430
G1 X106.054 Y90.719 E0.7536
G1 X106.293 Y91.032 E0.7642
G1 X106.557 Y91.324 E0.7748
G1 X106.843 Y91.593 E0.7854
G1 X107.151 Y91.838 E0.7960
G1 X107.477 Y92.058 E0.8066
G1 X107.820 Y92.250 E0.8172
G1 X108.178 Y92.413 E0.8278
G1 X108.548 Y92.547 E0.8384
G1 X108.927 Y92.650 E0.8490
G1 X109.314 Y92.722 E0.8596
G1 X109.705 Y92.762 E0.8702
G1 X110.098 Y92.770 E0.8808
G1 X110.491 Y92.746 E0.8914
G1 X110.880 Y92.690 E0.9020
G1 X111.263 Y92.602 E0.9126
G1 X111.638 Y92.484 E0.9232
G1 X112.003 Y92.335 E0.9337
G1 X112.353 Y92.157 E0.9443
G1 X112.688 Y91.951 E0.9549
G1 X113.006 Y91.719 E0.9655
G1 X113.303 Y91.461 E0.9761
G1 X113.578 Y91.180 E0.9867
G1 X113.829 Y90.878 E0.9973
G1 X114.055 Y90.556 E1.0079
G1 X114.254 Y90.217 E1.0185
G1 X114.425 Y89.863 E1.0291
G1 X114.566 Y89.496 E1.0397
G1 X114.677 Y89.118 E1.0503
G1 X114.757 Y88.733 E1.0609
G1 X114.805 Y88.343 E1.0715
G1 X114.821 Y87.950 E1.0821
G1 X114.805 Y87.557 E1.0927
G1 X114.757 Y87.167 E1.1033
G1 X114.677 Y86.782 E1.1139
G1 X114.566 Y86.404 E1.1244
G1 X114.425 Y86.037 E1.1350
G1 X114.254 Y85.683 E1.1456
G1 X114.055 Y85.344 E1.1562
G1 X113.829 Y85.022 E1.1668
G1 X113.578 Y84.720 E1.1774
G1 X113.303 Y84.439 E1.1880
G1 X113.006 Y84.181 E1.1986
G1 X112.688 Y83.949 E1.2092
G1 X112.353 Y83.743 E1.2198
G1 X112.003 Y83.565 E1.2304
G1 X111.638 Y83.416 E1.2410
G1 X111.263 Y83.298 E1.2516
G1 X110.922 Y83.220 E1.2610
G1 X129.280 Y83.220 E1.7556
G1 X129.280 Y136.780 E3.1985
G1 X110.922 Y136.780 E3.6931
G1 X111.263 Y136.702 E3.7025
G1 X111.638 Y136.584 E3.7131
G1 X112.003 Y136.435 E3.7237
G1 X112.353 Y136.257 E3.7343
G1 X112.688 Y136.051 E3.7449
G1 X113.006 Y135.819 E3.7555
G1 X113.303 Y135.561 E3.7661
G1 X113.578 Y135.280 E3.7767
G1 X113.829 Y134.978 E3.7873
G1 X114.055 Y134.656 E3.7979
G1 X114.254 Y134.317 E3.8085
G1 X114.425 Y133.963 E3.8191
G1 X114.566 Y133.596 E3.8297
G1 X114.677 Y133.218 E3.8403
G1 X114.757 Y132.833 E3.8509
G1 X114.805 Y132.443 E3.8615
G1 X114.821 Y132.050 E3.8721
G1 X114.805 Y131.657 E3.8827
G1 X114.757 Y131.267 E3.8932
G1 X114.677 Y130.882 E3.9038
G1 X114.566 Y130.504 E3.9144
G1 X114.425 Y130.137 E3.9250
G1 X114.254 Y129.783 E3.9356
G1 X114.055 Y129.444 E3.9462
G1 X113.829 Y129.122 E3.9568
G1 X113.578 Y128.820 E3.9674
G1 X113.303 Y128.539 E3.9780
G1 X113.006 Y128.281 E3.9886
G1 X112.688 Y128.049 E3.9992
G1 X112.353 Y127.843 E4.0098
G1 X112.003 Y127.665 E4.0204
G1 X111.638 Y127.516 E4.0310
G1 X111.263 Y127.398 E4.0416
G1 X110.880 Y127.310 E4.0522
G1 X110.491 Y127.254 E4.0628
G1 X110.098 Y127.230 E4.0734
G1 X109.705 Y127.238 E4.0839
G1 X109.314 Y127.278 E4.0945
G1 X108.927 Y127.350 E4.1051
G1 X108.548 Y127.453 E4.1157
G1 X108.178 Y127.587 E4.1263
G1 X107.820 Y127.750 E4.1369
G1 X107.477 Y127.942 E4.1475
G1 X107.151 Y128.162 E4.1581
G1 X106.843 Y128.407 E4.1687
G1 X106.557 Y128.676 E4.1793
G1 X106.293 Y128.968 E4.1899
G1 X106.054 Y129.281 E4.2005
G1 X105.842 Y129.611 E4.2111
G1 X105.656 Y129.959 E4.2217
G1 X105.501 Y130.319 E4.2323
G1 X105.375 Y130.692 E4.2429
G1 X105.279 Y131.073 E4.2535
G1 X105.215 Y131.461 E4.2641
G1 X105.183 Y131.853 E4.2746
G1 X105.183 Y132.247 E4.2852
G1 X105.215 Y132.639 E4.2958
G1 X105.279 Y133.027 E4.3064
G1 X105.375 Y133.408 E4.3170
G1 X105.501 Y133.781 E4.3276
G1 X105.657 Y134.142 E4.3382
G1 X105.842 Y134.489 E4.3488
G1 X106.054 Y134.819 E4.3594
G1 X106.293 Y135.132 E4.3700
G1 X106.557 Y135.424 E4.3806
G1 X106.843 Y135.693 E4.3912
G1 X107.151 Y135.938 E4.4018
G1 X107.477 Y136.158 E4.4124
G1 X107.820 Y136.350 E4.4230
G1 X108.178 Y136.513 E4.4336
G1 X108.548 Y136.647 E4.4442
G1 X108.927 Y136.750 E4.4548
G1 X109.090 Y136.780 E4.4592
G1 X90.720 Y136.780 E4.9541
G1 X90.720 Y83.220 E6.3971
G1 X91.200 Y83.700 F5200
G92 E0
G1 X106.834 Y83.700 E0.4212 F2000
G1 X106.529 Y83.944 E0.4317
G1 X106.214 Y84.240 E0.4434
G1 X105.924 Y84.561 E0.4550
G1 X105.661 Y84.905 E0.4667
G1 X105.427 Y85.268 E0.4783
G1 X105.224 Y85.651 E0.4900
G1 X105.052 Y86.047 E0.5016
G1 X104.914 Y86.457 E0.5133
G1 X104.809 Y86.876 E0.5249
G1 X104.739 Y87.303 E0.5366
G1 X104.703 Y87.734 E0.5482
G1 X104.703 Y88.166 E0.5599
G1 X104.739 Y88.597 E0.5715
G1 X104.809 Y89.024 E0.5832
G1 X104.914 Y89.443 E0.5948
G1 X105.052 Y89.853 E0.6065
G1 X105.224 Y90.250 E0.6181
G1 X105.427 Y90.632 E0.6298
G1 X105.661 Y90.995 E0.6414
G1 X105.924 Y91.339 E0.6531
G1 X106.214 Y91.660 E0.6647
G1 X106.529 Y91.956 E0.6764
G1 X106.867 Y92.226 E0.6880
G1 X107.226 Y92.467 E0.6997
G1 X107.603 Y92.678 E0.7113
G1 X107.996 Y92.858 E0.7230
G1 X108.403 Y93.005 E0.7346
G1 X108.820 Y93.118 E0.7463
G1 X109.246 Y93.197 E0.7579
G1 X109.676 Y93.241 E0.7696
G1 X110.108 Y93.250 E0.7812
G1 X110.540 Y93.223 E0.7929
G1 X110.968 Y93.162 E0.8045
G1 X111.389 Y93.066 E0.8162
G1 X111.802 Y92.935 E0.8278
G1 X112.202 Y92.772 E0.8395
G1 X112.588 Y92.576 E0.8511
G1 X112.956 Y92.350 E0.8628
G1 X113.305 Y92.094 E0.8744
G1 X113.632 Y91.811 E0.8861
G1 X113.935 Y91.502 E0.8977
G1 X114.211 Y91.170 E0.9094
G1 X114.459 Y90.816 E0.9210
G1 X114.678 Y90.443 E0.9327
G1 X114.866 Y90.053 E0.9443
G1 X115.021 Y89.650 E0.9560
G1 X115.143 Y89.235 E0.9676
G1 X115.231 Y88.811 E0.9793
G1 X115.283 Y88.382 E0.9909
G1 X115.301 Y87.950 E1.0026
G1 X115.283 Y87.518 E1.0142
G1 X115.231 Y87.089 E1.0259
G1 X115.143 Y86.665 E1.0375
G1 X115.021 Y86.250 E1.0492
G1 X114.866 Y85.847 E1.0608
G1 X114.678 Y85.457 E1.0725
G1 X114.459 Y85.084 E1.0841
G1 X114.211 Y84.730 E1.0958
G1 X113.935 Y84.398 E1.1074
G1 X113.632 Y84.089 E1.1191
G1 X113.305 Y83.805 E1.1307
G1 X113.161 Y83.700 E1.1356
G1 X128.800 Y83.700 E1.5569
G1 X128.800 Y136.300 E2.9740
G1 X113.161 Y136.300 E3.3953
G1 X113.305 Y136.194 E3.4001
G1 X113.632 Y135.911 E3.4117
G1 X113.935 Y135.602 E3.4234
G1 X114.211 Y135.270 E3.4350
G1 X114.460 Y134.916 E3.4467
G1 X114.678 Y134.543 E3.4583
G1 X114.866 Y134.153 E3.4700
G1 X115.021 Y133.750 E3.4816
G1 X115.143 Y133.335 E3.4933
G1 X115.231 Y132.911 E3.5049
G1 X115.283 Y132.482 E3.5166
G1 X115.301 Y132.050 E3.5282
G1 X115.283 Y131.618 E3.5399
G1 X115.231 Y131.189 E3.5515
G1 X115.143 Y130.765 E3.5632
G1 X115.021 Y130.350 E3.5748
G1 X114.866 Y129.947 E3.5865
G1 X114.678 Y129.557 E3.5981
G1 X114.459 Y129.184 E3.6098
G1 X114.211 Y128.830 E3.6214
G1 X113.935 Y128.498 E3.6331
G1 X113.632 Y128.189 E3.6447
G1 X113.305 Y127.906 E3.6564
G1 X112.956 Y127.650 E3.6680
G1 X112.588 Y127.424 E3.6797
G1 X112.202 Y127.228 E3.6913
G1 X111.802 Y127.065 E3.7030
G1 X111.389 Y126.934 E3.7146
G1 X110.968 Y126.838 E3.7263
G1 X110.540 Y126.777 E3.7379
G1 X110.108 Y126.750 E3.7496
G1 X109.676 Y126.759 E3.7612
G1 X109.246 Y126.803 E3.7729
G1 X108.820 Y126.882 E3.7845
G1 X108.403 Y126.995 E3.7962
G1 X107.996 Y127.142 E3.8079
G1 X107.603 Y127.322 E3.8195
G1 X107.226 Y127.533 E3.8311
G1 X106.867 Y127.774 E3.8428
G1 X106.529 Y128.044 E3.8545
G1 X106.214 Y128.340 E3.8661
G1 X105.924 Y128.661 E3.8778
G1 X105.661 Y129.005 E3.8894
G1 X105.427 Y129.368 E3.9011
G1 X105.224 Y129.751 E3.9127
G1 X105.052 Y130.147 E3.9244
G1 X104.914 Y130.557 E3.9360
G1 X104.809 Y130.976 E3.9477
G1 X104.739 Y131.403 E3.9593
G1 X104.703 Y131.834 E3.9710
G1 X104.703 Y132.266 E3.9826
G1 X104.739 Y132.697 E3.9943
G1 X104.809 Y133.124 E4.0059
G1 X104.914 Y133.543 E4.0176
G1 X105.052 Y133.953 E4.0292
G1 X105.224 Y134.350 E4.0409
G1 X105.427 Y134.732 E4.0525
G1 X105.661 Y135.095 E4.0642
G1 X105.924 Y135.439 E4.0758
G1 X106.214 Y135.760 E4.0875
G1 X106.529 Y136.056 E4.0991
G1 X106.834 Y136.300 E4.1096
G1 X91.200 Y136.300 E4.5308
G1 X91.200 Y83.700 E5.9479
; outer perimeter
G1 X105.750 Y87.071 F5200
G92 E0
G1 X105.692 Y87.420 E0.0095 F1500
G1 X105.663 Y87.773 E0.0191
G1 X105.663 Y88.127 E0.0286
G1 X105.692 Y88.480 E0.0382
G1 X105.750 Y88.829 E0.0477
G1 X105.836 Y89.173 E0.0572
G1 X105.949 Y89.508 E0.0668
G1 X106.090 Y89.833 E0.0763
G1 X106.256 Y90.146 E0.0858
G1 X106.447 Y90.443 E0.0954
G1 X106.663 Y90.725 E0.1049
G1 X106.900 Y90.988 E0.1145
G1 X107.158 Y91.230 E0.1240
G1 X107.435 Y91.451 E0.1335
G1 X107.729 Y91.648 E0.1431
G1 X108.037 Y91.821 E0.1526
G1 X108.360 Y91.968 E0.1622
G1 X108.692 Y92.089 E0.1717
G1 X109.034 Y92.181 E0.1812
G1 X109.382 Y92.246 E0.1908
G1 X109.735 Y92.282 E0.2003
G1 X110.089 Y92.289 E0.2099
G1 X110.442 Y92.268 E0.2194
G1 X110.792 Y92.217 E0.2289
G1 X111.138 Y92.138 E0.2385
G1 X111.475 Y92.032 E0.2480
G1 X111.803 Y91.898 E0.2575
G1 X112.119 Y91.738 E0.2671
G1 X112.420 Y91.553 E0.2766
G1 X112.706 Y91.343 E0.2862
G1 X112.974 Y91.111 E0.2957
G1 X113.221 Y90.858 E0.3052
G1 X113.448 Y90.586 E0.3148
G1 X113.651 Y90.296 E0.3243
G1 X113.830 Y89.991 E0.3339
G1 X113.984 Y89.672 E0.3434
G1 X114.111 Y89.342 E0.3529
G1 X114.211 Y89.002 E0.3625
G1 X114.283 Y88.655 E0.3720
G1 X114.326 Y88.304 E0.3815
G1 X114.340 Y87.950 E0.3911
G1 X114.326 Y87.596 E0.4006
G1 X114.283 Y87.245 E0.4102
G1 X114.211 Y86.898 E0.4197
G1 X114.111 Y86.558 E0.4292
G1 X113.984 Y86.228 E0.4388
G1 X113.830 Y85.909 E0.4483
G1 X113.651 Y85.603 E0.4579
G1 X113.448 Y85.314 E0.4674
G1 X113.222 Y85.042 E0.4769
G1 X112.974 Y84.789 E0.4865
G1 X112.706 Y84.557 E0.4960
G1 X112.420 Y84.347 E0.5055
G1 X112.119 Y84.162 E0.5151
G1 X111.803 Y84.002 E0.5246
G1 X111.475 Y83.868 E0.5342
G1 X111.138 Y83.762 E0.5437
G1 X110.792 Y83.683 E0.5532
G1 X110.442 Y83.632 E0.5628
G1 X110.089 Y83.611 E0.5723
