; G-Code generated by Simplify3D(R) Version 4.0.0
; Sep 30, 2019 at 5:38:33 PM
; Settings Summary
;   processName,Process2
;   applyToModels,spraygun5c,spraygun7a
;   profileName,Default(2) (modified)
;   profileVersion,2019-07-27 15:21:07
;   baseProfile,
;   printMaterial,PLA
;   printQuality,Medium
;   printExtruders,
;   extruderName,Primary Extruder
;   extruderToolheadNumber,0
;   extruderDiameter,0.4
;   extruderAutoWidth,0
;   extruderWidth,0.4
;   extrusionMultiplier,0.9
;   extruderUseRetract,1
;   extruderRetractionDistance,1
;   extruderExtraRestartDistance,0
;   extruderRetractionZLift,0
;   extruderRetractionSpeed,1800
;   extruderUseCoasting,0
;   extruderCoastingDistance,0.2
;   extruderUseWipe,0
;   extruderWipeDistance,5
;   primaryExtruder,0
;   layerHeight,0.2
;   topSolidLayers,3
;   bottomSolidLayers,2
;   perimeterOutlines,2
;   printPerimetersInsideOut,0
;   startPointOption,2
;   startPointOriginX,0
;   startPointOriginY,0
;   sequentialIslands,0
;   spiralVaseMode,0
;   firstLayerHeightPercentage,90
;   firstLayerWidthPercentage,100
;   firstLayerUnderspeed,0.5
;   useRaft,0
;   raftExtruder,0
;   raftTopLayers,3
;   raftBaseLayers,2
;   raftOffset,3
;   raftSeparationDistance,0.14
;   raftTopInfill,100
;   aboveRaftSpeedMultiplier,0.3
;   useSkirt,0
;   skirtExtruder,0
;   skirtLayers,1
;   skirtOutlines,2
;   skirtOffset,4
;   usePrimePillar,0
;   primePillarExtruder,999
;   primePillarWidth,12
;   primePillarLocation,7
;   primePillarSpeedMultiplier,1
;   useOozeShield,0
;   oozeShieldExtruder,999
;   oozeShieldOffset,2
;   oozeShieldOutlines,1
;   oozeShieldSidewallShape,1
;   oozeShieldSidewallAngle,30
;   oozeShieldSpeedMultiplier,1
;   infillExtruder,0
;   internalInfillPattern,Rectilinear
;   externalInfillPattern,Rectilinear
;   infillPercentage,40
;   outlineOverlapPercentage,15
;   infillExtrusionWidthPercentage,100
;   minInfillLength,5
;   infillLayerInterval,1
;   internalInfillAngles,45,-45
;   overlapInternalInfillAngles,0
;   externalInfillAngles,45,-45
;   generateSupport,0
;   supportExtruder,0
;   supportInfillPercentage,30
;   supportExtraInflation,0
;   supportBaseLayers,0
;   denseSupportExtruder,0
;   denseSupportLayers,0
;   denseSupportInfillPercentage,70
;   supportLayerInterval,1
;   supportHorizontalPartOffset,0.3
;   supportUpperSeparationLayers,1
;   supportLowerSeparationLayers,1
;   supportType,0
;   supportGridSpacing,4
;   maxOverhangAngle,45
;   supportAngles,0
;   temperatureName,Primary Extruder,Hot Bed
;   temperatureNumber,0,1
;   temperatureSetpointCount,1,1
;   temperatureSetpointLayers,1,1
;   temperatureSetpointTemperatures,200,60
;   temperatureStabilizeAtStartup,1,0
;   temperatureHeatedBed,0,1
;   temperatureRelayBetweenLayers,0,0
;   temperatureRelayBetweenLoops,0,0
;   fanLayers,1,2
;   fanSpeeds,0,100
;   blipFanToFullPower,0
;   adjustSpeedForCooling,1
;   minSpeedLayerTime,15
;   minCoolingSpeedSlowdown,20
;   increaseFanForCooling,0
;   minFanLayerTime,45
;   maxCoolingFanSpeed,100
;   increaseFanForBridging,0
;   bridgingFanSpeed,100
;   use5D,1
;   relativeEdistances,0
;   allowEaxisZeroing,1
;   independentExtruderAxes,0
;   includeM10123,0
;   stickySupport,1
;   applyToolheadOffsets,0
;   gcodeXoffset,0
;   gcodeYoffset,0
;   gcodeZoffset,0
;   overrideMachineDefinition,0
;   machineTypeOverride,0
;   strokeXoverride,200
;   strokeYoverride,200
;   strokeZoverride,200
;   originOffsetXoverride,0
;   originOffsetYoverride,0
;   originOffsetZoverride,0
;   homeXdirOverride,-1
;   homeYdirOverride,-1
;   homeZdirOverride,-1
;   flipXoverride,1
;   flipYoverride,-1
;   flipZoverride,1
;   toolheadOffsets,0,0|0,0|0,0|0,0|0,0|0,0
;   overrideFirmwareConfiguration,0
;   firmwareTypeOverride,RepRap (Marlin/Repetier/Sprinter)
;   GPXconfigOverride,r2
;   baudRateOverride,115200
;   overridePrinterModels,0
;   printerModelsOverride
;   startingGcode,G28 ; home all axes,G1 X0 Y200 Z0.2 F3000 ; get ready to prime,G92 E0 ; reset extrusion distance,G1 X150 E20 F600 ; prime nozzle
;   layerChangeGcode,
;   retractionGcode,
;   toolChangeGcode,
;   endingGcode,G28 X Y ; home X & Y,M104 S0 ; turn off extruder,M140 S0 ; turn off bed,M84 ; disable motors
;   exportFileFormat,gcode
;   celebration,0
;   celebrationSong,Random Song
;   postProcessing,
;   defaultSpeed,4600
;   outlineUnderspeed,0.5
;   solidInfillUnderspeed,0.8
;   supportUnderspeed,0.8
;   rapidXYspeed,4800
;   rapidZspeed,1000
;   minBridgingArea,50
;   bridgingExtraInflation,0
;   bridgingExtrusionMultiplier,1
;   bridgingSpeedMultiplier,1
;   useFixedBridgingAngle,0
;   fixedBridgingAngle,0
;   applyBridgingToPerimeters,0
;   filamentDiameters,1.75|1.75|1.75|1.75|1.75|1.75
;   filamentPricesPerKg,46|46|46|46|46|46
;   filamentDensities,1.25|1.25|1.25|1.25|1.25|1.25
;   useMinPrintHeight,0
;   minPrintHeight,0
;   useMaxPrintHeight,0
;   maxPrintHeight,0
;   useDiaphragm,0
;   diaphragmLayerInterval,20
;   robustSlicing,1
;   mergeAllIntoSolid,0
;   onlyRetractWhenCrossingOutline,1
;   retractBetweenLayers,1
;   useRetractionMinTravel,0
;   retractionMinTravel,3
;   retractWhileWiping,0
;   onlyWipeOutlines,1
;   avoidCrossingOutline,0
;   maxMovementDetourFactor,3
;   toolChangeRetractionDistance,12
;   toolChangeExtraRestartDistance,-0.5
;   toolChangeRetractionSpeed,600
;   externalThinWallType,1
;   internalThinWallType,1
;   thinWallAllowedOverlapPercentage,10
;   singleExtrusionMinLength,1
;   singleExtrusionMinPrintingWidthPercentage,50
;   singleExtrusionMaxPrintingWidthPercentage,200
;   singleExtrusionEndpointExtension,0.2
;   horizontalSizeCompensation,0
G90
M82
M106 S0
M140 S60
M104 S200 T0
M109 S200 T0
G28 ; home all axes
G1 X0 Y200 Z0.2 F3000 ; get ready to prime
G92 E0 ; reset extrusion distance
G1 X150 E20 F600 ; prime nozzle
G92 E0
G1 E-1.0000 F1800
G1 Z0.180 F1000
; process Process2
; layer 1, Z = 0.180
T0
; tool H0.200 W0.400
; outer perimeter
G1 X62.172 Y103.137 F4800
G1 E0.0000 F540
G92 E0
G1 X62.935 Y102.688 E0.0265 F1150
G1 X63.330 Y102.481 E0.0398
G1 X64.161 Y102.101 E0.0672
G1 X64.588 Y101.934 E0.0809
G1 X65.024 Y101.785 E0.0947
G1 X65.466 Y101.655 E0.1085
G1 X65.914 Y101.547 E0.1223
G1 X66.366 Y101.462 E0.1361
G1 X66.822 Y101.401 E0.1499
G1 X67.283 Y101.361 E0.1637
G1 X67.746 Y101.341 E0.1776
G1 X68.685 Y101.350 E0.2057
G1 X69.629 Y101.411 E0.2340
G1 X73.370 Y101.821 E0.3466
G1 X75.142 Y101.928 E0.3998
G1 X76.814 Y101.954 E0.4498
G1 X78.369 Y101.920 E0.4964
G1 X81.062 Y101.763 E0.5771
G1 X83.207 Y101.583 E0.6416
G1 X84.201 Y101.453 E0.6716
G1 X85.228 Y101.269 E0.7028
G1 X86.352 Y101.009 E0.7374
G1 X87.638 Y100.654 E0.7773
G1 X89.152 Y100.182 E0.8248
G1 X90.983 Y99.546 E0.8828
G1 X92.071 Y99.122 E0.9178
G1 X93.303 Y98.600 E0.9578
G1 X94.702 Y97.959 E1.0039
G1 X96.293 Y97.178 E1.0569
G1 X98.088 Y96.230 E1.1177
G1 X100.076 Y95.081 E1.1864
G1 X102.243 Y93.696 E1.2634
G1 X104.572 Y92.043 E1.3489
G1 X107.105 Y90.198 E1.4427
G1 X108.487 Y89.280 E1.4924
G1 X109.214 Y88.838 E1.5178
G1 X109.970 Y88.410 E1.5438
G1 X110.757 Y88.002 E1.5704
G1 X111.576 Y87.616 E1.5975
G1 X112.431 Y87.259 E1.6252
G1 X113.323 Y86.932 E1.6536
G1 X114.254 Y86.641 E1.6829
G1 X115.229 Y86.389 E1.7130
G1 X116.245 Y86.178 E1.7441
G1 X117.299 Y86.004 E1.7760
G1 X118.381 Y85.865 E1.8087
G1 X119.485 Y85.759 E1.8419
G1 X121.737 Y85.630 E1.9094
G1 X123.993 Y85.594 E1.9770
G1 X126.200 Y85.626 E2.0430
G1 X133.512 Y85.972 E2.2621
G1 X142.858 Y86.581 E2.5425
G1 X145.241 Y86.703 E2.6139
G1 X147.798 Y86.761 E2.6905
G1 X149.115 Y86.748 E2.7299
G1 X150.432 Y86.698 E2.7694
G1 X151.730 Y86.602 E2.8083
G1 X152.987 Y86.452 E2.8462
G1 X153.596 Y86.353 E2.8647
G1 X154.188 Y86.239 E2.8827
G1 X154.762 Y86.107 E2.9004
G1 X155.318 Y85.956 E2.9176
G1 X155.861 Y85.787 E2.9346
G1 X156.393 Y85.599 E2.9515
G1 X156.917 Y85.391 E2.9684
G1 X157.438 Y85.163 E2.9854
G1 X158.473 Y84.645 E3.0201
G1 X159.527 Y84.040 E3.0564
G1 X160.625 Y83.345 E3.0953
G1 X161.774 Y82.560 E3.1370
G1 X162.951 Y81.696 E3.1807
G1 X164.128 Y80.763 E3.2257
G1 X165.275 Y79.774 E3.2710
G1 X166.369 Y78.740 E3.3161
G1 X166.890 Y78.207 E3.3384
G1 X167.391 Y77.666 E3.3605
G1 X167.869 Y77.117 E3.3822
G1 X168.322 Y76.562 E3.4037
G1 X168.747 Y76.001 E3.4248
G1 X169.143 Y75.436 E3.4454
G1 X169.506 Y74.866 E3.4656
G1 X169.750 Y74.442 E3.4803
G1 X179.080 Y77.669 E3.7758
G1 X166.122 Y115.131 E4.9624
G1 X165.805 Y115.098 E4.9719
G1 X165.325 Y115.113 E4.9863
G1 X164.850 Y115.203 E5.0008
G1 X164.534 Y115.301 E5.0107
G1 X164.222 Y115.425 E5.0207
G1 X163.759 Y115.649 E5.0361
G1 X163.148 Y116.008 E5.0573
G1 X162.537 Y116.415 E5.0793
G1 X161.307 Y117.284 E5.1244
G1 X160.684 Y117.702 E5.1468
G1 X160.053 Y118.080 E5.1689
G1 X159.411 Y118.397 E5.1903
G1 X159.089 Y118.527 E5.2007
G1 X158.763 Y118.640 E5.2110
G1 X158.091 Y118.819 E5.2318
G1 X157.756 Y118.883 E5.2420
G1 X157.067 Y118.969 E5.2628
G1 X156.369 Y119.001 E5.2837
G1 X155.660 Y118.983 E5.3050
G1 X155.307 Y118.958 E5.3156
G1 X154.587 Y118.877 E5.3373
G1 X153.863 Y118.759 E5.3592
G1 X153.137 Y118.611 E5.3814
G1 X151.679 Y118.243 E5.4264
G1 X144.786 Y116.237 E5.6413
G1 X140.021 Y115.026 E5.7885
G1 X137.885 Y114.455 E5.8547
G1 X135.904 Y113.849 E5.9167
G1 X134.967 Y113.518 E5.9464
G1 X134.057 Y113.157 E5.9757
G1 X133.170 Y112.759 E6.0048
G1 X132.300 Y112.318 E6.0340
G1 X131.443 Y111.826 E6.0636
G1 X130.592 Y111.275 E6.0940
G1 X129.744 Y110.657 E6.1254
G1 X128.890 Y109.965 E6.1583
G1 X127.117 Y108.401 E6.2290
G1 X126.163 Y107.603 E6.2663
G1 X125.659 Y107.215 E6.2853
G1 X125.135 Y106.843 E6.3045
G1 X124.590 Y106.491 E6.3240
G1 X124.019 Y106.163 E6.3437
G1 X123.422 Y105.866 E6.3636
G1 X122.796 Y105.603 E6.3840
G1 X122.140 Y105.381 E6.4047
G1 X121.795 Y105.286 E6.4154
G1 X121.091 Y105.133 E6.4370
G1 X120.719 Y105.076 E6.4482
G1 X119.960 Y105.003 E6.4710
G1 X119.560 Y104.989 E6.4830
G1 X118.742 Y105.008 E6.5075
G1 X118.312 Y105.042 E6.5205
G1 X117.430 Y105.163 E6.5471
G1 X116.968 Y105.251 E6.5612
G1 X116.496 Y105.358 E6.5756
G1 X115.524 Y105.626 E6.6059
G1 X114.510 Y105.962 E6.6378
G1 X113.461 Y106.357 E6.6714
G1 X112.380 Y106.805 E6.7064
G1 X110.147 Y107.822 E6.7798
G1 X107.845 Y108.954 E6.8566
G1 X103.190 Y111.309 E7.0128
G1 X100.915 Y112.410 E7.0885
G1 X98.725 Y113.376 E7.1601
G1 X97.677 Y113.789 E7.1938
G1 X96.664 Y114.146 E7.2260
G1 X95.693 Y114.439 E7.2563
G1 X94.761 Y114.669 E7.2851
G1 X94.312 Y114.762 E7.2988
G1 X93.872 Y114.841 E7.3122
G1 X93.013 Y114.959 E7.3381
G1 X92.601 Y114.999 E7.3505
G1 X91.801 Y115.043 E7.3745
G1 X91.417 Y115.049 E7.3860
G1 X90.664 Y115.029 E7.4085
G1 X89.941 Y114.973 E7.4303
G1 X89.244 Y114.882 E7.4513
G1 X88.570 Y114.763 E7.4718
G1 X87.919 Y114.618 E7.4918
G1 X87.287 Y114.451 E7.5113
G1 X86.674 Y114.267 E7.5305
G1 X86.078 Y114.070 E7.5493
G1 X82.728 Y112.820 E7.6563
G1 X81.657 Y112.478 E7.6900
G1 X81.116 Y112.338 E7.7067
G1 X80.307 Y112.183 E7.7313
G1 X79.758 Y112.120 E7.7479
G1 X78.933 Y112.086 E7.7726
G1 X78.828 Y112.057 E7.7758
G1 X78.247 Y112.072 E7.7932
G1 X77.690 Y112.114 E7.8100
G1 X77.132 Y112.182 E7.8268
G1 X76.573 Y112.272 E7.8437
G1 X76.015 Y112.383 E7.8608
G1 X74.908 Y112.658 E7.8949
G1 X73.811 Y112.992 E7.9293
G1 X72.728 Y113.367 E7.9636
G1 X68.662 Y114.938 E8.0940
G1 X67.737 Y115.265 E8.1234
G1 X66.859 Y115.534 E8.1509
G1 X66.444 Y115.640 E8.1637
G1 X65.645 Y115.794 E8.1881
G1 X64.902 Y115.871 E8.2104
G1 X64.206 Y115.878 E8.2313
G1 X63.883 Y115.856 E8.2410
G1 X63.412 Y115.793 E8.2552
G1 X62.970 Y115.697 E8.2687
G1 X62.554 Y115.569 E8.2818
G1 X62.162 Y115.411 E8.2944
G1 X61.795 Y115.225 E8.3067
G1 X61.452 Y115.013 E8.3188
G1 X61.131 Y114.776 E8.3307
G1 X60.834 Y114.517 E8.3425
G1 X60.469 Y114.136 E8.3583
G1 X60.142 Y113.724 E8.3741
G1 X59.852 Y113.281 E8.3899
G1 X59.598 Y112.814 E8.4058
G1 X59.379 Y112.326 E8.4219
G1 X59.193 Y111.821 E8.4379
G1 X59.041 Y111.306 E8.4540
G1 X58.922 Y110.783 E8.4701
G1 X58.833 Y110.258 E8.4860
G1 X58.775 Y109.736 E8.5017
G1 X58.745 Y109.221 E8.5172
G1 X58.744 Y108.720 E8.5322
G1 X58.792 Y107.996 E8.5539
G1 X58.856 Y107.546 E8.5675
G1 X58.944 Y107.121 E8.5805
G1 X59.054 Y106.724 E8.5928
G1 X59.263 Y106.165 E8.6107
G1 X59.428 Y105.824 E8.6220
G1 X59.615 Y105.499 E8.6333
G1 X59.821 Y105.193 E8.6443
G1 X60.173 Y104.756 E8.6611
G1 X60.428 Y104.485 E8.6722
G1 X60.852 Y104.093 E8.6895
G1 X61.154 Y103.846 E8.7012
G1 X61.821 Y103.365 E8.7258
G1 X62.172 Y103.137 E8.7383
; inner perimeter
G1 X62.047 Y103.695 F4800
G92 E0
G1 X62.382 Y103.477 E0.0120 F1725
G1 X63.129 Y103.038 E0.0379
G1 X63.506 Y102.841 E0.0506
G1 X64.317 Y102.469 E0.0773
G1 X64.725 Y102.310 E0.0905
G1 X65.145 Y102.166 E0.1037
G1 X65.569 Y102.042 E0.1170
G1 X65.998 Y101.938 E0.1302
G1 X66.429 Y101.857 E0.1433
G1 X66.866 Y101.798 E0.1565
G1 X67.309 Y101.760 E0.1698
G1 X67.752 Y101.741 E0.1831
G1 X68.670 Y101.750 E0.2106
G1 X69.594 Y101.810 E0.2383
G1 X73.336 Y102.219 E0.3510
G1 X75.127 Y102.328 E0.4047
G1 X76.815 Y102.354 E0.4552
G1 X78.385 Y102.319 E0.5022
G1 X81.090 Y102.162 E0.5833
G1 X83.250 Y101.981 E0.6482
G1 X84.263 Y101.849 E0.6788
G1 X85.309 Y101.661 E0.7106
G1 X86.451 Y101.397 E0.7457
G1 X87.751 Y101.038 E0.7861
G1 X89.278 Y100.562 E0.8339
G1 X91.121 Y99.922 E0.8923
G1 X92.222 Y99.493 E0.9277
G1 X93.464 Y98.966 E0.9681
G1 X94.874 Y98.321 E1.0145
G1 X96.475 Y97.535 E1.0679
G1 X98.282 Y96.580 E1.1291
G1 X100.284 Y95.423 E1.1983
G1 X102.467 Y94.028 E1.2758
G1 X104.806 Y92.367 E1.3617
G1 X107.333 Y90.526 E1.4553
G1 X108.702 Y89.618 E1.5045
G1 X109.417 Y89.183 E1.5295
G1 X110.161 Y88.762 E1.5551
G1 X110.934 Y88.360 E1.5812
G1 X111.739 Y87.982 E1.6078
G1 X112.577 Y87.631 E1.6350
G1 X113.451 Y87.311 E1.6629
G1 X114.364 Y87.026 E1.6915
G1 X115.320 Y86.779 E1.7211
G1 X116.319 Y86.571 E1.7516
G1 X117.356 Y86.400 E1.7831
G1 X118.426 Y86.263 E1.8154
G1 X119.516 Y86.158 E1.8481
G1 X121.751 Y86.030 E1.9152
G1 X123.994 Y85.994 E1.9823
G1 X126.188 Y86.026 E2.0480
G1 X133.489 Y86.371 E2.2668
G1 X142.834 Y86.980 E2.5471
G1 X145.226 Y87.103 E2.6188
G1 X147.795 Y87.161 E2.6957
G1 X149.125 Y87.148 E2.7355
G1 X150.455 Y87.097 E2.7754
G1 X151.768 Y87.000 E2.8148
G1 X153.042 Y86.848 E2.8532
G1 X153.666 Y86.747 E2.8721
G1 X154.271 Y86.630 E2.8906
G1 X154.859 Y86.495 E2.9086
G1 X155.430 Y86.341 E2.9263
G1 X155.987 Y86.167 E2.9438
G1 X156.533 Y85.974 E2.9611
G1 X157.071 Y85.760 E2.9785
G1 X157.608 Y85.525 E2.9960
G1 X158.662 Y84.998 E3.0313
G1 X159.734 Y84.383 E3.0683
G1 X160.845 Y83.679 E3.1076
G1 X162.006 Y82.887 E3.1497
G1 X163.194 Y82.014 E3.1939
G1 X164.382 Y81.071 E3.2393
G1 X165.543 Y80.071 E3.2851
G1 X166.649 Y79.025 E3.3307
G1 X167.180 Y78.482 E3.3534
G1 X167.689 Y77.933 E3.3758
G1 X168.175 Y77.375 E3.3980
G1 X168.637 Y76.810 E3.4198
G1 X169.071 Y76.237 E3.4414
G1 X169.476 Y75.658 E3.4625
G1 X169.849 Y75.073 E3.4833
G1 X169.932 Y74.928 E3.4883
G1 X178.571 Y77.916 E3.7619
G1 X165.848 Y114.697 E4.9269
G1 X165.282 Y114.714 E4.9439
G1 X164.753 Y114.815 E4.9600
G1 X164.401 Y114.924 E4.9710
G1 X164.061 Y115.058 E4.9820
G1 X163.571 Y115.296 E4.9983
G1 X162.936 Y115.668 E5.0203
G1 X162.310 Y116.085 E5.0428
G1 X161.080 Y116.955 E5.0879
G1 X160.470 Y117.364 E5.1099
G1 X159.862 Y117.728 E5.1311
G1 X159.247 Y118.032 E5.1517
G1 X158.948 Y118.153 E5.1613
G1 X158.646 Y118.257 E5.1709
G1 X158.001 Y118.428 E5.1908
G1 X157.694 Y118.487 E5.2002
G1 X157.033 Y118.570 E5.2202
G1 X156.365 Y118.601 E5.2402
G1 X155.680 Y118.584 E5.2607
G1 X155.344 Y118.560 E5.2708
G1 X154.641 Y118.480 E5.2919
G1 X153.935 Y118.366 E5.3134
G1 X153.226 Y118.221 E5.3350
G1 X151.784 Y117.857 E5.3795
G1 X144.892 Y115.851 E5.5944
G1 X140.122 Y114.639 E5.7417
G1 X137.995 Y114.071 E5.8076
G1 X136.029 Y113.469 E5.8692
G1 X135.107 Y113.143 E5.8985
G1 X134.213 Y112.788 E5.9273
G1 X133.342 Y112.398 E5.9558
G1 X132.490 Y111.966 E5.9844
G1 X131.651 Y111.484 E6.0134
G1 X130.819 Y110.945 E6.0431
G1 X129.987 Y110.340 E6.0738
G1 X129.149 Y109.659 E6.1062
G1 X127.378 Y108.098 E6.1768
G1 X126.413 Y107.291 E6.2145
G1 X125.897 Y106.894 E6.2340
G1 X125.360 Y106.512 E6.2537
G1 X124.798 Y106.149 E6.2737
G1 X124.208 Y105.811 E6.2941
G1 X123.589 Y105.502 E6.3148
G1 X122.938 Y105.229 E6.3359
G1 X122.258 Y104.999 E6.3574
G1 X121.891 Y104.897 E6.3688
