; G-Code generated by Simplify3D(R) Version 4.0.0
; Oct 20, 2020 at 12:47:26 PM
; Settings Summary
;   processName,Process1
;   applyToModels,ssd_hdd_bracket_caddy
;   profileName,new profile (modified)
;   profileVersion,2020-09-07 14:01:24
;   baseProfile,Default (modified)
;   printMaterial,PLA
;   printQuality,Medium
;   printExtruders,
;   extruderName,Primary Extruder
;   extruderToolheadNumber,0
;   extruderDiameter,0.4
;   extruderAutoWidth,0
;   extruderWidth,0.4
;   extrusionMultiplier,0.9
;   extruderUseRetract,1
;   extruderRetractionDistance,1
;   extruderExtraRestartDistance,0
;   extruderRetractionZLift,0
;   extruderRetractionSpeed,1800
;   extruderUseCoasting,0
;   extruderCoastingDistance,0.2
;   extruderUseWipe,0
;   extruderWipeDistance,5
;   primaryExtruder,0
;   layerHeight,0.3
;   topSolidLayers,3
;   bottomSolidLayers,3
;   perimeterOutlines,2
;   printPerimetersInsideOut,1
;   startPointOption,2
;   startPointOriginX,0
;   startPointOriginY,0
;   sequentialIslands,0
;   spiralVaseMode,0
;   firstLayerHeightPercentage,100
;   firstLayerWidthPercentage,100
;   firstLayerUnderspeed,0.5
;   useRaft,0
;   raftExtruder,0
;   raftTopLayers,3
;   raftBaseLayers,2
;   raftOffset,3
;   raftSeparationDistance,0.14
;   raftTopInfill,100
;   aboveRaftSpeedMultiplier,0.3
;   useSkirt,0
;   skirtExtruder,0
;   skirtLayers,1
;   skirtOutlines,2
;   skirtOffset,4
;   usePrimePillar,0
;   primePillarExtruder,999
;   primePillarWidth,12
;   primePillarLocation,7
;   primePillarSpeedMultiplier,1
;   useOozeShield,0
;   oozeShieldExtruder,999
;   oozeShieldOffset,2
;   oozeShieldOutlines,1
;   oozeShieldSidewallShape,1
;   oozeShieldSidewallAngle,30
;   oozeShieldSpeedMultiplier,1
;   infillExtruder,0
;   internalInfillPattern,Rectilinear
;   externalInfillPattern,Rectilinear
;   infillPercentage,15
;   outlineOverlapPercentage,15
;   infillExtrusionWidthPercentage,100
;   minInfillLength,5
;   infillLayerInterval,1
;   internalInfillAngles,45,-45
;   overlapInternalInfillAngles,0
;   externalInfillAngles,45,-45
;   generateSupport,1
;   supportExtruder,0
;   supportInfillPercentage,30
;   supportExtraInflation,0
;   supportBaseLayers,0
;   denseSupportExtruder,0
;   denseSupportLayers,0
;   denseSupportInfillPercentage,70
;   supportLayerInterval,1
;   supportHorizontalPartOffset,0.3
;   supportUpperSeparationLayers,1
;   supportLowerSeparationLayers,1
;   supportType,1
;   supportGridSpacing,4
;   maxOverhangAngle,45
;   supportAngles,0
;   temperatureName,Primary Extruder,Hot Bed
;   temperatureNumber,0,1
;   temperatureSetpointCount,1,1
;   temperatureSetpointLayers,1,1
;   temperatureSetpointTemperatures,210,60
;   temperatureStabilizeAtStartup,1,0
;   temperatureHeatedBed,0,1
;   temperatureRelayBetweenLayers,0,0
;   temperatureRelayBetweenLoops,0,0
;   fanLayers,1,2
;   fanSpeeds,0,100
;   blipFanToFullPower,0
;   adjustSpeedForCooling,1
;   minSpeedLayerTime,15
;   minCoolingSpeedSlowdown,20
;   increaseFanForCooling,0
;   minFanLayerTime,45
;   maxCoolingFanSpeed,100
;   increaseFanForBridging,0
;   bridgingFanSpeed,100
;   use5D,1
;   relativeEdistances,0
;   allowEaxisZeroing,1
;   independentExtruderAxes,0
;   includeM10123,0
;   stickySupport,1
;   applyToolheadOffsets,0
;   gcodeXoffset,0
;   gcodeYoffset,0
;   gcodeZoffset,0
;   overrideMachineDefinition,0
;   machineTypeOverride,0
;   strokeXoverride,200
;   strokeYoverride,200
;   strokeZoverride,200
;   originOffsetXoverride,0
;   originOffsetYoverride,0
;   originOffsetZoverride,0
;   homeXdirOverride,-1
;   homeYdirOverride,-1
;   homeZdirOverride,-1
;   flipXoverride,1
;   flipYoverride,-1
;   flipZoverride,1
;   toolheadOffsets,0,0|0,0|0,0|0,0|0,0|0,0
;   overrideFirmwareConfiguration,0
;   firmwareTypeOverride,RepRap (Marlin/Repetier/Sprinter)
;   GPXconfigOverride,r2
;   baudRateOverride,115200
;   overridePrinterModels,0
;   printerModelsOverride
;   startingGcode,G28 ; home all axes,G1 X0 Y5 Z0.2 F3000 ; get ready to prime,G92 E0 ; reset extrusion distance,G1 Y150 E20 F600 ; prime nozzle
;   layerChangeGcode,
;   retractionGcode,
;   toolChangeGcode,
;   endingGcode,M104 S0 ; turn off extruder,M140 S0 ; turn off bed,M84 ; disable motors,G1 X0 Y0; home,M107 ; fan off
;   exportFileFormat,gcode
;   celebration,0
;   celebrationSong,Random Song
;   postProcessing,
;   defaultSpeed,4600
;   outlineUnderspeed,0.5
;   solidInfillUnderspeed,0.8
;   supportUnderspeed,0.8
;   rapidXYspeed,4800
;   rapidZspeed,1000
;   minBridgingArea,50
;   bridgingExtraInflation,0
;   bridgingExtrusionMultiplier,1
;   bridgingSpeedMultiplier,1
;   useFixedBridgingAngle,0
;   fixedBridgingAngle,0
;   applyBridgingToPerimeters,0
;   filamentDiameters,1.75|1.75|1.75|1.75|1.75|1.75
;   filamentPricesPerKg,46|46|46|46|46|46
;   filamentDensities,1.25|1.25|1.25|1.25|1.25|1.25
;   useMinPrintHeight,0
;   minPrintHeight,0
;   useMaxPrintHeight,0
;   maxPrintHeight,0
;   useDiaphragm,0
;   diaphragmLayerInterval,20
;   robustSlicing,1
;   mergeAllIntoSolid,0
;   onlyRetractWhenCrossingOutline,1
;   retractBetweenLayers,1
;   useRetractionMinTravel,0
;   retractionMinTravel,3
;   retractWhileWiping,0
;   onlyWipeOutlines,1
;   avoidCrossingOutline,0
;   maxMovementDetourFactor,3
;   toolChangeRetractionDistance,12
;   toolChangeExtraRestartDistance,-0.5
;   toolChangeRetractionSpeed,600
;   externalThinWallType,1
;   internalThinWallType,1
;   thinWallAllowedOverlapPercentage,10
;   singleExtrusionMinLength,1
;   singleExtrusionMinPrintingWidthPercentage,50
;   singleExtrusionMaxPrintingWidthPercentage,200
;   singleExtrusionEndpointExtension,0.2
;   horizontalSizeCompensation,0
G90
M82
M106 S0
M140 S60
M104 S210 T0
M109 S210 T0
G28 ; home all axes
G1 X0 Y5 Z0.2 F3000 ; get ready to prime
G92 E0 ; reset extrusion distance
G1 Y150 E20 F600 ; prime nozzle
G92 E0
G1 E-1.0000 F1800
G1 Z0.300 F1000
; process Process1
; layer 1, Z = 0.300
T0
; tool H0.300 W0.400
; inner perimeter
G1 X50.406 Y26.901 F4800
G1 E0.0000 F540
G92 E0
G1 X50.445 Y26.844 E0.0031 F1725
G1 X50.494 Y26.795 E0.0062
G1 X50.551 Y26.756 E0.0093
G1 X50.614 Y26.726 E0.0125
G1 X50.681 Y26.708 E0.0156
G1 X50.769 Y26.701 E0.0195
G1 X53.224 Y26.700 E0.1298
G1 X53.319 Y26.708 E0.1340
G1 X53.386 Y26.726 E0.1372
G1 X53.449 Y26.756 E0.1403
G1 X53.506 Y26.795 E0.1434
G1 X53.555 Y26.844 E0.1465
G1 X53.594 Y26.901 E0.1496
G1 X53.624 Y26.964 E0.1527
G1 X53.642 Y27.031 E0.1558
G1 X53.649 Y27.119 E0.1598
G1 X53.650 Y36.332 E0.5735
G1 X53.643 Y36.420 E0.5774
G1 X53.629 Y36.477 E0.5801
G1 X53.604 Y36.538 E0.5830
G1 X53.570 Y36.592 E0.5859
G1 X53.528 Y36.640 E0.5888
G1 X53.479 Y36.681 E0.5916
G1 X53.425 Y36.714 E0.5945
G1 X53.343 Y36.745 E0.5984
G1 X46.768 Y38.718 E0.9067
G1 X46.556 Y38.800 E0.9168
G1 X46.335 Y38.929 E0.9283
G1 X46.137 Y39.092 E0.9399
G1 X45.967 Y39.285 E0.9514
G1 X45.830 Y39.502 E0.9629
G1 X45.730 Y39.739 E0.9745
G1 X45.669 Y39.988 E0.9860
G1 X45.650 Y40.220 E0.9964
G1 X45.650 Y55.049 E1.6623
G1 X61.431 Y70.830 E2.6644
G1 X138.569 Y70.830 E6.1279
G1 X154.350 Y55.049 E7.1300
G1 X154.350 Y40.220 E7.7959
G1 X154.331 Y39.988 E7.8063
G1 X154.273 Y39.748 E7.8174
G1 X154.175 Y39.512 E7.8289
G1 X154.040 Y39.294 E7.8404
G1 X153.871 Y39.100 E7.8519
G1 X153.674 Y38.936 E7.8635
G1 X153.453 Y38.805 E7.8750
G1 X153.236 Y38.719 E7.8855
G1 X146.658 Y36.746 E8.1938
G1 X146.579 Y36.715 E8.1976
G1 X146.523 Y36.683 E8.2006
G1 X146.473 Y36.642 E8.2034
G1 X146.431 Y36.594 E8.2063
G1 X146.397 Y36.540 E8.2091
G1 X146.372 Y36.481 E8.2120
G1 X146.357 Y36.419 E8.2149
G1 X146.350 Y36.332 E8.2188
G1 X146.350 Y27.126 E8.6322
G1 X146.358 Y27.031 E8.6365
G1 X146.376 Y26.964 E8.6396
G1 X146.406 Y26.901 E8.6427
G1 X146.445 Y26.844 E8.6458
G1 X146.494 Y26.795 E8.6489
G1 X146.551 Y26.756 E8.6520
G1 X146.614 Y26.726 E8.6551
G1 X146.681 Y26.708 E8.6583
G1 X146.769 Y26.701 E8.6622
G1 X149.224 Y26.700 E8.7725
G1 X149.319 Y26.708 E8.7767
G1 X149.386 Y26.726 E8.7799
G1 X149.449 Y26.756 E8.7830
G1 X149.506 Y26.795 E8.7861
G1 X149.555 Y26.844 E8.7892
G1 X149.594 Y26.901 E8.7923
G1 X149.624 Y26.964 E8.7954
G1 X149.642 Y27.031 E8.7985
G1 X149.649 Y27.119 E8.8025
G1 X149.650 Y28.000 E8.8420
G1 X149.223 Y28.000 E8.8612
G1 X148.972 Y28.022 E8.8725
G1 X148.702 Y28.094 E8.8851
G1 X148.449 Y28.212 E8.8976
G1 X148.220 Y28.373 E8.9102
G1 X148.023 Y28.570 E8.9227
G1 X147.862 Y28.799 E8.9352
G1 X147.744 Y29.052 E8.9478
G1 X147.672 Y29.322 E8.9603
G1 X147.651 Y29.567 E8.9714
G1 X147.650 Y34.207 E9.1797
G1 X147.669 Y34.438 E9.1901
G1 X147.727 Y34.679 E9.2013
G1 X147.825 Y34.914 E9.2127
G1 X147.960 Y35.133 E9.2242
G1 X148.129 Y35.327 E9.2358
G1 X148.326 Y35.491 E9.2473
G1 X148.547 Y35.622 E9.2588
G1 X148.764 Y35.707 E9.2693
G1 X154.842 Y37.531 E9.5542
G1 X154.921 Y37.561 E9.5580
G1 X154.977 Y37.594 E9.5610
G1 X155.027 Y37.635 E9.5638
G1 X155.069 Y37.682 E9.5667
G1 X155.103 Y37.736 E9.5695
G1 X155.128 Y37.795 E9.5724
G1 X155.143 Y37.857 E9.5753
G1 X155.150 Y37.945 E9.5792
G1 X155.150 Y163.841 E15.2321
G1 X153.258 Y173.300 E15.6652
G1 X142.168 Y173.300 E16.1632
G1 X135.249 Y166.380 E16.6026
G1 X64.751 Y166.380 E19.7680
G1 X57.831 Y173.300 E20.2074
G1 X46.742 Y173.300 E20.7054
G1 X44.850 Y163.841 E21.1385
G1 X44.850 Y37.945 E26.7914
G1 X44.857 Y37.857 E26.7953
G1 X44.871 Y37.799 E26.7980
G1 X44.896 Y37.739 E26.8009
G1 X44.930 Y37.685 E26.8038
G1 X44.972 Y37.636 E26.8067
G1 X45.021 Y37.596 E26.8095
G1 X45.075 Y37.563 E26.8124
G1 X45.157 Y37.531 E26.8163
G1 X51.235 Y35.708 E27.1013
G1 X51.444 Y35.626 E27.1113
G1 X51.665 Y35.498 E27.1228
G1 X51.863 Y35.335 E27.1343
G1 X52.033 Y35.142 E27.1458
G1 X52.170 Y34.925 E27.1574
G1 X52.270 Y34.688 E27.1689
G1 X52.331 Y34.439 E27.1805
G1 X52.350 Y34.207 E27.1909
G1 X52.350 Y29.574 E27.3989
G1 X52.328 Y29.322 E27.4103
G1 X52.256 Y29.052 E27.4228
G1 X52.138 Y28.799 E27.4354
G1 X51.977 Y28.570 E27.4479
G1 X51.780 Y28.373 E27.4604
G1 X51.551 Y28.212 E27.4730
G1 X51.298 Y28.094 E27.4855
G1 X51.011 Y28.018 E27.4988
G1 X50.351 Y27.998 E27.5285
G1 X50.350 Y27.126 E27.5677
G1 X50.358 Y27.031 E27.5720
G1 X50.376 Y26.964 E27.5751
G1 X50.406 Y26.901 E27.5782
; outer perimeter
G1 X50.058 Y26.700 F4800
G92 E0
G1 X50.138 Y26.586 E0.0063 F1150
G1 X50.236 Y26.488 E0.0125
G1 X50.350 Y26.408 E0.0188
G1 X50.477 Y26.349 E0.0250
G1 X50.611 Y26.313 E0.0313
G1 X50.752 Y26.301 E0.0376
G1 X53.241 Y26.300 E0.1494
G1 X53.389 Y26.313 E0.1560
G1 X53.523 Y26.349 E0.1623
G1 X53.650 Y26.408 E0.1686
G1 X53.764 Y26.488 E0.1748
G1 X53.862 Y26.586 E0.1811
G1 X53.942 Y26.700 E0.1873
G1 X54.001 Y26.827 E0.1936
G1 X54.037 Y26.961 E0.1998
G1 X54.049 Y27.102 E0.2062
G1 X54.050 Y36.348 E0.6213
G1 X54.039 Y36.484 E0.6275
G1 X54.010 Y36.602 E0.6329
G1 X53.961 Y36.721 E0.6387
G1 X53.893 Y36.830 E0.6445
G1 X53.809 Y36.927 E0.6502
G1 X53.711 Y37.009 E0.6560
G1 X53.601 Y37.074 E0.6617
G1 X53.474 Y37.124 E0.6678
G1 X46.898 Y39.097 E0.9761
G1 X46.730 Y39.162 E0.9842
G1 X46.564 Y39.258 E0.9928
G1 X46.416 Y39.381 E1.0014
G1 X46.288 Y39.525 E1.0101
G1 X46.186 Y39.688 E1.0187
G1 X46.111 Y39.865 E1.0274
G1 X46.065 Y40.052 E1.0360
G1 X46.050 Y40.236 E1.0443
G1 X46.050 Y54.883 E1.7020
G1 X61.597 Y70.430 E2.6892
G1 X138.403 Y70.430 E6.1379
G1 X153.950 Y54.883 E7.1251
G1 X153.950 Y40.236 E7.7828
G1 X153.935 Y40.052 E7.7910
G1 X153.891 Y39.873 E7.7993
G1 X153.818 Y39.696 E7.8079
G1 X153.716 Y39.532 E7.8166
G1 X153.590 Y39.387 E7.8252
G1 X153.442 Y39.263 E7.8339
G1 X153.277 Y39.165 E7.8425
G1 X153.105 Y39.098 E7.8508
G1 X146.528 Y37.125 E8.1591
G1 X146.405 Y37.077 E8.1651
G1 X146.294 Y37.012 E8.1708
G1 X146.195 Y36.931 E8.1766
G1 X146.110 Y36.835 E8.1823
G1 X146.042 Y36.726 E8.1881
G1 X145.991 Y36.608 E8.1939
G1 X145.961 Y36.484 E8.1996
G1 X145.950 Y36.348 E8.2057
G1 X145.950 Y27.109 E8.6206
G1 X145.963 Y26.961 E8.6272
G1 X145.999 Y26.827 E8.6335
G1 X146.058 Y26.700 E8.6397
G1 X146.138 Y26.586 E8.6460
G1 X146.236 Y26.488 E8.6522
G1 X146.350 Y26.408 E8.6585
G1 X146.477 Y26.349 E8.6648
G1 X146.611 Y26.313 E8.6710
G1 X146.752 Y26.301 E8.6773
G1 X149.241 Y26.300 E8.7891
G1 X149.389 Y26.313 E8.7958
G1 X149.523 Y26.349 E8.8020
G1 X149.650 Y26.408 E8.8083
G1 X149.764 Y26.488 E8.8145
G1 X149.862 Y26.586 E8.8208
G1 X149.942 Y26.700 E8.8271
G1 X150.001 Y26.827 E8.8333
G1 X150.037 Y26.961 E8.8396
G1 X150.049 Y27.102 E8.8459
G1 X150.050 Y28.080 E8.8898
G1 X150.045 Y28.144 E8.8927
G1 X150.007 Y28.248 E8.8977
G1 X149.941 Y28.327 E8.9023
G1 X149.851 Y28.379 E8.9070
G1 X149.739 Y28.399 E8.9121
G1 X149.241 Y28.400 E8.9344
G1 X149.041 Y28.417 E8.9434
G1 X148.839 Y28.472 E8.9528
G1 X148.650 Y28.560 E8.9622
G1 X148.478 Y28.680 E8.9716
G1 X148.330 Y28.828 E8.9810
G1 X148.210 Y29.000 E8.9904
G1 X148.122 Y29.189 E8.9998
G1 X148.067 Y29.391 E9.0092
G1 X148.051 Y29.584 E9.0179
G1 X148.050 Y34.191 E9.2248
G1 X148.065 Y34.374 E9.2330
G1 X148.109 Y34.554 E9.2413
G1 X148.182 Y34.731 E9.2499
G1 X148.284 Y34.895 E9.2586
G1 X148.410 Y35.040 E9.2672
G1 X148.558 Y35.163 E9.2759
G1 X148.723 Y35.261 E9.2845
G1 X148.895 Y35.329 E9.2928
G1 X154.972 Y37.152 E9.5777
G1 X155.095 Y37.200 E9.5836
G1 X155.206 Y37.265 E9.5894
G1 X155.305 Y37.346 E9.5951
G1 X155.390 Y37.442 E9.6009
G1 X155.458 Y37.551 E9.6067
G1 X155.508 Y37.669 E9.6124
G1 X155.539 Y37.793 E9.6182
G1 X155.550 Y37.929 E9.6243
G1 X155.550 Y163.880 E15.2796
G1 X153.586 Y173.700 E15.7293
G1 X142.003 Y173.700 E16.2494
G1 X135.083 Y166.780 E16.6888
G1 X64.917 Y166.780 E19.8393
G1 X57.997 Y173.700 E20.2788
G1 X46.414 Y173.700 E20.7989
G1 X44.450 Y163.880 E21.2485
G1 X44.450 Y37.929 E26.9039
G1 X44.461 Y37.793 E26.9100
G1 X44.490 Y37.674 E26.9155
G1 X44.539 Y37.556 E26.9213
G1 X44.607 Y37.447 E26.9270
G1 X44.691 Y37.350 E26.9328
G1 X44.789 Y37.268 E26.9385
G1 X44.899 Y37.203 E26.9443
G1 X45.026 Y37.153 E26.9504
G1 X51.105 Y35.329 E27.2353
G1 X51.270 Y35.265 E27.2433
G1 X51.436 Y35.168 E27.2519
G1 X51.584 Y35.046 E27.2605
G1 X51.711 Y34.902 E27.2692
G1 X51.814 Y34.739 E27.2778
G1 X51.889 Y34.562 E27.2865
G1 X51.935 Y34.375 E27.2951
G1 X51.950 Y34.191 E27.3034
G1 X51.950 Y29.591 E27.5099
G1 X51.933 Y29.392 E27.5189
G1 X51.878 Y29.189 E27.5283
G1 X51.790 Y29.000 E27.5377
G1 X51.670 Y28.828 E27.5471
G1 X51.522 Y28.680 E27.5565
G1 X51.350 Y28.560 E27.5659
G1 X51.161 Y28.472 E27.5753
G1 X50.953 Y28.416 E27.5850
G1 X50.201 Y28.393 E27.6187
G1 X50.102 Y28.357 E27.6235
G1 X50.023 Y28.291 E27.6281
G1 X49.971 Y28.201 E27.6328
G1 X49.951 Y28.089 E27.6379
G1 X49.950 Y27.109 E27.6819
G1 X49.963 Y26.961 E27.6886
G1 X49.999 Y26.827 E27.6948
G1 X50.058 Y26.700 E27.7011
G92 E0
G1 E-1.0000 F1800
; inner perimeter
G1 X69.751 Y89.780 F4800
G1 E0.0000 F1800
G92 E0
G1 X61.400 Y98.131 E0.5303 F1725
G1 X61.400 Y143.229 E2.5552
G1 X69.751 Y151.580 E3.0855
G1 X82.600 Y151.580 E3.6625
G1 X82.600 Y89.780 E6.4374
G1 X69.751 Y89.780 E7.0143
; outer perimeter
G1 X69.917 Y90.180 F4800
G92 E0
G1 X61.800 Y98.297 E0.5154 F1150
G1 X61.800 Y143.063 E2.5255
G1 X69.917 Y151.180 E3.0409
G1 X82.200 Y151.180 E3.5924
G1 X82.200 Y90.180 E6.3314
G1 X69.917 Y90.180 E6.8829
; inner perimeter
G1 X89.400 Y89.780 F4800
G92 E0
G1 X89.400 Y151.580 E2.7749 F1725
G1 X110.600 Y151.580 E3.7268
G1 X110.600 Y89.780 E6.5017
G1 X89.400 Y89.780 E7.4536
; outer perimeter
G1 X89.800 Y90.180 F4800
G92 E0
G1 X89.800 Y151.180 E2.7390 F1150
G1 X110.200 Y151.180 E3.6550
G1 X110.200 Y90.180 E6.3939
G1 X89.800 Y90.180 E7.3099
; inner perimeter
G1 X117.400 Y89.780 F4800
G92 E0
G1 X117.400 Y151.580 E2.7749 F1725
G1 X130.249 Y151.580 E3.3518
G1 X138.600 Y143.229 E3.8821
G1 X138.600 Y98.131 E5.9070
G1 X130.249 Y89.780 E6.4374
G1 X117.400 Y89.780 E7.0143
; outer perimeter
G1 X117.800 Y90.180 F4800
G92 E0
G1 X117.800 Y151.180 E2.7390 F1150
G1 X130.083 Y151.180 E3.2905
G1 X138.200 Y143.063 E3.8059
G1 X138.200 Y98.297 E5.8160
G1 X130.083 Y90.180 E6.3314
G1 X117.800 Y90.180 E6.8829
; solid layer
G1 X117.060 Y95.564 F4800
G92 E0
G1 X110.940 Y89.444 E0.3886 F1840
G1 X110.940 Y90.010 E0.4140
G1 X117.060 Y96.130 E0.8026
G1 X117.060 Y96.695 E0.8280
G1 X110.940 Y90.575 E1.2167
G1 X110.940 Y91.141 E1.2421
G1 X117.060 Y97.261 E1.6307
G1 X117.060 Y97.827 E1.6561
G1 X110.940 Y91.707 E2.0447
G1 X110.940 Y92.272 E2.0701
