; G-Code generated by Simplify3D(R) Version 4.0.0
; Oct 20, 2020 at 8:06:38 PM
; Settings Summary
;   processName,Process1
;   applyToModels,ssd_hdd_bracket_caddyV1
;   profileName,new profile (modified)
;   profileVersion,2020-09-07 14:01:24
;   baseProfile,Default (modified)
;   printMaterial,PLA
;   printQuality,Medium
;   printExtruders,
;   extruderName,Primary Extruder
;   extruderToolheadNumber,0
;   extruderDiameter,0.4
;   extruderAutoWidth,0
;   extruderWidth,0.4
;   extrusionMultiplier,0.9
;   extruderUseRetract,1
;   extruderRetractionDistance,1
;   extruderExtraRestartDistance,0
;   extruderRetractionZLift,0
;   extruderRetractionSpeed,1800
;   extruderUseCoasting,0
;   extruderCoastingDistance,0.2
;   extruderUseWipe,0
;   extruderWipeDistance,5
;   primaryExtruder,0
;   layerHeight,0.3
;   topSolidLayers,3
;   bottomSolidLayers,3
;   perimeterOutlines,2
;   printPerimetersInsideOut,1
;   startPointOption,2
;   startPointOriginX,0
;   startPointOriginY,0
;   sequentialIslands,0
;   spiralVaseMode,0
;   firstLayerHeightPercentage,100
;   firstLayerWidthPercentage,100
;   firstLayerUnderspeed,0.5
;   useRaft,0
;   raftExtruder,0
;   raftTopLayers,3
;   raftBaseLayers,2
;   raftOffset,3
;   raftSeparationDistance,0.14
;   raftTopInfill,100
;   aboveRaftSpeedMultiplier,0.3
;   useSkirt,0
;   skirtExtruder,0
;   skirtLayers,1
;   skirtOutlines,2
;   skirtOffset,4
;   usePrimePillar,0
;   primePillarExtruder,999
;   primePillarWidth,12
;   primePillarLocation,7
;   primePillarSpeedMultiplier,1
;   useOozeShield,0
;   oozeShieldExtruder,999
;   oozeShieldOffset,2
;   oozeShieldOutlines,1
;   oozeShieldSidewallShape,1
;   oozeShieldSidewallAngle,30
;   oozeShieldSpeedMultiplier,1
;   infillExtruder,0
;   internalInfillPattern,Rectilinear
;   externalInfillPattern,Rectilinear
;   infillPercentage,15
;   outlineOverlapPercentage,15
;   infillExtrusionWidthPercentage,100
;   minInfillLength,5
;   infillLayerInterval,1
;   internalInfillAngles,45,-45
;   overlapInternalInfillAngles,0
;   externalInfillAngles,45,-45
;   generateSupport,1
;   supportExtruder,0
;   supportInfillPercentage,30
;   supportExtraInflation,0
;   supportBaseLayers,0
;   denseSupportExtruder,0
;   denseSupportLayers,0
;   denseSupportInfillPercentage,70
;   supportLayerInterval,1
;   supportHorizontalPartOffset,0.3
;   supportUpperSeparationLayers,1
;   supportLowerSeparationLayers,1
;   supportType,1
;   supportGridSpacing,4
;   maxOverhangAngle,45
;   supportAngles,0
;   temperatureName,Primary Extruder,Hot Bed
;   temperatureNumber,0,1
;   temperatureSetpointCount,1,1
;   temperatureSetpointLayers,1,1
;   temperatureSetpointTemperatures,210,60
;   temperatureStabilizeAtStartup,1,0
;   temperatureHeatedBed,0,1
;   temperatureRelayBetweenLayers,0,0
;   temperatureRelayBetweenLoops,0,0
;   fanLayers,1,2
;   fanSpeeds,0,100
;   blipFanToFullPower,0
;   adjustSpeedForCooling,1
;   minSpeedLayerTime,15
;   minCoolingSpeedSlowdown,20
;   increaseFanForCooling,0
;   minFanLayerTime,45
;   maxCoolingFanSpeed,100
;   increaseFanForBridging,0
;   bridgingFanSpeed,100
;   use5D,1
;   relativeEdistances,0
;   allowEaxisZeroing,1
;   independentExtruderAxes,0
;   includeM10123,0
;   stickySupport,1
;   applyToolheadOffsets,0
;   gcodeXoffset,0
;   gcodeYoffset,0
;   gcodeZoffset,0
;   overrideMachineDefinition,0
;   machineTypeOverride,0
;   strokeXoverride,200
;   strokeYoverride,200
;   strokeZoverride,200
;   originOffsetXoverride,0
;   originOffsetYoverride,0
;   originOffsetZoverride,0
;   homeXdirOverride,-1
;   homeYdirOverride,-1
;   homeZdirOverride,-1
;   flipXoverride,1
;   flipYoverride,-1
;   flipZoverride,1
;   toolheadOffsets,0,0|0,0|0,0|0,0|0,0|0,0
;   overrideFirmwareConfiguration,0
;   firmwareTypeOverride,RepRap (Marlin/Repetier/Sprinter)
;   GPXconfigOverride,r2
;   baudRateOverride,115200
;   overridePrinterModels,0
;   printerModelsOverride
;   startingGcode,G28 ; home all axes,G1 X0 Y5 Z0.2 F3000 ; get ready to prime,G92 E0 ; reset extrusion distance,G1 Y150 E20 F600 ; prime nozzle
;   layerChangeGcode,
;   retractionGcode,
;   toolChangeGcode,
;   endingGcode,M104 S0 ; turn off extruder,M140 S0 ; turn off bed,M84 ; disable motors,G1 X0 Y0; home,M107 ; fan off
;   exportFileFormat,gcode
;   celebration,0
;   celebrationSong,Random Song
;   postProcessing,
;   defaultSpeed,4600
;   outlineUnderspeed,0.5
;   solidInfillUnderspeed,0.8
;   supportUnderspeed,0.8
;   rapidXYspeed,4800
;   rapidZspeed,1000
;   minBridgingArea,50
;   bridgingExtraInflation,0
;   bridgingExtrusionMultiplier,1
;   bridgingSpeedMultiplier,1
;   useFixedBridgingAngle,0
;   fixedBridgingAngle,0
;   applyBridgingToPerimeters,0
;   filamentDiameters,1.75|1.75|1.75|1.75|1.75|1.75
;   filamentPricesPerKg,46|46|46|46|46|46
;   filamentDensities,1.25|1.25|1.25|1.25|1.25|1.25
;   useMinPrintHeight,0
;   minPrintHeight,0
;   useMaxPrintHeight,0
;   maxPrintHeight,0
;   useDiaphragm,0
;   diaphragmLayerInterval,20
;   robustSlicing,1
;   mergeAllIntoSolid,0
;   onlyRetractWhenCrossingOutline,1
;   retractBetweenLayers,1
;   useRetractionMinTravel,0
;   retractionMinTravel,3
;   retractWhileWiping,0
;   onlyWipeOutlines,1
;   avoidCrossingOutline,0
;   maxMovementDetourFactor,3
;   toolChangeRetractionDistance,12
;   toolChangeExtraRestartDistance,-0.5
;   toolChangeRetractionSpeed,600
;   externalThinWallType,1
;   internalThinWallType,1
;   thinWallAllowedOverlapPercentage,10
;   singleExtrusionMinLength,1
;   singleExtrusionMinPrintingWidthPercentage,50
;   singleExtrusionMaxPrintingWidthPercentage,200
;   singleExtrusionEndpointExtension,0.2
;   horizontalSizeCompensation,0
G90
M82
M106 S0
M140 S60
M104 S210 T0
M109 S210 T0
G28 ; home all axes
G1 X0 Y5 Z0.2 F3000 ; get ready to prime
G92 E0 ; reset extrusion distance
G1 Y150 E20 F600 ; prime nozzle
G92 E0
G1 E-1.0000 F1800
G1 Z0.300 F1000
; process Process1
; layer 1, Z = 0.300
T0
; tool H0.300 W0.400
; inner perimeter
G1 X55.892 Y26.901 F4800
G1 E0.0000 F540
G92 E0
G1 X55.932 Y26.844 E0.0031 F1725
G1 X55.981 Y26.795 E0.0062
G1 X56.037 Y26.756 E0.0093
G1 X56.101 Y26.726 E0.0125
G1 X56.169 Y26.708 E0.0156
G1 X56.256 Y26.700 E0.0195
G1 X58.711 Y26.700 E0.1298
G1 X58.804 Y26.708 E0.1340
G1 X58.872 Y26.726 E0.1371
G1 X58.936 Y26.756 E0.1403
G1 X58.992 Y26.795 E0.1434
G1 X59.041 Y26.844 E0.1465
G1 X59.081 Y26.901 E0.1496
G1 X59.110 Y26.964 E0.1527
G1 X59.128 Y27.031 E0.1558
G1 X59.136 Y27.119 E0.1598
G1 X59.137 Y36.332 E0.5735
G1 X59.129 Y36.420 E0.5774
G1 X59.115 Y36.478 E0.5801
G1 X59.090 Y36.538 E0.5830
G1 X59.057 Y36.592 E0.5859
G1 X59.015 Y36.640 E0.5888
G1 X58.966 Y36.681 E0.5916
G1 X58.911 Y36.714 E0.5945
G1 X58.830 Y36.746 E0.5984
G1 X52.254 Y38.718 E0.9067
G1 X52.043 Y38.800 E0.9168
G1 X51.822 Y38.929 E0.9283
G1 X51.624 Y39.092 E0.9399
G1 X51.453 Y39.285 E0.9514
G1 X51.317 Y39.503 E0.9630
G1 X51.217 Y39.739 E0.9745
G1 X51.155 Y39.988 E0.9860
G1 X51.137 Y40.220 E0.9964
G1 X51.137 Y55.048 E1.6622
G1 X66.918 Y70.830 E2.6644
G1 X133.082 Y70.830 E5.6352
G1 X148.863 Y55.048 E6.6373
G1 X148.863 Y40.221 E7.3031
G1 X148.846 Y39.989 E7.3135
G1 X148.787 Y39.748 E7.3247
G1 X148.689 Y39.513 E7.3361
G1 X148.553 Y39.293 E7.3477
G1 X148.384 Y39.100 E7.3593
G1 X148.188 Y38.936 E7.3707
G1 X147.968 Y38.805 E7.3822
G1 X147.750 Y38.719 E7.3928
G1 X141.171 Y36.746 E7.7011
G1 X141.093 Y36.715 E7.7049
G1 X141.037 Y36.683 E7.7078
G1 X140.986 Y36.641 E7.7108
G1 X140.945 Y36.594 E7.7136
G1 X140.911 Y36.540 E7.7165
G1 X140.886 Y36.482 E7.7193
G1 X140.871 Y36.419 E7.7222
G1 X140.863 Y36.331 E7.7262
G1 X140.863 Y27.128 E8.1394
G1 X140.872 Y27.032 E8.1437
G1 X140.891 Y26.962 E8.1470
G1 X140.920 Y26.900 E8.1500
G1 X140.958 Y26.845 E8.1531
G1 X141.008 Y26.795 E8.1562
G1 X141.064 Y26.756 E8.1593
G1 X141.127 Y26.727 E8.1624
G1 X141.196 Y26.708 E8.1656
G1 X141.282 Y26.700 E8.1695
G1 X143.738 Y26.700 E8.2798
G1 X143.832 Y26.708 E8.2840
G1 X143.899 Y26.726 E8.2871
G1 X143.963 Y26.756 E8.2903
G1 X144.019 Y26.795 E8.2934
G1 X144.068 Y26.844 E8.2965
G1 X144.108 Y26.901 E8.2996
G1 X144.137 Y26.964 E8.3027
G1 X144.155 Y27.031 E8.3058
G1 X144.163 Y27.119 E8.3098
G1 X144.163 Y27.998 E8.3493
G1 X143.502 Y28.017 E8.3790
G1 X143.215 Y28.095 E8.3923
G1 X142.962 Y28.212 E8.4048
G1 X142.735 Y28.372 E8.4173
G1 X142.537 Y28.569 E8.4299
G1 X142.375 Y28.800 E8.4425
G1 X142.258 Y29.053 E8.4550
G1 X142.187 Y29.321 E8.4675
G1 X142.164 Y29.565 E8.4785
G1 X142.163 Y34.207 E8.6869
G1 X142.182 Y34.439 E8.6974
G1 X142.241 Y34.678 E8.7084
G1 X142.339 Y34.915 E8.7199
G1 X142.474 Y35.133 E8.7315
G1 X142.643 Y35.327 E8.7430
G1 X142.841 Y35.491 E8.7545
G1 X143.060 Y35.622 E8.7660
G1 X143.278 Y35.708 E8.7765
G1 X149.356 Y37.531 E9.0615
G1 X149.435 Y37.561 E9.0652
G1 X149.490 Y37.594 E9.0681
G1 X149.541 Y37.635 E9.0711
G1 X149.584 Y37.684 E9.0740
G1 X149.617 Y37.736 E9.0768
G1 X149.642 Y37.795 E9.0796
G1 X149.657 Y37.856 E9.0825
G1 X149.663 Y37.944 E9.0864
G1 X149.663 Y163.841 E14.7393
G1 X147.772 Y173.300 E15.1725
G1 X136.682 Y173.300 E15.6704
G1 X129.762 Y166.380 E16.1098
G1 X70.238 Y166.380 E18.7825
G1 X63.318 Y173.300 E19.2219
G1 X52.228 Y173.300 E19.7199
G1 X50.337 Y163.841 E20.1530
G1 X50.337 Y37.945 E25.8059
G1 X50.344 Y37.857 E25.8098
G1 X50.358 Y37.799 E25.8125
G1 X50.383 Y37.738 E25.8155
G1 X50.416 Y37.685 E25.8183
G1 X50.458 Y37.637 E25.8212
G1 X50.508 Y37.595 E25.8241
G1 X50.562 Y37.563 E25.8269
G1 X50.643 Y37.531 E25.8308
G1 X56.721 Y35.708 E26.1158
G1 X56.931 Y35.626 E26.1258
G1 X57.151 Y35.498 E26.1373
G1 X57.350 Y35.335 E26.1488
G1 X57.519 Y35.143 E26.1603
G1 X57.657 Y34.925 E26.1719
G1 X57.757 Y34.687 E26.1835
G1 X57.818 Y34.439 E26.1950
G1 X57.837 Y34.207 E26.2054
G1 X57.837 Y29.574 E26.4135
G1 X57.815 Y29.322 E26.4248
G1 X57.742 Y29.052 E26.4373
G1 X57.624 Y28.799 E26.4499
G1 X57.464 Y28.570 E26.4625
G1 X57.266 Y28.372 E26.4750
G1 X57.037 Y28.212 E26.4876
G1 X56.785 Y28.095 E26.5000
G1 X56.499 Y28.017 E26.5133
G1 X55.837 Y27.998 E26.5431
G1 X55.837 Y27.126 E26.5822
G1 X55.845 Y27.031 E26.5865
G1 X55.863 Y26.964 E26.5896
G1 X55.892 Y26.901 E26.5927
; outer perimeter
G1 X55.544 Y26.700 F4800
G92 E0
G1 X55.624 Y26.586 E0.0063 F1150
G1 X55.723 Y26.488 E0.0125
G1 X55.837 Y26.408 E0.0187
G1 X55.963 Y26.349 E0.0250
G1 X56.098 Y26.313 E0.0313
G1 X56.238 Y26.300 E0.0376
G1 X58.728 Y26.300 E0.1494
G1 X58.875 Y26.313 E0.1560
G1 X59.010 Y26.349 E0.1623
G1 X59.137 Y26.408 E0.1686
G1 X59.250 Y26.488 E0.1748
G1 X59.349 Y26.586 E0.1810
G1 X59.429 Y26.700 E0.1873
G1 X59.488 Y26.826 E0.1936
G1 X59.524 Y26.962 E0.1998
G1 X59.536 Y27.102 E0.2062
G1 X59.537 Y36.348 E0.6213
G1 X59.526 Y36.484 E0.6274
G1 X59.497 Y36.603 E0.6329
G1 X59.447 Y36.721 E0.6387
G1 X59.380 Y36.830 E0.6444
G1 X59.296 Y36.927 E0.6502
G1 X59.197 Y37.009 E0.6560
G1 X59.087 Y37.074 E0.6617
G1 X58.961 Y37.124 E0.6678
G1 X52.384 Y39.097 E0.9761
G1 X52.217 Y39.162 E0.9842
G1 X52.051 Y39.258 E0.9928
G1 X51.902 Y39.381 E1.0014
G1 X51.775 Y39.525 E1.0101
G1 X51.672 Y39.688 E1.0187
G1 X51.597 Y39.865 E1.0274
G1 X51.551 Y40.052 E1.0360
G1 X51.537 Y40.236 E1.0443
G1 X51.537 Y54.883 E1.7019
G1 X67.084 Y70.430 E2.6892
G1 X132.917 Y70.430 E5.6452
G1 X148.463 Y54.883 E6.6324
G1 X148.463 Y40.236 E7.2900
G1 X148.449 Y40.053 E7.2983
G1 X148.405 Y39.873 E7.3066
G1 X148.332 Y39.696 E7.3152
G1 X148.230 Y39.531 E7.3239
G1 X148.103 Y39.386 E7.3326
G1 X147.956 Y39.263 E7.3412
G1 X147.791 Y39.165 E7.3498
G1 X147.619 Y39.097 E7.3581
G1 X141.041 Y37.125 E7.6664
G1 X140.918 Y37.077 E7.6724
G1 X140.808 Y37.012 E7.6781
G1 X140.708 Y36.930 E7.6839
G1 X140.623 Y36.834 E7.6897
G1 X140.555 Y36.726 E7.6954
G1 X140.505 Y36.609 E7.7011
G1 X140.475 Y36.483 E7.7069
G1 X140.463 Y36.348 E7.7130
G1 X140.463 Y27.109 E8.1279
G1 X140.477 Y26.962 E8.1345
G1 X140.513 Y26.826 E8.1408
G1 X140.571 Y26.700 E8.1471
G1 X140.651 Y26.586 E8.1533
G1 X140.750 Y26.488 E8.1596
G1 X140.864 Y26.408 E8.1658
G1 X140.990 Y26.349 E8.1720
G1 X141.126 Y26.313 E8.1783
G1 X141.265 Y26.300 E8.1846
G1 X143.755 Y26.300 E8.2964
G1 X143.902 Y26.313 E8.3031
G1 X144.037 Y26.349 E8.3093
G1 X144.163 Y26.408 E8.3156
G1 X144.277 Y26.488 E8.3218
G1 X144.376 Y26.586 E8.3281
G1 X144.456 Y26.700 E8.3343
G1 X144.515 Y26.827 E8.3406
G1 X144.551 Y26.961 E8.3469
G1 X144.563 Y27.102 E8.3532
G1 X144.563 Y28.080 E8.3971
G1 X144.559 Y28.144 E8.4000
G1 X144.521 Y28.248 E8.4050
G1 X144.455 Y28.327 E8.4096
G1 X144.341 Y28.393 E8.4155
G1 X143.561 Y28.416 E8.4506
G1 X143.353 Y28.472 E8.4602
G1 X143.163 Y28.560 E8.4696
G1 X142.992 Y28.680 E8.4790
G1 X142.844 Y28.827 E8.4884
G1 X142.723 Y29.000 E8.4978
G1 X142.636 Y29.190 E8.5072
G1 X142.582 Y29.392 E8.5166
G1 X142.564 Y29.584 E8.5253
G1 X142.563 Y34.191 E8.7321
G1 X142.579 Y34.375 E8.7404
G1 X142.622 Y34.553 E8.7487
G1 X142.696 Y34.732 E8.7573
G1 X142.797 Y34.895 E8.7660
G1 X142.923 Y35.040 E8.7746
G1 X143.072 Y35.164 E8.7833
G1 X143.236 Y35.262 E8.7919
G1 X143.409 Y35.329 E8.8002
G1 X149.486 Y37.152 E9.0851
G1 X149.609 Y37.200 E9.0910
G1 X149.720 Y37.264 E9.0968
G1 X149.819 Y37.346 E9.1025
G1 X149.905 Y37.443 E9.1083
G1 X149.973 Y37.550 E9.1140
G1 X150.023 Y37.669 E9.1198
G1 X150.053 Y37.793 E9.1255
G1 X150.063 Y37.928 E9.1317
G1 X150.063 Y163.880 E14.7870
G1 X148.099 Y173.700 E15.2367
G1 X136.517 Y173.700 E15.7568
G1 X129.597 Y166.780 E16.1962
G1 X70.404 Y166.780 E18.8540
G1 X63.484 Y173.700 E19.2934
G1 X51.901 Y173.700 E19.8135
G1 X49.937 Y163.880 E20.2632
G1 X49.937 Y37.929 E25.9186
G1 X49.948 Y37.793 E25.9247
G1 X49.977 Y37.675 E25.9301
G1 X50.026 Y37.555 E25.9360
G1 X50.093 Y37.447 E25.9417
G1 X50.177 Y37.350 E25.9474
G1 X50.276 Y37.268 E25.9532
G1 X50.386 Y37.202 E25.9590
G1 X50.512 Y37.153 E25.9651
G1 X56.591 Y35.329 E26.2500
G1 X56.756 Y35.265 E26.2580
G1 X56.922 Y35.168 E26.2666
G1 X57.071 Y35.046 E26.2752
G1 X57.198 Y34.902 E26.2839
G1 X57.301 Y34.739 E26.2925
G1 X57.376 Y34.561 E26.3012
G1 X57.422 Y34.375 E26.3098
G1 X57.437 Y34.191 E26.3181
G1 X57.437 Y29.591 E26.5246
G1 X57.419 Y29.392 E26.5336
G1 X57.365 Y29.189 E26.5430
G1 X57.277 Y29.000 E26.5524
G1 X57.156 Y28.828 E26.5618
G1 X57.008 Y28.680 E26.5712
G1 X56.837 Y28.560 E26.5806
G1 X56.647 Y28.472 E26.5900
G1 X56.440 Y28.416 E26.5997
G1 X55.688 Y28.394 E26.6334
G1 X55.588 Y28.357 E26.6382
G1 X55.509 Y28.291 E26.6428
G1 X55.457 Y28.201 E26.6475
G1 X55.437 Y28.089 E26.6526
G1 X55.437 Y27.109 E26.6966
G1 X55.450 Y26.962 E26.7032
G1 X55.486 Y26.826 E26.7095
G1 X55.544 Y26.700 E26.7158
G92 E0
G1 E-1.0000 F1800
; inner perimeter
G1 X75.238 Y89.780 F4800
G1 E0.0000 F1800
G92 E0
G1 X66.887 Y98.132 E0.5303 F1725
G1 X66.887 Y143.229 E2.5552
G1 X75.238 Y151.580 E3.0855
G1 X88.087 Y151.580 E3.6625
G1 X88.087 Y89.780 E6.4374
G1 X75.238 Y89.780 E7.0143
; outer perimeter
G1 X75.404 Y90.180 F4800
G92 E0
G1 X67.287 Y98.297 E0.5154 F1150
G1 X67.287 Y143.063 E2.5255
G1 X75.404 Y151.180 E3.0409
G1 X87.687 Y151.180 E3.5924
G1 X87.687 Y90.180 E6.3314
G1 X75.404 Y90.180 E6.8829
; inner perimeter
G1 X94.887 Y89.780 F4800
G92 E0
G1 X94.887 Y151.580 E2.7749 F1725
G1 X105.114 Y151.580 E3.2341
G1 X105.114 Y89.780 E6.0090
G1 X94.887 Y89.780 E6.4682
; outer perimeter
G1 X95.287 Y90.180 F4800
G92 E0
G1 X95.287 Y151.180 E2.7390 F1150
G1 X104.714 Y151.180 E3.1623
G1 X104.714 Y90.180 E5.9012
G1 X95.287 Y90.180 E6.3245
; inner perimeter
G1 X111.914 Y89.780 F4800
G92 E0
G1 X111.914 Y151.580 E2.7749 F1725
G1 X124.762 Y151.580 E3.3518
G1 X133.114 Y143.229 E3.8821
G1 X133.114 Y98.132 E5.9070
G1 X124.762 Y89.780 E6.4374
G1 X111.914 Y89.780 E7.0143
; outer perimeter
G1 X112.314 Y90.180 F4800
G92 E0
G1 X112.314 Y151.180 E2.7390 F1150
G1 X124.597 Y151.180 E3.2905
G1 X132.714 Y143.063 E3.8059
G1 X132.714 Y98.297 E5.8160
G1 X124.597 Y90.180 E6.3314
G1 X112.314 Y90.180 E6.8829
; solid layer
G1 X111.574 Y95.735 F4800
G92 E0
G1 X105.454 Y89.615 E0.3886 F1840
G1 X105.454 Y90.180 E0.4140
G1 X111.574 Y96.300 E0.8026
G1 X111.574 Y96.866 E0.8280
G1 X105.454 Y90.746 E1.2167
G1 X105.454 Y91.312 E1.2421
G1 X111.574 Y97.432 E1.6307
G1 X111.574 Y97.997 E1.6561
G1 X105.454 Y91.877 E2.0447
G1 X105.454 Y92.443 E2.0701
G1 X111.574 Y98.563 E2.4587
G1 X111.574 Y99.129 E2.4841
G1 X105.454 Y93.009 E2.8727
