; G-Code generated by Simplify3D(R) Version 4.0.0
; Nov 30, 2019 at 4:09:04 PM
; Settings Summary
;   processName,Process1
;   applyToModels,Stand_base,30mm_Feet(3),30mm_Feet(3)(2),30mm_Feet(3)(3),30mm_Feet(3)(4),30mm_Feet(3)(5)
;   profileName,Default(2) (modified)
;   profileVersion,2019-07-27 15:21:07
;   baseProfile,
;   printMaterial,PLA
;   printQuality,Medium
;   printExtruders,
;   extruderName,Primary Extruder
;   extruderToolheadNumber,0
;   extruderDiameter,0.4
;   extruderAutoWidth,1
;   extruderWidth,0.48
;   extrusionMultiplier,0.9
;   extruderUseRetract,1
;   extruderRetractionDistance,1
;   extruderExtraRestartDistance,0
;   extruderRetractionZLift,0
;   extruderRetractionSpeed,1800
;   extruderUseCoasting,0
;   extruderCoastingDistance,0.2
;   extruderUseWipe,0
;   extruderWipeDistance,5
;   primaryExtruder,0
;   layerHeight,0.24
;   topSolidLayers,3
;   bottomSolidLayers,2
;   perimeterOutlines,2
;   printPerimetersInsideOut,1
;   startPointOption,2
;   startPointOriginX,0
;   startPointOriginY,0
;   sequentialIslands,0
;   spiralVaseMode,0
;   firstLayerHeightPercentage,90
;   firstLayerWidthPercentage,100
;   firstLayerUnderspeed,0.5
;   useRaft,0
;   raftExtruder,0
;   raftTopLayers,3
;   raftBaseLayers,2
;   raftOffset,3
;   raftSeparationDistance,0.14
;   raftTopInfill,100
;   aboveRaftSpeedMultiplier,0.3
;   useSkirt,0
;   skirtExtruder,0
;   skirtLayers,1
;   skirtOutlines,2
;   skirtOffset,4
;   usePrimePillar,0
;   primePillarExtruder,999
;   primePillarWidth,12
;   primePillarLocation,7
;   primePillarSpeedMultiplier,1
;   useOozeShield,0
;   oozeShieldExtruder,999
;   oozeShieldOffset,2
;   oozeShieldOutlines,1
;   oozeShieldSidewallShape,1
;   oozeShieldSidewallAngle,30
;   oozeShieldSpeedMultiplier,1
;   infillExtruder,0
;   internalInfillPattern,Rectilinear
;   externalInfillPattern,Rectilinear
;   infillPercentage,40
;   outlineOverlapPercentage,15
;   infillExtrusionWidthPercentage,100
;   minInfillLength,5
;   infillLayerInterval,1
;   internalInfillAngles,45,-45
;   overlapInternalInfillAngles,0
;   externalInfillAngles,45,-45
;   generateSupport,1
;   supportExtruder,0
;   supportInfillPercentage,30
;   supportExtraInflation,0
;   supportBaseLayers,0
;   denseSupportExtruder,0
;   denseSupportLayers,0
;   denseSupportInfillPercentage,70
;   supportLayerInterval,1
;   supportHorizontalPartOffset,0.4
;   supportUpperSeparationLayers,1
;   supportLowerSeparationLayers,1
;   supportType,0
;   supportGridSpacing,4
;   maxOverhangAngle,45
;   supportAngles,0
;   temperatureName,Primary Extruder,Hot Bed
;   temperatureNumber,0,1
;   temperatureSetpointCount,1,1
;   temperatureSetpointLayers,1,1
;   temperatureSetpointTemperatures,210,60
;   temperatureStabilizeAtStartup,1,0
;   temperatureHeatedBed,0,1
;   temperatureRelayBetweenLayers,0,0
;   temperatureRelayBetweenLoops,0,0
;   fanLayers,1,2
;   fanSpeeds,0,100
;   blipFanToFullPower,0
;   adjustSpeedForCooling,1
;   minSpeedLayerTime,15
;   minCoolingSpeedSlowdown,20
;   increaseFanForCooling,0
;   minFanLayerTime,45
;   maxCoolingFanSpeed,100
;   increaseFanForBridging,0
;   bridgingFanSpeed,100
;   use5D,1
;   relativeEdistances,0
;   allowEaxisZeroing,1
;   independentExtruderAxes,0
;   includeM10123,0
;   stickySupport,1
;   applyToolheadOffsets,0
;   gcodeXoffset,-9
;   gcodeYoffset,-4
;   gcodeZoffset,0
;   overrideMachineDefinition,0
;   machineTypeOverride,0
;   strokeXoverride,200
;   strokeYoverride,200
;   strokeZoverride,200
;   originOffsetXoverride,0
;   originOffsetYoverride,0
;   originOffsetZoverride,0
;   homeXdirOverride,-1
;   homeYdirOverride,-1
;   homeZdirOverride,-1
;   flipXoverride,1
;   flipYoverride,-1
;   flipZoverride,1
;   toolheadOffsets,0,0|0,0|0,0|0,0|0,0|0,0
;   overrideFirmwareConfiguration,0
;   firmwareTypeOverride,RepRap (Marlin/Repetier/Sprinter)
;   GPXconfigOverride,r2
;   baudRateOverride,115200
;   overridePrinterModels,0
;   printerModelsOverride
;   startingGcode,G28 ; home all axes,G1 X2 Y15 Z0.2 F3000 ; get ready to prime,G92 E0 ; reset extrusion distance,G1 Y150 E20 F600 ; prime nozzle
;   layerChangeGcode,
;   retractionGcode,
;   toolChangeGcode,
;   endingGcode,M104 S0 ; turn off extruder,M140 S0 ; turn off bed,G28 X Y ; home X & Y,M84 ; disable motors,M107; Fan off
;   exportFileFormat,gcode
;   celebration,0
;   celebrationSong,Random Song
;   postProcessing,
;   defaultSpeed,2000
;   outlineUnderspeed,0.5
;   solidInfillUnderspeed,0.8
;   supportUnderspeed,0.8
;   rapidXYspeed,4800
;   rapidZspeed,1000
;   minBridgingArea,50
;   bridgingExtraInflation,0
;   bridgingExtrusionMultiplier,1
;   bridgingSpeedMultiplier,1
;   useFixedBridgingAngle,0
;   fixedBridgingAngle,0
;   applyBridgingToPerimeters,0
;   filamentDiameters,1.75|1.75|1.75|1.75|1.75|1.75
;   filamentPricesPerKg,46|46|46|46|46|46
;   filamentDensities,1.25|1.25|1.25|1.25|1.25|1.25
;   useMinPrintHeight,0
;   minPrintHeight,46.5
;   useMaxPrintHeight,0
;   maxPrintHeight,46.3
;   useDiaphragm,0
;   diaphragmLayerInterval,20
;   robustSlicing,1
;   mergeAllIntoSolid,0
;   onlyRetractWhenCrossingOutline,1
;   retractBetweenLayers,1
;   useRetractionMinTravel,0
;   retractionMinTravel,3
;   retractWhileWiping,0
;   onlyWipeOutlines,1
;   avoidCrossingOutline,0
;   maxMovementDetourFactor,3
;   toolChangeRetractionDistance,12
;   toolChangeExtraRestartDistance,-0.5
;   toolChangeRetractionSpeed,600
;   externalThinWallType,1
;   internalThinWallType,1
;   thinWallAllowedOverlapPercentage,10
;   singleExtrusionMinLength,1
;   singleExtrusionMinPrintingWidthPercentage,50
;   singleExtrusionMaxPrintingWidthPercentage,200
;   singleExtrusionEndpointExtension,0.2
;   horizontalSizeCompensation,0
G90
M82
M106 S0
M140 S60
M104 S210 T0
M109 S210 T0
G28 ; home all axes
G1 X2 Y15 Z0.2 F3000 ; get ready to prime
G92 E0 ; reset extrusion distance
G1 Y150 E20 F600 ; prime nozzle
G92 E0
G1 E-1.0000 F1800
G1 Z0.216 F1000
; process Process1
; layer 1, Z = 0.216
T0
; tool H0.240 W0.480
; inner perimeter
G1 X15.132 Y57.489 F4800
G1 E0.0000 F540
G92 E0
G1 X16.201 Y57.097 E0.0491 F750
G1 X17.298 Y56.792 E0.0982
G1 X18.416 Y56.576 E0.1472
G1 X19.547 Y56.449 E0.1963
G1 X20.685 Y56.412 E0.2454
G1 X21.822 Y56.467 E0.2944
G1 X24.365 Y56.800 E0.4050
G1 X25.785 Y56.892 E0.4664
G1 X27.209 Y56.885 E0.5278
G1 X28.630 Y56.781 E0.5891
G1 X30.040 Y56.580 E0.6505
G1 X31.433 Y56.282 E0.7119
G1 X32.802 Y55.889 E0.7733
G1 X34.141 Y55.403 E0.8347
G1 X35.443 Y54.826 E0.8961
G1 X36.702 Y54.161 E0.9575
G1 X37.913 Y53.411 E1.0189
G1 X39.070 Y52.579 E1.0803
G1 X40.167 Y51.671 E1.1417
G1 X41.189 Y50.697 E1.2026
G1 X49.997 Y41.716 E1.7448
G1 X50.950 Y40.675 E1.8057
G1 X51.838 Y39.560 E1.8671
G1 X52.646 Y38.388 E1.9284
G1 X53.372 Y37.163 E1.9898
G1 X54.013 Y35.890 E2.0512
G1 X54.564 Y34.577 E2.1126
G1 X55.024 Y33.229 E2.1740
G1 X55.390 Y31.853 E2.2354
G1 X55.661 Y30.454 E2.2968
G1 X55.835 Y29.041 E2.3582
G1 X55.911 Y27.618 E2.4196
G1 X55.890 Y26.194 E2.4810
G1 X55.771 Y24.776 E2.5424
G1 X55.388 Y22.239 E2.6529
G1 X55.311 Y21.105 E2.7020
G1 X55.326 Y19.966 E2.7510
G1 X55.430 Y18.832 E2.8001
G1 X55.625 Y17.710 E2.8492
G1 X55.909 Y16.608 E2.8983
G1 X56.280 Y15.531 E2.9474
G1 X56.735 Y14.487 E2.9964
G1 X57.272 Y13.483 E3.0455
G1 X57.887 Y12.525 E3.0946
G1 X58.577 Y11.619 E3.1437
G1 X59.336 Y10.771 E3.1928
G1 X60.161 Y9.986 E3.2419
G1 X61.046 Y9.269 E3.2909
G1 X61.985 Y8.625 E3.3400
G1 X62.972 Y8.058 E3.3891
G1 X64.001 Y7.571 E3.4382
G1 X65.066 Y7.168 E3.4873
G1 X66.160 Y6.851 E3.5363
G1 X67.275 Y6.622 E3.5854
G1 X68.405 Y6.483 E3.6345
G1 X69.543 Y6.434 E3.6836
G1 X70.681 Y6.476 E3.7327
G1 X71.812 Y6.609 E3.7817
G1 X72.928 Y6.831 E3.8308
G1 X74.024 Y7.142 E3.8799
G1 X75.091 Y7.538 E3.9290
G1 X76.123 Y8.019 E3.9781
G1 X77.114 Y8.580 E4.0271
G1 X78.057 Y9.219 E4.0762
G1 X78.946 Y9.930 E4.1253
G1 X79.775 Y10.710 E4.1744
G1 X80.540 Y11.554 E4.2235
G1 X81.235 Y12.456 E4.2725
G1 X81.856 Y13.410 E4.3216
G1 X82.399 Y14.411 E4.3707
G1 X82.860 Y15.452 E4.4198
G1 X83.237 Y16.527 E4.4689
G1 X83.527 Y17.628 E4.5179
G1 X83.729 Y18.748 E4.5670
G1 X83.840 Y19.881 E4.6161
G1 X83.861 Y21.020 E4.6652
G1 X83.792 Y22.155 E4.7142
G1 X83.434 Y24.608 E4.8211
G1 X83.321 Y25.940 E4.8787
G1 X83.295 Y27.277 E4.9363
G1 X83.355 Y28.614 E4.9940
G1 X83.502 Y29.943 E5.0517
G1 X83.734 Y31.261 E5.1093
G1 X84.050 Y32.560 E5.1670
G1 X84.450 Y33.837 E5.2247
G1 X84.931 Y35.085 E5.2823
G1 X86.016 Y37.438 E5.3940
G1 X86.466 Y38.608 E5.4480
G1 X86.839 Y39.804 E5.5021
G1 X87.454 Y42.343 E5.6147
G1 X87.859 Y43.640 E5.6732
G1 X88.349 Y44.908 E5.7318
G1 X88.921 Y46.141 E5.7904
G1 X89.573 Y47.334 E5.8490
G1 X90.301 Y48.481 E5.9076
G1 X91.103 Y49.579 E5.9662
G1 X91.975 Y50.621 E6.0247
G1 X92.905 Y51.595 E6.0828
G1 X113.230 Y71.528 E7.3099
G1 X113.802 Y72.017 E7.3424
G1 X114.456 Y72.438 E7.3759
G1 X115.160 Y72.766 E7.4094
G1 X115.903 Y72.995 E7.4429
G1 X116.637 Y73.117 E7.4749
G1 X118.563 Y73.349 E7.5586
G1 X120.442 Y73.670 E7.6407
G1 X122.304 Y74.081 E7.7229
G1 X124.144 Y74.582 E7.8051
G1 X125.957 Y75.172 E7.8873
G1 X127.740 Y75.849 E7.9695
G1 X129.488 Y76.612 E8.0517
G1 X131.196 Y77.458 E8.1339
G1 X132.861 Y78.387 E8.2161
G1 X134.480 Y79.395 E8.2983
G1 X136.047 Y80.481 E8.3805
G1 X137.560 Y81.641 E8.4627
G1 X139.015 Y82.874 E8.5449
G1 X140.409 Y84.175 E8.6270
G1 X141.737 Y85.543 E8.7092
G1 X142.998 Y86.974 E8.7914
G1 X144.187 Y88.464 E8.8736
G1 X145.304 Y90.010 E8.9558
G1 X146.343 Y91.608 E9.0380
G1 X147.304 Y93.255 E9.1202
G1 X148.184 Y94.947 E9.2024
G1 X148.980 Y96.679 E9.2846
G1 X149.692 Y98.448 E9.3668
G1 X150.317 Y100.250 E9.4490
G1 X150.854 Y102.079 E9.5312
G1 X151.301 Y103.933 E9.6133
G1 X151.658 Y105.806 E9.6955
G1 X151.928 Y107.727 E9.7792
G1 X152.064 Y108.459 E9.8112
G1 X152.308 Y109.196 E9.8447
G1 X152.650 Y109.894 E9.8782
G1 X153.083 Y110.540 E9.9117
G1 X153.583 Y111.102 E9.9442
G1 X173.908 Y131.035 E11.1713
G1 X174.901 Y131.946 E11.2293
G1 X175.960 Y132.797 E11.2879
G1 X177.072 Y133.578 E11.3465
G1 X178.234 Y134.284 E11.4051
G1 X179.439 Y134.912 E11.4637
G1 X180.683 Y135.460 E11.5223
G1 X181.960 Y135.925 E11.5809
G1 X183.265 Y136.305 E11.6394
G1 X185.815 Y136.870 E11.7520
G1 X187.019 Y137.219 E11.8061
G1 X188.197 Y137.646 E11.8601
G1 X190.571 Y138.686 E11.9718
G1 X191.828 Y139.143 E12.0294
G1 X193.112 Y139.517 E12.0871
G1 X194.418 Y139.808 E12.1448
G1 X195.740 Y140.014 E12.2024
G1 X197.072 Y140.135 E12.2601
G1 X198.409 Y140.169 E12.3178
G1 X199.746 Y140.117 E12.3754
G1 X201.075 Y139.979 E12.4330
G1 X203.521 Y139.573 E12.5399
G1 X204.654 Y139.481 E12.5889
G1 X205.793 Y139.480 E12.6380
G1 X206.928 Y139.569 E12.6871
G1 X208.052 Y139.749 E12.7361
G1 X209.159 Y140.018 E12.7852
G1 X210.240 Y140.374 E12.8343
G1 X211.290 Y140.815 E12.8834
G1 X212.301 Y141.338 E12.9325
G1 X213.268 Y141.940 E12.9816
G1 X214.183 Y142.617 E13.0306
G1 X215.041 Y143.365 E13.0797
G1 X215.838 Y144.179 E13.1288
G1 X216.566 Y145.054 E13.1779
G1 X217.223 Y145.985 E13.2270
G1 X217.803 Y146.964 E13.2760
G1 X218.304 Y147.987 E13.3251
G1 X218.721 Y149.046 E13.3742
G1 X219.053 Y150.135 E13.4233
G1 X219.297 Y151.247 E13.4724
G1 X219.452 Y152.376 E13.5214
G1 X219.516 Y153.512 E13.5705
G1 X219.489 Y154.651 E13.6196
G1 X219.372 Y155.783 E13.6687
G1 X219.165 Y156.903 E13.7178
G1 X218.869 Y158.002 E13.7668
G1 X218.487 Y159.075 E13.8159
G1 X218.021 Y160.114 E13.8650
G1 X217.473 Y161.112 E13.9141
G1 X216.847 Y162.063 E13.9632
G1 X216.148 Y162.962 E14.0122
G1 X215.379 Y163.802 E14.0613
G1 X214.546 Y164.578 E14.1104
G1 X213.653 Y165.285 E14.1595
G1 X212.707 Y165.919 E14.2086
G1 X211.714 Y166.475 E14.2576
G1 X210.679 Y166.951 E14.3067
G1 X209.610 Y167.342 E14.3558
G1 X208.513 Y167.647 E14.4049
G1 X207.395 Y167.864 E14.4540
G1 X206.264 Y167.991 E14.5031
G1 X205.126 Y168.027 E14.5521
G1 X203.990 Y167.973 E14.6012
G1 X201.446 Y167.639 E14.7117
G1 X200.026 Y167.548 E14.7731
G1 X198.602 Y167.554 E14.8345
G1 X197.181 Y167.658 E14.8959
G1 X195.771 Y167.860 E14.9573
G1 X194.378 Y168.158 E15.0187
G1 X193.009 Y168.551 E15.0801
G1 X191.671 Y169.037 E15.1415
G1 X190.368 Y169.614 E15.2029
G1 X189.109 Y170.279 E15.2643
G1 X187.898 Y171.029 E15.3256
G1 X186.741 Y171.860 E15.3870
G1 X185.645 Y172.769 E15.4484
G1 X184.622 Y173.742 E15.5093
G1 X175.814 Y182.724 E16.0515
G1 X174.861 Y183.765 E16.1124
G1 X173.973 Y184.879 E16.1738
G1 X173.165 Y186.051 E16.2352
G1 X172.439 Y187.277 E16.2966
G1 X171.798 Y188.549 E16.3580
G1 X171.247 Y189.862 E16.4194
G1 X170.787 Y191.210 E16.4808
G1 X170.421 Y192.587 E16.5422
G1 X170.150 Y193.985 E16.6036
G1 X169.976 Y195.399 E16.6649
G1 X169.900 Y196.821 E16.7263
G1 X169.921 Y198.245 E16.7877
G1 X170.040 Y199.664 E16.8491
G1 X170.423 Y202.200 E16.9597
G1 X170.500 Y203.335 E17.0087
G1 X170.486 Y204.473 E17.0578
G1 X170.381 Y205.607 E17.1069
G1 X170.186 Y206.729 E17.1559
G1 X169.902 Y207.832 E17.2050
G1 X169.531 Y208.908 E17.2541
G1 X169.076 Y209.952 E17.3032
G1 X168.539 Y210.956 E17.3523
G1 X167.924 Y211.914 E17.4013
G1 X167.234 Y212.820 E17.4504
G1 X166.475 Y213.669 E17.4995
G1 X165.650 Y214.454 E17.5486
G1 X164.765 Y215.170 E17.5977
G1 X163.826 Y215.814 E17.6467
G1 X162.839 Y216.381 E17.6958
G1 X161.810 Y216.868 E17.7449
G1 X160.745 Y217.271 E17.7940
G1 X159.651 Y217.588 E17.8431
G1 X158.536 Y217.817 E17.8921
G1 X157.406 Y217.956 E17.9412
G1 X156.268 Y218.005 E17.9903
G1 X155.130 Y217.963 E18.0394
G1 X153.999 Y217.831 E18.0885
G1 X152.883 Y217.608 E18.1376
G1 X151.787 Y217.298 E18.1866
G1 X150.720 Y216.901 E18.2357
G1 X149.688 Y216.421 E18.2848
G1 X148.697 Y215.859 E18.3339
G1 X147.754 Y215.221 E18.3830
G1 X146.865 Y214.509 E18.4320
G1 X146.036 Y213.729 E18.4811
G1 X145.271 Y212.885 E18.5302
G1 X144.576 Y211.984 E18.5793
G1 X143.955 Y211.029 E18.6284
G1 X143.412 Y210.028 E18.6774
G1 X142.951 Y208.987 E18.7265
G1 X142.574 Y207.913 E18.7756
G1 X142.284 Y206.812 E18.8247
G1 X142.082 Y205.691 E18.8738
G1 X141.971 Y204.558 E18.9228
G1 X141.950 Y203.420 E18.9719
G1 X142.019 Y202.285 E19.0209
G1 X142.378 Y199.832 E19.1278
G1 X142.490 Y198.500 E19.1854
G1 X142.516 Y197.162 E19.2431
G1 X142.456 Y195.826 E19.3007
G1 X142.309 Y194.496 E19.3584
G1 X142.078 Y193.179 E19.4161
G1 X141.761 Y191.879 E19.4737
G1 X141.362 Y190.602 E19.5314
G1 X140.880 Y189.354 E19.5891
G1 X139.795 Y187.002 E19.7007
G1 X139.345 Y185.832 E19.7548
G1 X138.972 Y184.635 E19.8088
G1 X138.357 Y182.096 E19.9214
G1 X137.952 Y180.799 E19.9800
G1 X137.462 Y179.531 E20.0386
G1 X136.890 Y178.298 E20.0971
G1 X136.238 Y177.106 E20.1557
G1 X135.510 Y175.958 E20.2143
G1 X134.708 Y174.861 E20.2729
G1 X133.836 Y173.819 E20.3315
G1 X132.906 Y172.844 E20.3895
G1 X112.581 Y152.912 E21.6167
G1 X112.009 Y152.422 E21.6491
G1 X111.355 Y152.002 E21.6826
G1 X110.651 Y151.674 E21.7161
G1 X109.908 Y151.444 E21.7496
G1 X109.174 Y151.323 E21.7817
G1 X107.248 Y151.090 E21.8653
G1 X105.369 Y150.770 E21.9475
G1 X103.507 Y150.358 E22.0297
G1 X101.667 Y149.857 E22.1119
G1 X99.854 Y149.268 E22.1941
G1 X98.071 Y148.591 E22.2762
G1 X96.324 Y147.828 E22.3584
G1 X94.615 Y146.981 E22.4406
G1 X92.950 Y146.053 E22.5228
G1 X91.331 Y145.044 E22.6050
G1 X89.764 Y143.959 E22.6872
G1 X88.251 Y142.798 E22.7694
G1 X86.796 Y141.566 E22.8516
G1 X85.402 Y140.264 E22.9338
G1 X84.074 Y138.896 E23.0160
G1 X82.813 Y137.466 E23.0982
G1 X81.624 Y135.976 E23.1804
G1 X80.508 Y134.430 E23.2625
G1 X79.468 Y132.831 E23.3447
G1 X78.507 Y131.184 E23.4269
G1 X77.627 Y129.493 E23.5091
G1 X76.831 Y127.760 E23.5913
G1 X76.119 Y125.991 E23.6735
G1 X75.494 Y124.190 E23.7557
G1 X74.957 Y122.360 E23.8379
G1 X74.510 Y120.507 E23.9201
G1 X74.153 Y118.633 E24.0023
G1 X73.883 Y116.713 E24.0859
G1 X73.747 Y115.981 E24.1180
G1 X73.503 Y115.243 E24.1515
G1 X73.161 Y114.545 E24.1850
G1 X72.728 Y113.900 E24.2185
G1 X72.228 Y113.338 E24.2509
G1 X51.903 Y93.405 E25.4780
G1 X50.911 Y92.494 E25.5361
G1 X49.851 Y91.642 E25.5947
G1 X48.739 Y90.862 E25.6533
G1 X47.577 Y90.156 E25.7118
G1 X46.372 Y89.528 E25.7704
G1 X45.128 Y88.980 E25.8290
G1 X43.851 Y88.515 E25.8876
G1 X42.546 Y88.135 E25.9462
G1 X39.996 Y87.570 E26.0588
G1 X38.792 Y87.220 E26.1128
G1 X37.614 Y86.793 E26.1668
G1 X35.241 Y85.754 E26.2785
G1 X33.983 Y85.297 E26.3362
