; G-Code generated by Simplify3D(R) Version 4.0.0
; Jul 15, 2019 at 8:04:24 PM
; Settings Summary
;   processName,Process1
;   applyToModels,Stand_M_v2.1
;   profileName,bar (modified)
;   profileVersion,2019-07-15 16:42:33
;   baseProfile,Default (modified)
;   printMaterial,PLA
;   printQuality,Medium
;   printExtruders,
;   extruderName,Primary Extruder
;   extruderToolheadNumber,0
;   extruderDiameter,0.4
;   extruderAutoWidth,0
;   extruderWidth,0.4
;   extrusionMultiplier,0.9
;   extruderUseRetract,1
;   extruderRetractionDistance,1
;   extruderExtraRestartDistance,0
;   extruderRetractionZLift,0
;   extruderRetractionSpeed,1800
;   extruderUseCoasting,0
;   extruderCoastingDistance,0.2
;   extruderUseWipe,0
;   extruderWipeDistance,5
;   primaryExtruder,0
;   layerHeight,0.2
;   topSolidLayers,3
;   bottomSolidLayers,3
;   perimeterOutlines,2
;   printPerimetersInsideOut,1
;   startPointOption,2
;   startPointOriginX,0
;   startPointOriginY,0
;   sequentialIslands,0
;   spiralVaseMode,0
;   firstLayerHeightPercentage,100
;   firstLayerWidthPercentage,100
;   firstLayerUnderspeed,0.5
;   useRaft,0
;   raftExtruder,0
;   raftTopLayers,3
;   raftBaseLayers,2
;   raftOffset,3
;   raftSeparationDistance,0.14
;   raftTopInfill,100
;   aboveRaftSpeedMultiplier,0.3
;   useSkirt,0
;   skirtExtruder,0
;   skirtLayers,1
;   skirtOutlines,2
;   skirtOffset,4
;   usePrimePillar,0
;   primePillarExtruder,999
;   primePillarWidth,12
;   primePillarLocation,7
;   primePillarSpeedMultiplier,1
;   useOozeShield,0
;   oozeShieldExtruder,999
;   oozeShieldOffset,2
;   oozeShieldOutlines,1
;   oozeShieldSidewallShape,1
;   oozeShieldSidewallAngle,30
;   oozeShieldSpeedMultiplier,1
;   infillExtruder,0
;   internalInfillPattern,Rectilinear
;   externalInfillPattern,Rectilinear
;   infillPercentage,20
;   outlineOverlapPercentage,15
;   infillExtrusionWidthPercentage,100
;   minInfillLength,5
;   infillLayerInterval,1
;   internalInfillAngles,45,-45
;   overlapInternalInfillAngles,0
;   externalInfillAngles,45,-45
;   generateSupport,0
;   supportExtruder,0
;   supportInfillPercentage,30
;   supportExtraInflation,0
;   supportBaseLayers,0
;   denseSupportExtruder,0
;   denseSupportLayers,0
;   denseSupportInfillPercentage,70
;   supportLayerInterval,1
;   supportHorizontalPartOffset,0.3
;   supportUpperSeparationLayers,1
;   supportLowerSeparationLayers,1
;   supportType,0
;   supportGridSpacing,4
;   maxOverhangAngle,45
;   supportAngles,0
;   temperatureName,Primary Extruder,Hot Bed
;   temperatureNumber,0,1
;   temperatureSetpointCount,1,1
;   temperatureSetpointLayers,1,1
;   temperatureSetpointTemperatures,210,60
;   temperatureStabilizeAtStartup,1,1
;   temperatureHeatedBed,0,1
;   temperatureRelayBetweenLayers,0,0
;   temperatureRelayBetweenLoops,0,0
;   fanLayers,1,2
;   fanSpeeds,0,100
;   blipFanToFullPower,0
;   adjustSpeedForCooling,1
;   minSpeedLayerTime,15
;   minCoolingSpeedSlowdown,20
;   increaseFanForCooling,0
;   minFanLayerTime,45
;   maxCoolingFanSpeed,100
;   increaseFanForBridging,0
;   bridgingFanSpeed,100
;   use5D,1
;   relativeEdistances,0
;   allowEaxisZeroing,1
;   independentExtruderAxes,0
;   includeM10123,0
;   stickySupport,1
;   applyToolheadOffsets,0
;   gcodeXoffset,0
;   gcodeYoffset,0
;   gcodeZoffset,0
;   overrideMachineDefinition,0
;   machineTypeOverride,0
;   strokeXoverride,200
;   strokeYoverride,200
;   strokeZoverride,200
;   originOffsetXoverride,0
;   originOffsetYoverride,0
;   originOffsetZoverride,0
;   homeXdirOverride,-1
;   homeYdirOverride,-1
;   homeZdirOverride,-1
;   flipXoverride,1
;   flipYoverride,-1
;   flipZoverride,1
;   toolheadOffsets,0,0|0,0|0,0|0,0|0,0|0,0
;   overrideFirmwareConfiguration,0
;   firmwareTypeOverride,RepRap (Marlin/Repetier/Sprinter)
;   GPXconfigOverride,r2
;   baudRateOverride,115200
;   overridePrinterModels,0
;   printerModelsOverride
;   startingGcode,G28 ; home all axes,G1 X0 Y20 Z0.2 F3000 ; get ready to prime,G92 E0 ; reset extrusion distance,G1 X150 E20 F600 ; prime nozzle
;   layerChangeGcode,
;   retractionGcode,
;   toolChangeGcode,
;   endingGcode,M104 S0 ; turn off extruder,M140 S0 ; turn off bed,M84 ; disable motors
;   exportFileFormat,gcode
;   celebration,0
;   celebrationSong,Random Song
;   postProcessing,
;   defaultSpeed,4600
;   outlineUnderspeed,0.5
;   solidInfillUnderspeed,0.8
;   supportUnderspeed,0.8
;   rapidXYspeed,4800
;   rapidZspeed,1000
;   minBridgingArea,50
;   bridgingExtraInflation,0
;   bridgingExtrusionMultiplier,1
;   bridgingSpeedMultiplier,1
;   useFixedBridgingAngle,0
;   fixedBridgingAngle,0
;   applyBridgingToPerimeters,0
;   filamentDiameters,1.75|1.75|1.75|1.75|1.75|1.75
;   filamentPricesPerKg,46|46|46|46|46|46
;   filamentDensities,1.25|1.25|1.25|1.25|1.25|1.25
;   useMinPrintHeight,0
;   minPrintHeight,0
;   useMaxPrintHeight,0
;   maxPrintHeight,0
;   useDiaphragm,0
;   diaphragmLayerInterval,20
;   robustSlicing,1
;   mergeAllIntoSolid,0
;   onlyRetractWhenCrossingOutline,1
;   retractBetweenLayers,1
;   useRetractionMinTravel,0
;   retractionMinTravel,3
;   retractWhileWiping,0
;   onlyWipeOutlines,1
;   avoidCrossingOutline,0
;   maxMovementDetourFactor,3
;   toolChangeRetractionDistance,12
;   toolChangeExtraRestartDistance,-0.5
;   toolChangeRetractionSpeed,600
;   externalThinWallType,1
;   internalThinWallType,1
;   thinWallAllowedOverlapPercentage,10
;   singleExtrusionMinLength,1
;   singleExtrusionMinPrintingWidthPercentage,50
;   singleExtrusionMaxPrintingWidthPercentage,200
;   singleExtrusionEndpointExtension,0.2
;   horizontalSizeCompensation,0
G90
M82
M106 S0
M140 S60
M190 S60
M104 S210 T0
M109 S210 T0
G28 ; home all axes
G1 X0 Y20 Z0.2 F3000 ; get ready to prime
G92 E0 ; reset extrusion distance
G1 X150 E20 F600 ; prime nozzle
G92 E0
G1 E-1.0000 F1800
G1 Z0.200 F1000
; process Process1
; layer 1, Z = 0.200
T0
; tool H0.200 W0.400
; inner perimeter
G1 X44.442 Y52.944 F4800
G1 E0.0000 F540
G92 E0
G1 X44.808 Y52.646 E0.0141 F1725
G1 X45.187 Y52.367 E0.0282
G1 X45.581 Y52.108 E0.0423
G1 X45.987 Y51.869 E0.0564
G1 X46.404 Y51.651 E0.0705
G1 X46.832 Y51.454 E0.0846
G1 X47.270 Y51.279 E0.0987
G1 X47.716 Y51.127 E0.1128
G1 X48.169 Y50.997 E0.1269
G1 X48.628 Y50.891 E0.1410
G1 X49.092 Y50.807 E0.1552
G1 X49.559 Y50.748 E0.1693
G1 X50.029 Y50.712 E0.1834
G1 X50.508 Y50.700 E0.1977
G1 X53.500 Y50.700 E0.2873
G1 X53.500 Y58.562 E0.5226
G1 X53.514 Y58.919 E0.5333
G1 X53.557 Y59.285 E0.5443
G1 X53.629 Y59.647 E0.5554
G1 X53.730 Y60.002 E0.5664
G1 X53.857 Y60.349 E0.5775
G1 X54.012 Y60.684 E0.5885
G1 X54.192 Y61.006 E0.5996
G1 X54.397 Y61.313 E0.6106
G1 X54.626 Y61.603 E0.6217
G1 X54.876 Y61.874 E0.6327
G1 X55.147 Y62.124 E0.6438
G1 X55.437 Y62.353 E0.6548
G1 X55.744 Y62.558 E0.6659
G1 X56.066 Y62.738 E0.6769
G1 X56.401 Y62.893 E0.6880
G1 X56.747 Y63.020 E0.6990
G1 X57.103 Y63.121 E0.7101
G1 X57.465 Y63.193 E0.7211
G1 X57.831 Y63.236 E0.7322
G1 X58.188 Y63.250 E0.7429
G1 X82.812 Y63.250 E1.4799
G1 X83.169 Y63.236 E1.4906
G1 X83.535 Y63.193 E1.5017
G1 X83.897 Y63.121 E1.5127
G1 X84.253 Y63.020 E1.5238
G1 X84.599 Y62.893 E1.5348
G1 X84.934 Y62.738 E1.5459
G1 X85.256 Y62.558 E1.5569
G1 X85.563 Y62.353 E1.5680
G1 X85.853 Y62.124 E1.5790
G1 X86.124 Y61.874 E1.5901
G1 X86.374 Y61.603 E1.6011
G1 X86.603 Y61.313 E1.6122
G1 X86.808 Y61.006 E1.6232
G1 X86.988 Y60.684 E1.6343
G1 X87.143 Y60.349 E1.6453
G1 X87.270 Y60.002 E1.6564
G1 X87.371 Y59.647 E1.6674
G1 X87.443 Y59.285 E1.6785
G1 X87.486 Y58.919 E1.6895
G1 X87.500 Y58.562 E1.7002
G1 X87.500 Y50.700 E1.9355
G1 X90.492 Y50.700 E2.0251
G1 X90.971 Y50.712 E2.0394
G1 X91.441 Y50.748 E2.0535
G1 X91.908 Y50.807 E2.0676
G1 X92.372 Y50.891 E2.0818
G1 X92.831 Y50.997 E2.0959
G1 X93.284 Y51.127 E2.1100
G1 X93.730 Y51.279 E2.1241
G1 X94.168 Y51.454 E2.1382
G1 X94.596 Y51.651 E2.1523
G1 X95.013 Y51.869 E2.1664
G1 X95.419 Y52.108 E2.1805
G1 X95.813 Y52.367 E2.1946
G1 X96.192 Y52.646 E2.2087
G1 X96.558 Y52.944 E2.2228
G1 X96.907 Y53.260 E2.2369
G1 X97.240 Y53.593 E2.2510
G1 X97.556 Y53.942 E2.2651
G1 X97.854 Y54.308 E2.2792
G1 X98.133 Y54.687 E2.2933
G1 X98.392 Y55.081 E2.3074
G1 X98.631 Y55.487 E2.3215
G1 X98.849 Y55.904 E2.3356
G1 X99.046 Y56.333 E2.3497
G1 X99.221 Y56.770 E2.3638
G1 X99.373 Y57.216 E2.3779
G1 X99.503 Y57.669 E2.3920
G1 X99.609 Y58.128 E2.4061
G1 X99.693 Y58.592 E2.4203
G1 X99.752 Y59.059 E2.4344
G1 X99.788 Y59.529 E2.4485
G1 X99.800 Y60.008 E2.4628
G1 X99.800 Y139.992 E4.8571
G1 X99.788 Y140.471 E4.8714
G1 X99.752 Y140.941 E4.8855
G1 X99.693 Y141.408 E4.8996
G1 X99.609 Y141.872 E4.9137
G1 X99.503 Y142.331 E4.9278
G1 X99.373 Y142.784 E4.9419
G1 X99.221 Y143.230 E4.9560
G1 X99.046 Y143.667 E4.9701
G1 X98.849 Y144.096 E4.9842
G1 X98.631 Y144.513 E4.9983
G1 X98.392 Y144.919 E5.0124
G1 X98.133 Y145.313 E5.0265
G1 X97.854 Y145.692 E5.0406
G1 X97.556 Y146.058 E5.0548
G1 X97.240 Y146.407 E5.0689
G1 X96.907 Y146.740 E5.0830
G1 X96.558 Y147.056 E5.0971
G1 X96.192 Y147.354 E5.1112
G1 X95.813 Y147.633 E5.1253
G1 X95.419 Y147.892 E5.1394
G1 X95.013 Y148.131 E5.1535
G1 X94.596 Y148.349 E5.1676
G1 X94.167 Y148.546 E5.1817
G1 X93.730 Y148.721 E5.1958
G1 X93.284 Y148.873 E5.2099
G1 X92.831 Y149.003 E5.2240
G1 X92.372 Y149.109 E5.2381
G1 X91.908 Y149.193 E5.2522
G1 X91.441 Y149.252 E5.2663
G1 X90.971 Y149.288 E5.2804
G1 X90.492 Y149.300 E5.2948
G1 X50.508 Y149.300 E6.4917
G1 X50.029 Y149.288 E6.5060
G1 X49.559 Y149.252 E6.5201
G1 X49.092 Y149.193 E6.5342
G1 X48.628 Y149.109 E6.5483
G1 X48.169 Y149.003 E6.5624
G1 X47.716 Y148.873 E6.5765
G1 X47.270 Y148.721 E6.5906
G1 X46.833 Y148.546 E6.6047
G1 X46.404 Y148.349 E6.6188
G1 X45.987 Y148.131 E6.6329
G1 X45.581 Y147.892 E6.6470
G1 X45.187 Y147.633 E6.6611
G1 X44.808 Y147.354 E6.6752
G1 X44.442 Y147.056 E6.6894
G1 X44.093 Y146.740 E6.7035
G1 X43.760 Y146.407 E6.7176
G1 X43.444 Y146.058 E6.7317
G1 X43.146 Y145.692 E6.7458
G1 X42.867 Y145.313 E6.7599
G1 X42.608 Y144.919 E6.7740
G1 X42.369 Y144.513 E6.7881
G1 X42.151 Y144.096 E6.8022
G1 X41.954 Y143.667 E6.8163
G1 X41.779 Y143.230 E6.8304
G1 X41.627 Y142.784 E6.8445
G1 X41.497 Y142.331 E6.8586
G1 X41.391 Y141.872 E6.8727
G1 X41.307 Y141.408 E6.8868
G1 X41.248 Y140.941 E6.9009
G1 X41.212 Y140.471 E6.9150
G1 X41.200 Y139.992 E6.9294
G1 X41.200 Y60.008 E9.3236
G1 X41.212 Y59.529 E9.3380
G1 X41.248 Y59.059 E9.3521
G1 X41.307 Y58.592 E9.3662
G1 X41.391 Y58.128 E9.3803
G1 X41.497 Y57.669 E9.3944
G1 X41.627 Y57.216 E9.4085
G1 X41.779 Y56.770 E9.4226
G1 X41.954 Y56.333 E9.4367
G1 X42.151 Y55.904 E9.4508
G1 X42.369 Y55.487 E9.4649
G1 X42.608 Y55.081 E9.4790
G1 X42.867 Y54.687 E9.4931
G1 X43.146 Y54.307 E9.5072
G1 X43.444 Y53.942 E9.5213
G1 X43.760 Y53.593 E9.5354
G1 X44.093 Y53.260 E9.5495
G1 X44.442 Y52.944 E9.5636
; outer perimeter
G1 X44.182 Y52.640 F4800
G92 E0
G1 X44.562 Y52.330 E0.0147 F1150
G1 X44.959 Y52.039 E0.0294
G1 X45.369 Y51.768 E0.0441
G1 X45.792 Y51.519 E0.0588
G1 X46.228 Y51.291 E0.0736
G1 X46.675 Y51.086 E0.0883
G1 X47.131 Y50.904 E0.1030
G1 X47.596 Y50.745 E0.1177
G1 X48.069 Y50.610 E0.1324
G1 X48.547 Y50.499 E0.1471
G1 X49.031 Y50.412 E0.1618
G1 X49.519 Y50.350 E0.1765
G1 X50.009 Y50.313 E0.1912
G1 X50.503 Y50.300 E0.2060
G1 X90.497 Y50.300 E1.4032
G1 X90.991 Y50.313 E1.4180
G1 X91.481 Y50.350 E1.4327
G1 X91.969 Y50.412 E1.4475
G1 X92.453 Y50.499 E1.4622
G1 X92.931 Y50.610 E1.4769
G1 X93.404 Y50.745 E1.4916
G1 X93.869 Y50.904 E1.5063
G1 X94.325 Y51.086 E1.5210
G1 X94.772 Y51.291 E1.5357
G1 X95.208 Y51.519 E1.5504
G1 X95.631 Y51.768 E1.5651
G1 X96.041 Y52.039 E1.5798
G1 X96.438 Y52.330 E1.5946
G1 X96.818 Y52.640 E1.6093
G1 X97.183 Y52.970 E1.6240
G1 X97.530 Y53.317 E1.6387
G1 X97.860 Y53.682 E1.6534
G1 X98.170 Y54.062 E1.6681
G1 X98.461 Y54.459 E1.6828
G1 X98.732 Y54.869 E1.6975
G1 X98.981 Y55.293 E1.7123
G1 X99.209 Y55.728 E1.7270
G1 X99.414 Y56.175 E1.7417
G1 X99.596 Y56.631 E1.7564
G1 X99.755 Y57.096 E1.7711
G1 X99.890 Y57.569 E1.7858
G1 X100.001 Y58.047 E1.8005
G1 X100.088 Y58.531 E1.8152
G1 X100.150 Y59.019 E1.8299
G1 X100.187 Y59.509 E1.8446
G1 X100.200 Y60.003 E1.8594
G1 X100.200 Y139.997 E4.2540
G1 X100.187 Y140.491 E4.2688
G1 X100.150 Y140.981 E4.2835
G1 X100.088 Y141.469 E4.2982
G1 X100.001 Y141.953 E4.3129
G1 X99.890 Y142.431 E4.3276
G1 X99.755 Y142.904 E4.3424
G1 X99.596 Y143.369 E4.3571
G1 X99.414 Y143.825 E4.3718
G1 X99.209 Y144.272 E4.3865
G1 X98.981 Y144.707 E4.4012
G1 X98.732 Y145.131 E4.4159
G1 X98.461 Y145.541 E4.4306
G1 X98.170 Y145.937 E4.4453
G1 X97.860 Y146.318 E4.4600
G1 X97.530 Y146.683 E4.4748
G1 X97.183 Y147.030 E4.4895
G1 X96.818 Y147.360 E4.5042
G1 X96.437 Y147.670 E4.5189
G1 X96.041 Y147.961 E4.5336
G1 X95.631 Y148.232 E4.5483
G1 X95.207 Y148.481 E4.5630
G1 X94.772 Y148.709 E4.5777
G1 X94.325 Y148.914 E4.5924
G1 X93.869 Y149.096 E4.6072
G1 X93.404 Y149.255 E4.6219
G1 X92.931 Y149.390 E4.6366
G1 X92.453 Y149.501 E4.6513
G1 X91.969 Y149.588 E4.6660
G1 X91.481 Y149.650 E4.6807
G1 X90.991 Y149.687 E4.6954
G1 X90.497 Y149.700 E4.7102
G1 X50.503 Y149.700 E5.9074
G1 X50.009 Y149.687 E5.9222
G1 X49.519 Y149.650 E5.9369
G1 X49.031 Y149.588 E5.9516
G1 X48.547 Y149.501 E5.9663
G1 X48.069 Y149.390 E5.9811
G1 X47.596 Y149.255 E5.9958
G1 X47.131 Y149.096 E6.0105
G1 X46.675 Y148.914 E6.0252
G1 X46.228 Y148.709 E6.0399
G1 X45.793 Y148.481 E6.0546
G1 X45.369 Y148.232 E6.0693
G1 X44.959 Y147.961 E6.0840
G1 X44.563 Y147.670 E6.0987
G1 X44.182 Y147.360 E6.1135
G1 X43.817 Y147.030 E6.1282
G1 X43.470 Y146.683 E6.1429
G1 X43.140 Y146.318 E6.1576
G1 X42.830 Y145.937 E6.1723
G1 X42.539 Y145.541 E6.1870
G1 X42.268 Y145.131 E6.2017
G1 X42.019 Y144.708 E6.2164
G1 X41.791 Y144.272 E6.2311
G1 X41.586 Y143.825 E6.2459
G1 X41.404 Y143.369 E6.2606
G1 X41.245 Y142.904 E6.2753
G1 X41.110 Y142.431 E6.2900
G1 X40.999 Y141.953 E6.3047
G1 X40.912 Y141.469 E6.3194
G1 X40.850 Y140.981 E6.3341
G1 X40.812 Y140.491 E6.3488
G1 X40.800 Y139.997 E6.3636
G1 X40.800 Y60.003 E8.7582
G1 X40.812 Y59.509 E8.7730
G1 X40.850 Y59.019 E8.7877
G1 X40.912 Y58.531 E8.8024
G1 X40.999 Y58.047 E8.8171
G1 X41.110 Y57.569 E8.8318
G1 X41.245 Y57.096 E8.8465
G1 X41.404 Y56.631 E8.8613
G1 X41.586 Y56.175 E8.8760
G1 X41.791 Y55.728 E8.8907
G1 X42.019 Y55.292 E8.9054
G1 X42.268 Y54.869 E8.9201
G1 X42.539 Y54.459 E8.9348
G1 X42.830 Y54.063 E8.9495
G1 X43.140 Y53.682 E8.9642
G1 X43.470 Y53.317 E8.9790
G1 X43.817 Y52.970 E8.9937
G1 X44.182 Y52.640 E9.0084
G1 X53.900 Y51.195 F4800
G92 E0
G1 X53.900 Y58.554 E0.2203 F1150
G1 X53.913 Y58.887 E0.2303
G1 X53.953 Y59.223 E0.2404
G1 X54.019 Y59.554 E0.2505
G1 X54.110 Y59.879 E0.2606
G1 X54.227 Y60.196 E0.2707
G1 X54.369 Y60.502 E0.2808
G1 X54.534 Y60.797 E0.2909
G1 X54.721 Y61.077 E0.3010
G1 X54.930 Y61.343 E0.3111
G1 X55.159 Y61.591 E0.3212
G1 X55.407 Y61.820 E0.3313
G1 X55.672 Y62.029 E0.3415
G1 X55.953 Y62.216 E0.3516
G1 X56.248 Y62.381 E0.3617
G1 X56.554 Y62.523 E0.3718
G1 X56.871 Y62.640 E0.3819
G1 X57.196 Y62.731 E0.3920
G1 X57.527 Y62.797 E0.4021
G1 X57.863 Y62.837 E0.4122
G1 X58.196 Y62.850 E0.4222
G1 X82.804 Y62.850 E1.1588
G1 X83.137 Y62.837 E1.1688
G1 X83.473 Y62.797 E1.1789
G1 X83.804 Y62.731 E1.1890
G1 X84.129 Y62.640 E1.1991
G1 X84.446 Y62.523 E1.2092
G1 X84.752 Y62.381 E1.2193
G1 X85.047 Y62.216 E1.2294
G1 X85.328 Y62.029 E1.2395
G1 X85.593 Y61.820 E1.2497
G1 X85.841 Y61.591 E1.2598
G1 X86.070 Y61.343 E1.2699
G1 X86.279 Y61.077 E1.2800
G1 X86.466 Y60.797 E1.2901
G1 X86.631 Y60.502 E1.3002
G1 X86.773 Y60.196 E1.3103
G1 X86.890 Y59.879 E1.3204
G1 X86.981 Y59.554 E1.3305
G1 X87.047 Y59.223 E1.3406
G1 X87.087 Y58.887 E1.3507
G1 X87.100 Y58.554 E1.3607
G1 X87.100 Y51.195 E1.5810
G1 X57.300 Y51.189 E2.4730
G1 X53.900 Y51.195 E2.5748
G92 E0
G1 E-1.0000 F1800
; inner perimeter
G1 X58.500 Y65.000 F4800
G1 E0.0000 F1800
G92 E0
G1 X58.500 Y71.293 E0.1884 F1725
G1 X42.641 Y71.301 E0.6631
G1 X42.536 Y71.335 E0.6664
G1 X41.700 Y71.335 E0.6914
G1 X41.700 Y74.666 E0.7911
G1 X42.533 Y74.666 E0.8161
G1 X42.581 Y74.686 E0.8176
G1 X42.767 Y74.707 E0.8232
G1 X45.800 Y74.708 E0.9140
G1 X45.800 Y122.607 E2.3478
G1 X45.813 Y123.169 E2.3646
G1 X45.851 Y123.737 E2.3817
G1 X45.915 Y124.307 E2.3988
G1 X46.057 Y125.134 E2.4240
