; G-Code generated by Simplify3D(R) Version 4.0.0
; Nov 2, 2019 at 10:02:10 AM
; Settings Summary
;   processName,Process1
;   applyToModels,StarWars_MX_Cherry_KeyCaps_-_Darth_Vader,dcs_row-5_length-1
;   profileName,Default(2) (modified)
;   profileVersion,2019-07-27 15:21:07
;   baseProfile,
;   printMaterial,PLA
;   printQuality,Medium
;   printExtruders,
;   extruderName,Primary Extruder
;   extruderToolheadNumber,0
;   extruderDiameter,0.4
;   extruderAutoWidth,1
;   extruderWidth,0.48
;   extrusionMultiplier,0.9
;   extruderUseRetract,1
;   extruderRetractionDistance,1
;   extruderExtraRestartDistance,0
;   extruderRetractionZLift,0
;   extruderRetractionSpeed,1800
;   extruderUseCoasting,0
;   extruderCoastingDistance,0.2
;   extruderUseWipe,0
;   extruderWipeDistance,5
;   primaryExtruder,0
;   layerHeight,0.1
;   topSolidLayers,3
;   bottomSolidLayers,2
;   perimeterOutlines,2
;   printPerimetersInsideOut,1
;   startPointOption,2
;   startPointOriginX,0
;   startPointOriginY,0
;   sequentialIslands,0
;   spiralVaseMode,0
;   firstLayerHeightPercentage,90
;   firstLayerWidthPercentage,100
;   firstLayerUnderspeed,0.5
;   useRaft,0
;   raftExtruder,0
;   raftTopLayers,3
;   raftBaseLayers,2
;   raftOffset,3
;   raftSeparationDistance,0.14
;   raftTopInfill,100
;   aboveRaftSpeedMultiplier,0.3
;   useSkirt,0
;   skirtExtruder,0
;   skirtLayers,1
;   skirtOutlines,2
;   skirtOffset,4
;   usePrimePillar,0
;   primePillarExtruder,999
;   primePillarWidth,12
;   primePillarLocation,7
;   primePillarSpeedMultiplier,1
;   useOozeShield,0
;   oozeShieldExtruder,999
;   oozeShieldOffset,2
;   oozeShieldOutlines,1
;   oozeShieldSidewallShape,1
;   oozeShieldSidewallAngle,30
;   oozeShieldSpeedMultiplier,1
;   infillExtruder,0
;   internalInfillPattern,Rectilinear
;   externalInfillPattern,Rectilinear
;   infillPercentage,50
;   outlineOverlapPercentage,15
;   infillExtrusionWidthPercentage,100
;   minInfillLength,5
;   infillLayerInterval,1
;   internalInfillAngles,45,-45
;   overlapInternalInfillAngles,0
;   externalInfillAngles,45,-45
;   generateSupport,1
;   supportExtruder,0
;   supportInfillPercentage,30
;   supportExtraInflation,0
;   supportBaseLayers,0
;   denseSupportExtruder,0
;   denseSupportLayers,0
;   denseSupportInfillPercentage,70
;   supportLayerInterval,1
;   supportHorizontalPartOffset,0.4
;   supportUpperSeparationLayers,1
;   supportLowerSeparationLayers,1
;   supportType,0
;   supportGridSpacing,4
;   maxOverhangAngle,45
;   supportAngles,0
;   temperatureName,Primary Extruder,Hot Bed
;   temperatureNumber,0,1
;   temperatureSetpointCount,1,1
;   temperatureSetpointLayers,1,1
;   temperatureSetpointTemperatures,210,0
;   temperatureStabilizeAtStartup,1,0
;   temperatureHeatedBed,0,1
;   temperatureRelayBetweenLayers,0,0
;   temperatureRelayBetweenLoops,0,0
;   fanLayers,1,2
;   fanSpeeds,0,100
;   blipFanToFullPower,0
;   adjustSpeedForCooling,1
;   minSpeedLayerTime,15
;   minCoolingSpeedSlowdown,20
;   increaseFanForCooling,0
;   minFanLayerTime,45
;   maxCoolingFanSpeed,100
;   increaseFanForBridging,0
;   bridgingFanSpeed,100
;   use5D,1
;   relativeEdistances,0
;   allowEaxisZeroing,1
;   independentExtruderAxes,0
;   includeM10123,0
;   stickySupport,1
;   applyToolheadOffsets,0
;   gcodeXoffset,-9
;   gcodeYoffset,-4
;   gcodeZoffset,0
;   overrideMachineDefinition,0
;   machineTypeOverride,0
;   strokeXoverride,200
;   strokeYoverride,200
;   strokeZoverride,200
;   originOffsetXoverride,0
;   originOffsetYoverride,0
;   originOffsetZoverride,0
;   homeXdirOverride,-1
;   homeYdirOverride,-1
;   homeZdirOverride,-1
;   flipXoverride,1
;   flipYoverride,-1
;   flipZoverride,1
;   toolheadOffsets,0,0|0,0|0,0|0,0|0,0|0,0
;   overrideFirmwareConfiguration,0
;   firmwareTypeOverride,RepRap (Marlin/Repetier/Sprinter)
;   GPXconfigOverride,r2
;   baudRateOverride,115200
;   overridePrinterModels,0
;   printerModelsOverride
;   startingGcode,G28 ; home all axes,G1 X2 Y15 Z0.2 F3000 ; get ready to prime,G92 E0 ; reset extrusion distance,G1 Y150 E20 F600 ; prime nozzle
;   layerChangeGcode,
;   retractionGcode,
;   toolChangeGcode,
;   endingGcode,M104 S0 ; turn off extruder,M140 S0 ; turn off bed,G28 X Y ; home X & Y,M84 ; disable motors,M107; Fan off
;   exportFileFormat,gcode
;   celebration,0
;   celebrationSong,Random Song
;   postProcessing,
;   defaultSpeed,2000
;   outlineUnderspeed,0.5
;   solidInfillUnderspeed,0.8
;   supportUnderspeed,0.8
;   rapidXYspeed,4800
;   rapidZspeed,1000
;   minBridgingArea,50
;   bridgingExtraInflation,0
;   bridgingExtrusionMultiplier,1
;   bridgingSpeedMultiplier,1
;   useFixedBridgingAngle,0
;   fixedBridgingAngle,0
;   applyBridgingToPerimeters,0
;   filamentDiameters,1.75|1.75|1.75|1.75|1.75|1.75
;   filamentPricesPerKg,46|46|46|46|46|46
;   filamentDensities,1.25|1.25|1.25|1.25|1.25|1.25
;   useMinPrintHeight,0
;   minPrintHeight,46.5
;   useMaxPrintHeight,0
;   maxPrintHeight,46.3
;   useDiaphragm,0
;   diaphragmLayerInterval,20
;   robustSlicing,1
;   mergeAllIntoSolid,0
;   onlyRetractWhenCrossingOutline,1
;   retractBetweenLayers,1
;   useRetractionMinTravel,0
;   retractionMinTravel,3
;   retractWhileWiping,0
;   onlyWipeOutlines,1
;   avoidCrossingOutline,0
;   maxMovementDetourFactor,3
;   toolChangeRetractionDistance,12
;   toolChangeExtraRestartDistance,-0.5
;   toolChangeRetractionSpeed,600
;   externalThinWallType,1
;   internalThinWallType,2
;   thinWallAllowedOverlapPercentage,10
;   singleExtrusionMinLength,1
;   singleExtrusionMinPrintingWidthPercentage,50
;   singleExtrusionMaxPrintingWidthPercentage,200
;   singleExtrusionEndpointExtension,0.2
;   horizontalSizeCompensation,0
G90
M82
M106 S0
M140 S0
M104 S210 T0
M109 S210 T0
G28 ; home all axes
G1 X2 Y15 Z0.2 F3000 ; get ready to prime
G92 E0 ; reset extrusion distance
G1 Y150 E20 F600 ; prime nozzle
G92 E0
G1 E-1.0000 F1800
G1 Z0.090 F1000
; process Process1
; layer 1, Z = 0.090
T0
; tool H0.100 W0.480
; inner perimeter
G1 X104.248 Y104.289 F4800
G1 E0.0000 F540
G92 E0
G1 X104.312 Y104.243 E0.0014 F750
G1 X104.488 Y104.215 E0.0046
G1 X104.964 Y104.215 E0.0132
G1 X105.061 Y104.513 E0.0188
G1 X104.781 Y104.716 E0.0250
G1 X104.428 Y105.109 E0.0345
G1 X104.151 Y105.002 E0.0398
G1 X104.151 Y104.570 E0.0476
G1 X104.164 Y104.433 E0.0501
G1 X104.180 Y104.382 E0.0510
G1 X104.209 Y104.333 E0.0521
G1 X104.248 Y104.289 E0.0531
G1 X119.955 Y104.492 F4800
G92 E0
G1 X120.062 Y104.214 E0.0053 F750
G1 X120.510 Y104.214 E0.0134
G1 X120.629 Y104.226 E0.0155
G1 X120.680 Y104.242 E0.0165
G1 X120.730 Y104.271 E0.0175
G1 X120.773 Y104.310 E0.0186
G1 X120.818 Y104.372 E0.0199
G1 X120.849 Y104.588 E0.0239
G1 X120.849 Y105.028 E0.0318
G1 X120.550 Y105.125 E0.0374
G1 X120.347 Y104.845 E0.0436
G1 X119.955 Y104.492 E0.0531
G92 E0
G1 E-1.0000 F1800
G1 X120.572 Y120.028 F4800
G1 E0.0000 F1800
G92 E0
G1 X120.849 Y120.135 E0.0053 F750
G1 X120.849 Y120.600 E0.0137
G1 X120.839 Y120.695 E0.0154
G1 X120.821 Y120.750 E0.0164
G1 X120.792 Y120.800 E0.0175
G1 X120.754 Y120.843 E0.0185
G1 X120.689 Y120.890 E0.0199
G1 X120.513 Y120.918 E0.0232
G1 X120.041 Y120.918 E0.0316
G1 X119.944 Y120.619 E0.0373
G1 X120.219 Y120.420 E0.0434
G1 X120.572 Y120.028 E0.0528
G92 E0
G1 E-1.0000 F1800
G1 X105.040 Y120.641 F4800
G1 E0.0000 F1800
G92 E0
G1 X104.934 Y120.918 E0.0053 F750
G1 X104.486 Y120.918 E0.0134
G1 X104.370 Y120.907 E0.0155
G1 X104.319 Y120.890 E0.0164
G1 X104.269 Y120.861 E0.0175
G1 X104.226 Y120.823 E0.0185
G1 X104.179 Y120.758 E0.0199
G1 X104.151 Y120.582 E0.0231
G1 X104.151 Y120.109 E0.0316
G1 X104.450 Y120.012 E0.0373
G1 X104.652 Y120.291 E0.0435
G1 X105.040 Y120.641 E0.0528
; outer perimeter
G1 X104.463 Y121.398 F4800
G92 E0
G1 X104.272 Y121.380 E0.0034 F500
G1 X104.123 Y121.331 E0.0063
G1 X103.985 Y121.252 E0.0091
G1 X103.867 Y121.146 E0.0120
G1 X103.774 Y121.018 E0.0148
G1 X103.712 Y120.879 E0.0175
G1 X103.671 Y120.620 E0.0222
G1 X103.671 Y104.548 E0.3109
G1 X103.690 Y104.336 E0.3147
G1 X103.739 Y104.186 E0.3176
G1 X103.818 Y104.049 E0.3204
G1 X103.925 Y103.931 E0.3233
G1 X104.052 Y103.838 E0.3261
G1 X104.191 Y103.776 E0.3288
G1 X104.450 Y103.735 E0.3335
G1 X120.532 Y103.734 E0.6224
G1 X120.727 Y103.753 E0.6259
G1 X120.876 Y103.801 E0.6287
G1 X121.014 Y103.881 E0.6316
G1 X121.132 Y103.987 E0.6344
G1 X121.225 Y104.115 E0.6373
G1 X121.286 Y104.252 E0.6400
G1 X121.329 Y104.554 E0.6454
G1 X121.329 Y120.625 E0.9341
G1 X121.311 Y120.796 E0.9372
G1 X121.262 Y120.947 E0.9400
G1 X121.183 Y121.084 E0.9429
G1 X121.077 Y121.202 E0.9457
G1 X120.949 Y121.295 E0.9485
G1 X120.809 Y121.357 E0.9513
G1 X120.550 Y121.398 E0.9560
G1 X104.463 Y121.398 E1.2449
G1 X105.203 Y120.142 F4800
G92 E0
G1 X105.428 Y120.272 E0.0047 F500
G1 X105.675 Y120.352 E0.0093
G1 X105.920 Y120.378 E0.0138
G1 X110.240 Y120.378 E0.0913
G1 X110.240 Y114.812 E0.1913
G1 X109.891 Y114.702 E0.1979
G1 X109.754 Y114.623 E0.2007
G1 X109.636 Y114.517 E0.2036
G1 X109.544 Y114.390 E0.2064
G1 X109.482 Y114.251 E0.2091
G1 X109.409 Y113.796 E0.2174
G1 X111.213 Y113.796 E0.2498
G1 X111.213 Y114.769 E0.2673
G1 X110.760 Y114.769 E0.2754
G1 X110.760 Y120.378 E0.3761
G1 X114.240 Y120.378 E0.4386
G1 X114.240 Y114.769 E0.5394
G1 X113.787 Y114.769 E0.5475
G1 X113.787 Y113.796 E0.5650
G1 X115.581 Y113.796 E0.5972
G1 X115.542 Y114.165 E0.6039
G1 X115.494 Y114.316 E0.6067
G1 X115.415 Y114.453 E0.6096
G1 X115.309 Y114.571 E0.6124
G1 X115.179 Y114.666 E0.6153
G1 X115.040 Y114.728 E0.6180
G1 X114.760 Y114.772 E0.6231
G1 X114.760 Y120.378 E0.7238
G1 X119.086 Y120.378 E0.8015
G1 X119.443 Y120.321 E0.8080
G1 X119.686 Y120.213 E0.8128
G1 X119.896 Y120.061 E0.8174
G1 X120.070 Y119.868 E0.8221
G1 X120.200 Y119.644 E0.8267
G1 X120.281 Y119.397 E0.8314
G1 X120.307 Y119.151 E0.8358
G1 X120.307 Y112.819 E0.9496
G1 X115.277 Y112.819 E1.0399
G1 X115.277 Y112.299 E1.0493
G1 X120.307 Y112.299 E1.1396
G1 X120.306 Y105.991 E1.2529
G1 X120.249 Y105.622 E1.2596
G1 X120.141 Y105.378 E1.2644
G1 X119.988 Y105.168 E1.2690
G1 X119.796 Y104.995 E1.2737
G1 X119.572 Y104.864 E1.2784
G1 X119.325 Y104.784 E1.2830
G1 X119.078 Y104.758 E1.2875
G1 X114.760 Y104.758 E1.3650
G1 X114.760 Y110.306 E1.4647
G1 X115.109 Y110.416 E1.4713
G1 X115.246 Y110.495 E1.4741
G1 X115.364 Y110.601 E1.4769
G1 X115.456 Y110.728 E1.4797
G1 X115.518 Y110.867 E1.4825
G1 X115.591 Y111.322 E1.4908
G1 X113.787 Y111.322 E1.5232
G1 X113.787 Y110.349 E1.5406
G1 X114.240 Y110.349 E1.5488
G1 X114.240 Y104.758 E1.6492
G1 X110.760 Y104.758 E1.7117
G1 X110.760 Y110.349 E1.8121
G1 X111.213 Y110.349 E1.8203
G1 X111.213 Y111.322 E1.8377
G1 X109.419 Y111.322 E1.8700
G1 X109.458 Y110.953 E1.8766
G1 X109.506 Y110.802 E1.8795
G1 X109.585 Y110.665 E1.8823
G1 X109.691 Y110.547 E1.8852
G1 X109.821 Y110.452 E1.8880
G1 X109.960 Y110.390 E1.8908
G1 X110.240 Y110.346 E1.8959
G1 X110.240 Y104.758 E1.9962
G1 X105.918 Y104.758 E2.0739
G1 X105.557 Y104.814 E2.0804
G1 X105.314 Y104.923 E2.0852
G1 X105.104 Y105.075 E2.0899
G1 X104.931 Y105.268 E2.0945
G1 X104.801 Y105.492 E2.0992
G1 X104.721 Y105.739 E2.1038
G1 X104.695 Y105.984 E2.1083
G1 X104.693 Y112.299 E2.2217
G1 X109.723 Y112.299 E2.3120
G1 X109.723 Y112.819 E2.3214
G1 X104.693 Y112.819 E2.4117
G1 X104.694 Y119.158 E2.5255
G1 X104.750 Y119.515 E2.5320
G1 X104.858 Y119.758 E2.5368
G1 X105.011 Y119.968 E2.5415
G1 X105.203 Y120.142 E2.5461
; gap fill
G1 X106.011 Y120.985 F4800
G92 E0
G1 X105.807 Y120.781 E0.0052 F800
G1 X105.899 Y120.791 E0.0069
G1 X106.495 Y120.791 E0.0176
G1 X106.690 Y120.985 E0.0225
G1 X107.369 Y120.985 E0.0347
G1 X107.174 Y120.791 E0.0396
G1 X107.853 Y120.791 E0.0518
G1 X108.048 Y120.985 E0.0568
G1 X108.726 Y120.985 E0.0690
G1 X108.532 Y120.791 E0.0739
G1 X109.211 Y120.791 E0.0861
G1 X109.405 Y120.985 E0.0910
G1 X110.084 Y120.985 E0.1032
G1 X109.889 Y120.791 E0.1082
G1 X110.347 Y120.791 E0.1164
G1 X110.568 Y120.791 E0.1204
G1 X110.763 Y120.985 E0.1253
G1 X111.442 Y120.985 E0.1375
G1 X111.247 Y120.791 E0.1425
G1 X111.926 Y120.791 E0.1546
G1 X112.120 Y120.985 E0.1596
G1 X112.799 Y120.985 E0.1718
G1 X112.605 Y120.791 E0.1767
G1 X113.283 Y120.791 E0.1889
G1 X113.478 Y120.985 E0.1939
G1 X114.157 Y120.985 E0.2060
G1 X113.962 Y120.791 E0.2110
G1 X114.641 Y120.791 E0.2232
G1 X114.836 Y120.985 E0.2281
G1 X115.515 Y120.985 E0.2403
G1 X115.320 Y120.791 E0.2453
G1 X115.999 Y120.791 E0.2575
G1 X116.193 Y120.985 E0.2624
G1 X116.872 Y120.985 E0.2746
G1 X116.678 Y120.791 E0.2795
G1 X117.356 Y120.791 E0.2917
G1 X117.551 Y120.985 E0.2967
G1 X118.230 Y120.985 E0.3089
G1 X118.035 Y120.791 E0.3138
G1 X118.714 Y120.791 E0.3260
G1 X118.909 Y120.985 E0.3309
G1 X119.587 Y120.985 E0.3431
G1 X119.355 Y120.753 E0.3490
G1 X120.916 Y119.599 F4800
G92 E0
G1 X120.697 Y119.380 E0.0056 F800
G1 X120.719 Y119.173 E0.0093
G1 X120.719 Y118.723 E0.0174
G1 X120.916 Y118.920 E0.0224
G1 X120.916 Y118.241 E0.0346
G1 X120.719 Y118.044 E0.0396
G1 X120.719 Y117.365 E0.0518
G1 X120.916 Y117.562 E0.0568
G1 X120.916 Y116.883 E0.0690
G1 X120.719 Y116.686 E0.0740
G1 X120.719 Y116.008 E0.0862
G1 X120.916 Y116.205 E0.0912
G1 X120.916 Y115.526 E0.1034
G1 X120.719 Y115.329 E0.1084
G1 X120.719 Y114.650 E0.1205
G1 X120.916 Y114.847 E0.1255
G1 X120.916 Y114.168 E0.1377
G1 X120.719 Y113.971 E0.1427
G1 X120.719 Y113.292 E0.1549
G1 X120.916 Y113.489 E0.1599
G1 X120.916 Y112.810 E0.1721
G1 X120.719 Y112.614 E0.1771
G1 X120.719 Y111.935 E0.1893
G1 X120.916 Y112.132 E0.1943
G1 X120.916 Y111.453 E0.2065
G1 X120.719 Y111.256 E0.2115
G1 X120.719 Y110.577 E0.2237
G1 X120.916 Y110.774 E0.2287
G1 X120.916 Y110.095 E0.2409
G1 X120.719 Y109.898 E0.2459
G1 X120.719 Y109.219 E0.2581
G1 X120.916 Y109.416 E0.2631
G1 X120.916 Y108.737 E0.2753
G1 X120.719 Y108.540 E0.2803
G1 X120.719 Y107.861 E0.2925
G1 X120.916 Y108.059 E0.2975
G1 X120.916 Y107.380 E0.3097
G1 X120.719 Y107.182 E0.3148
G1 X120.719 Y106.503 E0.3269
G1 X120.916 Y106.701 E0.3320
G1 X120.916 Y106.022 E0.3442
G1 X120.694 Y105.800 E0.3498
G1 X119.041 Y104.147 F4800
G92 E0
G1 X119.256 Y104.361 E0.0054 F800
G1 X119.099 Y104.345 E0.0083
G1 X118.560 Y104.345 E0.0179
G1 X118.363 Y104.147 E0.0230
G1 X117.684 Y104.147 E0.0352
G1 X117.881 Y104.345 E0.0402
G1 X117.203 Y104.345 E0.0524
G1 X117.005 Y104.147 E0.0574
G1 X116.326 Y104.147 E0.0696
G1 X116.524 Y104.345 E0.0746
G1 X115.845 Y104.345 E0.0868
G1 X115.647 Y104.147 E0.0918
G1 X114.969 Y104.147 E0.1040
G1 X115.166 Y104.345 E0.1090
G1 X114.487 Y104.345 E0.1212
G1 X114.290 Y104.147 E0.1262
G1 X113.611 Y104.147 E0.1384
G1 X113.808 Y104.345 E0.1434
G1 X113.130 Y104.345 E0.1556
G1 X112.932 Y104.147 E0.1606
G1 X112.253 Y104.147 E0.1728
G1 X112.451 Y104.345 E0.1778
G1 X111.772 Y104.345 E0.1900
G1 X111.574 Y104.147 E0.1951
G1 X110.896 Y104.147 E0.2072
G1 X111.093 Y104.345 E0.2123
G1 X110.414 Y104.345 E0.2245
G1 X110.217 Y104.147 E0.2295
G1 X109.538 Y104.147 E0.2417
G1 X109.735 Y104.345 E0.2467
G1 X109.057 Y104.345 E0.2589
G1 X108.859 Y104.147 E0.2639
G1 X108.180 Y104.147 E0.2761
G1 X108.378 Y104.345 E0.2811
G1 X107.699 Y104.345 E0.2933
G1 X107.502 Y104.147 E0.2983
G1 X106.823 Y104.147 E0.3105
G1 X107.020 Y104.345 E0.3155
G1 X106.341 Y104.345 E0.3277
G1 X106.144 Y104.147 E0.3327
G1 X105.465 Y104.147 E0.3449
G1 X105.693 Y104.375 E0.3507
G1 X104.084 Y105.481 F4800
G92 E0
G1 X104.309 Y105.707 E0.0057 F800
G1 X104.282 Y105.963 E0.0103
G1 X104.282 Y106.358 E0.0175
G1 X104.084 Y106.160 E0.0225
G1 X104.084 Y106.839 E0.0347
G1 X104.282 Y107.037 E0.0397
G1 X104.282 Y107.716 E0.0519
G1 X104.084 Y107.518 E0.0569
G1 X104.084 Y108.197 E0.0691
G1 X104.281 Y108.394 E0.0741
G1 X104.281 Y109.073 E0.0863
G1 X104.084 Y108.875 E0.0913
G1 X104.084 Y109.554 E0.1035
G1 X104.281 Y109.752 E0.1085
G1 X104.281 Y110.430 E0.1207
G1 X104.084 Y110.233 E0.1257
G1 X104.084 Y110.912 E0.1379
G1 X104.281 Y111.109 E0.1429
G1 X104.281 Y111.788 E0.1551
G1 X104.084 Y111.591 E0.1601
G1 X104.084 Y112.270 E0.1723
G1 X104.281 Y112.466 E0.1773
G1 X104.280 Y112.712 E0.1817
G1 X104.281 Y113.145 E0.1895
G1 X104.084 Y112.948 E0.1945
G1 X104.084 Y113.627 E0.2067
G1 X104.281 Y113.824 E0.2117
G1 X104.281 Y114.503 E0.2239
G1 X104.084 Y114.306 E0.2289
G1 X104.084 Y114.985 E0.2411
G1 X104.281 Y115.182 E0.2461
