; G-Code generated by Simplify3D(R) Version 4.0.0
; Sep 24, 2020 at 12:58:11 AM
; Settings Summary
;   processName,Process2
;   applyToModels,Stopper_holderV1
;   profileName,bar (modified)
;   profileVersion,2020-09-07 14:20:51
;   baseProfile,Default (modified)
;   printMaterial,PLA
;   printQuality,Medium
;   printExtruders,
;   extruderName,Primary Extruder
;   extruderToolheadNumber,0
;   extruderDiameter,0.4
;   extruderAutoWidth,0
;   extruderWidth,0.4
;   extrusionMultiplier,0.9
;   extruderUseRetract,1
;   extruderRetractionDistance,1
;   extruderExtraRestartDistance,0
;   extruderRetractionZLift,0
;   extruderRetractionSpeed,1800
;   extruderUseCoasting,0
;   extruderCoastingDistance,0.2
;   extruderUseWipe,0
;   extruderWipeDistance,5
;   primaryExtruder,0
;   layerHeight,0.3
;   topSolidLayers,3
;   bottomSolidLayers,3
;   perimeterOutlines,2
;   printPerimetersInsideOut,1
;   startPointOption,2
;   startPointOriginX,0
;   startPointOriginY,0
;   sequentialIslands,0
;   spiralVaseMode,0
;   firstLayerHeightPercentage,100
;   firstLayerWidthPercentage,100
;   firstLayerUnderspeed,0.5
;   useRaft,0
;   raftExtruder,0
;   raftTopLayers,3
;   raftBaseLayers,2
;   raftOffset,3
;   raftSeparationDistance,0.14
;   raftTopInfill,100
;   aboveRaftSpeedMultiplier,0.3
;   useSkirt,0
;   skirtExtruder,0
;   skirtLayers,1
;   skirtOutlines,2
;   skirtOffset,4
;   usePrimePillar,0
;   primePillarExtruder,999
;   primePillarWidth,12
;   primePillarLocation,7
;   primePillarSpeedMultiplier,1
;   useOozeShield,0
;   oozeShieldExtruder,999
;   oozeShieldOffset,2
;   oozeShieldOutlines,1
;   oozeShieldSidewallShape,1
;   oozeShieldSidewallAngle,30
;   oozeShieldSpeedMultiplier,1
;   infillExtruder,0
;   internalInfillPattern,Rectilinear
;   externalInfillPattern,Rectilinear
;   infillPercentage,35
;   outlineOverlapPercentage,15
;   infillExtrusionWidthPercentage,100
;   minInfillLength,5
;   infillLayerInterval,1
;   internalInfillAngles,45,-45
;   overlapInternalInfillAngles,0
;   externalInfillAngles,45,-45
;   generateSupport,0
;   supportExtruder,0
;   supportInfillPercentage,30
;   supportExtraInflation,0
;   supportBaseLayers,0
;   denseSupportExtruder,0
;   denseSupportLayers,0
;   denseSupportInfillPercentage,70
;   supportLayerInterval,1
;   supportHorizontalPartOffset,0.3
;   supportUpperSeparationLayers,1
;   supportLowerSeparationLayers,1
;   supportType,1
;   supportGridSpacing,4
;   maxOverhangAngle,45
;   supportAngles,0
;   temperatureName,Primary Extruder,Hot Bed
;   temperatureNumber,0,1
;   temperatureSetpointCount,1,1
;   temperatureSetpointLayers,1,1
;   temperatureSetpointTemperatures,210,60
;   temperatureStabilizeAtStartup,1,0
;   temperatureHeatedBed,0,1
;   temperatureRelayBetweenLayers,0,0
;   temperatureRelayBetweenLoops,0,0
;   fanLayers,1,2
;   fanSpeeds,0,100
;   blipFanToFullPower,0
;   adjustSpeedForCooling,1
;   minSpeedLayerTime,15
;   minCoolingSpeedSlowdown,20
;   increaseFanForCooling,0
;   minFanLayerTime,45
;   maxCoolingFanSpeed,100
;   increaseFanForBridging,0
;   bridgingFanSpeed,100
;   use5D,1
;   relativeEdistances,0
;   allowEaxisZeroing,1
;   independentExtruderAxes,0
;   includeM10123,0
;   stickySupport,1
;   applyToolheadOffsets,0
;   gcodeXoffset,0
;   gcodeYoffset,0
;   gcodeZoffset,0
;   overrideMachineDefinition,0
;   machineTypeOverride,0
;   strokeXoverride,200
;   strokeYoverride,200
;   strokeZoverride,200
;   originOffsetXoverride,0
;   originOffsetYoverride,0
;   originOffsetZoverride,0
;   homeXdirOverride,-1
;   homeYdirOverride,-1
;   homeZdirOverride,-1
;   flipXoverride,1
;   flipYoverride,-1
;   flipZoverride,1
;   toolheadOffsets,0,0|0,0|0,0|0,0|0,0|0,0
;   overrideFirmwareConfiguration,0
;   firmwareTypeOverride,RepRap (Marlin/Repetier/Sprinter)
;   GPXconfigOverride,r2
;   baudRateOverride,115200
;   overridePrinterModels,0
;   printerModelsOverride
;   startingGcode,G28 ; home all axes,G1 X0 Y5 Z0.2 F3000 ; get ready to prime,G92 E0 ; reset extrusion distance,G1 Y150 E20 F600 ; prime nozzle
;   layerChangeGcode,
;   retractionGcode,
;   toolChangeGcode,
;   endingGcode,M104 S0 ; turn off extruder,M140 S0 ; turn off bed,M84 ; disable motors,G1 X0 Y0; home,M107 ; fan off
;   exportFileFormat,gcode
;   celebration,0
;   celebrationSong,Random Song
;   postProcessing,
;   defaultSpeed,4600
;   outlineUnderspeed,0.5
;   solidInfillUnderspeed,0.8
;   supportUnderspeed,0.8
;   rapidXYspeed,4800
;   rapidZspeed,1000
;   minBridgingArea,50
;   bridgingExtraInflation,0
;   bridgingExtrusionMultiplier,1
;   bridgingSpeedMultiplier,1
;   useFixedBridgingAngle,0
;   fixedBridgingAngle,0
;   applyBridgingToPerimeters,0
;   filamentDiameters,1.75|1.75|1.75|1.75|1.75|1.75
;   filamentPricesPerKg,46|46|46|46|46|46
;   filamentDensities,1.25|1.25|1.25|1.25|1.25|1.25
;   useMinPrintHeight,0
;   minPrintHeight,0
;   useMaxPrintHeight,0
;   maxPrintHeight,0
;   useDiaphragm,0
;   diaphragmLayerInterval,20
;   robustSlicing,1
;   mergeAllIntoSolid,0
;   onlyRetractWhenCrossingOutline,1
;   retractBetweenLayers,1
;   useRetractionMinTravel,0
;   retractionMinTravel,3
;   retractWhileWiping,0
;   onlyWipeOutlines,1
;   avoidCrossingOutline,0
;   maxMovementDetourFactor,3
;   toolChangeRetractionDistance,12
;   toolChangeExtraRestartDistance,-0.5
;   toolChangeRetractionSpeed,600
;   externalThinWallType,1
;   internalThinWallType,1
;   thinWallAllowedOverlapPercentage,10
;   singleExtrusionMinLength,1
;   singleExtrusionMinPrintingWidthPercentage,50
;   singleExtrusionMaxPrintingWidthPercentage,200
;   singleExtrusionEndpointExtension,0.2
;   horizontalSizeCompensation,0
G90
M82
M106 S0
M140 S60
M104 S210 T0
M109 S210 T0
G28 ; home all axes
G1 X0 Y5 Z0.2 F3000 ; get ready to prime
G92 E0 ; reset extrusion distance
G1 Y150 E20 F600 ; prime nozzle
G92 E0
G1 E-1.0000 F1800
G1 Z0.300 F1000
; process Process2
; layer 1, Z = 0.300
T0
; tool H0.300 W0.400
; inner perimeter
G1 X100.568 Y83.480 F4800
G1 E0.0000 F540
G92 E0
G1 X101.716 Y82.719 E0.0619 F1725
G1 X103.012 Y82.481 E0.1210
G1 X114.903 Y82.481 E0.6549
G1 X116.201 Y82.720 E0.7142
G1 X117.363 Y83.480 E0.7765
G1 X118.110 Y84.629 E0.8381
G1 X118.364 Y85.928 E0.8975
G1 X118.364 Y91.879 E1.1647
G1 X118.448 Y91.879 E1.1685
G1 X118.448 Y91.912 E1.1700
G1 X120.730 Y91.912 E1.2724
G1 X120.730 Y117.553 E2.4237
G1 X120.663 Y117.553 E2.4267
G1 X120.662 Y123.519 E2.6946
G1 X116.454 Y123.519 E2.8836
G1 X116.454 Y117.924 E3.1348
G1 X101.462 Y117.924 E3.8080
G1 X101.462 Y123.519 E4.0592
G1 X97.270 Y123.519 E4.2474
G1 X97.270 Y91.963 E5.6643
G1 X97.315 Y91.963 E5.6663
G1 X97.316 Y91.912 E5.6686
G1 X99.569 Y91.912 E5.7697
G1 X99.569 Y85.925 E6.0386
G1 X99.807 Y84.629 E6.0977
G1 X100.568 Y83.480 E6.1596
; outer perimeter
G1 X100.279 Y83.192 F4800
G92 E0
G1 X101.563 Y82.341 E0.0692 F1150
G1 X102.976 Y82.081 E0.1336
G1 X114.940 Y82.081 E0.6708
G1 X116.353 Y82.341 E0.7353
G1 X117.653 Y83.192 E0.8051
G1 X118.487 Y84.476 E0.8739
G1 X118.764 Y85.889 E0.9385
G1 X118.764 Y91.479 E1.1895
G1 X118.848 Y91.479 E1.1933
G1 X118.848 Y91.512 E1.1948
G1 X121.130 Y91.512 E1.2973
G1 X121.130 Y117.953 E2.4845
G1 X121.063 Y117.953 E2.4875
G1 X121.062 Y123.919 E2.7554
G1 X116.054 Y123.919 E2.9803
G1 X116.054 Y118.324 E3.2315
G1 X101.862 Y118.324 E3.8687
G1 X101.862 Y123.919 E4.1199
G1 X96.870 Y123.919 E4.3440
G1 X96.870 Y91.563 E5.7969
G1 X96.919 Y91.563 E5.7990
G1 X96.919 Y91.513 E5.8013
G1 X99.169 Y91.512 E5.9023
G1 X99.169 Y85.888 E6.1548
G1 X99.428 Y84.476 E6.2193
G1 X100.279 Y83.192 E6.2885
; inner perimeter
G1 X106.294 Y86.792 F4800
G92 E0
G1 X106.100 Y87.847 E0.0482 F1725
G1 X106.294 Y88.906 E0.0965
G1 X106.939 Y89.873 E0.1487
G1 X107.899 Y90.492 E0.2000
G1 X108.958 Y90.708 E0.2485
G1 X110.016 Y90.492 E0.2970
G1 X110.976 Y89.873 E0.3483
G1 X111.621 Y88.906 E0.4005
G1 X111.816 Y87.847 E0.4488
G1 X111.622 Y86.792 E0.4970
G1 X110.979 Y85.807 E0.5498
G1 X110.016 Y85.186 E0.6012
G1 X108.958 Y84.970 E0.6497
G1 X107.899 Y85.186 E0.6982
G1 X106.936 Y85.807 E0.7497
G1 X106.294 Y86.792 E0.8025
; outer perimeter
G1 X106.672 Y86.944 F4800
G92 E0
G1 X106.506 Y87.847 E0.0413 F1150
G1 X106.673 Y88.752 E0.0826
G1 X107.226 Y89.582 E0.1273
G1 X108.053 Y90.115 E0.1715
G1 X108.958 Y90.300 E0.2130
G1 X109.863 Y90.115 E0.2545
G1 X110.690 Y89.582 E0.2986
G1 X111.243 Y88.752 E0.3434
G1 X111.409 Y87.847 E0.3847
G1 X111.243 Y86.944 E0.4260
G1 X110.691 Y86.097 E0.4714
G1 X109.863 Y85.563 E0.5156
G1 X108.958 Y85.378 E0.5571
G1 X108.053 Y85.563 E0.5985
G1 X107.225 Y86.097 E0.6428
G1 X106.672 Y86.944 E0.6882
G92 E0
G1 E-1.0000 F1800
; inner perimeter
G1 X108.958 Y108.145 F4800
G1 E0.0000 F1800
G92 E0
G1 X107.900 Y108.339 E0.0483 F1725
G1 X106.936 Y108.982 E0.1003
G1 X106.294 Y109.945 E0.1523
G1 X106.100 Y111.003 E0.2006
G1 X106.294 Y112.061 E0.2489
G1 X106.936 Y113.024 E0.3009
G1 X107.900 Y113.667 E0.3529
G1 X108.958 Y113.861 E0.4012
G1 X110.016 Y113.667 E0.4495
G1 X110.979 Y113.024 E0.5015
G1 X111.621 Y112.061 E0.5534
G1 X111.816 Y111.003 E0.6017
G1 X111.621 Y109.945 E0.6500
G1 X110.979 Y108.982 E0.7020
G1 X110.016 Y108.339 E0.7540
G1 X108.958 Y108.145 E0.8023
; outer perimeter
G1 X108.958 Y108.552 F4800
G92 E0
G1 X108.053 Y108.718 E0.0413 F1150
G1 X107.225 Y109.270 E0.0860
G1 X106.673 Y110.098 E0.1307
G1 X106.506 Y111.003 E0.1720
G1 X106.673 Y111.908 E0.2133
G1 X107.225 Y112.736 E0.2580
G1 X108.053 Y113.288 E0.3027
G1 X108.958 Y113.454 E0.3440
G1 X109.863 Y113.288 E0.3853
G1 X110.691 Y112.736 E0.4300
G1 X111.243 Y111.908 E0.4747
G1 X111.409 Y111.003 E0.5160
G1 X111.243 Y110.098 E0.5573
G1 X110.691 Y109.270 E0.6020
G1 X109.863 Y108.718 E0.6467
G1 X108.958 Y108.552 E0.6880
G92 E0
G1 E-1.0000 F1800
; solid layer
G1 X112.090 Y110.616 F4800
G1 E0.0000 F1800
G92 E0
G1 X120.323 Y118.848 E0.5228 F1840
G1 X120.323 Y119.414 E0.5482
G1 X112.123 Y111.214 E1.0689
G1 X112.035 Y111.692 E1.0907
G1 X120.323 Y119.979 E1.6169
G1 X120.323 Y120.545 E1.6423
G1 X111.947 Y112.170 E2.1742
G1 X111.943 Y112.192 E2.1752
G1 X111.727 Y112.515 E2.1927
G1 X120.323 Y121.111 E2.7385
G1 X120.322 Y121.676 E2.7639
G1 X116.794 Y118.148 E2.9879
G1 X116.794 Y117.584 E3.0132
G1 X116.230 Y117.584 E3.0385
G1 X111.501 Y112.855 E3.3388
G1 X111.275 Y113.194 E3.3572
G1 X115.665 Y117.584 E3.6359
G1 X115.099 Y117.584 E3.6613
G1 X110.960 Y113.446 E3.9241
G1 X110.621 Y113.672 E3.9425
G1 X114.533 Y117.584 E4.1909
G1 X113.968 Y117.584 E4.2163
G1 X110.282 Y113.898 E4.4504
G1 X110.146 Y113.988 E4.4577
G1 X109.859 Y114.041 E4.4708
G1 X113.402 Y117.584 E4.6958
G1 X112.836 Y117.584 E4.7212
G1 X109.381 Y114.129 E4.9406
G1 X108.958 Y114.207 E4.9599
G1 X108.878 Y114.192 E4.9635
G1 X112.271 Y117.584 E5.1789
G1 X111.705 Y117.584 E5.2043
G1 X108.185 Y114.065 E5.4278
G1 X116.794 Y118.713 F4800
G92 E0
G1 X120.322 Y122.242 E0.2241 F1840
G1 X120.322 Y122.808 E0.2495
G1 X116.794 Y119.279 E0.4735
G1 X116.794 Y119.845 E0.4989
G1 X120.128 Y123.179 E0.7107
G1 X119.562 Y123.179 E0.7361
G1 X116.794 Y120.410 E0.9119
G1 X116.794 Y120.976 E0.9373
G1 X118.997 Y123.179 E1.0772
G1 X118.431 Y123.179 E1.1026
G1 X116.794 Y121.542 E1.2065
G1 X116.794 Y122.107 E1.2319
G1 X117.865 Y123.179 E1.3000
G1 X117.300 Y123.179 E1.3254
G1 X116.794 Y122.673 E1.3575
G92 E0
G1 E-1.0000 F1800
G1 X97.610 Y122.723 F4800
G1 E0.0000 F1800
G92 E0
G1 X98.066 Y123.179 E0.0290 F1840
G1 X98.632 Y123.179 E0.0544
G1 X97.610 Y122.157 E0.1192
G1 X97.610 Y121.591 E0.1446
G1 X99.198 Y123.179 E0.2455
G1 X99.763 Y123.179 E0.2709
G1 X97.610 Y121.026 E0.4076
G1 X97.610 Y120.460 E0.4330
G1 X100.329 Y123.179 E0.6056
G1 X100.895 Y123.179 E0.6310
G1 X97.610 Y119.894 E0.8396
G1 X97.610 Y119.329 E0.8650
G1 X101.122 Y122.840 E1.0880
G1 X101.122 Y122.275 E1.1134
G1 X97.610 Y118.763 E1.3364
G1 X97.610 Y118.197 E1.3618
G1 X101.122 Y121.709 E1.5848
G1 X101.122 Y121.143 E1.6102
G1 X97.610 Y117.632 E1.8332
G1 X97.610 Y117.066 E1.8586
G1 X101.122 Y120.578 E2.0816
G1 X101.122 Y120.012 E2.1070
G1 X97.610 Y116.500 E2.3300
G1 X97.610 Y115.935 E2.3554
G1 X101.122 Y119.446 E2.5783
G1 X101.122 Y118.881 E2.6037
G1 X97.610 Y115.369 E2.8267
G1 X97.610 Y114.803 E2.8521
G1 X101.122 Y118.315 E3.0751
G1 X101.122 Y117.749 E3.1005
G1 X97.610 Y114.237 E3.3235
G1 X97.610 Y113.672 E3.3489
G1 X101.523 Y117.584 E3.5974
G1 X102.088 Y117.584 E3.6228
G1 X97.610 Y113.106 E3.9071
G1 X97.610 Y112.540 E3.9325
G1 X102.654 Y117.584 E4.2528
G1 X103.220 Y117.584 E4.2782
G1 X97.610 Y111.975 E4.6344
G1 X97.610 Y111.409 E4.6598
G1 X103.785 Y117.584 E5.0520
G1 X104.351 Y117.584 E5.0774
G1 X97.610 Y110.843 E5.5054
G1 X97.610 Y110.278 E5.5308
G1 X104.917 Y117.584 E5.9948
G1 X105.482 Y117.584 E6.0202
G1 X97.610 Y109.712 E6.5201
G1 X97.610 Y109.146 E6.5455
G1 X106.048 Y117.584 E7.0813
G1 X106.614 Y117.584 E7.1067
G1 X97.610 Y108.581 E7.6784
G1 X97.610 Y108.015 E7.7038
G1 X107.179 Y117.584 E8.3115
G1 X107.745 Y117.584 E8.3369
G1 X97.610 Y107.449 E8.9805
G1 X97.610 Y106.884 E9.0059
G1 X108.311 Y117.584 E9.6854
G1 X108.877 Y117.584 E9.7108
G1 X97.610 Y106.318 E10.4262
G1 X97.610 Y105.752 E10.4516
G1 X109.442 Y117.584 E11.2029
G1 X110.008 Y117.584 E11.2283
G1 X97.610 Y105.187 E12.0156
G1 X97.610 Y104.621 E12.0410
G1 X110.574 Y117.584 E12.8642
G1 X111.139 Y117.584 E12.8896
G1 X107.092 Y113.537 E13.1466
G1 X106.691 Y113.270 E13.1682
G1 X106.424 Y112.869 E13.1898
G1 X97.610 Y104.055 E13.7495
G1 X97.610 Y103.489 E13.7749
G1 X105.896 Y111.775 E14.3011
G1 X105.769 Y111.082 E14.3327
G1 X97.610 Y102.924 E14.8508
G1 X97.610 Y102.358 E14.8762
G1 X105.832 Y110.580 E15.3982
G1 X105.920 Y110.102 E15.4201
G1 X97.610 Y101.792 E15.9477
G1 X97.610 Y101.227 E15.9731
G1 X106.063 Y109.679 E16.5099
G1 X106.289 Y109.340 E16.5282
G1 X97.610 Y100.661 E17.0793
G1 X97.610 Y100.095 E17.1047
G1 X106.515 Y109.000 E17.6701
G1 X106.691 Y108.736 E17.6844
G1 X106.767 Y108.686 E17.6885
G1 X97.610 Y99.530 E18.2699
G1 X97.610 Y98.964 E18.2953
G1 X107.106 Y108.460 E18.8983
G1 X107.445 Y108.234 E18.9166
G1 X97.610 Y98.398 E19.5411
G1 X97.610 Y97.833 E19.5665
G1 X107.791 Y108.014 E20.2130
G1 X108.269 Y107.926 E20.2348
G1 X97.610 Y97.267 E20.9117
G1 X97.610 Y96.701 E20.9371
G1 X108.747 Y107.838 E21.6443
G1 X108.958 Y107.799 E21.6539
G1 X109.345 Y107.870 E21.6716
G1 X97.610 Y96.136 E22.4167
G1 X97.610 Y95.570 E22.4421
G1 X110.038 Y107.998 E23.2313
G1 X110.146 Y108.018 E23.2363
G1 X111.224 Y108.736 E23.2944
G1 X111.943 Y109.815 E23.3526
G1 X111.963 Y109.923 E23.3576
G1 X120.323 Y118.283 E23.8884
G1 X120.323 Y117.717 E23.9138
G1 X97.610 Y95.004 E25.3561
G1 X97.610 Y94.438 E25.3815
G1 X120.384 Y117.213 E26.8276
G1 X120.390 Y117.213 E26.8279
G1 X120.390 Y116.653 E26.8530
G1 X97.610 Y93.873 E28.2995
G1 X97.610 Y93.307 E28.3249
G1 X120.390 Y116.087 E29.7714
G1 X120.390 Y115.521 E29.7968
G1 X97.610 Y92.741 E31.2434
G1 X97.610 Y92.303 E31.2630
G1 X97.652 Y92.303 E31.2649
G1 X97.653 Y92.252 E31.2672
G1 X97.687 Y92.252 E31.2687
G1 X120.390 Y114.956 E32.7104
G1 X120.390 Y114.390 E32.7358
G1 X98.252 Y92.252 E34.1415
G1 X98.818 Y92.252 E34.1669
G1 X120.390 Y113.824 E35.5367
G1 X120.390 Y113.259 E35.5621
G1 X99.384 Y92.252 E36.8960
G1 X99.909 Y92.252 E36.9196
G1 X99.909 Y92.212 E36.9214
G1 X120.390 Y112.693 E38.2220
G1 X120.390 Y112.127 E38.2474
G1 X99.909 Y91.646 E39.5479
G1 X99.909 Y91.080 E39.5733
G1 X120.390 Y111.561 E40.8739
G1 X120.390 Y110.996 E40.8993
G1 X99.909 Y90.515 E42.1998
G1 X99.909 Y89.949 E42.2252
G1 X120.390 Y110.430 E43.5258
G1 X120.390 Y109.864 E43.5512
G1 X99.909 Y89.383 E44.8517
G1 X99.909 Y88.818 E44.8771
G1 X120.390 Y109.299 E46.1777
G1 X120.390 Y108.733 E46.2031
G1 X99.909 Y88.252 E47.5036
G1 X99.909 Y87.686 E47.5290
G1 X120.390 Y108.167 E48.8296
G1 X120.390 Y107.602 E48.8550
G1 X99.909 Y87.120 E50.1555
G1 X99.909 Y86.555 E50.1809
G1 X120.390 Y107.036 E51.4815
G1 X120.390 Y106.470 E51.5069
G1 X99.909 Y85.989 E52.8074
G1 X99.909 Y85.956 E52.8089
G1 X99.991 Y85.506 E52.8295
G1 X120.390 Y105.905 E54.1248
G1 X120.390 Y105.339 E54.1502
G1 X100.079 Y85.028 E55.4399
G1 X100.129 Y84.758 E55.4522
G1 X100.227 Y84.610 E55.4602
G1 X120.390 Y104.773 E56.7405
G1 X120.390 Y104.208 E56.7659
G1 X100.452 Y84.270 E58.0319
G1 X100.678 Y83.930 E58.0503
G1 X106.349 Y89.601 E58.4104
