; G-Code generated by Simplify3D(R) Version 4.0.0
; Nov 19, 2020 at 10:28:36 AM
; Settings Summary
;   processName,Process1
;   applyToModels,Surgical_Mask_Strap_Remix
;   profileName,new profile (modified)
;   profileVersion,2020-09-07 14:01:24
;   baseProfile,Default (modified)
;   printMaterial,PLA
;   printQuality,Medium
;   printExtruders,
;   extruderName,Primary Extruder
;   extruderToolheadNumber,0
;   extruderDiameter,0.4
;   extruderAutoWidth,0
;   extruderWidth,0.4
;   extrusionMultiplier,0.9
;   extruderUseRetract,1
;   extruderRetractionDistance,1
;   extruderExtraRestartDistance,0
;   extruderRetractionZLift,0
;   extruderRetractionSpeed,1800
;   extruderUseCoasting,0
;   extruderCoastingDistance,0.2
;   extruderUseWipe,0
;   extruderWipeDistance,5
;   primaryExtruder,0
;   layerHeight,0.3
;   topSolidLayers,3
;   bottomSolidLayers,3
;   perimeterOutlines,2
;   printPerimetersInsideOut,1
;   startPointOption,2
;   startPointOriginX,0
;   startPointOriginY,0
;   sequentialIslands,0
;   spiralVaseMode,0
;   firstLayerHeightPercentage,90
;   firstLayerWidthPercentage,103
;   firstLayerUnderspeed,0.5
;   useRaft,0
;   raftExtruder,0
;   raftTopLayers,3
;   raftBaseLayers,2
;   raftOffset,3
;   raftSeparationDistance,0.14
;   raftTopInfill,100
;   aboveRaftSpeedMultiplier,0.3
;   useSkirt,0
;   skirtExtruder,0
;   skirtLayers,1
;   skirtOutlines,2
;   skirtOffset,4
;   usePrimePillar,0
;   primePillarExtruder,999
;   primePillarWidth,12
;   primePillarLocation,7
;   primePillarSpeedMultiplier,1
;   useOozeShield,0
;   oozeShieldExtruder,999
;   oozeShieldOffset,2
;   oozeShieldOutlines,1
;   oozeShieldSidewallShape,1
;   oozeShieldSidewallAngle,30
;   oozeShieldSpeedMultiplier,1
;   infillExtruder,0
;   internalInfillPattern,Rectilinear
;   externalInfillPattern,Rectilinear
;   infillPercentage,100
;   outlineOverlapPercentage,15
;   infillExtrusionWidthPercentage,100
;   minInfillLength,5
;   infillLayerInterval,1
;   internalInfillAngles,45,-45
;   overlapInternalInfillAngles,0
;   externalInfillAngles,45,-45
;   generateSupport,0
;   supportExtruder,0
;   supportInfillPercentage,30
;   supportExtraInflation,0
;   supportBaseLayers,0
;   denseSupportExtruder,0
;   denseSupportLayers,0
;   denseSupportInfillPercentage,70
;   supportLayerInterval,1
;   supportHorizontalPartOffset,0.3
;   supportUpperSeparationLayers,1
;   supportLowerSeparationLayers,1
;   supportType,0
;   supportGridSpacing,4
;   maxOverhangAngle,45
;   supportAngles,0
;   temperatureName,Primary Extruder,Hot Bed
;   temperatureNumber,0,1
;   temperatureSetpointCount,1,1
;   temperatureSetpointLayers,1,1
;   temperatureSetpointTemperatures,210,60
;   temperatureStabilizeAtStartup,1,0
;   temperatureHeatedBed,0,1
;   temperatureRelayBetweenLayers,0,0
;   temperatureRelayBetweenLoops,0,0
;   fanLayers,1,2
;   fanSpeeds,0,100
;   blipFanToFullPower,0
;   adjustSpeedForCooling,1
;   minSpeedLayerTime,15
;   minCoolingSpeedSlowdown,20
;   increaseFanForCooling,0
;   minFanLayerTime,45
;   maxCoolingFanSpeed,100
;   increaseFanForBridging,0
;   bridgingFanSpeed,100
;   use5D,1
;   relativeEdistances,0
;   allowEaxisZeroing,1
;   independentExtruderAxes,0
;   includeM10123,0
;   stickySupport,1
;   applyToolheadOffsets,0
;   gcodeXoffset,-0.03
;   gcodeYoffset,-0.03
;   gcodeZoffset,0
;   overrideMachineDefinition,0
;   machineTypeOverride,0
;   strokeXoverride,200
;   strokeYoverride,200
;   strokeZoverride,200
;   originOffsetXoverride,0
;   originOffsetYoverride,0
;   originOffsetZoverride,0
;   homeXdirOverride,-1
;   homeYdirOverride,-1
;   homeZdirOverride,-1
;   flipXoverride,1
;   flipYoverride,-1
;   flipZoverride,1
;   toolheadOffsets,0,0|0,0|0,0|0,0|0,0|0,0
;   overrideFirmwareConfiguration,0
;   firmwareTypeOverride,RepRap (Marlin/Repetier/Sprinter)
;   GPXconfigOverride,r2
;   baudRateOverride,115200
;   overridePrinterModels,0
;   printerModelsOverride
;   startingGcode,G28 ; home all axes,G1 X3 Y5 Z0.2 F3000 ; get ready to prime,G92 E0 ; reset extrusion distance,G1 Y150 E20 F600 ; prime nozzle
;   layerChangeGcode,
;   retractionGcode,
;   toolChangeGcode,
;   endingGcode,M104 S0 ; turn off extruder,M140 S0 ; turn off bedG1 X0 Y0; home,M84 ; disable motors,M107 ; fan off,G28 X Y; Home,M18; Disable steppers
;   exportFileFormat,gcode
;   celebration,0
;   celebrationSong,Random Song
;   postProcessing,
;   defaultSpeed,4600
;   outlineUnderspeed,0.5
;   solidInfillUnderspeed,0.8
;   supportUnderspeed,0.8
;   rapidXYspeed,4800
;   rapidZspeed,1000
;   minBridgingArea,50
;   bridgingExtraInflation,0
;   bridgingExtrusionMultiplier,1
;   bridgingSpeedMultiplier,1
;   useFixedBridgingAngle,0
;   fixedBridgingAngle,0
;   applyBridgingToPerimeters,0
;   filamentDiameters,1.75|1.75|1.75|1.75|1.75|1.75
;   filamentPricesPerKg,46|46|46|46|46|46
;   filamentDensities,1.25|1.25|1.25|1.25|1.25|1.25
;   useMinPrintHeight,0
;   minPrintHeight,0
;   useMaxPrintHeight,0
;   maxPrintHeight,0
;   useDiaphragm,0
;   diaphragmLayerInterval,20
;   robustSlicing,1
;   mergeAllIntoSolid,0
;   onlyRetractWhenCrossingOutline,1
;   retractBetweenLayers,1
;   useRetractionMinTravel,0
;   retractionMinTravel,3
;   retractWhileWiping,0
;   onlyWipeOutlines,1
;   avoidCrossingOutline,0
;   maxMovementDetourFactor,3
;   toolChangeRetractionDistance,12
;   toolChangeExtraRestartDistance,-0.5
;   toolChangeRetractionSpeed,600
;   externalThinWallType,1
;   internalThinWallType,1
;   thinWallAllowedOverlapPercentage,10
;   singleExtrusionMinLength,1
;   singleExtrusionMinPrintingWidthPercentage,50
;   singleExtrusionMaxPrintingWidthPercentage,200
;   singleExtrusionEndpointExtension,0.2
;   horizontalSizeCompensation,0
G90
M82
M106 S0
M140 S60
M104 S210 T0
M109 S210 T0
G28 ; home all axes
G1 X3 Y5 Z0.2 F3000 ; get ready to prime
G92 E0 ; reset extrusion distance
G1 Y150 E20 F600 ; prime nozzle
G92 E0
G1 E-1.0000 F1800
G1 Z0.270 F1000
; process Process1
; layer 1, Z = 0.270
T0
; tool H0.300 W0.412
; inner perimeter
G1 X34.003 Y109.034 F4800
G1 E0.0000 F540
G92 E0
G1 X34.539 Y108.724 E0.0287 F1725
G1 X35.139 Y108.564 E0.0574
G1 X35.760 Y108.564 E0.0861
G1 X36.359 Y108.724 E0.1148
G1 X36.897 Y109.035 E0.1435
G1 X37.335 Y109.473 E0.1722
G1 X37.645 Y110.011 E0.2009
G1 X37.806 Y110.610 E0.2295
G1 X37.806 Y111.230 E0.2582
G1 X37.645 Y111.830 E0.2869
G1 X37.335 Y112.367 E0.3156
G1 X36.897 Y112.805 E0.3443
G1 X36.359 Y113.115 E0.3730
G1 X35.158 Y113.438 E0.4305
G1 X35.457 Y115.714 E0.5367
G1 X45.606 Y114.381 E1.0102
G1 X44.991 Y109.705 E1.2283
G1 X44.991 Y109.043 E1.2589
G1 X45.151 Y108.443 E1.2876
G1 X45.461 Y107.907 E1.3163
G1 X45.900 Y107.468 E1.3450
G1 X46.438 Y107.158 E1.3737
G1 X47.037 Y106.997 E1.4024
G1 X47.657 Y106.997 E1.4311
G1 X48.256 Y107.158 E1.4598
G1 X48.794 Y107.468 E1.4884
G1 X49.233 Y107.907 E1.5172
G1 X49.543 Y108.443 E1.5458
G1 X49.703 Y109.043 E1.5745
G1 X49.703 Y109.664 E1.6032
G1 X49.543 Y110.264 E1.6319
G1 X49.233 Y110.800 E1.6606
G1 X48.794 Y111.239 E1.6893
G1 X48.256 Y111.549 E1.7180
G1 X47.056 Y111.872 E1.7755
G1 X47.356 Y114.152 E1.8819
G1 X57.504 Y112.819 E2.3553
G1 X56.888 Y108.138 E2.5736
G1 X56.888 Y107.477 E2.6042
G1 X57.049 Y106.878 E2.6329
G1 X57.360 Y106.340 E2.6616
G1 X57.797 Y105.902 E2.6903
G1 X58.335 Y105.592 E2.7190
G1 X58.935 Y105.431 E2.7477
G1 X59.555 Y105.431 E2.7764
G1 X60.155 Y105.592 E2.8051
G1 X60.692 Y105.902 E2.8338
G1 X61.130 Y106.340 E2.8625
G1 X61.440 Y106.877 E2.8911
G1 X61.601 Y107.477 E2.9199
G1 X61.601 Y108.097 E2.9486
G1 X61.440 Y108.697 E2.9772
G1 X61.130 Y109.235 E3.0059
G1 X60.692 Y109.672 E3.0346
G1 X60.154 Y109.983 E3.0633
G1 X58.952 Y110.305 E3.1209
G1 X59.254 Y112.590 E3.2275
G1 X69.402 Y111.257 E3.7008
G1 X68.786 Y106.572 E3.9194
G1 X68.786 Y105.911 E3.9500
G1 X68.947 Y105.312 E3.9786
G1 X69.257 Y104.774 E4.0073
G1 X69.696 Y104.335 E4.0360
G1 X70.232 Y104.025 E4.0647
G1 X70.832 Y103.865 E4.0934
G1 X71.453 Y103.865 E4.1221
G1 X72.052 Y104.025 E4.1508
G1 X72.590 Y104.336 E4.1795
G1 X73.028 Y104.774 E4.2082
G1 X73.338 Y105.312 E4.2369
G1 X73.499 Y105.910 E4.2656
G1 X73.499 Y106.531 E4.2943
G1 X73.338 Y107.131 E4.3230
G1 X73.028 Y107.668 E4.3517
G1 X72.590 Y108.106 E4.3804
G1 X72.052 Y108.417 E4.4091
G1 X70.851 Y108.738 E4.4666
G1 X71.152 Y111.028 E4.5734
G1 X91.700 Y108.330 E5.5319
G1 X93.076 Y105.009 E5.6981
G1 X93.453 Y104.517 E5.7268
G1 X93.945 Y104.140 E5.7555
G1 X94.518 Y103.902 E5.7842
G1 X95.174 Y103.816 E5.8148
G1 X132.766 Y103.816 E7.5533
G1 X133.422 Y103.902 E7.5839
G1 X133.995 Y104.140 E7.6126
G1 X134.487 Y104.517 E7.6413
G1 X134.864 Y105.009 E7.6700
G1 X136.240 Y108.330 E7.8362
G1 X156.788 Y111.028 E8.7947
G1 X157.089 Y108.738 E8.9015
G1 X155.888 Y108.417 E8.9590
G1 X155.350 Y108.106 E8.9878
G1 X154.912 Y107.668 E9.0165
G1 X154.602 Y107.131 E9.0451
G1 X154.441 Y106.531 E9.0739
G1 X154.441 Y105.910 E9.1025
G1 X154.602 Y105.312 E9.1312
G1 X154.912 Y104.774 E9.1599
G1 X155.350 Y104.335 E9.1886
G1 X155.888 Y104.025 E9.2173
G1 X156.487 Y103.865 E9.2460
G1 X157.108 Y103.865 E9.2747
G1 X157.708 Y104.025 E9.3034
G1 X158.244 Y104.335 E9.3321
G1 X158.683 Y104.774 E9.3608
G1 X158.993 Y105.312 E9.3895
G1 X159.154 Y105.911 E9.4182
G1 X159.154 Y106.572 E9.4487
G1 X158.538 Y111.257 E9.6673
G1 X168.686 Y112.590 E10.1407
G1 X168.988 Y110.305 E10.2473
G1 X167.786 Y109.983 E10.3048
G1 X167.248 Y109.672 E10.3335
G1 X166.810 Y109.235 E10.3622
G1 X166.500 Y108.697 E10.3909
G1 X166.339 Y108.097 E10.4196
G1 X166.339 Y107.477 E10.4483
G1 X166.500 Y106.877 E10.4770
G1 X166.810 Y106.340 E10.5057
G1 X167.248 Y105.902 E10.5344
G1 X167.785 Y105.592 E10.5630
G1 X168.385 Y105.431 E10.5918
G1 X169.005 Y105.431 E10.6204
G1 X169.605 Y105.592 E10.6491
G1 X170.143 Y105.902 E10.6778
G1 X170.580 Y106.340 E10.7065
G1 X170.891 Y106.878 E10.7352
G1 X171.052 Y107.477 E10.7639
G1 X171.052 Y108.138 E10.7945
G1 X170.436 Y112.819 E11.0128
G1 X180.584 Y114.152 E11.4862
G1 X180.884 Y111.872 E11.5926
G1 X179.684 Y111.549 E11.6501
G1 X179.146 Y111.239 E11.6788
G1 X178.707 Y110.800 E11.7075
G1 X178.397 Y110.264 E11.7362
G1 X178.237 Y109.664 E11.7649
G1 X178.237 Y109.043 E11.7936
G1 X178.397 Y108.443 E11.8223
G1 X178.707 Y107.907 E11.8510
G1 X179.146 Y107.468 E11.8797
G1 X179.684 Y107.158 E11.9084
G1 X180.283 Y106.997 E11.9370
G1 X180.903 Y106.997 E11.9658
G1 X181.502 Y107.158 E11.9945
G1 X182.040 Y107.468 E12.0231
G1 X182.479 Y107.907 E12.0518
G1 X182.789 Y108.443 E12.0805
G1 X182.949 Y109.043 E12.1092
G1 X182.949 Y109.705 E12.1398
G1 X182.334 Y114.381 E12.3580
G1 X192.483 Y115.714 E12.8314
G1 X192.782 Y113.438 E12.9376
G1 X191.581 Y113.115 E12.9951
G1 X191.043 Y112.805 E13.0238
G1 X190.605 Y112.367 E13.0525
G1 X190.295 Y111.830 E13.0812
G1 X190.134 Y111.230 E13.1099
G1 X190.134 Y110.610 E13.1386
G1 X190.295 Y110.011 E13.1673
G1 X190.605 Y109.473 E13.1959
G1 X191.043 Y109.035 E13.2246
G1 X191.581 Y108.724 E13.2534
G1 X192.180 Y108.564 E13.2820
G1 X192.801 Y108.564 E13.3107
G1 X193.401 Y108.724 E13.3394
G1 X193.937 Y109.034 E13.3681
G1 X194.376 Y109.473 E13.3968
G1 X194.686 Y110.011 E13.4255
G1 X194.847 Y110.609 E13.4542
G1 X194.847 Y111.270 E13.4848
G1 X192.113 Y132.039 E14.4536
G1 X191.942 Y132.677 E14.4841
G1 X191.632 Y133.214 E14.5128
G1 X191.192 Y133.654 E14.5415
G1 X190.656 Y133.964 E14.5702
G1 X190.056 Y134.124 E14.5989
G1 X189.435 Y134.124 E14.6276
G1 X188.836 Y133.964 E14.6563
G1 X188.299 Y133.654 E14.6850
G1 X187.861 Y133.215 E14.7137
G1 X187.550 Y132.677 E14.7424
G1 X187.389 Y132.078 E14.7711
G1 X187.389 Y131.457 E14.7998
G1 X187.550 Y130.859 E14.8285
G1 X187.861 Y130.321 E14.8572
G1 X188.299 Y129.882 E14.8859
G1 X188.836 Y129.572 E14.9146
G1 X189.435 Y129.412 E14.9432
G1 X190.679 Y129.412 E15.0008
G1 X191.025 Y126.793 E15.1229
G1 X180.875 Y125.461 E15.5964
G1 X180.216 Y130.472 E15.8301
G1 X180.044 Y131.111 E15.8607
G1 X179.734 Y131.648 E15.8894
G1 X179.295 Y132.087 E15.9181
G1 X178.757 Y132.397 E15.9468
G1 X178.158 Y132.558 E15.9755
G1 X177.538 Y132.558 E16.0042
G1 X176.938 Y132.397 E16.0329
G1 X176.401 Y132.087 E16.0616
G1 X175.962 Y131.648 E16.0903
G1 X175.652 Y131.112 E16.1190
G1 X175.492 Y130.512 E16.1477
G1 X175.492 Y129.891 E16.1764
G1 X175.652 Y129.292 E16.2051
G1 X175.962 Y128.755 E16.2338
G1 X176.401 Y128.317 E16.2624
G1 X176.939 Y128.006 E16.2912
G1 X177.538 Y127.845 E16.3199
G1 X178.782 Y127.845 E16.3774
G1 X179.127 Y125.231 E16.4993
G1 X168.977 Y123.899 E16.9728
G1 X168.318 Y128.906 E17.2063
G1 X168.146 Y129.545 E17.2369
G1 X167.836 Y130.083 E17.2656
G1 X167.398 Y130.520 E17.2943
G1 X166.860 Y130.831 E17.3230
G1 X166.261 Y130.992 E17.3517
G1 X165.640 Y130.992 E17.3804
G1 X165.041 Y130.831 E17.4091
G1 X164.503 Y130.520 E17.4378
G1 X164.065 Y130.083 E17.4665
G1 X163.755 Y129.545 E17.4952
G1 X163.594 Y128.945 E17.5239
G1 X163.594 Y128.325 E17.5525
G1 X163.755 Y127.725 E17.5813
G1 X164.065 Y127.188 E17.6100
G1 X164.503 Y126.750 E17.6386
G1 X165.040 Y126.440 E17.6673
G1 X165.640 Y126.279 E17.6960
G1 X166.884 Y126.279 E17.7536
G1 X167.227 Y123.669 E17.8753
G1 X157.079 Y122.337 E18.3487
G1 X156.420 Y127.340 E18.5821
G1 X156.249 Y127.978 E18.6126
G1 X155.939 Y128.515 E18.6413
G1 X155.499 Y128.955 E18.6701
G1 X154.963 Y129.265 E18.6987
G1 X154.363 Y129.425 E18.7274
G1 X153.742 Y129.425 E18.7561
G1 X153.143 Y129.265 E18.7848
G1 X152.606 Y128.955 E18.8135
G1 X152.168 Y128.516 E18.8422
G1 X151.857 Y127.978 E18.8709
G1 X151.696 Y127.379 E18.8996
G1 X151.696 Y126.759 E18.9283
G1 X151.857 Y126.160 E18.9570
G1 X152.168 Y125.622 E18.9857
G1 X152.606 Y125.183 E19.0144
G1 X153.143 Y124.873 E19.0431
G1 X153.742 Y124.713 E19.0717
G1 X154.986 Y124.713 E19.1293
G1 X155.330 Y122.107 E19.2508
G1 X138.536 Y119.902 E20.0342
G1 X138.523 Y120.746 E20.0732
G1 X138.490 Y121.004 E20.0852
G1 X138.431 Y121.201 E20.0947
G1 X138.350 Y121.358 E20.1029
G1 X138.235 Y121.500 E20.1114
G1 X138.194 Y121.536 E20.1139
G1 X138.020 Y121.652 E20.1236
G1 X137.809 Y121.744 E20.1342
G1 X137.537 Y121.818 E20.1472
G1 X137.200 Y121.866 E20.1630
G1 X137.027 Y121.877 E20.1710
G1 X90.913 Y121.877 E22.3037
G1 X90.740 Y121.866 E22.3117
G1 X90.403 Y121.818 E22.3275
G1 X90.131 Y121.744 E22.3405
G1 X89.920 Y121.652 E22.3511
G1 X89.746 Y121.536 E22.3608
G1 X89.705 Y121.500 E22.3633
G1 X89.590 Y121.358 E22.3718
G1 X89.509 Y121.201 E22.3800
G1 X89.450 Y121.004 E22.3895
G1 X89.417 Y120.746 E22.4015
G1 X89.404 Y119.902 E22.4405
G1 X72.610 Y122.107 E23.2239
G1 X72.954 Y124.713 E23.3454
G1 X74.198 Y124.713 E23.4029
G1 X74.797 Y124.873 E23.4316
G1 X75.334 Y125.183 E23.4603
G1 X75.772 Y125.622 E23.4890
G1 X76.083 Y126.160 E23.5177
G1 X76.244 Y126.759 E23.5464
G1 X76.244 Y127.379 E23.5751
G1 X76.083 Y127.978 E23.6038
G1 X75.772 Y128.516 E23.6325
G1 X75.334 Y128.955 E23.6612
G1 X74.797 Y129.265 E23.6899
G1 X74.198 Y129.425 E23.7185
G1 X73.577 Y129.425 E23.7473
G1 X72.977 Y129.265 E23.7760
G1 X72.441 Y128.955 E23.8046
G1 X72.001 Y128.515 E23.8334
G1 X71.691 Y127.978 E23.8621
G1 X71.520 Y127.340 E23.8926
G1 X70.861 Y122.337 E24.1260
G1 X60.713 Y123.669 E24.5994
G1 X61.056 Y126.279 E24.7211
G1 X62.300 Y126.279 E24.7786
G1 X62.900 Y126.440 E24.8074
G1 X63.437 Y126.750 E24.8360
G1 X63.875 Y127.188 E24.8647
G1 X64.185 Y127.725 E24.8934
G1 X64.346 Y128.325 E24.9221
G1 X64.346 Y128.945 E24.9508
G1 X64.185 Y129.545 E24.9795
G1 X63.875 Y130.083 E25.0082
G1 X63.437 Y130.520 E25.0369
G1 X62.899 Y130.831 E25.0656
G1 X62.300 Y130.992 E25.0943
G1 X61.679 Y130.992 E25.1230
G1 X61.080 Y130.831 E25.1517
G1 X60.542 Y130.520 E25.1804
G1 X60.104 Y130.083 E25.2091
G1 X59.794 Y129.545 E25.2378
G1 X59.622 Y128.906 E25.2684
G1 X58.963 Y123.899 E25.5019
G1 X48.815 Y125.231 E25.9753
G1 X49.158 Y127.845 E26.0972
G1 X50.402 Y127.845 E26.1548
G1 X51.001 Y128.006 E26.1835
G1 X51.539 Y128.317 E26.2122
G1 X51.978 Y128.755 E26.2409
G1 X52.288 Y129.292 E26.2696
G1 X52.448 Y129.891 E26.2983
G1 X52.448 Y130.512 E26.3270
G1 X52.288 Y131.112 E26.3557
G1 X51.978 Y131.648 E26.3843
G1 X51.539 Y132.087 E26.4131
G1 X51.002 Y132.397 E26.4417
G1 X50.402 Y132.558 E26.4705
G1 X49.782 Y132.558 E26.4991
G1 X49.183 Y132.397 E26.5278
G1 X48.645 Y132.087 E26.5565
G1 X48.206 Y131.648 E26.5852
G1 X47.896 Y131.111 E26.6139
