; G-Code generated by Simplify3D(R) Version 4.0.0
; Nov 19, 2020 at 10:23:28 AM
; Settings Summary
;   processName,Process1
;   applyToModels,Surgical_Mask_Strap_Remix
;   profileName,new profile (modified)
;   profileVersion,2020-09-07 14:01:24
;   baseProfile,Default (modified)
;   printMaterial,PLA
;   printQuality,Medium
;   printExtruders,
;   extruderName,Primary Extruder
;   extruderToolheadNumber,0
;   extruderDiameter,0.4
;   extruderAutoWidth,0
;   extruderWidth,0.4
;   extrusionMultiplier,0.9
;   extruderUseRetract,1
;   extruderRetractionDistance,1
;   extruderExtraRestartDistance,0
;   extruderRetractionZLift,0
;   extruderRetractionSpeed,1800
;   extruderUseCoasting,0
;   extruderCoastingDistance,0.2
;   extruderUseWipe,0
;   extruderWipeDistance,5
;   primaryExtruder,0
;   layerHeight,0.3
;   topSolidLayers,3
;   bottomSolidLayers,3
;   perimeterOutlines,2
;   printPerimetersInsideOut,1
;   startPointOption,2
;   startPointOriginX,0
;   startPointOriginY,0
;   sequentialIslands,0
;   spiralVaseMode,0
;   firstLayerHeightPercentage,90
;   firstLayerWidthPercentage,103
;   firstLayerUnderspeed,0.5
;   useRaft,0
;   raftExtruder,0
;   raftTopLayers,3
;   raftBaseLayers,2
;   raftOffset,3
;   raftSeparationDistance,0.14
;   raftTopInfill,100
;   aboveRaftSpeedMultiplier,0.3
;   useSkirt,0
;   skirtExtruder,0
;   skirtLayers,1
;   skirtOutlines,2
;   skirtOffset,4
;   usePrimePillar,0
;   primePillarExtruder,999
;   primePillarWidth,12
;   primePillarLocation,7
;   primePillarSpeedMultiplier,1
;   useOozeShield,0
;   oozeShieldExtruder,999
;   oozeShieldOffset,2
;   oozeShieldOutlines,1
;   oozeShieldSidewallShape,1
;   oozeShieldSidewallAngle,30
;   oozeShieldSpeedMultiplier,1
;   infillExtruder,0
;   internalInfillPattern,Rectilinear
;   externalInfillPattern,Rectilinear
;   infillPercentage,100
;   outlineOverlapPercentage,15
;   infillExtrusionWidthPercentage,100
;   minInfillLength,5
;   infillLayerInterval,1
;   internalInfillAngles,45,-45
;   overlapInternalInfillAngles,0
;   externalInfillAngles,45,-45
;   generateSupport,0
;   supportExtruder,0
;   supportInfillPercentage,30
;   supportExtraInflation,0
;   supportBaseLayers,0
;   denseSupportExtruder,0
;   denseSupportLayers,0
;   denseSupportInfillPercentage,70
;   supportLayerInterval,1
;   supportHorizontalPartOffset,0.3
;   supportUpperSeparationLayers,1
;   supportLowerSeparationLayers,1
;   supportType,0
;   supportGridSpacing,4
;   maxOverhangAngle,45
;   supportAngles,0
;   temperatureName,Primary Extruder,Hot Bed
;   temperatureNumber,0,1
;   temperatureSetpointCount,1,1
;   temperatureSetpointLayers,1,1
;   temperatureSetpointTemperatures,210,60
;   temperatureStabilizeAtStartup,1,0
;   temperatureHeatedBed,0,1
;   temperatureRelayBetweenLayers,0,0
;   temperatureRelayBetweenLoops,0,0
;   fanLayers,1,2
;   fanSpeeds,0,100
;   blipFanToFullPower,0
;   adjustSpeedForCooling,1
;   minSpeedLayerTime,15
;   minCoolingSpeedSlowdown,20
;   increaseFanForCooling,0
;   minFanLayerTime,45
;   maxCoolingFanSpeed,100
;   increaseFanForBridging,0
;   bridgingFanSpeed,100
;   use5D,1
;   relativeEdistances,0
;   allowEaxisZeroing,1
;   independentExtruderAxes,0
;   includeM10123,0
;   stickySupport,1
;   applyToolheadOffsets,0
;   gcodeXoffset,0.03
;   gcodeYoffset,0.03
;   gcodeZoffset,0
;   overrideMachineDefinition,0
;   machineTypeOverride,0
;   strokeXoverride,200
;   strokeYoverride,200
;   strokeZoverride,200
;   originOffsetXoverride,0
;   originOffsetYoverride,0
;   originOffsetZoverride,0
;   homeXdirOverride,-1
;   homeYdirOverride,-1
;   homeZdirOverride,-1
;   flipXoverride,1
;   flipYoverride,-1
;   flipZoverride,1
;   toolheadOffsets,0,0|0,0|0,0|0,0|0,0|0,0
;   overrideFirmwareConfiguration,0
;   firmwareTypeOverride,RepRap (Marlin/Repetier/Sprinter)
;   GPXconfigOverride,r2
;   baudRateOverride,115200
;   overridePrinterModels,0
;   printerModelsOverride
;   startingGcode,G28 ; home all axes,G1 X0 Y5 Z0.2 F3000 ; get ready to prime,G92 E0 ; reset extrusion distance,G1 Y150 E20 F600 ; prime nozzle
;   layerChangeGcode,
;   retractionGcode,
;   toolChangeGcode,
;   endingGcode,M104 S0 ; turn off extruder,M140 S0 ; turn off bedG1 X0 Y0; home,M84 ; disable motors,M107 ; fan off,G28 X Y; Home,M18; Disable steppers
;   exportFileFormat,gcode
;   celebration,0
;   celebrationSong,Random Song
;   postProcessing,
;   defaultSpeed,4600
;   outlineUnderspeed,0.5
;   solidInfillUnderspeed,0.8
;   supportUnderspeed,0.8
;   rapidXYspeed,4800
;   rapidZspeed,1000
;   minBridgingArea,50
;   bridgingExtraInflation,0
;   bridgingExtrusionMultiplier,1
;   bridgingSpeedMultiplier,1
;   useFixedBridgingAngle,0
;   fixedBridgingAngle,0
;   applyBridgingToPerimeters,0
;   filamentDiameters,1.75|1.75|1.75|1.75|1.75|1.75
;   filamentPricesPerKg,46|46|46|46|46|46
;   filamentDensities,1.25|1.25|1.25|1.25|1.25|1.25
;   useMinPrintHeight,0
;   minPrintHeight,0
;   useMaxPrintHeight,0
;   maxPrintHeight,0
;   useDiaphragm,0
;   diaphragmLayerInterval,20
;   robustSlicing,1
;   mergeAllIntoSolid,0
;   onlyRetractWhenCrossingOutline,1
;   retractBetweenLayers,1
;   useRetractionMinTravel,0
;   retractionMinTravel,3
;   retractWhileWiping,0
;   onlyWipeOutlines,1
;   avoidCrossingOutline,0
;   maxMovementDetourFactor,3
;   toolChangeRetractionDistance,12
;   toolChangeExtraRestartDistance,-0.5
;   toolChangeRetractionSpeed,600
;   externalThinWallType,1
;   internalThinWallType,1
;   thinWallAllowedOverlapPercentage,10
;   singleExtrusionMinLength,1
;   singleExtrusionMinPrintingWidthPercentage,50
;   singleExtrusionMaxPrintingWidthPercentage,200
;   singleExtrusionEndpointExtension,0.2
;   horizontalSizeCompensation,0
G90
M82
M106 S0
M140 S60
M104 S210 T0
M109 S210 T0
G28 ; home all axes
G1 X0 Y5 Z0.2 F3000 ; get ready to prime
G92 E0 ; reset extrusion distance
G1 Y150 E20 F600 ; prime nozzle
G92 E0
G1 E-1.0000 F1800
G1 Z0.270 F1000
; process Process1
; layer 1, Z = 0.270
T0
; tool H0.300 W0.412
; inner perimeter
G1 X34.063 Y109.094 F4800
G1 E0.0000 F540
G92 E0
G1 X34.599 Y108.784 E0.0287 F1725
G1 X35.199 Y108.624 E0.0574
G1 X35.820 Y108.624 E0.0861
G1 X36.419 Y108.784 E0.1148
G1 X36.957 Y109.095 E0.1435
G1 X37.395 Y109.533 E0.1722
G1 X37.705 Y110.071 E0.2009
G1 X37.866 Y110.670 E0.2295
G1 X37.866 Y111.290 E0.2582
G1 X37.705 Y111.890 E0.2869
G1 X37.395 Y112.427 E0.3156
G1 X36.957 Y112.865 E0.3443
G1 X36.419 Y113.175 E0.3730
G1 X35.218 Y113.498 E0.4305
G1 X35.517 Y115.774 E0.5367
G1 X45.666 Y114.441 E1.0102
G1 X45.051 Y109.765 E1.2283
G1 X45.051 Y109.103 E1.2589
G1 X45.211 Y108.503 E1.2876
G1 X45.521 Y107.967 E1.3163
G1 X45.960 Y107.528 E1.3450
G1 X46.498 Y107.218 E1.3737
G1 X47.097 Y107.057 E1.4024
G1 X47.717 Y107.057 E1.4311
G1 X48.316 Y107.218 E1.4598
G1 X48.854 Y107.528 E1.4884
G1 X49.293 Y107.967 E1.5172
G1 X49.603 Y108.503 E1.5458
G1 X49.763 Y109.103 E1.5745
G1 X49.763 Y109.724 E1.6032
G1 X49.603 Y110.324 E1.6319
G1 X49.293 Y110.860 E1.6606
G1 X48.854 Y111.299 E1.6893
G1 X48.316 Y111.609 E1.7180
G1 X47.116 Y111.932 E1.7755
G1 X47.416 Y114.212 E1.8819
G1 X57.564 Y112.879 E2.3553
G1 X56.948 Y108.198 E2.5736
G1 X56.948 Y107.537 E2.6042
G1 X57.109 Y106.938 E2.6329
G1 X57.420 Y106.400 E2.6616
G1 X57.857 Y105.962 E2.6903
G1 X58.395 Y105.652 E2.7190
G1 X58.995 Y105.491 E2.7477
G1 X59.615 Y105.491 E2.7764
G1 X60.215 Y105.652 E2.8051
G1 X60.752 Y105.962 E2.8338
G1 X61.190 Y106.400 E2.8625
G1 X61.500 Y106.937 E2.8911
G1 X61.661 Y107.537 E2.9199
G1 X61.661 Y108.157 E2.9486
G1 X61.500 Y108.757 E2.9772
G1 X61.190 Y109.295 E3.0059
G1 X60.752 Y109.732 E3.0346
G1 X60.214 Y110.043 E3.0633
G1 X59.012 Y110.365 E3.1209
G1 X59.314 Y112.650 E3.2275
G1 X69.462 Y111.317 E3.7008
G1 X68.846 Y106.632 E3.9194
G1 X68.846 Y105.971 E3.9500
G1 X69.007 Y105.372 E3.9786
G1 X69.317 Y104.834 E4.0073
G1 X69.756 Y104.395 E4.0360
G1 X70.292 Y104.085 E4.0647
G1 X70.892 Y103.925 E4.0934
G1 X71.513 Y103.925 E4.1221
G1 X72.112 Y104.085 E4.1508
G1 X72.650 Y104.396 E4.1795
G1 X73.088 Y104.834 E4.2082
G1 X73.398 Y105.372 E4.2369
G1 X73.559 Y105.971 E4.2656
G1 X73.559 Y106.591 E4.2943
G1 X73.398 Y107.191 E4.3230
G1 X73.088 Y107.728 E4.3517
G1 X72.650 Y108.166 E4.3804
G1 X72.112 Y108.477 E4.4091
G1 X70.911 Y108.798 E4.4666
G1 X71.212 Y111.088 E4.5734
G1 X91.760 Y108.390 E5.5319
G1 X93.136 Y105.069 E5.6981
G1 X93.513 Y104.577 E5.7268
G1 X94.005 Y104.200 E5.7555
G1 X94.578 Y103.962 E5.7842
G1 X95.234 Y103.876 E5.8148
G1 X132.826 Y103.876 E7.5533
G1 X133.482 Y103.962 E7.5839
G1 X134.055 Y104.200 E7.6126
G1 X134.547 Y104.577 E7.6413
G1 X134.924 Y105.069 E7.6700
G1 X136.300 Y108.390 E7.8362
G1 X156.848 Y111.088 E8.7947
G1 X157.149 Y108.798 E8.9015
G1 X155.948 Y108.477 E8.9590
G1 X155.410 Y108.166 E8.9878
G1 X154.972 Y107.728 E9.0165
G1 X154.662 Y107.191 E9.0451
G1 X154.501 Y106.591 E9.0739
G1 X154.501 Y105.971 E9.1025
G1 X154.662 Y105.372 E9.1312
G1 X154.972 Y104.834 E9.1599
G1 X155.410 Y104.395 E9.1886
G1 X155.948 Y104.085 E9.2173
G1 X156.547 Y103.925 E9.2460
G1 X157.168 Y103.925 E9.2747
G1 X157.768 Y104.085 E9.3034
G1 X158.304 Y104.395 E9.3321
G1 X158.743 Y104.834 E9.3608
G1 X159.053 Y105.372 E9.3895
G1 X159.214 Y105.971 E9.4182
G1 X159.214 Y106.632 E9.4487
G1 X158.598 Y111.317 E9.6673
G1 X168.746 Y112.650 E10.1407
G1 X169.048 Y110.365 E10.2473
G1 X167.846 Y110.043 E10.3048
G1 X167.308 Y109.732 E10.3335
G1 X166.870 Y109.295 E10.3622
G1 X166.560 Y108.757 E10.3909
G1 X166.399 Y108.157 E10.4196
G1 X166.399 Y107.537 E10.4483
G1 X166.560 Y106.937 E10.4770
G1 X166.870 Y106.400 E10.5057
G1 X167.308 Y105.962 E10.5344
G1 X167.845 Y105.652 E10.5630
G1 X168.445 Y105.491 E10.5918
G1 X169.065 Y105.491 E10.6204
G1 X169.665 Y105.652 E10.6491
G1 X170.203 Y105.962 E10.6778
G1 X170.640 Y106.400 E10.7065
G1 X170.951 Y106.938 E10.7352
G1 X171.112 Y107.537 E10.7639
G1 X171.112 Y108.198 E10.7945
G1 X170.496 Y112.879 E11.0128
G1 X180.644 Y114.212 E11.4862
G1 X180.944 Y111.932 E11.5926
G1 X179.744 Y111.609 E11.6501
G1 X179.206 Y111.299 E11.6788
G1 X178.767 Y110.860 E11.7075
G1 X178.457 Y110.324 E11.7362
G1 X178.297 Y109.724 E11.7649
G1 X178.297 Y109.103 E11.7936
G1 X178.457 Y108.503 E11.8223
G1 X178.767 Y107.967 E11.8510
G1 X179.206 Y107.528 E11.8797
G1 X179.744 Y107.218 E11.9084
G1 X180.343 Y107.057 E11.9370
G1 X180.963 Y107.057 E11.9658
G1 X181.562 Y107.218 E11.9945
G1 X182.100 Y107.528 E12.0231
G1 X182.539 Y107.967 E12.0518
G1 X182.849 Y108.503 E12.0805
G1 X183.009 Y109.103 E12.1092
G1 X183.009 Y109.765 E12.1398
G1 X182.394 Y114.441 E12.3580
G1 X192.543 Y115.774 E12.8314
G1 X192.842 Y113.498 E12.9376
G1 X191.641 Y113.175 E12.9951
G1 X191.103 Y112.865 E13.0238
G1 X190.665 Y112.427 E13.0525
G1 X190.355 Y111.890 E13.0812
G1 X190.194 Y111.290 E13.1099
G1 X190.194 Y110.670 E13.1386
G1 X190.355 Y110.071 E13.1673
G1 X190.665 Y109.533 E13.1959
G1 X191.103 Y109.095 E13.2246
G1 X191.641 Y108.784 E13.2534
G1 X192.240 Y108.624 E13.2820
G1 X192.861 Y108.624 E13.3107
G1 X193.461 Y108.784 E13.3394
G1 X193.997 Y109.094 E13.3681
G1 X194.436 Y109.533 E13.3968
G1 X194.746 Y110.071 E13.4255
G1 X194.907 Y110.669 E13.4542
G1 X194.907 Y111.330 E13.4848
G1 X192.173 Y132.099 E14.4536
G1 X192.002 Y132.737 E14.4841
G1 X191.692 Y133.274 E14.5128
G1 X191.252 Y133.714 E14.5415
G1 X190.716 Y134.024 E14.5702
G1 X190.116 Y134.184 E14.5989
G1 X189.495 Y134.184 E14.6276
G1 X188.896 Y134.024 E14.6563
G1 X188.359 Y133.714 E14.6850
G1 X187.921 Y133.275 E14.7137
G1 X187.610 Y132.737 E14.7424
G1 X187.449 Y132.138 E14.7711
G1 X187.449 Y131.517 E14.7998
G1 X187.610 Y130.919 E14.8285
G1 X187.921 Y130.381 E14.8572
G1 X188.359 Y129.942 E14.8859
G1 X188.896 Y129.632 E14.9146
G1 X189.495 Y129.472 E14.9432
G1 X190.739 Y129.472 E15.0008
G1 X191.085 Y126.853 E15.1229
G1 X180.935 Y125.521 E15.5964
G1 X180.276 Y130.532 E15.8301
G1 X180.104 Y131.171 E15.8607
G1 X179.794 Y131.708 E15.8894
G1 X179.355 Y132.147 E15.9181
G1 X178.817 Y132.457 E15.9468
G1 X178.218 Y132.618 E15.9755
G1 X177.598 Y132.618 E16.0042
G1 X176.998 Y132.457 E16.0329
G1 X176.461 Y132.147 E16.0616
G1 X176.022 Y131.708 E16.0903
G1 X175.712 Y131.172 E16.1190
G1 X175.552 Y130.572 E16.1477
G1 X175.552 Y129.951 E16.1764
G1 X175.712 Y129.352 E16.2051
G1 X176.022 Y128.815 E16.2338
G1 X176.461 Y128.377 E16.2624
G1 X176.999 Y128.066 E16.2912
G1 X177.598 Y127.905 E16.3199
G1 X178.842 Y127.905 E16.3774
G1 X179.187 Y125.291 E16.4993
G1 X169.037 Y123.959 E16.9728
G1 X168.378 Y128.966 E17.2063
G1 X168.206 Y129.605 E17.2369
G1 X167.896 Y130.143 E17.2656
G1 X167.458 Y130.580 E17.2943
G1 X166.920 Y130.891 E17.3230
G1 X166.321 Y131.052 E17.3517
G1 X165.700 Y131.052 E17.3804
G1 X165.101 Y130.891 E17.4091
G1 X164.563 Y130.580 E17.4378
G1 X164.125 Y130.143 E17.4665
G1 X163.815 Y129.605 E17.4952
G1 X163.654 Y129.005 E17.5239
G1 X163.654 Y128.385 E17.5525
G1 X163.815 Y127.785 E17.5813
G1 X164.125 Y127.248 E17.6100
G1 X164.563 Y126.810 E17.6386
G1 X165.100 Y126.500 E17.6673
G1 X165.700 Y126.339 E17.6960
G1 X166.944 Y126.339 E17.7536
G1 X167.287 Y123.729 E17.8753
G1 X157.139 Y122.397 E18.3487
G1 X156.480 Y127.400 E18.5821
G1 X156.309 Y128.038 E18.6126
G1 X155.999 Y128.575 E18.6413
G1 X155.559 Y129.015 E18.6701
G1 X155.023 Y129.325 E18.6987
G1 X154.423 Y129.485 E18.7274
G1 X153.802 Y129.485 E18.7561
G1 X153.203 Y129.325 E18.7848
G1 X152.666 Y129.015 E18.8135
G1 X152.228 Y128.576 E18.8422
G1 X151.917 Y128.038 E18.8709
G1 X151.756 Y127.439 E18.8996
G1 X151.756 Y126.819 E18.9283
G1 X151.917 Y126.220 E18.9570
G1 X152.228 Y125.682 E18.9857
G1 X152.666 Y125.243 E19.0144
G1 X153.203 Y124.933 E19.0431
G1 X153.802 Y124.773 E19.0717
G1 X155.046 Y124.773 E19.1293
G1 X155.390 Y122.167 E19.2508
G1 X138.596 Y119.962 E20.0342
G1 X138.583 Y120.806 E20.0732
G1 X138.550 Y121.064 E20.0852
G1 X138.491 Y121.261 E20.0947
G1 X138.410 Y121.418 E20.1029
G1 X138.295 Y121.560 E20.1114
G1 X138.254 Y121.596 E20.1139
G1 X138.080 Y121.712 E20.1236
G1 X137.869 Y121.804 E20.1342
G1 X137.597 Y121.878 E20.1472
G1 X137.260 Y121.926 E20.1630
G1 X137.087 Y121.937 E20.1710
G1 X90.973 Y121.937 E22.3037
G1 X90.800 Y121.926 E22.3117
G1 X90.463 Y121.878 E22.3275
G1 X90.191 Y121.804 E22.3405
G1 X89.980 Y121.712 E22.3511
G1 X89.806 Y121.596 E22.3608
G1 X89.765 Y121.560 E22.3633
G1 X89.650 Y121.418 E22.3718
G1 X89.569 Y121.261 E22.3800
G1 X89.510 Y121.064 E22.3895
G1 X89.477 Y120.806 E22.4015
G1 X89.464 Y119.962 E22.4405
G1 X72.670 Y122.167 E23.2239
G1 X73.014 Y124.773 E23.3454
G1 X74.258 Y124.773 E23.4029
G1 X74.857 Y124.933 E23.4316
G1 X75.394 Y125.243 E23.4603
G1 X75.832 Y125.682 E23.4890
G1 X76.143 Y126.220 E23.5177
G1 X76.304 Y126.819 E23.5464
G1 X76.304 Y127.439 E23.5751
G1 X76.143 Y128.038 E23.6038
G1 X75.832 Y128.576 E23.6325
G1 X75.394 Y129.015 E23.6612
G1 X74.857 Y129.325 E23.6899
G1 X74.258 Y129.485 E23.7185
G1 X73.637 Y129.485 E23.7473
G1 X73.037 Y129.325 E23.7760
G1 X72.501 Y129.015 E23.8046
G1 X72.061 Y128.575 E23.8334
G1 X71.751 Y128.038 E23.8621
G1 X71.580 Y127.400 E23.8926
G1 X70.921 Y122.397 E24.1260
G1 X60.773 Y123.729 E24.5994
G1 X61.116 Y126.339 E24.7211
G1 X62.360 Y126.339 E24.7786
G1 X62.960 Y126.500 E24.8074
G1 X63.497 Y126.810 E24.8360
G1 X63.935 Y127.248 E24.8647
G1 X64.245 Y127.785 E24.8934
G1 X64.406 Y128.385 E24.9221
G1 X64.406 Y129.005 E24.9508
G1 X64.245 Y129.605 E24.9795
G1 X63.935 Y130.143 E25.0082
G1 X63.497 Y130.580 E25.0369
G1 X62.959 Y130.891 E25.0656
G1 X62.360 Y131.052 E25.0943
G1 X61.739 Y131.052 E25.1230
G1 X61.140 Y130.891 E25.1517
G1 X60.602 Y130.580 E25.1804
G1 X60.164 Y130.143 E25.2091
G1 X59.854 Y129.605 E25.2378
G1 X59.682 Y128.966 E25.2684
G1 X59.023 Y123.959 E25.5019
G1 X48.875 Y125.291 E25.9753
G1 X49.218 Y127.905 E26.0972
G1 X50.462 Y127.905 E26.1548
G1 X51.061 Y128.066 E26.1835
G1 X51.599 Y128.377 E26.2122
G1 X52.038 Y128.815 E26.2409
G1 X52.348 Y129.352 E26.2696
G1 X52.508 Y129.951 E26.2983
G1 X52.508 Y130.572 E26.3270
G1 X52.348 Y131.172 E26.3557
G1 X52.038 Y131.708 E26.3843
G1 X51.599 Y132.147 E26.4131
G1 X51.062 Y132.457 E26.4417
G1 X50.462 Y132.618 E26.4705
G1 X49.842 Y132.618 E26.4991
G1 X49.243 Y132.457 E26.5278
G1 X48.705 Y132.147 E26.5565
G1 X48.266 Y131.708 E26.5852
G1 X47.956 Y131.171 E26.6139
