; G-Code generated by Simplify3D(R) Version 4.0.0
; Jan 29, 2021 at 7:25:38 PM
; Settings Summary
;   processName,Process1(1)
;   applyToModels,sylmaze03dring_a
;   profileName,def (modified)
;   profileVersion,2020-09-07 14:01:24
;   baseProfile,Default (modified)
;   printMaterial,PLA
;   printQuality,Medium
;   printExtruders,
;   extruderName,Primary Extruder
;   extruderToolheadNumber,0
;   extruderDiameter,0.4
;   extruderAutoWidth,0
;   extruderWidth,0.4
;   extrusionMultiplier,0.9
;   extruderUseRetract,1
;   extruderRetractionDistance,1
;   extruderExtraRestartDistance,0
;   extruderRetractionZLift,0
;   extruderRetractionSpeed,1800
;   extruderUseCoasting,0
;   extruderCoastingDistance,0.2
;   extruderUseWipe,0
;   extruderWipeDistance,5
;   primaryExtruder,0
;   layerHeight,0.12
;   topSolidLayers,3
;   bottomSolidLayers,3
;   perimeterOutlines,2
;   printPerimetersInsideOut,1
;   startPointOption,2
;   startPointOriginX,0
;   startPointOriginY,0
;   sequentialIslands,0
;   spiralVaseMode,0
;   firstLayerHeightPercentage,250
;   firstLayerWidthPercentage,103
;   firstLayerUnderspeed,0.3
;   useRaft,0
;   raftExtruder,0
;   raftTopLayers,2
;   raftBaseLayers,2
;   raftOffset,1.4
;   raftSeparationDistance,0.14
;   raftTopInfill,100
;   aboveRaftSpeedMultiplier,0.3
;   useSkirt,0
;   skirtExtruder,0
;   skirtLayers,1
;   skirtOutlines,2
;   skirtOffset,4
;   usePrimePillar,0
;   primePillarExtruder,999
;   primePillarWidth,12
;   primePillarLocation,7
;   primePillarSpeedMultiplier,1
;   useOozeShield,0
;   oozeShieldExtruder,999
;   oozeShieldOffset,2
;   oozeShieldOutlines,1
;   oozeShieldSidewallShape,1
;   oozeShieldSidewallAngle,30
;   oozeShieldSpeedMultiplier,1
;   infillExtruder,0
;   internalInfillPattern,Rectilinear
;   externalInfillPattern,Rectilinear
;   infillPercentage,30
;   outlineOverlapPercentage,15
;   infillExtrusionWidthPercentage,100
;   minInfillLength,5
;   infillLayerInterval,1
;   internalInfillAngles,45,-45
;   overlapInternalInfillAngles,0
;   externalInfillAngles,45,-45
;   generateSupport,0
;   supportExtruder,0
;   supportInfillPercentage,30
;   supportExtraInflation,0
;   supportBaseLayers,0
;   denseSupportExtruder,0
;   denseSupportLayers,0
;   denseSupportInfillPercentage,70
;   supportLayerInterval,1
;   supportHorizontalPartOffset,0.2
;   supportUpperSeparationLayers,1
;   supportLowerSeparationLayers,1
;   supportType,0
;   supportGridSpacing,4
;   maxOverhangAngle,45
;   supportAngles,0
;   temperatureName,Primary Extruder,Hot Bed
;   temperatureNumber,0,1
;   temperatureSetpointCount,1,1
;   temperatureSetpointLayers,1,1
;   temperatureSetpointTemperatures,210,60
;   temperatureStabilizeAtStartup,1,0
;   temperatureHeatedBed,0,1
;   temperatureRelayBetweenLayers,0,0
;   temperatureRelayBetweenLoops,0,0
;   fanLayers,1,2
;   fanSpeeds,0,100
;   blipFanToFullPower,0
;   adjustSpeedForCooling,1
;   minSpeedLayerTime,15
;   minCoolingSpeedSlowdown,20
;   increaseFanForCooling,0
;   minFanLayerTime,45
;   maxCoolingFanSpeed,100
;   increaseFanForBridging,0
;   bridgingFanSpeed,100
;   use5D,1
;   relativeEdistances,0
;   allowEaxisZeroing,1
;   independentExtruderAxes,0
;   includeM10123,0
;   stickySupport,1
;   applyToolheadOffsets,0
;   gcodeXoffset,-0.09
;   gcodeYoffset,-0.03
;   gcodeZoffset,0
;   overrideMachineDefinition,0
;   machineTypeOverride,0
;   strokeXoverride,200
;   strokeYoverride,200
;   strokeZoverride,200
;   originOffsetXoverride,0
;   originOffsetYoverride,0
;   originOffsetZoverride,0
;   homeXdirOverride,-1
;   homeYdirOverride,-1
;   homeZdirOverride,-1
;   flipXoverride,1
;   flipYoverride,-1
;   flipZoverride,1
;   toolheadOffsets,0,0|0,0|0,0|0,0|0,0|0,0
;   overrideFirmwareConfiguration,0
;   firmwareTypeOverride,RepRap (Marlin/Repetier/Sprinter)
;   GPXconfigOverride,r2
;   baudRateOverride,115200
;   overridePrinterModels,0
;   printerModelsOverride
;   startingGcode,G28 ; home all axes,G1 X2 Y2 Z0.2 F3000 ; get ready to prime,G92 E0 ; reset extrusion distance,G1 Y150 E20 F600 ; prime nozzle
;   layerChangeGcode,
;   retractionGcode,
;   toolChangeGcode,
;   endingGcode,M104 S0 ; turn off extruder,M140 S0 ; turn off bedG1 X0 Y0; home,M84 ; disable motors,M107 ; fan off,G28 X Y; Home,M18; Disable steppers
;   exportFileFormat,gcode
;   celebration,0
;   celebrationSong,Random Song
;   postProcessing,
;   defaultSpeed,4600
;   outlineUnderspeed,0.5
;   solidInfillUnderspeed,0.8
;   supportUnderspeed,0.8
;   rapidXYspeed,4600
;   rapidZspeed,1000
;   minBridgingArea,50
;   bridgingExtraInflation,0
;   bridgingExtrusionMultiplier,1
;   bridgingSpeedMultiplier,1
;   useFixedBridgingAngle,0
;   fixedBridgingAngle,0
;   applyBridgingToPerimeters,0
;   filamentDiameters,1.75|1.75|1.75|1.75|1.75|1.75
;   filamentPricesPerKg,46|46|46|46|46|46
;   filamentDensities,1.25|1.25|1.25|1.25|1.25|1.25
;   useMinPrintHeight,0
;   minPrintHeight,0
;   useMaxPrintHeight,0
;   maxPrintHeight,0.6
;   useDiaphragm,0
;   diaphragmLayerInterval,20
;   robustSlicing,1
;   mergeAllIntoSolid,0
;   onlyRetractWhenCrossingOutline,1
;   retractBetweenLayers,1
;   useRetractionMinTravel,0
;   retractionMinTravel,3
;   retractWhileWiping,0
;   onlyWipeOutlines,1
;   avoidCrossingOutline,0
;   maxMovementDetourFactor,3
;   toolChangeRetractionDistance,12
;   toolChangeExtraRestartDistance,-0.5
;   toolChangeRetractionSpeed,600
;   externalThinWallType,1
;   internalThinWallType,1
;   thinWallAllowedOverlapPercentage,8
;   singleExtrusionMinLength,1
;   singleExtrusionMinPrintingWidthPercentage,50
;   singleExtrusionMaxPrintingWidthPercentage,200
;   singleExtrusionEndpointExtension,0.2
;   horizontalSizeCompensation,0
G90
M82
M106 S0
M140 S60
M104 S210 T0
M109 S210 T0
G28 ; home all axes
G1 X2 Y2 Z0.2 F3000 ; get ready to prime
G92 E0 ; reset extrusion distance
G1 Y150 E20 F600 ; prime nozzle
G92 E0
G1 E-1.0000 F1800
G1 Z0.300 F1000
; process Process1(1)
; layer 1, Z = 0.300
T0
; tool H0.300 W0.412
; inner perimeter
G1 X111.124 Y110.934 F4600
G1 E0.0000 F540
G92 E0
G1 X111.561 Y110.576 E0.0261 F1035
G1 X112.059 Y110.310 E0.0522
G1 X112.598 Y110.146 E0.0783
G1 X113.160 Y110.091 E0.1044
G1 X113.721 Y110.146 E0.1305
G1 X114.260 Y110.309 E0.1565
G1 X114.759 Y110.576 E0.1827
G1 X115.196 Y110.934 E0.2088
G1 X115.453 Y111.248 E0.2276
G1 X119.539 Y110.397 E0.4206
G1 X119.539 Y110.591 E0.4296
G1 X127.542 Y110.591 E0.7997
G1 X127.542 Y115.349 E1.0197
G1 X119.539 Y115.349 E1.3899
G1 X119.539 Y115.543 E1.3988
G1 X115.453 Y114.692 E1.5918
G1 X115.197 Y115.004 E1.6105
G1 X114.759 Y115.364 E1.6368
G1 X114.261 Y115.630 E1.6629
G1 X113.722 Y115.794 E1.6889
G1 X113.160 Y115.849 E1.7150
G1 X112.599 Y115.794 E1.7411
G1 X112.060 Y115.631 E1.7672
G1 X111.561 Y115.364 E1.7933
G1 X111.124 Y115.006 E1.8194
G1 X110.766 Y114.569 E1.8456
G1 X110.500 Y114.071 E1.8717
G1 X110.336 Y113.532 E1.8977
G1 X110.281 Y112.970 E1.9239
G1 X110.336 Y112.409 E1.9499
G1 X110.499 Y111.870 E1.9760
G1 X110.766 Y111.371 E2.0021
G1 X111.124 Y110.934 E2.0283
; outer perimeter
G1 X110.831 Y110.641 F4600
G92 E0
G1 X111.331 Y110.232 E0.0299 F690
G1 X111.900 Y109.927 E0.0597
G1 X112.517 Y109.740 E0.0896
G1 X113.160 Y109.677 E0.1194
G1 X113.802 Y109.740 E0.1492
G1 X114.419 Y109.927 E0.1791
G1 X114.988 Y110.232 E0.2089
G1 X115.489 Y110.641 E0.2388
G1 X115.614 Y110.794 E0.2480
G1 X119.951 Y109.891 E0.4529
G1 X119.951 Y110.179 E0.4662
G1 X127.954 Y110.179 E0.8363
G1 X127.954 Y115.761 E1.0945
G1 X119.951 Y115.761 E1.4646
G1 X119.951 Y116.049 E1.4780
G1 X115.614 Y115.146 E1.6828
G1 X115.490 Y115.297 E1.6919
G1 X114.989 Y115.708 E1.7219
G1 X114.420 Y116.013 E1.7517
G1 X113.803 Y116.200 E1.7815
G1 X113.160 Y116.263 E1.8114
G1 X112.518 Y116.200 E1.8412
G1 X111.901 Y116.013 E1.8710
G1 X111.332 Y115.708 E1.9009
G1 X110.831 Y115.299 E1.9308
G1 X110.422 Y114.799 E1.9607
G1 X110.117 Y114.230 E1.9906
G1 X109.930 Y113.613 E2.0204
G1 X109.867 Y112.970 E2.0502
G1 X109.930 Y112.328 E2.0801
G1 X110.117 Y111.711 E2.1099
G1 X110.422 Y111.142 E2.1398
G1 X110.831 Y110.641 E2.1697
; solid layer
G1 X111.366 Y114.748 F4600
G92 E0
G1 X111.381 Y114.764 E0.0010 F1104
G1 X111.757 Y115.071 E0.0235
G1 X112.195 Y115.306 E0.0464
G1 X112.641 Y115.441 E0.0680
G1 X110.689 Y113.489 E0.1957
G1 X110.681 Y113.463 E0.1969
G1 X110.633 Y112.970 E0.2198
G1 X110.644 Y112.861 E0.2249
G1 X113.269 Y115.486 E0.3966
G1 X113.653 Y115.449 E0.4145
G1 X113.777 Y115.411 E0.4204
G1 X110.719 Y112.353 E0.6205
G1 X110.824 Y112.005 E0.6373
G1 X110.869 Y111.921 E0.6417
G1 X114.209 Y115.261 E0.8601
G1 X114.563 Y115.071 E0.8787
G1 X114.585 Y115.054 E0.8800
G1 X111.076 Y111.545 E1.1095
G1 X111.339 Y111.225 E1.1286
G1 X114.905 Y114.791 E1.3618
G1 X114.948 Y114.755 E1.3645
G1 X115.175 Y114.479 E1.3810
G1 X111.651 Y110.955 E1.6115
G1 X111.756 Y110.869 E1.6178
G1 X112.011 Y110.732 E1.6311
G1 X115.654 Y114.376 E1.8694
G1 X116.390 Y114.529 E1.9042
G1 X112.426 Y110.564 E2.1635
G1 X112.667 Y110.491 E2.1751
G1 X112.911 Y110.467 E2.1865
G1 X117.126 Y114.682 E2.4622
G1 X117.862 Y114.836 E2.4970
G1 X113.503 Y110.477 E2.7821
G1 X113.653 Y110.491 E2.7890
G1 X114.125 Y110.634 E2.8119
G1 X114.380 Y110.771 E2.8252
G1 X118.598 Y114.989 E3.1011
G1 X119.189 Y115.112 E3.1290
G1 X119.189 Y114.999 E3.1342
G1 X119.191 Y114.999 E3.1343
G1 X115.739 Y111.547 E3.3601
G1 X116.221 Y111.446 E3.3829
G1 X119.773 Y114.999 E3.6153
G1 X120.356 Y114.999 E3.6422
G1 X116.703 Y111.346 E3.8811
G1 X117.185 Y111.245 E3.9039
G1 X120.939 Y114.999 E4.1494
G1 X121.521 Y114.999 E4.1763
G1 X117.668 Y111.145 E4.4284
G1 X118.150 Y111.044 E4.4512
G1 X122.104 Y114.999 E4.7098
G1 X122.687 Y114.999 E4.7368
G1 X118.632 Y110.944 E5.0020
G1 X119.114 Y110.844 E5.0247
G1 X119.189 Y110.918 E5.0296
G1 X119.189 Y110.941 E5.0307
G1 X119.212 Y110.941 E5.0318
G1 X123.269 Y114.999 E5.2971
G1 X123.852 Y114.999 E5.3241
G1 X119.794 Y110.941 E5.5895
G1 X120.377 Y110.941 E5.6164
G1 X124.435 Y114.999 E5.8818
G1 X125.017 Y114.999 E5.9088
G1 X120.960 Y110.941 E6.1742
G1 X121.542 Y110.941 E6.2011
G1 X125.600 Y114.999 E6.4665
G1 X126.183 Y114.999 E6.4934
G1 X122.125 Y110.941 E6.7588
G1 X122.708 Y110.941 E6.7858
G1 X126.765 Y114.999 E7.0512
G1 X127.192 Y114.999 E7.0709
G1 X127.192 Y114.843 E7.0781
G1 X123.290 Y110.941 E7.3333
G1 X123.873 Y110.941 E7.3602
G1 X127.192 Y114.260 E7.5773
G1 X127.192 Y113.677 E7.6042
G1 X124.456 Y110.941 E7.7832
G1 X125.038 Y110.941 E7.8101
G1 X127.192 Y113.095 E7.9510
G1 X127.192 Y112.512 E7.9779
G1 X125.621 Y110.941 E8.0806
G1 X126.204 Y110.941 E8.1076
G1 X127.192 Y111.929 E8.1722
G1 X127.192 Y111.347 E8.1992
G1 X126.786 Y110.941 E8.2257
G92 E0
G1 E-1.0000 F1800
; layer 2, Z = 0.420
M106 S255
; tool H0.120 W0.400
; inner perimeter
G1 X127.560 Y110.573 F4600
G1 Z0.420 F1000
G1 E0.0000 F1800
G92 E0
G1 X127.560 Y115.367 E0.0861 F1153
G1 X119.557 Y115.367 E0.2298
G1 X119.557 Y115.565 E0.2334
G1 X115.460 Y114.711 E0.3085
G1 X115.209 Y115.019 E0.3157
G1 X114.769 Y115.379 E0.3259
G1 X114.268 Y115.647 E0.3361
G1 X113.725 Y115.812 E0.3463
G1 X113.160 Y115.867 E0.3565
G1 X112.596 Y115.812 E0.3667
G1 X112.054 Y115.648 E0.3768
G1 X111.552 Y115.379 E0.3871
G1 X111.111 Y115.019 E0.3973
G1 X110.751 Y114.579 E0.4075
G1 X110.483 Y114.078 E0.4177
G1 X110.318 Y113.535 E0.4279
G1 X110.263 Y112.970 E0.4381
G1 X110.318 Y112.406 E0.4483
G1 X110.482 Y111.864 E0.4584
G1 X110.751 Y111.362 E0.4687
G1 X111.111 Y110.921 E0.4789
G1 X111.551 Y110.561 E0.4891
G1 X112.052 Y110.293 E0.4993
G1 X112.595 Y110.128 E0.5095
G1 X113.160 Y110.073 E0.5197
G1 X113.724 Y110.128 E0.5299
G1 X114.266 Y110.292 E0.5400
G1 X114.768 Y110.561 E0.5503
G1 X115.209 Y110.921 E0.5605
G1 X115.460 Y111.229 E0.5676
G1 X119.557 Y110.375 E0.6428
G1 X119.557 Y110.573 E0.6463
G1 X127.560 Y110.573 E0.7901
; outer perimeter
G1 X127.960 Y110.173 F4600
G92 E0
G1 X127.960 Y115.767 E0.1005 F769
G1 X119.957 Y115.767 E0.2442
G1 X119.957 Y116.057 E0.2494
G1 X115.616 Y115.152 E0.3290
G1 X115.493 Y115.303 E0.3325
G1 X114.992 Y115.713 E0.3442
G1 X114.422 Y116.018 E0.3558
G1 X113.804 Y116.206 E0.3674
G1 X113.160 Y116.269 E0.3790
G1 X112.518 Y116.206 E0.3906
G1 X111.901 Y116.019 E0.4022
G1 X111.329 Y115.714 E0.4138
G1 X110.827 Y115.303 E0.4255
G1 X110.417 Y114.802 E0.4371
G1 X110.112 Y114.232 E0.4487
G1 X109.924 Y113.614 E0.4603
G1 X109.861 Y112.970 E0.4719
G1 X109.924 Y112.328 E0.4835
G1 X110.111 Y111.711 E0.4951
G1 X110.416 Y111.139 E0.5067
G1 X110.827 Y110.637 E0.5184
G1 X111.328 Y110.227 E0.5300
G1 X111.898 Y109.922 E0.5416
G1 X112.516 Y109.734 E0.5532
G1 X113.160 Y109.671 E0.5649
G1 X113.802 Y109.734 E0.5764
G1 X114.419 Y109.921 E0.5880
G1 X114.991 Y110.226 E0.5997
G1 X115.493 Y110.637 E0.6113
G1 X115.616 Y110.788 E0.6148
G1 X119.957 Y109.883 E0.6944
G1 X119.957 Y110.173 E0.6996
G1 X127.960 Y110.173 E0.8434
; solid layer
G1 X127.220 Y114.842 F4600
G92 E0
G1 X127.035 Y115.027 E0.0047 F1230
G1 X126.470 Y115.027 E0.0148
G1 X127.220 Y114.277 E0.0339
G1 X127.220 Y113.711 E0.0441
G1 X125.904 Y115.027 E0.0775
G1 X125.338 Y115.027 E0.0877
G1 X127.220 Y113.145 E0.1354
G1 X127.220 Y112.580 E0.1456
G1 X124.773 Y115.027 E0.2078
G1 X124.207 Y115.027 E0.2179
G1 X127.220 Y112.014 E0.2945
G1 X127.220 Y111.448 E0.3046
G1 X123.641 Y115.027 E0.3955
G1 X123.076 Y115.027 E0.4057
G1 X127.190 Y110.913 E0.5102
G1 X126.624 Y110.913 E0.5203
G1 X122.510 Y115.027 E0.6248
G1 X121.944 Y115.027 E0.6350
G1 X126.058 Y110.913 E0.7395
G1 X125.493 Y110.913 E0.7496
G1 X121.379 Y115.027 E0.8541
G1 X120.813 Y115.027 E0.8643
G1 X124.927 Y110.913 E0.9688
G1 X124.361 Y110.913 E0.9790
G1 X120.247 Y115.027 E1.0835
G1 X119.681 Y115.027 E1.0936
G1 X123.795 Y110.913 E1.1981
G1 X123.230 Y110.913 E1.2083
G1 X119.034 Y115.109 E1.3148
G1 X118.566 Y115.011 E1.3234
G1 X122.664 Y110.913 E1.4275
G1 X122.098 Y110.913 E1.4377
G1 X118.098 Y114.914 E1.5393
G1 X117.630 Y114.816 E1.5479
G1 X121.533 Y110.913 E1.6470
G1 X120.967 Y110.913 E1.6572
G1 X117.162 Y114.718 E1.7538
G1 X116.693 Y114.621 E1.7624
G1 X120.401 Y110.913 E1.8566
G1 X119.836 Y110.913 E1.8668
G1 X116.225 Y114.523 E1.9585
G1 X115.757 Y114.426 E1.9671
G1 X119.270 Y110.913 E2.0563
G1 X119.217 Y110.913 E2.0572
G1 X119.217 Y110.793 E2.0594
G1 X118.721 Y110.897 E2.0685
G1 X114.457 Y115.160 E2.1768
G1 X114.137 Y115.331 E2.1833
G1 X113.659 Y115.477 E2.1923
G1 X113.566 Y115.486 E2.1940
G1 X118.006 Y111.046 E2.3067
G1 X117.291 Y111.194 E2.3198
G1 X112.978 Y115.508 E2.4294
G1 X112.663 Y115.477 E2.4351
G1 X112.494 Y115.426 E2.4383
G1 X116.577 Y111.343 E2.5419
G1 X115.862 Y111.492 E2.5551
G1 X112.079 Y115.275 E2.6512
G1 X111.742 Y115.095 E2.6580
G1 X111.715 Y115.074 E2.6586
G1 X115.264 Y111.525 E2.7488
G1 X115.009 Y111.214 E2.7560
G1 X111.404 Y114.819 E2.8475
G1 X111.353 Y114.777 E2.8487
G1 X111.140 Y114.517 E2.8548
G1 X114.707 Y110.950 E2.9454
G1 X114.578 Y110.845 E2.9484
G1 X114.362 Y110.729 E2.9528
G1 X110.919 Y114.173 E3.0402
G1 X110.799 Y113.947 E3.0448
G1 X110.747 Y113.779 E3.0480
G1 X113.969 Y110.558 E3.1298
G1 X113.657 Y110.463 E3.1356
G1 X113.511 Y110.449 E3.1383
G1 X110.639 Y113.321 E3.2112
G1 X110.605 Y112.970 E3.2176
G1 X110.624 Y112.771 E3.2212
G1 X112.961 Y110.434 E3.2805
G1 X112.661 Y110.463 E3.2859
G1 X112.237 Y110.592 E3.2939
G1 X110.782 Y112.047 E3.3308
G92 E0
G1 E-1.0000 F1800
; layer 3, Z = 0.540
; inner perimeter
G1 X110.482 Y111.865 F4600
G1 Z0.540 F1000
G1 E0.0000 F1800
G92 E0
G1 X110.751 Y111.362 E0.0102 F1157
G1 X111.111 Y110.921 E0.0205
G1 X111.551 Y110.561 E0.0307
G1 X112.052 Y110.293 E0.0409
G1 X112.595 Y110.128 E0.0511
G1 X113.160 Y110.073 E0.0613
G1 X113.723 Y110.128 E0.0714
G1 X114.265 Y110.292 E0.0816
G1 X114.768 Y110.560 E0.0918
G1 X115.209 Y110.922 E0.1021
G1 X115.460 Y111.229 E0.1092
G1 X119.557 Y110.375 E0.1844
G1 X119.557 Y110.573 E0.1879
G1 X127.560 Y110.573 E0.3317
G1 X127.560 Y115.367 E0.4178
G1 X119.557 Y115.367 E0.5615
G1 X119.557 Y115.565 E0.5650
G1 X115.460 Y114.711 E0.6402
G1 X115.209 Y115.019 E0.6473
G1 X114.769 Y115.379 E0.6575
G1 X114.268 Y115.647 E0.6678
G1 X113.725 Y115.812 E0.6779
G1 X113.160 Y115.867 E0.6881
G1 X112.597 Y115.812 E0.6983
G1 X112.055 Y115.648 E0.7085
G1 X111.552 Y115.379 E0.7187
G1 X111.111 Y115.018 E0.7289
