; G-Code generated by Simplify3D(R) Version 4.0.0
; Jan 29, 2021 at 3:46:32 PM
; Settings Summary
;   processName,Process1
;   applyToModels,sylmaze03dring
;   profileName,def (modified)
;   profileVersion,2020-09-07 14:01:24
;   baseProfile,Default (modified)
;   printMaterial,PLA
;   printQuality,Medium
;   printExtruders,
;   extruderName,Primary Extruder
;   extruderToolheadNumber,0
;   extruderDiameter,0.4
;   extruderAutoWidth,0
;   extruderWidth,0.4
;   extrusionMultiplier,0.9
;   extruderUseRetract,1
;   extruderRetractionDistance,1
;   extruderExtraRestartDistance,0
;   extruderRetractionZLift,0
;   extruderRetractionSpeed,1800
;   extruderUseCoasting,0
;   extruderCoastingDistance,0.2
;   extruderUseWipe,0
;   extruderWipeDistance,5
;   primaryExtruder,0
;   layerHeight,0.3
;   topSolidLayers,3
;   bottomSolidLayers,3
;   perimeterOutlines,2
;   printPerimetersInsideOut,1
;   startPointOption,2
;   startPointOriginX,0
;   startPointOriginY,0
;   sequentialIslands,0
;   spiralVaseMode,0
;   firstLayerHeightPercentage,90
;   firstLayerWidthPercentage,103
;   firstLayerUnderspeed,0.3
;   useRaft,0
;   raftExtruder,0
;   raftTopLayers,2
;   raftBaseLayers,2
;   raftOffset,1.4
;   raftSeparationDistance,0.14
;   raftTopInfill,100
;   aboveRaftSpeedMultiplier,0.3
;   useSkirt,0
;   skirtExtruder,0
;   skirtLayers,1
;   skirtOutlines,2
;   skirtOffset,4
;   usePrimePillar,0
;   primePillarExtruder,999
;   primePillarWidth,12
;   primePillarLocation,7
;   primePillarSpeedMultiplier,1
;   useOozeShield,0
;   oozeShieldExtruder,999
;   oozeShieldOffset,2
;   oozeShieldOutlines,1
;   oozeShieldSidewallShape,1
;   oozeShieldSidewallAngle,30
;   oozeShieldSpeedMultiplier,1
;   infillExtruder,0
;   internalInfillPattern,Rectilinear
;   externalInfillPattern,Rectilinear
;   infillPercentage,30
;   outlineOverlapPercentage,15
;   infillExtrusionWidthPercentage,100
;   minInfillLength,5
;   infillLayerInterval,1
;   internalInfillAngles,45,-45
;   overlapInternalInfillAngles,0
;   externalInfillAngles,45,-45
;   generateSupport,0
;   supportExtruder,0
;   supportInfillPercentage,30
;   supportExtraInflation,0
;   supportBaseLayers,0
;   denseSupportExtruder,0
;   denseSupportLayers,0
;   denseSupportInfillPercentage,70
;   supportLayerInterval,1
;   supportHorizontalPartOffset,0.2
;   supportUpperSeparationLayers,1
;   supportLowerSeparationLayers,1
;   supportType,0
;   supportGridSpacing,4
;   maxOverhangAngle,45
;   supportAngles,0
;   temperatureName,Primary Extruder,Hot Bed
;   temperatureNumber,0,1
;   temperatureSetpointCount,1,1
;   temperatureSetpointLayers,1,1
;   temperatureSetpointTemperatures,210,60
;   temperatureStabilizeAtStartup,1,0
;   temperatureHeatedBed,0,1
;   temperatureRelayBetweenLayers,0,0
;   temperatureRelayBetweenLoops,0,0
;   fanLayers,1,2
;   fanSpeeds,0,100
;   blipFanToFullPower,0
;   adjustSpeedForCooling,1
;   minSpeedLayerTime,15
;   minCoolingSpeedSlowdown,20
;   increaseFanForCooling,0
;   minFanLayerTime,45
;   maxCoolingFanSpeed,100
;   increaseFanForBridging,0
;   bridgingFanSpeed,100
;   use5D,1
;   relativeEdistances,0
;   allowEaxisZeroing,1
;   independentExtruderAxes,0
;   includeM10123,0
;   stickySupport,1
;   applyToolheadOffsets,0
;   gcodeXoffset,-0.09
;   gcodeYoffset,-0.03
;   gcodeZoffset,0
;   overrideMachineDefinition,0
;   machineTypeOverride,0
;   strokeXoverride,200
;   strokeYoverride,200
;   strokeZoverride,200
;   originOffsetXoverride,0
;   originOffsetYoverride,0
;   originOffsetZoverride,0
;   homeXdirOverride,-1
;   homeYdirOverride,-1
;   homeZdirOverride,-1
;   flipXoverride,1
;   flipYoverride,-1
;   flipZoverride,1
;   toolheadOffsets,0,0|0,0|0,0|0,0|0,0|0,0
;   overrideFirmwareConfiguration,0
;   firmwareTypeOverride,RepRap (Marlin/Repetier/Sprinter)
;   GPXconfigOverride,r2
;   baudRateOverride,115200
;   overridePrinterModels,0
;   printerModelsOverride
;   startingGcode,G28 ; home all axes,G1 X2 Y2 Z0.2 F3000 ; get ready to prime,G92 E0 ; reset extrusion distance,G1 Y150 E20 F600 ; prime nozzle
;   layerChangeGcode,
;   retractionGcode,
;   toolChangeGcode,
;   endingGcode,M104 S0 ; turn off extruder,M140 S0 ; turn off bedG1 X0 Y0; home,M84 ; disable motors,M107 ; fan off,G28 X Y; Home,M18; Disable steppers
;   exportFileFormat,gcode
;   celebration,0
;   celebrationSong,Random Song
;   postProcessing,
;   defaultSpeed,4600
;   outlineUnderspeed,0.5
;   solidInfillUnderspeed,0.8
;   supportUnderspeed,0.8
;   rapidXYspeed,4600
;   rapidZspeed,1000
;   minBridgingArea,50
;   bridgingExtraInflation,0
;   bridgingExtrusionMultiplier,1
;   bridgingSpeedMultiplier,1
;   useFixedBridgingAngle,0
;   fixedBridgingAngle,0
;   applyBridgingToPerimeters,0
;   filamentDiameters,1.75|1.75|1.75|1.75|1.75|1.75
;   filamentPricesPerKg,46|46|46|46|46|46
;   filamentDensities,1.25|1.25|1.25|1.25|1.25|1.25
;   useMinPrintHeight,0
;   minPrintHeight,0
;   useMaxPrintHeight,0
;   maxPrintHeight,0.6
;   useDiaphragm,0
;   diaphragmLayerInterval,20
;   robustSlicing,1
;   mergeAllIntoSolid,0
;   onlyRetractWhenCrossingOutline,1
;   retractBetweenLayers,1
;   useRetractionMinTravel,0
;   retractionMinTravel,3
;   retractWhileWiping,0
;   onlyWipeOutlines,1
;   avoidCrossingOutline,0
;   maxMovementDetourFactor,3
;   toolChangeRetractionDistance,12
;   toolChangeExtraRestartDistance,-0.5
;   toolChangeRetractionSpeed,600
;   externalThinWallType,1
;   internalThinWallType,1
;   thinWallAllowedOverlapPercentage,8
;   singleExtrusionMinLength,1
;   singleExtrusionMinPrintingWidthPercentage,50
;   singleExtrusionMaxPrintingWidthPercentage,200
;   singleExtrusionEndpointExtension,0.2
;   horizontalSizeCompensation,0
G90
M82
M106 S0
M140 S60
M104 S210 T0
M109 S210 T0
G28 ; home all axes
G1 X2 Y2 Z0.2 F3000 ; get ready to prime
G92 E0 ; reset extrusion distance
G1 Y150 E20 F600 ; prime nozzle
G92 E0
G1 E-1.0000 F1800
G1 Z0.270 F1000
; process Process1
; layer 1, Z = 0.270
T0
; tool H0.300 W0.412
; inner perimeter
G1 X78.881 Y110.941 F4600
G1 E0.0000 F540
G92 E0
G1 X79.811 Y110.318 E0.0518 F1035
G1 X80.910 Y110.100 E0.1036
G1 X82.009 Y110.318 E0.1554
G1 X82.939 Y110.941 E0.2072
G1 X83.153 Y111.259 E0.2249
G1 X87.289 Y110.397 E0.4203
G1 X87.289 Y110.591 E0.4293
G1 X95.293 Y110.591 E0.7994
G1 X95.293 Y115.349 E1.0195
G1 X87.289 Y115.349 E1.3897
G1 X87.289 Y115.543 E1.3986
G1 X83.153 Y114.681 E1.5940
G1 X82.939 Y114.999 E1.6118
G1 X82.009 Y115.622 E1.6636
G1 X80.910 Y115.841 E1.7154
G1 X79.811 Y115.622 E1.7672
G1 X78.881 Y114.999 E1.8190
G1 X78.258 Y114.069 E1.8707
G1 X78.040 Y112.970 E1.9225
G1 X78.258 Y111.871 E1.9744
G1 X78.881 Y110.941 E2.0261
; outer perimeter
G1 X78.584 Y110.644 F4600
G92 E0
G1 X79.650 Y109.930 E0.0594 F690
G1 X80.910 Y109.680 E0.1187
G1 X82.170 Y109.930 E0.1781
G1 X83.236 Y110.644 E0.2375
G1 X83.341 Y110.799 E0.2462
G1 X87.701 Y109.891 E0.4521
G1 X87.701 Y110.179 E0.4655
G1 X95.705 Y110.179 E0.8356
G1 X95.705 Y115.761 E1.0938
G1 X87.701 Y115.761 E1.4640
G1 X87.701 Y116.050 E1.4773
G1 X83.341 Y115.141 E1.6833
G1 X83.236 Y115.296 E1.6920
G1 X82.170 Y116.010 E1.7513
G1 X80.910 Y116.261 E1.8107
G1 X79.650 Y116.010 E1.8701
G1 X78.584 Y115.296 E1.9295
G1 X77.870 Y114.230 E1.9889
G1 X77.620 Y112.970 E2.0482
G1 X77.870 Y111.710 E2.1076
G1 X78.584 Y110.644 E2.1670
; solid layer
G1 X78.759 Y114.187 F4600
G92 E0
G1 X79.693 Y115.121 E0.0611 F1104
G1 X79.948 Y115.292 E0.0753
G1 X80.570 Y115.416 E0.1046
G1 X78.465 Y113.311 E0.2423
G1 X78.397 Y112.970 E0.2584
G1 X78.448 Y112.712 E0.2706
G1 X81.169 Y115.432 E0.4485
G1 X81.655 Y115.335 E0.4714
G1 X78.545 Y112.225 E0.6748
G1 X78.588 Y112.008 E0.6851
G1 X78.717 Y111.815 E0.6958
G1 X82.065 Y115.163 E0.9148
G1 X82.414 Y114.929 E0.9342
G1 X78.951 Y111.466 E1.1608
G1 X79.133 Y111.193 E1.1759
G1 X79.209 Y111.142 E1.1802
G1 X82.738 Y114.671 E1.4110
G1 X82.972 Y114.322 E1.4304
G1 X79.558 Y110.908 E1.6537
G1 X79.908 Y110.675 E1.6731
G1 X83.662 Y114.429 E1.9186
G1 X84.398 Y114.583 E1.9534
G1 X80.378 Y110.563 E2.2163
G1 X80.864 Y110.466 E2.2393
G1 X85.134 Y114.736 E2.5185
G1 X85.870 Y114.889 E2.5533
G1 X81.568 Y110.588 E2.8347
G1 X81.872 Y110.648 E2.8490
G1 X82.687 Y111.193 E2.8943
G1 X82.993 Y111.650 E2.9197
G1 X83.175 Y111.612 E2.9284
G1 X86.606 Y115.043 E3.1528
G1 X86.939 Y115.112 E3.1685
G1 X86.939 Y114.999 E3.1737
G1 X87.145 Y114.999 E3.1832
G1 X83.658 Y111.512 E3.4113
G1 X84.140 Y111.411 E3.4341
G1 X87.727 Y114.999 E3.6688
G1 X88.310 Y114.999 E3.6957
G1 X84.622 Y111.311 E3.9369
G1 X85.104 Y111.210 E3.9597
G1 X88.893 Y114.999 E4.2075
G1 X89.475 Y114.999 E4.2344
G1 X85.586 Y111.110 E4.4888
G1 X86.069 Y111.009 E4.5116
G1 X90.058 Y114.999 E4.7725
G1 X90.641 Y114.999 E4.7995
G1 X86.551 Y110.909 E5.0670
G1 X86.939 Y110.828 E5.0853
G1 X86.939 Y110.941 E5.0905
G1 X87.166 Y110.941 E5.1010
G1 X91.223 Y114.999 E5.3664
G1 X91.806 Y114.999 E5.3934
G1 X87.748 Y110.941 E5.6587
G1 X88.331 Y110.941 E5.6857
G1 X92.389 Y114.999 E5.9511
G1 X92.971 Y114.999 E5.9780
G1 X88.914 Y110.941 E6.2434
G1 X89.496 Y110.941 E6.2704
G1 X93.554 Y114.999 E6.5357
G1 X94.137 Y114.999 E6.5627
G1 X90.079 Y110.941 E6.8281
G1 X90.662 Y110.941 E6.8550
G1 X94.719 Y114.999 E7.1204
G1 X94.943 Y114.999 E7.1307
G1 X94.943 Y114.640 E7.1474
G1 X91.244 Y110.941 E7.3893
G1 X91.827 Y110.941 E7.4162
G1 X94.943 Y114.057 E7.6200
G1 X94.943 Y113.474 E7.6469
G1 X92.410 Y110.941 E7.8126
G1 X92.992 Y110.941 E7.8396
G1 X94.943 Y112.892 E7.9671
G1 X94.943 Y112.309 E7.9941
G1 X93.575 Y110.941 E8.0835
G1 X94.158 Y110.941 E8.1105
G1 X94.943 Y111.726 E8.1618
G1 X94.943 Y111.144 E8.1888
G1 X94.740 Y110.941 E8.2020
G92 E0
G1 E-1.0000 F1800
; inner perimeter
G1 X103.028 Y109.636 F4600
G1 E0.0000 F1800
G92 E0
G1 X104.789 Y108.926 E0.0878 F1035
G1 X116.935 Y104.029 E0.6935
G1 X118.802 Y100.537 E0.8766
G1 X121.581 Y97.151 E1.0792
G1 X124.977 Y94.362 E1.2824
G1 X128.846 Y92.294 E1.4853
G1 X133.044 Y91.020 E1.6882
G1 X137.410 Y90.590 E1.8911
G1 X141.776 Y91.020 E2.0940
G1 X145.974 Y92.294 E2.2969
G1 X149.843 Y94.362 E2.4998
G1 X153.235 Y97.145 E2.7027
G1 X156.018 Y100.537 E2.9056
G1 X158.086 Y104.406 E3.1085
G1 X159.360 Y108.604 E3.3114
G1 X159.790 Y112.970 E3.5143
G1 X159.360 Y117.336 E3.7172
G1 X158.086 Y121.534 E3.9201
G1 X156.018 Y125.403 E4.1230
G1 X153.235 Y128.795 E4.3259
G1 X149.843 Y131.578 E4.5288
G1 X145.974 Y133.646 E4.7317
G1 X141.776 Y134.920 E4.9346
G1 X137.410 Y135.350 E5.1375
G1 X133.044 Y134.920 E5.3404
G1 X128.846 Y133.646 E5.5433
G1 X124.977 Y131.578 E5.7462
G1 X121.585 Y128.795 E5.9491
G1 X118.802 Y125.403 E6.1520
G1 X116.935 Y121.910 E6.3352
G1 X104.789 Y117.014 E6.9408
G1 X103.028 Y116.304 E7.0287
G1 X103.028 Y109.636 E7.3370
; outer perimeter
G1 X102.616 Y109.358 F4600
G92 E0
G1 X116.642 Y103.703 E0.6994 F690
G1 X118.458 Y100.307 E0.8775
G1 X121.288 Y96.858 E1.0838
G1 X124.747 Y94.018 E1.2908
G1 X128.687 Y91.911 E1.4975
G1 X132.963 Y90.614 E1.7041
G1 X137.410 Y90.176 E1.9108
G1 X141.857 Y90.614 E2.1174
G1 X146.133 Y91.911 E2.3241
G1 X150.073 Y94.018 E2.5307
G1 X153.528 Y96.852 E2.7374
G1 X156.362 Y100.307 E2.9441
G1 X158.469 Y104.247 E3.1507
G1 X159.766 Y108.523 E3.3574
G1 X160.204 Y112.970 E3.5640
G1 X159.766 Y117.417 E3.7707
G1 X158.469 Y121.693 E3.9773
G1 X156.362 Y125.633 E4.1840
G1 X153.528 Y129.088 E4.3906
G1 X150.073 Y131.922 E4.5973
G1 X146.133 Y134.029 E4.8039
G1 X141.857 Y135.326 E5.0106
G1 X137.410 Y135.764 E5.2172
G1 X132.963 Y135.326 E5.4239
G1 X128.687 Y134.029 E5.6305
G1 X124.747 Y131.922 E5.8372
G1 X121.292 Y129.088 E6.0438
G1 X118.458 Y125.633 E6.2505
G1 X116.642 Y122.236 E6.4286
G1 X102.616 Y116.582 E7.1280
G1 X102.616 Y109.358 E7.4621
; inner perimeter
G1 X104.789 Y109.349 F4600
G92 E0
G1 X104.789 Y116.591 E0.3349 F1035
G1 X112.031 Y116.591 E0.6699
G1 X112.031 Y109.349 E1.0048
G1 X104.789 Y109.349 E1.3397
; outer perimeter
G1 X105.201 Y109.761 F4600
G92 E0
G1 X105.201 Y116.179 E0.2968 F690
G1 X111.619 Y116.179 E0.5936
G1 X111.619 Y109.761 E0.8905
G1 X105.201 Y109.761 E1.1873
; inner perimeter
G1 X117.673 Y109.044 F4600
G92 E0
G1 X117.290 Y113.010 E0.1842 F1035
G1 X117.673 Y116.896 E0.3649
G1 X118.818 Y120.671 E0.5473
G1 X120.678 Y124.150 E0.7297
G1 X123.179 Y127.199 E0.9121
G1 X126.230 Y129.702 E1.0946
G1 X129.709 Y131.562 E1.2771
G1 X133.484 Y132.707 E1.4595
G1 X137.410 Y133.094 E1.6420
G1 X141.336 Y132.707 E1.8244
G1 X145.111 Y131.562 E2.0068
G1 X148.590 Y129.702 E2.1893
G1 X151.640 Y127.200 E2.3718
G1 X154.142 Y124.150 E2.5542
G1 X156.002 Y120.671 E2.7367
G1 X157.147 Y116.896 E2.9191
G1 X157.534 Y112.970 E3.1015
G1 X157.147 Y109.044 E3.2840
G1 X156.002 Y105.269 E3.4664
G1 X154.142 Y101.790 E3.6489
G1 X151.640 Y98.740 E3.8313
G1 X148.590 Y96.238 E4.0138
G1 X145.111 Y94.378 E4.1962
G1 X141.336 Y93.233 E4.3787
G1 X137.410 Y92.846 E4.5611
G1 X133.484 Y93.233 E4.7436
G1 X129.709 Y94.378 E4.9260
G1 X126.230 Y96.238 E5.1084
G1 X123.180 Y98.740 E5.2909
G1 X120.678 Y101.790 E5.4734
G1 X118.818 Y105.269 E5.6558
G1 X117.673 Y109.044 E5.8383
; outer perimeter
G1 X118.079 Y109.125 F4600
G92 E0
G1 X117.704 Y113.009 E0.1805 F690
G1 X118.079 Y116.815 E0.3574
G1 X119.201 Y120.512 E0.5360
G1 X121.022 Y123.920 E0.7147
G1 X123.472 Y126.906 E0.8934
G1 X126.460 Y129.358 E1.0721
G1 X129.868 Y131.179 E1.2508
G1 X133.565 Y132.301 E1.4295
G1 X137.410 Y132.680 E1.6082
G1 X141.255 Y132.301 E1.7869
G1 X144.952 Y131.179 E1.9656
G1 X148.360 Y129.358 E2.1443
G1 X151.347 Y126.907 E2.3230
G1 X153.798 Y123.920 E2.5017
G1 X155.619 Y120.512 E2.6804
G1 X156.741 Y116.815 E2.8590
G1 X157.120 Y112.970 E3.0378
G1 X156.741 Y109.125 E3.2165
G1 X155.619 Y105.428 E3.3951
G1 X153.798 Y102.020 E3.5738
G1 X151.347 Y99.033 E3.7525
G1 X148.360 Y96.582 E3.9312
G1 X144.952 Y94.761 E4.1099
G1 X141.255 Y93.639 E4.2886
G1 X137.410 Y93.260 E4.4673
G1 X133.565 Y93.639 E4.6460
G1 X129.868 Y94.761 E4.8247
G1 X126.460 Y96.582 E5.0034
G1 X123.473 Y99.033 E5.1821
G1 X121.022 Y102.020 E5.3608
G1 X119.201 Y105.428 E5.5395
G1 X118.079 Y109.125 E5.7182
; solid layer
G1 X117.037 Y114.010 F4600
G92 E0
G1 X112.381 Y109.354 E0.3045 F1104
G1 X112.381 Y109.937 E0.3314
G1 X117.100 Y114.656 E0.6401
G1 X117.164 Y115.303 E0.6701
G1 X112.381 Y110.520 E0.9830
G1 X112.381 Y111.102 E1.0099
G1 X117.228 Y115.949 E1.3269
G1 X117.291 Y116.595 E1.3569
G1 X112.381 Y111.685 E1.6781
G1 X112.381 Y112.268 E1.7050
G1 X117.436 Y117.323 E2.0357
G1 X117.690 Y118.160 E2.0761
G1 X112.381 Y112.850 E2.4233
G1 X112.381 Y113.433 E2.4503
G1 X117.944 Y118.996 E2.8141
G1 X118.198 Y119.833 E2.8546
G1 X112.381 Y114.016 E3.2350
G1 X112.381 Y114.598 E3.2620
G1 X118.452 Y120.669 E3.6590
G1 X118.493 Y120.805 E3.6656
G1 X119.053 Y121.853 E3.7205
G1 X112.381 Y115.181 E4.1569
G1 X112.381 Y115.764 E4.1838
G1 X119.722 Y123.104 E4.6639
G1 X120.385 Y124.345 E4.7290
G1 X120.407 Y124.372 E4.7306
G1 X112.381 Y116.346 E5.2555
G1 X112.381 Y116.929 E5.2824
G1 X117.019 Y121.566 E5.5857
G1 X117.183 Y121.633 E5.5940
G1 X117.297 Y121.844 E5.6051
G1 X128.536 Y133.083 E6.3402
G1 X128.980 Y133.321 E6.3635
G1 X129.520 Y133.485 E6.3895
G1 X126.008 Y129.973 E6.6192
G1 X126.035 Y129.995 E6.6208
G1 X127.276 Y130.658 E6.6859
G1 X130.356 Y133.739 E6.8873
G1 X131.192 Y133.992 E6.9278
G1 X128.527 Y131.327 E7.1021
G1 X129.575 Y131.887 E7.1570
G1 X129.711 Y131.928 E7.1636
G1 X132.029 Y134.246 E7.3152
G1 X132.865 Y134.500 E7.3556
G1 X130.547 Y132.182 E7.5072
G1 X131.384 Y132.436 E7.5476
G1 X133.568 Y134.620 E7.6905
G1 X134.214 Y134.683 E7.7205
G1 X132.220 Y132.690 E7.8509
G1 X133.057 Y132.943 E7.8913
G1 X134.860 Y134.747 E8.0093
G1 X135.507 Y134.811 E8.0393
G1 X133.785 Y133.089 E8.1519
G1 X134.431 Y133.152 E8.1820
G1 X136.153 Y134.874 E8.2946
G1 X136.799 Y134.938 E8.3246
G1 X135.077 Y133.216 E8.4373
G1 X135.724 Y133.280 E8.4673
G1 X137.439 Y134.995 E8.5795
G1 X137.970 Y134.943 E8.6042
G1 X136.370 Y133.343 E8.7088
G1 X137.016 Y133.407 E8.7388
G1 X138.500 Y134.891 E8.8359
G1 X139.031 Y134.838 E8.8605
G1 X137.617 Y133.425 E8.9529
G1 X138.148 Y133.373 E8.9776
G1 X139.561 Y134.786 E9.0700
G1 X140.091 Y134.734 E9.0946
G1 X138.678 Y133.321 E9.1871
G1 X139.209 Y133.269 E9.2117
G1 X140.622 Y134.682 E9.3041
G1 X141.152 Y134.629 E9.3288
G1 X139.739 Y133.216 E9.4212
