; G-Code generated by Simplify3D(R) Version 4.0.0
; May 1, 2018 at 7:03:58 PM
; Settings Summary
;   processName,nozzle 0.4
;   applyToModels,T1
;   profileName,Flying Bear 902 Update 7-2017 (modified)
;   profileVersion,2017-07-10 09:45:20
;   baseProfile,Default
;   printMaterial,PLA
;   printQuality,Medium
;   printExtruders,
;   extruderName,Extruder 1
;   extruderToolheadNumber,0
;   extruderDiameter,0.4
;   extruderAutoWidth,1
;   extruderWidth,0.48
;   extrusionMultiplier,0.9
;   extruderUseRetract,1
;   extruderRetractionDistance,2
;   extruderExtraRestartDistance,0
;   extruderRetractionZLift,0
;   extruderRetractionSpeed,3000
;   extruderUseCoasting,0
;   extruderCoastingDistance,0.2
;   extruderUseWipe,1
;   extruderWipeDistance,5
;   primaryExtruder,0
;   layerHeight,0.3
;   topSolidLayers,4
;   bottomSolidLayers,4
;   perimeterOutlines,3
;   printPerimetersInsideOut,0
;   startPointOption,2
;   startPointOriginX,0
;   startPointOriginY,0
;   sequentialIslands,0
;   spiralVaseMode,0
;   firstLayerHeightPercentage,20
;   firstLayerWidthPercentage,100
;   firstLayerUnderspeed,0.5
;   useRaft,0
;   raftExtruder,0
;   raftTopLayers,2
;   raftBaseLayers,2
;   raftOffset,2
;   raftSeparationDistance,0.55
;   raftTopInfill,100
;   aboveRaftSpeedMultiplier,0.3
;   useSkirt,0
;   skirtExtruder,0
;   skirtLayers,1
;   skirtOutlines,2
;   skirtOffset,4
;   usePrimePillar,0
;   primePillarExtruder,999
;   primePillarWidth,12
;   primePillarLocation,7
;   primePillarSpeedMultiplier,1
;   useOozeShield,0
;   oozeShieldExtruder,999
;   oozeShieldOffset,2
;   oozeShieldOutlines,1
;   oozeShieldSidewallShape,1
;   oozeShieldSidewallAngle,30
;   oozeShieldSpeedMultiplier,1
;   infillExtruder,0
;   internalInfillPattern,Rectilinear
;   externalInfillPattern,Rectilinear
;   infillPercentage,100
;   outlineOverlapPercentage,60
;   infillExtrusionWidthPercentage,100
;   minInfillLength,5
;   infillLayerInterval,1
;   internalInfillAngles,45,-45
;   overlapInternalInfillAngles,0
;   externalInfillAngles,45,-45
;   generateSupport,1
;   supportExtruder,0
;   supportInfillPercentage,30
;   supportExtraInflation,0
;   supportBaseLayers,0
;   denseSupportExtruder,0
;   denseSupportLayers,0
;   denseSupportInfillPercentage,50
;   supportLayerInterval,1
;   supportHorizontalPartOffset,0.3
;   supportUpperSeparationLayers,1
;   supportLowerSeparationLayers,1
;   supportType,0
;   supportGridSpacing,4
;   maxOverhangAngle,70
;   supportAngles,0
;   temperatureName,Extruder 1,Heated Bed
;   temperatureNumber,0,0
;   temperatureSetpointCount,1,1
;   temperatureSetpointLayers,1,1
;   temperatureSetpointTemperatures,210,60
;   temperatureStabilizeAtStartup,1,0
;   temperatureHeatedBed,0,1
;   temperatureRelayBetweenLayers,0,0
;   temperatureRelayBetweenLoops,0,0
;   fanLayers,1
;   fanSpeeds,255
;   blipFanToFullPower,0
;   adjustSpeedForCooling,1
;   minSpeedLayerTime,15
;   minCoolingSpeedSlowdown,20
;   increaseFanForCooling,0
;   minFanLayerTime,45
;   maxCoolingFanSpeed,100
;   increaseFanForBridging,0
;   bridgingFanSpeed,100
;   use5D,1
;   relativeEdistances,0
;   allowEaxisZeroing,1
;   independentExtruderAxes,0
;   includeM10123,0
;   stickySupport,1
;   applyToolheadOffsets,0
;   gcodeXoffset,0
;   gcodeYoffset,0
;   gcodeZoffset,0
;   overrideMachineDefinition,1
;   machineTypeOverride,0
;   strokeXoverride,220
;   strokeYoverride,220
;   strokeZoverride,280
;   originOffsetXoverride,0
;   originOffsetYoverride,0
;   originOffsetZoverride,0
;   homeXdirOverride,-1
;   homeYdirOverride,-1
;   homeZdirOverride,-1
;   flipXoverride,1
;   flipYoverride,-1
;   flipZoverride,1
;   toolheadOffsets,0,0|0,0|0,0|0,0|0,0|0,0
;   overrideFirmwareConfiguration,1
;   firmwareTypeOverride,RepRap (Marlin/Repetier/Sprinter)
;   GPXconfigOverride,r2
;   baudRateOverride,250000
;   overridePrinterModels,0
;   printerModelsOverride
;   startingGcode,G28 ; home all axes,G1 X0 Y20 Z0.2 F3000 ; get ready to prime,G92 E0 ; reset extrusion distance,G1 X200 E20 F600 ; prime nozzle
;   layerChangeGcode,
;   retractionGcode,
;   toolChangeGcode,
;   endingGcode,M104 S0 ; turn off extruder,M140 S0 ; turn off bed,G28 X Y ; home x and y axes,M84 ; disable motors
;   exportFileFormat,gcode
;   celebration,0
;   celebrationSong,Random Song
;   postProcessing,
;   defaultSpeed,5000
;   outlineUnderspeed,0.6
;   solidInfillUnderspeed,0.85
;   supportUnderspeed,0.8
;   rapidXYspeed,5200
;   rapidZspeed,1002
;   minBridgingArea,50
;   bridgingExtraInflation,0
;   bridgingExtrusionMultiplier,1
;   bridgingSpeedMultiplier,1
;   useFixedBridgingAngle,0
;   fixedBridgingAngle,0
;   applyBridgingToPerimeters,0
;   filamentDiameters,1.75|1.75|1.75|1.75|1.75|1.75
;   filamentPricesPerKg,46|46|46|46|46|46
;   filamentDensities,1.25|1.25|1.25|1.25|1.25|1.25
;   useMinPrintHeight,0
;   minPrintHeight,0
;   useMaxPrintHeight,0
;   maxPrintHeight,2.3
;   useDiaphragm,0
;   diaphragmLayerInterval,20
;   robustSlicing,1
;   mergeAllIntoSolid,0
;   onlyRetractWhenCrossingOutline,1
;   retractBetweenLayers,1
;   useRetractionMinTravel,0
;   retractionMinTravel,3
;   retractWhileWiping,0
;   onlyWipeOutlines,1
;   avoidCrossingOutline,0
;   maxMovementDetourFactor,3
;   toolChangeRetractionDistance,12
;   toolChangeExtraRestartDistance,-0.5
;   toolChangeRetractionSpeed,600
;   externalThinWallType,1
;   internalThinWallType,0
;   thinWallAllowedOverlapPercentage,15
;   singleExtrusionMinLength,1
;   singleExtrusionMinPrintingWidthPercentage,50
;   singleExtrusionMaxPrintingWidthPercentage,200
;   singleExtrusionEndpointExtension,0.2
;   horizontalSizeCompensation,0
G90
M82
M106 S650
M140 S60
M104 S210 T0
M109 S210 T0
G28 ; home all axes
G1 X0 Y20 Z0.2 F3000 ; get ready to prime
G92 E0 ; reset extrusion distance
G1 X200 E20 F600 ; prime nozzle
G92 E0
G1 E-2.0000 F3000
G1 Z0.060 F1002
; process nozzle 0.4
; layer 1, Z = 0.060
T0
; tool H0.300 W0.480
; outer perimeter
G1 X100.240 Y100.240 F5200
G1 E0.0000 F900
G92 E0
G1 X119.760 Y100.240 E1.0518 F1500
G1 X119.760 Y119.760 E2.1035
G1 X100.240 Y119.760 E3.1553
G1 X100.240 Y100.240 E4.2071
G1 X105.240 Y100.240 F5000
; inner perimeter
G1 X107.670 Y101.873 F5200
G92 E0
G1 X107.479 Y102.296 E0.0250 F2000
G1 X107.364 Y102.740 E0.0497
G1 X107.324 Y103.200 E0.0746
G1 X107.364 Y103.660 E0.0995
G1 X107.480 Y104.107 E0.1244
G1 X107.670 Y104.528 E0.1493
G1 X107.929 Y104.910 E0.1741
G1 X108.248 Y105.244 E0.1990
G1 X108.619 Y105.518 E0.2239
G1 X109.032 Y105.726 E0.2488
G1 X109.473 Y105.861 E0.2737
G1 X109.931 Y105.920 E0.2986
G1 X110.393 Y105.901 E0.3234
G1 X110.844 Y105.803 E0.3483
G1 X111.273 Y105.631 E0.3732
G1 X111.666 Y105.389 E0.3981
G1 X112.013 Y105.084 E0.4230
G1 X112.303 Y104.725 E0.4478
G1 X112.528 Y104.321 E0.4727
G1 X112.682 Y103.886 E0.4976
G1 X112.760 Y103.431 E0.5225
G1 X112.760 Y102.969 E0.5474
G1 X112.682 Y102.514 E0.5723
G1 X112.528 Y102.079 E0.5971
G1 X112.303 Y101.675 E0.6220
G1 X112.013 Y101.316 E0.6469
G1 X111.666 Y101.011 E0.6718
G1 X111.273 Y100.769 E0.6967
G1 X111.151 Y100.720 E0.7037
G1 X119.280 Y100.720 E1.1417
G1 X119.280 Y119.280 E2.1418
G1 X111.151 Y119.280 E2.5798
G1 X111.273 Y119.231 E2.5868
G1 X111.666 Y118.989 E2.6117
G1 X112.013 Y118.684 E2.6366
G1 X112.303 Y118.325 E2.6615
G1 X112.528 Y117.921 E2.6864
G1 X112.682 Y117.486 E2.7113
G1 X112.760 Y117.031 E2.7361
G1 X112.760 Y116.569 E2.7610
G1 X112.682 Y116.114 E2.7859
G1 X112.528 Y115.679 E2.8108
G1 X112.303 Y115.275 E2.8357
G1 X112.013 Y114.916 E2.8605
G1 X111.666 Y114.611 E2.8854
G1 X111.273 Y114.369 E2.9103
G1 X110.844 Y114.197 E2.9352
G1 X110.393 Y114.099 E2.9601
G1 X109.931 Y114.080 E2.9850
G1 X109.473 Y114.138 E3.0098
G1 X109.032 Y114.274 E3.0347
G1 X108.620 Y114.482 E3.0596
G1 X108.248 Y114.756 E3.0845
G1 X107.929 Y115.090 E3.1094
G1 X107.670 Y115.472 E3.1342
G1 X107.480 Y115.893 E3.1591
G1 X107.363 Y116.340 E3.1840
G1 X107.325 Y116.803 E3.2090
G1 X107.364 Y117.260 E3.2338
G1 X107.480 Y117.707 E3.2586
G1 X107.670 Y118.128 E3.2835
G1 X107.929 Y118.510 E3.3084
G1 X108.248 Y118.844 E3.3333
G1 X108.619 Y119.118 E3.3582
G1 X108.940 Y119.280 E3.3775
G1 X100.720 Y119.280 E3.8204
G1 X100.720 Y100.720 E4.8205
G1 X108.940 Y100.720 E5.2634
G1 X108.620 Y100.882 E5.2827
G1 X108.248 Y101.156 E5.3076
G1 X107.929 Y101.490 E5.3325
G1 X107.670 Y101.873 E5.3574
G1 X107.249 Y101.638 F5200
G92 E0
G1 X107.025 Y102.136 E0.0294 F2000
G1 X106.889 Y102.658 E0.0585
G1 X106.843 Y103.200 E0.0878
G1 X106.889 Y103.741 E0.1171
G1 X107.026 Y104.267 E0.1464
G1 X107.250 Y104.763 E0.1757
G1 X107.554 Y105.213 E0.2049
G1 X107.930 Y105.605 E0.2342
G1 X108.367 Y105.929 E0.2635
G1 X108.852 Y106.173 E0.2928
G1 X109.372 Y106.332 E0.3221
G1 X109.911 Y106.401 E0.3514
G1 X110.454 Y106.378 E0.3807
G1 X110.985 Y106.264 E0.4099
G1 X111.490 Y106.061 E0.4392
G1 X111.952 Y105.776 E0.4685
G1 X112.360 Y105.417 E0.4978
G1 X112.702 Y104.994 E0.5271
G1 X112.967 Y104.520 E0.5564
G1 X113.148 Y104.007 E0.5856
G1 X113.240 Y103.472 E0.6149
G1 X113.240 Y102.928 E0.6442
G1 X113.148 Y102.393 E0.6735
G1 X112.967 Y101.880 E0.7028
G1 X112.702 Y101.406 E0.7321
G1 X112.536 Y101.200 E0.7463
G1 X118.800 Y101.200 E1.0838
G1 X118.800 Y118.800 E2.0321
G1 X112.536 Y118.800 E2.3697
G1 X112.702 Y118.594 E2.3839
G1 X112.967 Y118.120 E2.4132
G1 X113.148 Y117.607 E2.4425
G1 X113.240 Y117.072 E2.4718
G1 X113.240 Y116.528 E2.5010
G1 X113.148 Y115.993 E2.5303
G1 X112.967 Y115.480 E2.5596
G1 X112.702 Y115.006 E2.5889
G1 X112.360 Y114.583 E2.6182
G1 X111.952 Y114.224 E2.6475
G1 X111.490 Y113.939 E2.6768
G1 X110.985 Y113.736 E2.7060
G1 X110.454 Y113.622 E2.7353
G1 X109.911 Y113.599 E2.7646
G1 X109.372 Y113.668 E2.7939
G1 X108.852 Y113.827 E2.8232
G1 X108.367 Y114.071 E2.8525
G1 X107.930 Y114.395 E2.8817
G1 X107.554 Y114.787 E2.9110
G1 X107.250 Y115.237 E2.9403
G1 X107.026 Y115.732 E2.9696
G1 X106.889 Y116.259 E2.9989
G1 X106.843 Y116.803 E3.0283
G1 X106.889 Y117.341 E3.0574
G1 X107.026 Y117.867 E3.0867
G1 X107.250 Y118.363 E3.1160
G1 X107.545 Y118.800 E3.1445
G1 X101.200 Y118.800 E3.4863
G1 X101.200 Y101.200 E4.4346
G1 X107.545 Y101.200 E4.7765
G1 X107.249 Y101.638 E4.8050
; outer perimeter
G1 X108.091 Y102.107 F5200
G92 E0
G1 X107.933 Y102.456 E0.0206 F1500
G1 X107.838 Y102.821 E0.0410
G1 X107.806 Y103.200 E0.0614
G1 X107.838 Y103.579 E0.0819
G1 X107.934 Y103.946 E0.1024
G1 X108.091 Y104.293 E0.1229
G1 X108.303 Y104.608 E0.1433
G1 X108.567 Y104.882 E0.1638
G1 X108.872 Y105.108 E0.1843
G1 X109.211 Y105.279 E0.2048
G1 X109.575 Y105.391 E0.2253
G1 X109.952 Y105.439 E0.2457
G1 X110.332 Y105.423 E0.2662
G1 X110.703 Y105.343 E0.2867
G1 X111.056 Y105.201 E0.3072
G1 X111.379 Y105.002 E0.3277
G1 X111.665 Y104.751 E0.3481
G1 X111.904 Y104.455 E0.3686
G1 X112.089 Y104.123 E0.3891
G1 X112.216 Y103.765 E0.4096
G1 X112.280 Y103.390 E0.4301
G1 X112.280 Y103.010 E0.4505
G1 X112.216 Y102.635 E0.4710
G1 X112.089 Y102.277 E0.4915
G1 X111.904 Y101.945 E0.5120
G1 X111.665 Y101.649 E0.5324
G1 X111.379 Y101.398 E0.5529
G1 X111.056 Y101.199 E0.5734
G1 X110.703 Y101.057 E0.5939
G1 X110.332 Y100.977 E0.6144
G1 X109.952 Y100.961 E0.6348
G1 X109.575 Y101.009 E0.6553
G1 X109.211 Y101.121 E0.6758
G1 X108.872 Y101.292 E0.6963
G1 X108.567 Y101.518 E0.7168
G1 X108.304 Y101.792 E0.7372
G1 X108.091 Y102.107 E0.7577
G1 X107.933 Y102.456 F5000
G1 X107.838 Y102.821 F5000
G1 X107.806 Y103.200 F5000
G1 X107.838 Y103.579 F5000
G1 X107.934 Y103.946 F5000
G1 X108.091 Y104.293 F5000
G1 X108.303 Y104.608 F5000
G1 X108.567 Y104.882 F5000
G1 X108.872 Y105.108 F5000
G1 X109.211 Y105.279 F5000
G1 X109.575 Y105.391 F5000
G1 X109.952 Y105.439 F5000
G1 X110.332 Y105.423 F5000
G1 X110.389 Y105.410 F5000
G1 X109.952 Y114.561 F5200
G92 E0
G1 X109.575 Y114.609 E0.0205 F1500
G1 X109.211 Y114.721 E0.0410
G1 X108.872 Y114.892 E0.0614
G1 X108.567 Y115.118 E0.0819
G1 X108.304 Y115.392 E0.1024
G1 X108.091 Y115.707 E0.1229
G1 X107.934 Y116.053 E0.1434
G1 X107.838 Y116.421 E0.1638
G1 X107.806 Y116.803 E0.1845
G1 X107.838 Y117.179 E0.2048
G1 X107.934 Y117.546 E0.2253
G1 X108.091 Y117.893 E0.2457
G1 X108.303 Y118.208 E0.2662
G1 X108.567 Y118.482 E0.2867
G1 X108.872 Y118.708 E0.3072
G1 X109.211 Y118.879 E0.3277
G1 X109.575 Y118.991 E0.3481
G1 X109.952 Y119.039 E0.3686
G1 X110.332 Y119.023 E0.3891
G1 X110.703 Y118.943 E0.4096
G1 X111.056 Y118.801 E0.4301
G1 X111.379 Y118.602 E0.4505
G1 X111.665 Y118.351 E0.4710
G1 X111.904 Y118.055 E0.4915
G1 X112.089 Y117.723 E0.5120
G1 X112.216 Y117.365 E0.5325
G1 X112.280 Y116.990 E0.5529
G1 X112.280 Y116.610 E0.5734
G1 X112.216 Y116.235 E0.5939
G1 X112.089 Y115.877 E0.6144
G1 X111.904 Y115.545 E0.6349
G1 X111.665 Y115.249 E0.6553
G1 X111.380 Y114.998 E0.6758
G1 X111.056 Y114.799 E0.6963
G1 X110.703 Y114.657 E0.7168
G1 X110.332 Y114.577 E0.7372
G1 X109.952 Y114.561 E0.7577
G92 E0
G1 E-2.0000 F3000
G1 X109.575 Y114.609 F5000
G1 X109.211 Y114.721 F5000
G1 X108.872 Y114.892 F5000
G1 X108.567 Y115.118 F5000
G1 X108.304 Y115.392 F5000
G1 X108.091 Y115.707 F5000
G1 X107.934 Y116.053 F5000
G1 X107.838 Y116.421 F5000
G1 X107.806 Y116.803 F5000
G1 X107.838 Y117.179 F5000
G1 X107.934 Y117.546 F5000
G1 X108.091 Y117.893 F5000
G1 X108.303 Y118.208 F5000
G1 X108.344 Y118.250 F5000
; solid layer
G1 X113.008 Y118.439 F5200
G1 E0.0000 F3000
G92 E0
G1 X113.177 Y118.608 E0.0129 F2125
G1 X113.856 Y118.608 E0.0494
G1 X113.222 Y117.974 E0.0978
G1 X113.334 Y117.656 E0.1159
G1 X113.371 Y117.444 E0.1275
G1 X114.535 Y118.608 E0.2163
G1 X115.214 Y118.608 E0.2528
G1 X113.432 Y116.826 E0.3886
G1 X113.432 Y116.512 E0.4055
G1 X113.356 Y116.072 E0.4296
G1 X115.893 Y118.608 E0.6229
G1 X116.572 Y118.608 E0.6595
G1 X112.862 Y114.898 E0.9422
G92 E0
G1 E-2.0000 F3000
G1 X101.637 Y118.608 F5200
G1 E0.0000 F3000
G92 E0
G1 X101.392 Y118.363 E0.0187 F2125
G1 X101.392 Y117.684 E0.0553
G1 X102.316 Y118.608 E0.1257
G1 X102.995 Y118.608 E0.1623
G1 X101.392 Y117.005 E0.2844
G1 X101.392 Y116.326 E0.3210
G1 X103.674 Y118.608 E0.4949
G1 X104.353 Y118.608 E0.5315
G1 X101.392 Y115.647 E0.7571
G1 X101.392 Y114.968 E0.7937
G1 X105.032 Y118.608 E1.0710
G1 X105.710 Y118.608 E1.1076
G1 X101.392 Y114.290 E1.4366
G1 X101.392 Y113.611 E1.4732
G1 X106.389 Y118.608 E1.8540
G1 X107.068 Y118.608 E1.8906
G1 X101.392 Y112.932 E2.3231
G1 X101.392 Y112.253 E2.3597
G1 X106.764 Y117.625 E2.7690
G1 X106.699 Y117.374 E2.7830
G1 X106.653 Y116.835 E2.8122
G1 X101.392 Y111.574 E3.2130
G1 X101.392 Y110.896 E3.2496
G1 X106.704 Y116.207 E3.6544
G1 X106.844 Y115.669 E3.6843
G1 X101.392 Y110.217 E4.0998
G1 X101.392 Y109.538 E4.1364
G1 X107.055 Y115.201 E4.5679
G1 X107.081 Y115.143 E4.5713
G1 X107.321 Y114.788 E4.5944
G1 X101.392 Y108.859 E5.0462
G1 X101.392 Y108.180 E5.0828
G1 X107.636 Y114.424 E5.5586
G1 X107.803 Y114.250 E5.5715
G1 X107.997 Y114.106 E5.5846
G1 X101.392 Y107.501 E6.0879
G1 X101.392 Y106.823 E6.1244
G1 X108.406 Y113.837 E6.6589
G1 X108.780 Y113.648 E6.6815
G1 X108.869 Y113.621 E6.6865
G1 X101.392 Y106.144 E7.2562
G1 X101.392 Y105.465 E7.2928
G1 X109.398 Y113.471 E7.9028
G1 X109.903 Y113.406 E7.9303
G1 X110.017 Y113.411 E7.9364
G1 X101.392 Y104.786 E8.5936
G1 X101.392 Y104.107 E8.6302
G1 X110.780 Y113.496 E9.3456
G1 X111.042 Y113.552 E9.3600
G1 X111.576 Y113.767 E9.3910
G1 X111.977 Y114.013 E9.4164
G1 X101.392 Y103.428 E10.2230
G1 X101.392 Y102.750 E10.2595
G1 X117.250 Y118.608 E11.4679
G1 X117.929 Y118.608 E11.5045
G1 X101.392 Y102.071 E12.7646
G1 X101.392 Y101.392 E12.8012
G1 X118.608 Y118.608 E14.1131
G1 X118.608 Y117.929 E14.1496
G1 X102.071 Y101.392 E15.4098
G1 X102.750 Y101.392 E15.4464
G1 X118.608 Y117.250 E16.6548
G1 X118.608 Y116.572 E16.6913
G1 X103.428 Y101.392 E17.8480
G1 X106.823 Y101.392 F5200
G92 E0
G1 X107.048 Y101.617 E0.0172 F2125
G1 X106.843 Y102.072 E0.0440
G1 X106.839 Y102.087 E0.0449
G1 X106.144 Y101.392 E0.0979
G1 X105.465 Y101.392 E0.1344
G1 X106.699 Y102.626 E0.2285
G1 X106.650 Y103.200 E0.2595
G1 X106.655 Y103.261 E0.2628
G1 X104.786 Y101.392 E0.4052
G1 X104.107 Y101.392 E0.4418
G1 X106.773 Y104.057 E0.6449
G1 X106.844 Y104.332 E0.6602
G1 X107.081 Y104.857 E0.6912
G1 X107.404 Y105.334 E0.7223
G1 X107.803 Y105.750 E0.7533
G1 X108.266 Y106.093 E0.7844
G1 X108.780 Y106.352 E0.8154
