; G-Code generated by Simplify3D(R) Version 4.0.0
; Dec 16, 2020 at 8:40:13 PM
; Settings Summary
;   processName,0.15
;   applyToModels,textured_guitar_pick
;   profileName,new profile (modified)
;   profileVersion,2020-09-07 14:01:24
;   baseProfile,Default (modified)
;   printMaterial,PLA
;   printQuality,Medium
;   printExtruders,
;   extruderName,Primary Extruder
;   extruderToolheadNumber,0
;   extruderDiameter,0.4
;   extruderAutoWidth,0
;   extruderWidth,0.4
;   extrusionMultiplier,0.9
;   extruderUseRetract,1
;   extruderRetractionDistance,1
;   extruderExtraRestartDistance,0
;   extruderRetractionZLift,0
;   extruderRetractionSpeed,1800
;   extruderUseCoasting,0
;   extruderCoastingDistance,0.2
;   extruderUseWipe,0
;   extruderWipeDistance,5
;   primaryExtruder,0
;   layerHeight,0.1
;   topSolidLayers,3
;   bottomSolidLayers,3
;   perimeterOutlines,2
;   printPerimetersInsideOut,1
;   startPointOption,2
;   startPointOriginX,0
;   startPointOriginY,0
;   sequentialIslands,0
;   spiralVaseMode,0
;   firstLayerHeightPercentage,100
;   firstLayerWidthPercentage,100
;   firstLayerUnderspeed,0.5
;   useRaft,0
;   raftExtruder,0
;   raftTopLayers,3
;   raftBaseLayers,2
;   raftOffset,3
;   raftSeparationDistance,0.14
;   raftTopInfill,100
;   aboveRaftSpeedMultiplier,0.3
;   useSkirt,0
;   skirtExtruder,0
;   skirtLayers,1
;   skirtOutlines,2
;   skirtOffset,4
;   usePrimePillar,0
;   primePillarExtruder,999
;   primePillarWidth,12
;   primePillarLocation,7
;   primePillarSpeedMultiplier,1
;   useOozeShield,0
;   oozeShieldExtruder,999
;   oozeShieldOffset,2
;   oozeShieldOutlines,1
;   oozeShieldSidewallShape,1
;   oozeShieldSidewallAngle,30
;   oozeShieldSpeedMultiplier,1
;   infillExtruder,0
;   internalInfillPattern,Rectilinear
;   externalInfillPattern,Rectilinear
;   infillPercentage,100
;   outlineOverlapPercentage,15
;   infillExtrusionWidthPercentage,100
;   minInfillLength,5
;   infillLayerInterval,1
;   internalInfillAngles,45,-45
;   overlapInternalInfillAngles,0
;   externalInfillAngles,45,-45
;   generateSupport,0
;   supportExtruder,0
;   supportInfillPercentage,30
;   supportExtraInflation,0
;   supportBaseLayers,0
;   denseSupportExtruder,0
;   denseSupportLayers,0
;   denseSupportInfillPercentage,70
;   supportLayerInterval,1
;   supportHorizontalPartOffset,0.3
;   supportUpperSeparationLayers,1
;   supportLowerSeparationLayers,1
;   supportType,1
;   supportGridSpacing,4
;   maxOverhangAngle,45
;   supportAngles,0
;   temperatureName,Primary Extruder,Hot Bed
;   temperatureNumber,0,1
;   temperatureSetpointCount,1,1
;   temperatureSetpointLayers,1,1
;   temperatureSetpointTemperatures,210,60
;   temperatureStabilizeAtStartup,1,0
;   temperatureHeatedBed,0,1
;   temperatureRelayBetweenLayers,0,0
;   temperatureRelayBetweenLoops,0,0
;   fanLayers,1,2
;   fanSpeeds,0,100
;   blipFanToFullPower,0
;   adjustSpeedForCooling,1
;   minSpeedLayerTime,15
;   minCoolingSpeedSlowdown,20
;   increaseFanForCooling,0
;   minFanLayerTime,45
;   maxCoolingFanSpeed,100
;   increaseFanForBridging,0
;   bridgingFanSpeed,100
;   use5D,1
;   relativeEdistances,0
;   allowEaxisZeroing,1
;   independentExtruderAxes,0
;   includeM10123,0
;   stickySupport,1
;   applyToolheadOffsets,0
;   gcodeXoffset,0
;   gcodeYoffset,0
;   gcodeZoffset,0
;   overrideMachineDefinition,0
;   machineTypeOverride,0
;   strokeXoverride,200
;   strokeYoverride,200
;   strokeZoverride,200
;   originOffsetXoverride,0
;   originOffsetYoverride,0
;   originOffsetZoverride,0
;   homeXdirOverride,-1
;   homeYdirOverride,-1
;   homeZdirOverride,-1
;   flipXoverride,1
;   flipYoverride,-1
;   flipZoverride,1
;   toolheadOffsets,0,0|0,0|0,0|0,0|0,0|0,0
;   overrideFirmwareConfiguration,0
;   firmwareTypeOverride,RepRap (Marlin/Repetier/Sprinter)
;   GPXconfigOverride,r2
;   baudRateOverride,115200
;   overridePrinterModels,0
;   printerModelsOverride
;   startingGcode,G28 ; home all axes,G1 X0 Y5 Z0.2 F3000 ; get ready to prime,G92 E0 ; reset extrusion distance,G1 Y150 E20 F600 ; prime nozzle
;   layerChangeGcode,
;   retractionGcode,
;   toolChangeGcode,
;   endingGcode,M104 S0 ; turn off extruder,M140 S0 ; turn off bed,G1 X0 Y0; home,M84 ; disable motors,M107 ; fan off,G28 X Y; home,M18; DisableMotors
;   exportFileFormat,gcode
;   celebration,0
;   celebrationSong,Random Song
;   postProcessing,
;   defaultSpeed,4600
;   outlineUnderspeed,0.5
;   solidInfillUnderspeed,0.8
;   supportUnderspeed,0.8
;   rapidXYspeed,4800
;   rapidZspeed,1000
;   minBridgingArea,50
;   bridgingExtraInflation,0
;   bridgingExtrusionMultiplier,1
;   bridgingSpeedMultiplier,1
;   useFixedBridgingAngle,0
;   fixedBridgingAngle,0
;   applyBridgingToPerimeters,0
;   filamentDiameters,1.75|1.75|1.75|1.75|1.75|1.75
;   filamentPricesPerKg,46|46|46|46|46|46
;   filamentDensities,1.25|1.25|1.25|1.25|1.25|1.25
;   useMinPrintHeight,0
;   minPrintHeight,0
;   useMaxPrintHeight,0
;   maxPrintHeight,0
;   useDiaphragm,0
;   diaphragmLayerInterval,20
;   robustSlicing,1
;   mergeAllIntoSolid,0
;   onlyRetractWhenCrossingOutline,1
;   retractBetweenLayers,1
;   useRetractionMinTravel,0
;   retractionMinTravel,3
;   retractWhileWiping,0
;   onlyWipeOutlines,1
;   avoidCrossingOutline,0
;   maxMovementDetourFactor,3
;   toolChangeRetractionDistance,12
;   toolChangeExtraRestartDistance,-0.5
;   toolChangeRetractionSpeed,600
;   externalThinWallType,1
;   internalThinWallType,1
;   thinWallAllowedOverlapPercentage,10
;   singleExtrusionMinLength,1
;   singleExtrusionMinPrintingWidthPercentage,50
;   singleExtrusionMaxPrintingWidthPercentage,200
;   singleExtrusionEndpointExtension,0.2
;   horizontalSizeCompensation,0
G90
M82
M106 S0
M140 S60
M104 S210 T0
M109 S210 T0
G28 ; home all axes
G1 X0 Y5 Z0.2 F3000 ; get ready to prime
G92 E0 ; reset extrusion distance
G1 Y150 E20 F600 ; prime nozzle
G92 E0
G1 E-1.0000 F1800
G1 Z0.100 F1000
; process 0.15
; layer 1, Z = 0.100
T0
; tool H0.100 W0.400
; inner perimeter
G1 X104.172 Y106.220 F4800
G1 E0.0000 F540
G92 E0
G1 X104.314 Y106.085 E0.0029 F1725
G1 X104.364 Y106.046 E0.0039
G1 X104.523 Y105.946 E0.0067
G1 X104.801 Y105.830 E0.0112
G1 X104.963 Y105.792 E0.0137
G1 X105.271 Y105.774 E0.0183
G1 X107.106 Y105.919 E0.0459
G1 X108.937 Y106.192 E0.0736
G1 X110.746 Y106.590 E0.1013
G1 X112.522 Y107.109 E0.1290
G1 X114.260 Y107.749 E0.1567
G1 X115.949 Y108.506 E0.1844
G1 X117.583 Y109.376 E0.2121
G1 X119.154 Y110.356 E0.2398
G1 X120.654 Y111.441 E0.2675
G1 X122.077 Y112.626 E0.2953
G1 X123.415 Y113.904 E0.3230
G1 X124.664 Y115.272 E0.3507
G1 X125.815 Y116.721 E0.3784
G1 X126.861 Y118.238 E0.4059
G1 X126.951 Y118.402 E0.4088
G1 X127.020 Y118.578 E0.4116
G1 X127.064 Y118.759 E0.4144
G1 X127.084 Y118.945 E0.4172
G1 X127.079 Y119.122 E0.4198
G1 X127.021 Y119.417 E0.4243
G1 X126.958 Y119.582 E0.4270
G1 X126.865 Y119.754 E0.4299
G1 X125.815 Y121.279 E0.4576
G1 X124.664 Y122.728 E0.4853
G1 X123.415 Y124.096 E0.5130
G1 X122.077 Y125.374 E0.5407
G1 X120.654 Y126.559 E0.5684
G1 X119.154 Y127.644 E0.5961
G1 X117.583 Y128.624 E0.6239
G1 X115.949 Y129.494 E0.6516
G1 X114.260 Y130.251 E0.6793
G1 X112.522 Y130.891 E0.7070
G1 X110.746 Y131.410 E0.7347
G1 X108.937 Y131.808 E0.7624
G1 X107.107 Y132.080 E0.7901
G1 X105.168 Y132.227 E0.8192
G1 X104.989 Y132.212 E0.8219
G1 X104.806 Y132.172 E0.8247
G1 X104.630 Y132.108 E0.8275
G1 X104.464 Y132.021 E0.8303
G1 X104.312 Y131.912 E0.8331
G1 X104.183 Y131.791 E0.8357
G1 X104.007 Y131.561 E0.8401
G1 X103.159 Y129.800 E0.8693
G1 X102.480 Y128.080 E0.8970
G1 X101.920 Y126.315 E0.9247
G1 X101.482 Y124.516 E0.9524
G1 X101.167 Y122.692 E0.9801
G1 X100.978 Y120.850 E1.0079
G1 X100.915 Y119.000 E1.0356
G1 X100.978 Y117.150 E1.0633
G1 X101.167 Y115.308 E1.0910
G1 X101.482 Y113.484 E1.1187
G1 X101.920 Y111.685 E1.1464
G1 X102.480 Y109.920 E1.1741
G1 X103.159 Y108.199 E1.2018
G1 X103.997 Y106.455 E1.2308
G1 X104.172 Y106.220 E1.2351
; outer perimeter
G1 X103.871 Y105.954 F4800
G92 E0
G1 X104.053 Y105.781 E0.0038 F1150
G1 X104.134 Y105.718 E0.0053
G1 X104.338 Y105.589 E0.0089
G1 X104.678 Y105.448 E0.0144
G1 X104.906 Y105.395 E0.0179
G1 X105.275 Y105.373 E0.0235
G1 X107.152 Y105.522 E0.0516
G1 X109.010 Y105.799 E0.0797
G1 X110.845 Y106.202 E0.1079
G1 X112.648 Y106.729 E0.1360
G1 X114.411 Y107.378 E0.1641
G1 X116.125 Y108.147 E0.1922
G1 X117.783 Y109.030 E0.2203
G1 X119.377 Y110.024 E0.2485
G1 X120.900 Y111.125 E0.2766
G1 X122.343 Y112.327 E0.3047
G1 X123.702 Y113.625 E0.3328
G1 X124.968 Y115.012 E0.3609
G1 X126.137 Y116.483 E0.3890
G1 X127.201 Y118.027 E0.4171
G1 X127.314 Y118.232 E0.4206
G1 X127.402 Y118.456 E0.4242
G1 X127.459 Y118.690 E0.4278
G1 X127.485 Y118.930 E0.4314
G1 X127.478 Y119.167 E0.4350
G1 X127.407 Y119.528 E0.4405
G1 X127.323 Y119.749 E0.4440
G1 X127.207 Y119.964 E0.4477
G1 X126.137 Y121.517 E0.4759
G1 X124.968 Y122.988 E0.5040
G1 X123.702 Y124.375 E0.5321
G1 X122.343 Y125.673 E0.5603
G1 X120.900 Y126.875 E0.5884
G1 X119.377 Y127.976 E0.6165
G1 X117.783 Y128.970 E0.6446
G1 X116.125 Y129.854 E0.6727
G1 X114.411 Y130.622 E0.7008
G1 X112.648 Y131.271 E0.7290
G1 X110.845 Y131.798 E0.7571
G1 X109.010 Y132.201 E0.7852
G1 X107.152 Y132.478 E0.8133
G1 X105.166 Y132.629 E0.8431
G1 X104.929 Y132.609 E0.8467
G1 X104.694 Y132.557 E0.8503
G1 X104.467 Y132.474 E0.8539
G1 X104.254 Y132.362 E0.8575
G1 X104.058 Y132.223 E0.8611
G1 X103.885 Y132.060 E0.8647
G1 X103.664 Y131.771 E0.8701
G1 X102.792 Y129.961 E0.9002
G1 X102.103 Y128.214 E0.9283
G1 X101.535 Y126.423 E0.9564
G1 X101.090 Y124.598 E0.9845
G1 X100.771 Y122.746 E1.0126
G1 X100.578 Y120.878 E1.0408
G1 X100.514 Y119.000 E1.0689
G1 X100.578 Y117.122 E1.0970
G1 X100.771 Y115.254 E1.1251
G1 X101.090 Y113.402 E1.1532
G1 X101.535 Y111.577 E1.1814
G1 X102.103 Y109.786 E1.2095
G1 X102.792 Y108.039 E1.2376
G1 X103.653 Y106.247 E1.2673
G1 X103.871 Y105.954 E1.2728
; solid layer
G1 X119.870 Y111.293 F4800
G92 E0
G1 X125.635 Y117.059 E0.1220 F1840
G1 X126.571 Y118.417 E0.1467
G1 X126.643 Y118.547 E0.1489
G1 X126.695 Y118.681 E0.1511
G1 X126.696 Y118.685 E0.1512
G1 X118.127 Y110.116 E0.3325
G1 X117.413 Y109.671 E0.3451
G1 X116.777 Y109.332 E0.3559
G1 X126.705 Y119.260 E0.5661
G1 X126.693 Y119.323 E0.5670
G1 X126.648 Y119.441 E0.5689
G1 X126.575 Y119.576 E0.5712
G1 X126.526 Y119.647 E0.5725
G1 X115.603 Y108.723 E0.8037
G1 X114.578 Y108.264 E0.8205
G1 X126.296 Y119.982 E1.0685
G1 X126.065 Y120.317 E1.0746
G1 X113.626 Y107.878 E1.3379
G1 X112.731 Y107.548 E1.3522
G1 X125.834 Y120.652 E1.6296
G1 X125.604 Y120.987 E1.6357
G1 X111.897 Y107.281 E1.9258
G1 X111.098 Y107.047 E1.9382
G1 X125.358 Y121.307 E2.2401
G1 X125.108 Y121.623 E2.2461
G1 X110.332 Y106.847 E2.5589
G1 X109.607 Y106.688 E2.5700
G1 X124.857 Y121.938 E2.8928
G1 X124.607 Y122.253 E2.8988
G1 X108.882 Y106.528 E3.2316
G1 X108.876 Y106.527 E3.2317
G1 X108.217 Y106.429 E3.2417
G1 X124.353 Y122.564 E3.5832
G1 X124.083 Y122.860 E3.5892
G1 X107.552 Y106.330 E3.9391
G1 X107.068 Y106.257 E3.9465
G1 X106.901 Y106.244 E3.9490
G1 X123.813 Y123.156 E4.3069
G1 X123.543 Y123.452 E4.3129
G1 X106.286 Y106.195 E4.6782
G1 X105.672 Y106.147 E4.6874
G1 X123.273 Y123.747 E5.0600
G1 X123.172 Y123.858 E5.0622
G1 X122.991 Y124.031 E5.0660
G1 X105.085 Y106.125 E5.4450
G1 X105.012 Y106.130 E5.4461
G1 X104.905 Y106.155 E5.4477
G1 X104.681 Y106.248 E5.4513
G1 X104.657 Y106.263 E5.4518
G1 X122.702 Y124.307 E5.8337
G1 X122.412 Y124.584 E5.8397
G1 X104.362 Y106.534 E6.2217
G1 X104.289 Y106.632 E6.2236
G1 X104.161 Y106.899 E6.2280
G1 X122.123 Y124.860 E6.6082
G1 X121.851 Y125.120 E6.6138
G1 X121.833 Y125.135 E6.6142
G1 X103.978 Y107.281 E6.9921
G1 X103.794 Y107.663 E6.9984
G1 X121.524 Y125.392 E7.3737
G1 X121.215 Y125.650 E7.3797
G1 X103.610 Y108.045 E7.7524
G1 X103.471 Y108.335 E7.7572
G1 X103.432 Y108.432 E7.7588
G1 X120.907 Y125.907 E8.1286
G1 X120.598 Y126.164 E8.1346
G1 X103.272 Y108.838 E8.5014
G1 X103.112 Y109.244 E8.5079
G1 X120.279 Y126.411 E8.8712
G1 X119.951 Y126.648 E8.8773
G1 X102.952 Y109.649 E9.2371
G1 X102.801 Y110.034 E9.2433
G1 X102.794 Y110.056 E9.2436
G1 X119.623 Y126.885 E9.5999
G1 X119.294 Y127.123 E9.6059
G1 X102.657 Y110.486 E9.9581
G1 X102.521 Y110.915 E9.9648
G1 X118.966 Y127.360 E10.3129
G1 X118.964 Y127.361 E10.3129
G1 X118.618 Y127.578 E10.3190
G1 X102.385 Y111.345 E10.6626
G1 X102.249 Y111.774 E10.6694
G1 X118.269 Y127.795 E11.0085
G1 X117.921 Y128.012 E11.0146
G1 X102.137 Y112.229 E11.3487
G1 X102.027 Y112.683 E11.3557
G1 X117.573 Y128.230 E11.6848
G1 X117.413 Y128.329 E11.6876
G1 X117.213 Y128.436 E11.6910
G1 X101.916 Y113.138 E12.0148
G1 X101.815 Y113.553 E12.0212
G1 X101.807 Y113.596 E12.0218
G1 X116.844 Y128.632 E12.3401
G1 X116.475 Y128.829 E12.3464
G1 X101.724 Y114.078 E12.6586
G1 X101.641 Y114.561 E12.6659
G1 X116.106 Y129.025 E12.9721
G1 X115.800 Y129.189 E12.9773
G1 X115.733 Y129.218 E12.9784
G1 X101.558 Y115.043 E13.2784
G1 X101.504 Y115.354 E13.2831
G1 X101.485 Y115.536 E13.2859
G1 X115.342 Y129.393 E13.5792
G1 X114.952 Y129.568 E13.5856
G1 X101.433 Y116.049 E13.8717
G1 X101.380 Y116.562 E13.8795
G1 X114.561 Y129.743 E14.1585
G1 X114.170 Y129.918 E14.1649
G1 X101.327 Y117.075 E14.4367
G1 X101.317 Y117.173 E14.4382
G1 X101.302 Y117.616 E14.4448
G1 X113.759 Y130.073 E14.7085
G1 X113.346 Y130.225 E14.7151
G1 X101.283 Y118.163 E14.9704
G1 X101.265 Y118.710 E14.9786
G1 X112.932 Y130.377 E15.2256
G1 X112.519 Y130.530 E15.2322
G1 X101.264 Y119.275 E15.4704
G1 X101.284 Y119.861 E15.4791
G1 X112.087 Y130.664 E15.7078
G1 X111.650 Y130.792 E15.7146
G1 X101.304 Y120.446 E15.9336
G1 X101.317 Y120.827 E15.9393
G1 X101.340 Y121.048 E15.9426
G1 X111.212 Y130.920 E16.1516
G1 X110.774 Y131.048 E16.1584
G1 X101.405 Y121.678 E16.3567
G1 X101.470 Y122.309 E16.3662
G1 X110.317 Y131.156 E16.5535
G1 X109.853 Y131.258 E16.5606
G1 X101.559 Y122.964 E16.7362
G1 X101.677 Y123.647 E16.7466
G1 X109.390 Y131.360 E16.9098
G1 X108.926 Y131.462 E16.9169
G1 X101.795 Y124.331 E17.0679
G1 X101.815 Y124.447 E17.0696
G1 X101.966 Y125.068 E17.0792
G1 X108.437 Y131.539 E17.2162
G1 X107.944 Y131.612 E17.2236
G1 X102.148 Y125.816 E17.3463
G1 X102.248 Y126.223 E17.3526
G1 X102.367 Y126.601 E17.3585
G1 X107.452 Y131.685 E17.4661
G1 X107.070 Y131.742 E17.4719
G1 X106.952 Y131.751 E17.4737
G1 X102.630 Y127.429 E17.5651
G1 X102.801 Y127.966 E17.5736
G1 X102.931 Y128.295 E17.5789
G1 X106.426 Y131.791 E17.6529
G1 X105.900 Y131.831 E17.6607
G1 X103.299 Y129.229 E17.7158
G1 X103.470 Y129.664 E17.7228
G1 X103.752 Y130.248 E17.7325
G1 X105.375 Y131.871 E17.7669
G1 X105.169 Y131.886 E17.7699
G1 X105.039 Y131.875 E17.7719
G1 X104.901 Y131.845 E17.7740
G1 X104.768 Y131.796 E17.7761
G1 X104.697 Y131.759 E17.7773
G1 X104.278 Y131.340 E17.7862
G92 E0
G1 E-1.0000 F1800
; layer 2, Z = 0.200
M106 S255
; inner perimeter
G1 X104.002 Y131.553 F4800
G1 Z0.200 F1000
G1 E0.0000 F1800
G92 E0
G1 X103.159 Y129.801 E0.0291 F3450
G1 X102.480 Y128.080 E0.0568
G1 X101.920 Y126.315 E0.0845
G1 X101.482 Y124.516 E0.1122
G1 X101.167 Y122.692 E0.1399
G1 X100.978 Y120.850 E0.1676
G1 X100.915 Y119.000 E0.1953
G1 X100.978 Y117.150 E0.2231
G1 X101.167 Y115.308 E0.2508
G1 X101.482 Y113.484 E0.2785
G1 X101.920 Y111.685 E0.3062
G1 X102.480 Y109.920 E0.3339
G1 X103.159 Y108.198 E0.3616
G1 X103.950 Y106.535 E0.3892
G1 X104.047 Y106.375 E0.3920
G1 X104.250 Y106.140 E0.3966
G1 X104.298 Y106.098 E0.3976
G1 X104.449 Y105.989 E0.4004
G1 X104.710 Y105.861 E0.4047
G1 X104.981 Y105.790 E0.4089
G1 X105.281 Y105.774 E0.4134
G1 X107.106 Y105.919 E0.4408
G1 X108.937 Y106.192 E0.4685
G1 X110.746 Y106.590 E0.4962
G1 X112.522 Y107.109 E0.5239
G1 X114.260 Y107.749 E0.5516
G1 X115.949 Y108.506 E0.5793
G1 X117.583 Y109.376 E0.6070
G1 X119.154 Y110.356 E0.6348
G1 X120.654 Y111.441 E0.6625
G1 X122.077 Y112.626 E0.6902
G1 X123.415 Y113.904 E0.7179
G1 X124.664 Y115.272 E0.7456
G1 X125.815 Y116.721 E0.7733
G1 X126.860 Y118.238 E0.8009
G1 X126.955 Y118.410 E0.8038
G1 X127.023 Y118.585 E0.8066
G1 X127.066 Y118.767 E0.8094
G1 X127.085 Y118.953 E0.8122
G1 X127.079 Y119.130 E0.8149
G1 X127.019 Y119.424 E0.8194
G1 X126.955 Y119.590 E0.8220
G1 X126.860 Y119.762 E0.8250
G1 X125.815 Y121.279 E0.8525
