; G-Code generated by Simplify3D(R) Version 4.0.0
; Jul 28, 2019 at 11:14:52 AM
; Settings Summary
;   processName,Process2
;   applyToModels,App_icon3_2_30x3,App_icon3_2_30x3(2),App_icon3_2_30x3(3),App_icon3_2_30x3(4),App_icon3_2_30x3(5),App_icon3_2_30x3(6)
;   profileName,Default(2) (modified)
;   profileVersion,2019-07-27 15:21:07
;   baseProfile,
;   printMaterial,PLA
;   printQuality,Medium
;   printExtruders,
;   extruderName,Primary Extruder
;   extruderToolheadNumber,0
;   extruderDiameter,0.4
;   extruderAutoWidth,0
;   extruderWidth,0.4
;   extrusionMultiplier,0.9
;   extruderUseRetract,1
;   extruderRetractionDistance,1
;   extruderExtraRestartDistance,0
;   extruderRetractionZLift,0
;   extruderRetractionSpeed,1800
;   extruderUseCoasting,0
;   extruderCoastingDistance,0.2
;   extruderUseWipe,0
;   extruderWipeDistance,5
;   primaryExtruder,0
;   layerHeight,0.2
;   topSolidLayers,3
;   bottomSolidLayers,3
;   perimeterOutlines,2
;   printPerimetersInsideOut,0
;   startPointOption,2
;   startPointOriginX,0
;   startPointOriginY,0
;   sequentialIslands,0
;   spiralVaseMode,0
;   firstLayerHeightPercentage,90
;   firstLayerWidthPercentage,100
;   firstLayerUnderspeed,0.5
;   useRaft,0
;   raftExtruder,0
;   raftTopLayers,3
;   raftBaseLayers,2
;   raftOffset,3
;   raftSeparationDistance,0.14
;   raftTopInfill,100
;   aboveRaftSpeedMultiplier,0.3
;   useSkirt,0
;   skirtExtruder,0
;   skirtLayers,1
;   skirtOutlines,2
;   skirtOffset,4
;   usePrimePillar,0
;   primePillarExtruder,999
;   primePillarWidth,12
;   primePillarLocation,7
;   primePillarSpeedMultiplier,1
;   useOozeShield,0
;   oozeShieldExtruder,999
;   oozeShieldOffset,2
;   oozeShieldOutlines,1
;   oozeShieldSidewallShape,1
;   oozeShieldSidewallAngle,30
;   oozeShieldSpeedMultiplier,1
;   infillExtruder,0
;   internalInfillPattern,Rectilinear
;   externalInfillPattern,Rectilinear
;   infillPercentage,10
;   outlineOverlapPercentage,15
;   infillExtrusionWidthPercentage,100
;   minInfillLength,5
;   infillLayerInterval,1
;   internalInfillAngles,45,-45
;   overlapInternalInfillAngles,0
;   externalInfillAngles,45,-45
;   generateSupport,0
;   supportExtruder,0
;   supportInfillPercentage,30
;   supportExtraInflation,0
;   supportBaseLayers,0
;   denseSupportExtruder,0
;   denseSupportLayers,0
;   denseSupportInfillPercentage,70
;   supportLayerInterval,1
;   supportHorizontalPartOffset,0.3
;   supportUpperSeparationLayers,1
;   supportLowerSeparationLayers,1
;   supportType,0
;   supportGridSpacing,4
;   maxOverhangAngle,45
;   supportAngles,0
;   temperatureName,Primary Extruder,Hot Bed
;   temperatureNumber,0,1
;   temperatureSetpointCount,1,1
;   temperatureSetpointLayers,1,1
;   temperatureSetpointTemperatures,210,60
;   temperatureStabilizeAtStartup,1,0
;   temperatureHeatedBed,0,1
;   temperatureRelayBetweenLayers,0,0
;   temperatureRelayBetweenLoops,0,0
;   fanLayers,1,2
;   fanSpeeds,0,100
;   blipFanToFullPower,0
;   adjustSpeedForCooling,1
;   minSpeedLayerTime,15
;   minCoolingSpeedSlowdown,20
;   increaseFanForCooling,0
;   minFanLayerTime,45
;   maxCoolingFanSpeed,100
;   increaseFanForBridging,0
;   bridgingFanSpeed,100
;   use5D,1
;   relativeEdistances,0
;   allowEaxisZeroing,1
;   independentExtruderAxes,0
;   includeM10123,0
;   stickySupport,1
;   applyToolheadOffsets,0
;   gcodeXoffset,0
;   gcodeYoffset,0
;   gcodeZoffset,0
;   overrideMachineDefinition,0
;   machineTypeOverride,0
;   strokeXoverride,200
;   strokeYoverride,200
;   strokeZoverride,200
;   originOffsetXoverride,0
;   originOffsetYoverride,0
;   originOffsetZoverride,0
;   homeXdirOverride,-1
;   homeYdirOverride,-1
;   homeZdirOverride,-1
;   flipXoverride,1
;   flipYoverride,-1
;   flipZoverride,1
;   toolheadOffsets,0,0|0,0|0,0|0,0|0,0|0,0
;   overrideFirmwareConfiguration,0
;   firmwareTypeOverride,RepRap (Marlin/Repetier/Sprinter)
;   GPXconfigOverride,r2
;   baudRateOverride,115200
;   overridePrinterModels,0
;   printerModelsOverride
;   startingGcode,G28 ; home all axes,G1 X0 Y210 Z0.2 F3000 ; get ready to prime,G92 E0 ; reset extrusion distance,G1 X150 E20 F600 ; prime nozzle
;   layerChangeGcode,
;   retractionGcode,
;   toolChangeGcode,
;   endingGcode,G28 ; home all axes,M104 S0 ; turn off extruder,M140 S0 ; turn off bed,M84 ; disable motors
;   exportFileFormat,gcode
;   celebration,0
;   celebrationSong,Random Song
;   postProcessing,
;   defaultSpeed,4200
;   outlineUnderspeed,0.5
;   solidInfillUnderspeed,0.8
;   supportUnderspeed,0.8
;   rapidXYspeed,4800
;   rapidZspeed,1000
;   minBridgingArea,50
;   bridgingExtraInflation,0
;   bridgingExtrusionMultiplier,1
;   bridgingSpeedMultiplier,1
;   useFixedBridgingAngle,0
;   fixedBridgingAngle,0
;   applyBridgingToPerimeters,0
;   filamentDiameters,1.75|1.75|1.75|1.75|1.75|1.75
;   filamentPricesPerKg,46|46|46|46|46|46
;   filamentDensities,1.25|1.25|1.25|1.25|1.25|1.25
;   useMinPrintHeight,0
;   minPrintHeight,0
;   useMaxPrintHeight,0
;   maxPrintHeight,0
;   useDiaphragm,0
;   diaphragmLayerInterval,20
;   robustSlicing,1
;   mergeAllIntoSolid,0
;   onlyRetractWhenCrossingOutline,1
;   retractBetweenLayers,1
;   useRetractionMinTravel,0
;   retractionMinTravel,3
;   retractWhileWiping,0
;   onlyWipeOutlines,1
;   avoidCrossingOutline,0
;   maxMovementDetourFactor,3
;   toolChangeRetractionDistance,12
;   toolChangeExtraRestartDistance,-0.5
;   toolChangeRetractionSpeed,600
;   externalThinWallType,1
;   internalThinWallType,1
;   thinWallAllowedOverlapPercentage,10
;   singleExtrusionMinLength,1
;   singleExtrusionMinPrintingWidthPercentage,50
;   singleExtrusionMaxPrintingWidthPercentage,200
;   singleExtrusionEndpointExtension,0.2
;   horizontalSizeCompensation,0
G90
M82
M106 S0
M140 S60
M104 S210 T0
M109 S210 T0
G28 ; home all axes
G1 X0 Y210 Z0.2 F3000 ; get ready to prime
G92 E0 ; reset extrusion distance
G1 X150 E20 F600 ; prime nozzle
G92 E0
G1 E-1.0000 F1800
G1 Z0.180 F1000
; process Process2
; layer 1, Z = 0.180
T0
; tool H0.200 W0.400
; outer perimeter
G1 X88.575 Y64.686 F4800
G1 E0.0000 F540
G92 E0
G1 X89.309 Y63.748 E0.0356 F1050
G1 X90.249 Y62.809 E0.0754
G1 X91.062 Y62.158 E0.1066
G1 X92.164 Y61.464 E0.1456
G1 X93.386 Y60.894 E0.1859
G1 X94.853 Y60.445 E0.2319
G1 X96.652 Y60.200 E0.2862
G1 X106.390 Y60.200 E0.5777
G1 X107.983 Y60.404 E0.6258
G1 X109.533 Y60.853 E0.6741
G1 X110.879 Y61.465 E0.7183
G1 X111.855 Y62.075 E0.7528
G1 X112.832 Y62.849 E0.7901
G1 X114.100 Y64.197 E0.8455
G1 X114.956 Y65.461 E0.8912
G1 X115.484 Y66.517 E0.9265
G1 X116.056 Y68.234 E0.9807
G1 X116.300 Y69.739 E1.0264
G1 X116.300 Y80.261 E1.3413
G1 X116.055 Y81.771 E1.3871
G1 X115.853 Y82.500 E1.4098
G1 X115.485 Y83.479 E1.4411
G1 X114.955 Y84.540 E1.4766
G1 X114.344 Y85.478 E1.5101
G1 X113.650 Y86.334 E1.5431
G1 X112.876 Y87.108 E1.5758
G1 X111.856 Y87.924 E1.6149
G1 X110.714 Y88.618 E1.6549
G1 X109.533 Y89.147 E1.6937
G1 X107.983 Y89.596 E1.7420
G1 X106.390 Y89.800 E1.7900
G1 X96.650 Y89.800 E2.0816
G1 X95.262 Y89.637 E2.1235
G1 X93.957 Y89.311 E2.1637
G1 X92.814 Y88.861 E2.2005
G1 X92.166 Y88.537 E2.2222
G1 X91.062 Y87.842 E2.2612
G1 X90.250 Y87.193 E2.2923
G1 X89.064 Y85.966 E2.3434
G1 X88.249 Y84.825 E2.3854
G1 X87.637 Y83.682 E2.4242
G1 X87.353 Y82.993 E2.4465
G1 X86.985 Y81.808 E2.4836
G1 X86.782 Y80.708 E2.5171
G1 X86.700 Y79.687 E2.5478
G1 X86.700 Y70.315 E2.8283
G1 X86.864 Y68.760 E2.8751
G1 X87.108 Y67.744 E2.9064
G1 X87.516 Y66.601 E2.9428
G1 X87.964 Y65.664 E2.9738
G1 X88.575 Y64.686 E3.0084
; inner perimeter
G1 X88.903 Y64.916 F4800
G92 E0
G1 X89.609 Y64.013 E0.0343 F1575
G1 X90.516 Y63.107 E0.0727
G1 X91.294 Y62.484 E0.1025
G1 X92.356 Y61.816 E0.1401
G1 X93.530 Y61.268 E0.1788
G1 X94.939 Y60.837 E0.2230
G1 X96.679 Y60.600 E0.2755
G1 X106.365 Y60.600 E0.5654
G1 X107.901 Y60.797 E0.6118
G1 X109.394 Y61.229 E0.6583
G1 X110.689 Y61.818 E0.7009
G1 X111.625 Y62.402 E0.7339
G1 X112.561 Y63.144 E0.7697
G1 X113.786 Y64.448 E0.8233
G1 X114.610 Y65.664 E0.8672
G1 X115.113 Y66.671 E0.9009
G1 X115.666 Y68.329 E0.9533
G1 X115.900 Y69.771 E0.9970
G1 X115.900 Y80.229 E1.3100
G1 X115.664 Y81.686 E1.3542
G1 X115.472 Y82.376 E1.3757
G1 X115.118 Y83.319 E1.4058
G1 X114.607 Y84.341 E1.4400
G1 X114.020 Y85.242 E1.4722
G1 X113.353 Y86.066 E1.5039
G1 X112.609 Y86.810 E1.5354
G1 X111.626 Y87.596 E1.5731
G1 X110.528 Y88.263 E1.6116
G1 X109.395 Y88.770 E1.6487
G1 X107.901 Y89.203 E1.6953
G1 X106.365 Y89.400 E1.7416
G1 X96.674 Y89.400 E2.0317
G1 X95.334 Y89.242 E2.0721
G1 X94.079 Y88.929 E2.1108
G1 X92.977 Y88.496 E2.1463
G1 X92.363 Y88.188 E2.1668
G1 X91.294 Y87.516 E2.2046
G1 X90.520 Y86.896 E2.2343
G1 X89.372 Y85.709 E2.2837
G1 X88.590 Y84.613 E2.3240
G1 X87.999 Y83.511 E2.3615
G1 X87.730 Y82.857 E2.3826
G1 X87.374 Y81.712 E2.4185
G1 X87.179 Y80.655 E2.4507
G1 X87.100 Y79.671 E2.4803
G1 X87.100 Y70.336 E2.7597
G1 X87.259 Y68.828 E2.8051
G1 X87.491 Y67.858 E2.8349
G1 X87.886 Y66.755 E2.8700
G1 X88.315 Y65.857 E2.8998
G1 X88.903 Y64.916 E2.9330
; outer perimeter
G1 X109.753 Y70.051 F4800
G92 E0
G1 X109.708 Y70.264 E0.0065 F1050
G1 X109.685 Y70.482 E0.0131
G1 X109.685 Y70.697 E0.0195
G1 X109.708 Y70.916 E0.0261
G1 X109.753 Y71.128 E0.0326
G1 X109.862 Y71.433 E0.0423
G1 X109.962 Y71.628 E0.0489
G1 X110.080 Y71.810 E0.0554
G1 X110.217 Y71.979 E0.0619
G1 X110.371 Y72.132 E0.0684
G1 X110.627 Y72.329 E0.0780
G1 X110.818 Y72.438 E0.0846
G1 X111.017 Y72.527 E0.0911
G1 X111.223 Y72.593 E0.0976
G1 X111.436 Y72.638 E0.1041
G1 X111.652 Y72.661 E0.1106
G1 X111.869 Y72.660 E0.1171
G1 X112.085 Y72.637 E0.1236
G1 X112.297 Y72.592 E0.1301
G1 X112.504 Y72.524 E0.1366
G1 X112.702 Y72.436 E0.1431
G1 X112.977 Y72.267 E0.1528
G1 X113.148 Y72.128 E0.1594
G1 X113.300 Y71.977 E0.1658
G1 X113.436 Y71.808 E0.1723
G1 X113.555 Y71.626 E0.1788
G1 X113.653 Y71.432 E0.1853
G1 X113.732 Y71.227 E0.1919
G1 X113.807 Y70.913 E0.2016
G1 X113.833 Y70.591 E0.2112
G1 X113.821 Y70.371 E0.2178
G1 X113.787 Y70.157 E0.2243
G1 X113.731 Y69.947 E0.2308
G1 X113.653 Y69.744 E0.2373
G1 X113.555 Y69.551 E0.2438
G1 X113.438 Y69.371 E0.2502
G1 X113.368 Y69.280 E0.2536
G1 X113.225 Y69.121 E0.2601
G1 X113.063 Y68.975 E0.2666
G1 X112.888 Y68.848 E0.2731
G1 X112.697 Y68.738 E0.2797
G1 X112.401 Y68.615 E0.2892
G1 X112.189 Y68.558 E0.2958
G1 X111.974 Y68.524 E0.3023
G1 X111.757 Y68.513 E0.3088
G1 X111.540 Y68.524 E0.3153
G1 X111.326 Y68.558 E0.3218
G1 X111.114 Y68.615 E0.3284
G1 X110.817 Y68.738 E0.3380
G1 X110.627 Y68.848 E0.3446
G1 X110.449 Y68.977 E0.3512
G1 X110.215 Y69.200 E0.3608
G1 X110.078 Y69.368 E0.3673
G1 X109.957 Y69.555 E0.3740
G1 X109.820 Y69.845 E0.3836
G1 X109.753 Y70.051 E0.3901
; inner perimeter
G1 X109.366 Y69.947 F4800
G92 E0
G1 X109.312 Y70.201 E0.0078 F1575
G1 X109.285 Y70.462 E0.0156
G1 X109.285 Y70.718 E0.0233
G1 X109.313 Y70.978 E0.0311
G1 X109.368 Y71.237 E0.0390
G1 X109.493 Y71.591 E0.0503
G1 X109.615 Y71.829 E0.0583
G1 X109.757 Y72.046 E0.0660
G1 X109.920 Y72.247 E0.0738
G1 X110.107 Y72.434 E0.0817
G1 X110.405 Y72.662 E0.0929
G1 X110.637 Y72.796 E0.1009
G1 X110.874 Y72.901 E0.1087
G1 X111.120 Y72.980 E0.1165
G1 X111.374 Y73.034 E0.1242
G1 X111.631 Y73.061 E0.1320
G1 X111.891 Y73.060 E0.1397
G1 X112.148 Y73.033 E0.1475
G1 X112.402 Y72.979 E0.1552
G1 X112.648 Y72.898 E0.1630
G1 X112.889 Y72.791 E0.1709
G1 X113.209 Y72.594 E0.1822
G1 X113.416 Y72.426 E0.1901
G1 X113.597 Y72.245 E0.1978
G1 X113.760 Y72.043 E0.2056
G1 X113.901 Y71.826 E0.2133
G1 X114.019 Y71.595 E0.2211
G1 X114.115 Y71.346 E0.2291
G1 X114.204 Y70.976 E0.2405
G1 X114.234 Y70.596 E0.2519
G1 X114.220 Y70.329 E0.2599
G1 X114.179 Y70.073 E0.2676
G1 X114.112 Y69.823 E0.2754
G1 X114.019 Y69.581 E0.2831
G1 X113.901 Y69.350 E0.2909
G1 X113.765 Y69.140 E0.2984
G1 X113.676 Y69.024 E0.3028
G1 X113.508 Y68.837 E0.3103
G1 X113.315 Y68.664 E0.3180
G1 X113.106 Y68.512 E0.3258
G1 X112.875 Y68.378 E0.3338
G1 X112.530 Y68.236 E0.3449
G1 X112.272 Y68.166 E0.3529
G1 X112.016 Y68.126 E0.3607
G1 X111.757 Y68.112 E0.3685
G1 X111.499 Y68.126 E0.3762
G1 X111.243 Y68.166 E0.3840
G1 X110.985 Y68.236 E0.3920
G1 X110.640 Y68.378 E0.4031
G1 X110.409 Y68.512 E0.4111
G1 X110.193 Y68.669 E0.4191
G1 X109.920 Y68.928 E0.4304
G1 X109.754 Y69.133 E0.4383
G1 X109.607 Y69.360 E0.4464
G1 X109.447 Y69.696 E0.4575
G1 X109.366 Y69.947 E0.4654
G92 E0
G1 E-1.0000 F1800
; solid layer
G1 X111.193 Y73.343 F4800
G1 E0.0000 F1800
G92 E0
G1 X115.560 Y77.710 E0.1849 F1680
G1 X115.560 Y77.144 E0.2018
G1 X111.816 Y73.400 E0.3603
G1 X111.909 Y73.400 E0.3631
G1 X112.202 Y73.369 E0.3719
G1 X112.324 Y73.343 E0.3756
G1 X115.560 Y76.579 E0.5126
G1 X115.560 Y76.013 E0.5295
G1 X112.765 Y73.218 E0.6479
G1 X112.770 Y73.216 E0.6480
G1 X113.048 Y73.092 E0.6571
G1 X113.145 Y73.032 E0.6606
G1 X115.560 Y75.447 E0.7628
G1 X115.560 Y74.882 E0.7797
G1 X113.486 Y72.807 E0.8675
G1 X113.644 Y72.679 E0.8736
G1 X113.783 Y72.539 E0.8795
G1 X115.560 Y74.316 E0.9547
G1 X115.560 Y73.750 E0.9717
G1 X114.043 Y72.233 E1.0359
G1 X114.196 Y71.996 E1.0443
G1 X114.256 Y71.880 E1.0482
G1 X115.560 Y73.185 E1.1035
G1 X115.560 Y72.619 E1.1204
G1 X114.426 Y71.485 E1.1684
G1 X114.440 Y71.447 E1.1696
G1 X114.540 Y71.033 E1.1824
G1 X115.560 Y72.053 E1.2256
G1 X115.560 Y71.487 E1.2425
G1 X114.569 Y70.496 E1.2845
G1 X111.029 Y62.431 F4800
G92 E0
G1 X114.068 Y65.470 E0.1286 F1680
G1 X114.316 Y65.836 E0.1419
G1 X114.763 Y66.731 E0.1718
G1 X109.836 Y61.803 E0.3804
G1 X109.276 Y61.549 E0.3988
G1 X108.909 Y61.443 E0.4102
G1 X115.064 Y67.597 E0.6708
G1 X115.335 Y68.411 E0.6965
G1 X115.339 Y68.438 E0.6973
G1 X108.113 Y61.212 E1.0032
G1 X107.832 Y61.131 E1.0120
G1 X107.412 Y61.077 E1.0246
G1 X115.449 Y69.114 E1.3648
G1 X115.558 Y69.789 E1.3853
G1 X106.763 Y60.994 E1.7576
G1 X106.343 Y60.940 E1.7703
G1 X106.144 Y60.940 E1.7763
G1 X115.560 Y70.356 E2.1749
G1 X115.560 Y70.922 E2.1918
G1 X114.465 Y69.827 E2.2382
G1 X114.436 Y69.718 E2.2416
G1 X114.330 Y69.443 E2.2504
G1 X114.196 Y69.180 E2.2592
G1 X114.042 Y68.943 E2.2677
G1 X113.938 Y68.807 E2.2728
G1 X113.749 Y68.597 E2.2813
G1 X113.530 Y68.399 E2.2901
G1 X113.291 Y68.226 E2.2989
G1 X113.025 Y68.073 E2.3081
G1 X112.640 Y67.913 E2.3206
G1 X112.519 Y67.880 E2.3244
G1 X105.578 Y60.940 E2.6182
G1 X105.013 Y60.940 E2.6351
G1 X111.849 Y67.777 E2.9245
G1 X111.757 Y67.772 E2.9273
G1 X111.463 Y67.787 E2.9361
G1 X111.317 Y67.810 E2.9405
G1 X104.447 Y60.940 E3.2314
G1 X103.881 Y60.940 E3.2483
G1 X110.860 Y67.919 E3.5437
G1 X110.489 Y68.073 E3.5558
G1 X110.463 Y68.088 E3.5567
G1 X103.315 Y60.940 E3.8592
G1 X102.750 Y60.940 E3.8762
G1 X110.115 Y68.305 E4.1880
G1 X109.975 Y68.407 E4.1932
G1 X109.809 Y68.565 E4.2000
G1 X102.184 Y60.940 E4.5228
G1 X101.618 Y60.940 E4.5397
G1 X109.538 Y68.860 E4.8750
G1 X109.479 Y68.933 E4.8778
G1 X109.310 Y69.194 E4.8871
G1 X109.309 Y69.196 E4.8872
G1 X101.053 Y60.940 E5.2367
G1 X100.487 Y60.940 E5.2536
G1 X109.128 Y69.580 E5.6194
G1 X109.037 Y69.859 E5.6282
G1 X109.003 Y70.021 E5.6331
G1 X99.921 Y60.940 E6.0176
G1 X99.356 Y60.940 E6.0345
G1 X108.945 Y70.529 E6.4405
G1 X108.945 Y70.736 E6.4466
G1 X108.976 Y71.032 E6.4556
G1 X109.002 Y71.152 E6.4592
G1 X98.790 Y60.940 E6.8915
G1 X98.224 Y60.940 E6.9085
G1 X109.389 Y72.104 E7.3811
G1 X109.481 Y72.247 E7.3862
G1 X109.667 Y72.475 E7.3950
G1 X109.882 Y72.690 E7.4041
G1 X110.216 Y72.946 E7.4167
G1 X110.249 Y72.965 E7.4178
G1 X115.560 Y78.276 E7.6426
G1 X115.560 Y78.841 E7.6596
G1 X97.659 Y60.940 E8.4174
G1 X97.093 Y60.940 E8.4343
G1 X115.560 Y79.407 E9.2161
G1 X115.560 Y79.973 E9.2330
G1 X96.548 Y60.961 E10.0379
G1 X96.050 Y61.029 E10.0529
G1 X115.513 Y80.491 E10.8768
G1 X115.434 Y80.978 E10.8916
G1 X95.553 Y61.097 E11.7332
G1 X95.055 Y61.165 E11.7483
G1 X115.355 Y81.465 E12.6076
G1 X115.331 Y81.613 E12.6121
G1 X115.245 Y81.921 E12.6217
G1 X94.616 Y61.292 E13.4950
G1 X94.183 Y61.424 E13.5086
G1 X115.116 Y82.357 E14.3947
G1 X114.962 Y82.769 E14.4079
G1 X93.749 Y61.556 E15.3059
G1 X93.652 Y61.586 E15.3089
G1 X93.353 Y61.726 E15.3188
G1 X114.807 Y83.180 E16.2270
G1 X114.806 Y83.183 E16.2271
G1 X114.619 Y83.557 E16.2397
G1 X92.967 Y61.906 E17.1562
G1 X92.582 Y62.086 E17.1690
G1 X114.431 Y83.934 E18.0939
G1 X114.312 Y84.171 E18.1018
G1 X114.229 Y84.299 E18.1064
