; G-Code generated by Simplify3D(R) Version 4.0.0
; Jul 28, 2019 at 12:41:10 AM
; Settings Summary
;   processName,Process2
;   applyToModels,App_icon3_2_30,App_icon3_2_40x6,App_icon3_2_40x8
;   profileName,Default(2) (modified)
;   profileVersion,2019-07-27 15:21:07
;   baseProfile,
;   printMaterial,PLA
;   printQuality,Medium
;   printExtruders,
;   extruderName,Primary Extruder
;   extruderToolheadNumber,0
;   extruderDiameter,0.4
;   extruderAutoWidth,0
;   extruderWidth,0.4
;   extrusionMultiplier,0.9
;   extruderUseRetract,1
;   extruderRetractionDistance,1
;   extruderExtraRestartDistance,0
;   extruderRetractionZLift,0
;   extruderRetractionSpeed,1800
;   extruderUseCoasting,0
;   extruderCoastingDistance,0.2
;   extruderUseWipe,0
;   extruderWipeDistance,5
;   primaryExtruder,0
;   layerHeight,0.2
;   topSolidLayers,3
;   bottomSolidLayers,3
;   perimeterOutlines,2
;   printPerimetersInsideOut,0
;   startPointOption,2
;   startPointOriginX,0
;   startPointOriginY,0
;   sequentialIslands,0
;   spiralVaseMode,0
;   firstLayerHeightPercentage,90
;   firstLayerWidthPercentage,100
;   firstLayerUnderspeed,0.5
;   useRaft,0
;   raftExtruder,0
;   raftTopLayers,3
;   raftBaseLayers,2
;   raftOffset,3
;   raftSeparationDistance,0.14
;   raftTopInfill,100
;   aboveRaftSpeedMultiplier,0.3
;   useSkirt,0
;   skirtExtruder,0
;   skirtLayers,1
;   skirtOutlines,2
;   skirtOffset,4
;   usePrimePillar,0
;   primePillarExtruder,999
;   primePillarWidth,12
;   primePillarLocation,7
;   primePillarSpeedMultiplier,1
;   useOozeShield,0
;   oozeShieldExtruder,999
;   oozeShieldOffset,2
;   oozeShieldOutlines,1
;   oozeShieldSidewallShape,1
;   oozeShieldSidewallAngle,30
;   oozeShieldSpeedMultiplier,1
;   infillExtruder,0
;   internalInfillPattern,Rectilinear
;   externalInfillPattern,Rectilinear
;   infillPercentage,15
;   outlineOverlapPercentage,15
;   infillExtrusionWidthPercentage,100
;   minInfillLength,5
;   infillLayerInterval,1
;   internalInfillAngles,45,-45
;   overlapInternalInfillAngles,0
;   externalInfillAngles,45,-45
;   generateSupport,0
;   supportExtruder,0
;   supportInfillPercentage,30
;   supportExtraInflation,0
;   supportBaseLayers,0
;   denseSupportExtruder,0
;   denseSupportLayers,0
;   denseSupportInfillPercentage,70
;   supportLayerInterval,1
;   supportHorizontalPartOffset,0.3
;   supportUpperSeparationLayers,1
;   supportLowerSeparationLayers,1
;   supportType,0
;   supportGridSpacing,4
;   maxOverhangAngle,45
;   supportAngles,0
;   temperatureName,Primary Extruder,Hot Bed
;   temperatureNumber,0,1
;   temperatureSetpointCount,1,1
;   temperatureSetpointLayers,1,1
;   temperatureSetpointTemperatures,210,60
;   temperatureStabilizeAtStartup,1,0
;   temperatureHeatedBed,0,1
;   temperatureRelayBetweenLayers,0,0
;   temperatureRelayBetweenLoops,0,0
;   fanLayers,1,2
;   fanSpeeds,0,100
;   blipFanToFullPower,0
;   adjustSpeedForCooling,1
;   minSpeedLayerTime,15
;   minCoolingSpeedSlowdown,20
;   increaseFanForCooling,0
;   minFanLayerTime,45
;   maxCoolingFanSpeed,100
;   increaseFanForBridging,0
;   bridgingFanSpeed,100
;   use5D,1
;   relativeEdistances,0
;   allowEaxisZeroing,1
;   independentExtruderAxes,0
;   includeM10123,0
;   stickySupport,1
;   applyToolheadOffsets,0
;   gcodeXoffset,0
;   gcodeYoffset,0
;   gcodeZoffset,0
;   overrideMachineDefinition,0
;   machineTypeOverride,0
;   strokeXoverride,200
;   strokeYoverride,200
;   strokeZoverride,200
;   originOffsetXoverride,0
;   originOffsetYoverride,0
;   originOffsetZoverride,0
;   homeXdirOverride,-1
;   homeYdirOverride,-1
;   homeZdirOverride,-1
;   flipXoverride,1
;   flipYoverride,-1
;   flipZoverride,1
;   toolheadOffsets,0,0|0,0|0,0|0,0|0,0|0,0
;   overrideFirmwareConfiguration,0
;   firmwareTypeOverride,RepRap (Marlin/Repetier/Sprinter)
;   GPXconfigOverride,r2
;   baudRateOverride,115200
;   overridePrinterModels,0
;   printerModelsOverride
;   startingGcode,G28 ; home all axes,G1 X0 Y20 Z0.2 F3000 ; get ready to prime,G92 E0 ; reset extrusion distance,G1 X150 E20 F600 ; prime nozzle
;   layerChangeGcode,
;   retractionGcode,
;   toolChangeGcode,
;   endingGcode,M104 S0 ; turn off extruder,M140 S0 ; turn off bed,M84 ; disable motors
;   exportFileFormat,gcode
;   celebration,0
;   celebrationSong,Random Song
;   postProcessing,
;   defaultSpeed,4200
;   outlineUnderspeed,0.5
;   solidInfillUnderspeed,0.8
;   supportUnderspeed,0.8
;   rapidXYspeed,4800
;   rapidZspeed,1000
;   minBridgingArea,50
;   bridgingExtraInflation,0
;   bridgingExtrusionMultiplier,1
;   bridgingSpeedMultiplier,1
;   useFixedBridgingAngle,0
;   fixedBridgingAngle,0
;   applyBridgingToPerimeters,0
;   filamentDiameters,1.75|1.75|1.75|1.75|1.75|1.75
;   filamentPricesPerKg,46|46|46|46|46|46
;   filamentDensities,1.25|1.25|1.25|1.25|1.25|1.25
;   useMinPrintHeight,0
;   minPrintHeight,0
;   useMaxPrintHeight,0
;   maxPrintHeight,0
;   useDiaphragm,0
;   diaphragmLayerInterval,20
;   robustSlicing,1
;   mergeAllIntoSolid,0
;   onlyRetractWhenCrossingOutline,1
;   retractBetweenLayers,1
;   useRetractionMinTravel,0
;   retractionMinTravel,3
;   retractWhileWiping,0
;   onlyWipeOutlines,1
;   avoidCrossingOutline,0
;   maxMovementDetourFactor,3
;   toolChangeRetractionDistance,12
;   toolChangeExtraRestartDistance,-0.5
;   toolChangeRetractionSpeed,600
;   externalThinWallType,1
;   internalThinWallType,1
;   thinWallAllowedOverlapPercentage,10
;   singleExtrusionMinLength,1
;   singleExtrusionMinPrintingWidthPercentage,50
;   singleExtrusionMaxPrintingWidthPercentage,200
;   singleExtrusionEndpointExtension,0.2
;   horizontalSizeCompensation,0
G90
M82
M106 S0
M140 S60
M104 S210 T0
M109 S210 T0
G28 ; home all axes
G1 X0 Y20 Z0.2 F3000 ; get ready to prime
G92 E0 ; reset extrusion distance
G1 X150 E20 F600 ; prime nozzle
G92 E0
G1 E-1.0000 F1800
G1 Z0.180 F1000
; process Process2
; layer 1, Z = 0.180
T0
; tool H0.200 W0.400
; outer perimeter
G1 X60.009 Y46.209 F4800
G1 E0.0000 F540
G92 E0
G1 X60.993 Y44.953 E0.0478 F1050
G1 X62.250 Y43.695 E0.1010
G1 X63.341 Y42.823 E0.1428
G1 X64.817 Y41.893 E0.1950
G1 X66.455 Y41.129 E0.2491
G1 X68.420 Y40.528 E0.3106
G1 X70.829 Y40.200 E0.3834
G1 X83.822 Y40.200 E0.7723
G1 X85.954 Y40.473 E0.8367
G1 X88.031 Y41.074 E0.9014
G1 X89.834 Y41.894 E0.9607
G1 X91.143 Y42.712 E1.0069
G1 X92.452 Y43.749 E1.0569
G1 X94.149 Y45.555 E1.1311
G1 X95.296 Y47.248 E1.1923
G1 X96.004 Y48.664 E1.2397
G1 X96.770 Y50.962 E1.3122
G1 X97.097 Y52.980 E1.3734
G1 X97.097 Y67.020 E1.7936
G1 X96.769 Y69.043 E1.8550
G1 X96.497 Y70.021 E1.8854
G1 X96.005 Y71.333 E1.9273
G1 X95.295 Y72.754 E1.9749
G1 X94.476 Y74.010 E2.0198
G1 X93.547 Y75.157 E2.0639
G1 X92.510 Y76.194 E2.1079
G1 X91.143 Y77.287 E2.1602
G1 X89.614 Y78.216 E2.2138
G1 X88.031 Y78.925 E2.2657
G1 X85.954 Y79.527 E2.3304
G1 X83.822 Y79.800 E2.3948
G1 X70.827 Y79.800 E2.7838
G1 X68.967 Y79.581 E2.8398
G1 X67.220 Y79.144 E2.8938
G1 X65.689 Y78.543 E2.9430
G1 X64.819 Y78.108 E2.9721
G1 X63.341 Y77.177 E3.0244
G1 X62.252 Y76.306 E3.0661
G1 X60.664 Y74.664 E3.1345
G1 X59.572 Y73.135 E3.1907
G1 X58.752 Y71.604 E3.2427
G1 X58.372 Y70.680 E3.2727
G1 X57.879 Y69.093 E3.3224
G1 X57.606 Y67.619 E3.3673
G1 X57.497 Y66.252 E3.4083
G1 X57.497 Y53.750 E3.7825
G1 X57.716 Y51.668 E3.8452
G1 X58.043 Y50.306 E3.8871
G1 X58.590 Y48.775 E3.9358
G1 X59.190 Y47.520 E3.9774
G1 X60.009 Y46.209 E4.0237
; inner perimeter
G1 X60.337 Y46.439 F4800
G92 E0
G1 X61.293 Y45.218 E0.0464 F1575
G1 X62.518 Y43.993 E0.0983
G1 X63.573 Y43.149 E0.1387
G1 X65.009 Y42.245 E0.1895
G1 X66.598 Y41.503 E0.2420
G1 X68.506 Y40.920 E0.3017
G1 X70.856 Y40.600 E0.3727
G1 X83.796 Y40.600 E0.7601
G1 X85.873 Y40.866 E0.8227
G1 X87.892 Y41.451 E0.8857
G1 X89.644 Y42.247 E0.9433
G1 X90.912 Y43.040 E0.9880
G1 X92.181 Y44.044 E1.0365
G1 X93.835 Y45.805 E1.1088
G1 X94.950 Y47.451 E1.1683
G1 X95.633 Y48.817 E1.2140
G1 X96.380 Y51.058 E1.2847
G1 X96.697 Y53.012 E1.3440
G1 X96.697 Y66.988 E1.7623
G1 X96.378 Y68.957 E1.8221
G1 X96.116 Y69.897 E1.8513
G1 X95.638 Y71.173 E1.8920
G1 X94.947 Y72.554 E1.9383
G1 X94.152 Y73.774 E1.9819
G1 X93.249 Y74.889 E2.0248
G1 X92.242 Y75.896 E2.0674
G1 X90.914 Y76.959 E2.1184
G1 X89.427 Y77.861 E2.1704
G1 X87.893 Y78.549 E2.2207
G1 X85.873 Y79.134 E2.2837
G1 X83.796 Y79.400 E2.3464
G1 X70.850 Y79.400 E2.7339
G1 X69.040 Y79.187 E2.7885
G1 X67.342 Y78.762 E2.8409
G1 X65.852 Y78.177 E2.8888
G1 X65.015 Y77.759 E2.9168
G1 X63.573 Y76.851 E2.9678
G1 X62.522 Y76.010 E3.0081
G1 X60.973 Y74.407 E3.0748
G1 X59.913 Y72.924 E3.1294
G1 X59.114 Y71.433 E3.1800
G1 X58.748 Y70.544 E3.2088
G1 X58.268 Y68.997 E3.2573
G1 X58.003 Y67.567 E3.3008
G1 X57.897 Y66.236 E3.3408
G1 X57.897 Y53.771 E3.7139
G1 X58.111 Y51.736 E3.7752
G1 X58.427 Y50.421 E3.8157
G1 X58.960 Y48.929 E3.8631
G1 X59.541 Y47.713 E3.9034
G1 X60.337 Y46.439 E3.9484
; outer perimeter
G1 X88.668 Y52.940 F4800
G92 E0
G1 X88.623 Y53.220 E0.0085 F1050
G1 X88.609 Y53.487 E0.0165
G1 X88.623 Y53.784 E0.0254
G1 X88.665 Y54.049 E0.0334
G1 X88.740 Y54.336 E0.0423
G1 X88.836 Y54.586 E0.0503
G1 X88.963 Y54.838 E0.0588
G1 X89.115 Y55.076 E0.0672
G1 X89.292 Y55.297 E0.0757
G1 X89.492 Y55.500 E0.0842
G1 X89.835 Y55.765 E0.0972
G1 X90.070 Y55.901 E0.1053
G1 X90.341 Y56.023 E0.1142
G1 X90.610 Y56.110 E0.1227
G1 X90.874 Y56.167 E0.1308
G1 X91.290 Y56.202 E0.1433
G1 X91.575 Y56.189 E0.1518
G1 X91.855 Y56.146 E0.1603
G1 X92.128 Y56.075 E0.1687
G1 X92.393 Y55.975 E0.1772
G1 X92.658 Y55.841 E0.1861
G1 X92.896 Y55.687 E0.1946
G1 X93.104 Y55.519 E0.2026
G1 X93.317 Y55.308 E0.2116
G1 X93.572 Y54.975 E0.2241
G1 X93.715 Y54.728 E0.2326
G1 X93.830 Y54.470 E0.2411
G1 X93.917 Y54.201 E0.2496
G1 X93.976 Y53.925 E0.2580
G1 X94.004 Y53.659 E0.2660
G1 X94.005 Y53.359 E0.2750
G1 X93.953 Y52.956 E0.2872
G1 X93.836 Y52.552 E0.2998
G1 X93.722 Y52.291 E0.3083
G1 X93.582 Y52.045 E0.3168
G1 X93.417 Y51.816 E0.3252
G1 X93.229 Y51.604 E0.3337
G1 X93.009 Y51.404 E0.3426
G1 X92.790 Y51.245 E0.3507
G1 X92.424 Y51.043 E0.3632
G1 X92.158 Y50.939 E0.3717
G1 X91.886 Y50.865 E0.3802
G1 X91.607 Y50.819 E0.3887
G1 X91.325 Y50.802 E0.3971
G1 X91.042 Y50.815 E0.4056
G1 X90.763 Y50.858 E0.4140
G1 X90.490 Y50.930 E0.4225
G1 X90.223 Y51.030 E0.4310
G1 X89.854 Y51.228 E0.4436
G1 X89.622 Y51.394 E0.4521
G1 X89.409 Y51.584 E0.4607
G1 X89.119 Y51.923 E0.4740
G1 X89.041 Y52.036 E0.4781
G1 X88.843 Y52.401 E0.4906
G1 X88.746 Y52.653 E0.4986
G1 X88.668 Y52.940 E0.5075
; inner perimeter
G1 X88.276 Y52.856 F4800
G92 E0
G1 X88.225 Y53.178 E0.0097 F1575
G1 X88.208 Y53.486 E0.0190
G1 X88.225 Y53.825 E0.0291
G1 X88.273 Y54.131 E0.0384
G1 X88.359 Y54.459 E0.0486
G1 X88.470 Y54.748 E0.0578
G1 X88.615 Y55.037 E0.0675
G1 X88.790 Y55.310 E0.0772
G1 X88.993 Y55.563 E0.0869
G1 X89.227 Y55.800 E0.0969
G1 X89.612 Y56.098 E0.1115
G1 X89.887 Y56.257 E0.1210
G1 X90.196 Y56.397 E0.1311
G1 X90.506 Y56.497 E0.1409
G1 X90.815 Y56.563 E0.1503
G1 X91.283 Y56.603 E0.1644
G1 X91.615 Y56.588 E0.1744
G1 X91.936 Y56.539 E0.1841
G1 X92.250 Y56.457 E0.1938
G1 X92.554 Y56.342 E0.2035
G1 X92.858 Y56.188 E0.2137
G1 X93.131 Y56.011 E0.2235
G1 X93.371 Y55.817 E0.2327
G1 X93.618 Y55.573 E0.2431
G1 X93.905 Y55.198 E0.2572
G1 X94.071 Y54.910 E0.2672
G1 X94.204 Y54.614 E0.2769
G1 X94.304 Y54.305 E0.2866
G1 X94.371 Y53.988 E0.2963
G1 X94.404 Y53.681 E0.3056
G1 X94.405 Y53.334 E0.3159
G1 X94.346 Y52.874 E0.3298
G1 X94.213 Y52.416 E0.3441
G1 X94.080 Y52.111 E0.3541
G1 X93.919 Y51.829 E0.3638
G1 X93.730 Y51.565 E0.3735
G1 X93.514 Y51.323 E0.3832
G1 X93.262 Y51.094 E0.3934
G1 X93.005 Y50.907 E0.4029
G1 X92.594 Y50.680 E0.4170
G1 X92.284 Y50.559 E0.4269
G1 X91.971 Y50.473 E0.4366
G1 X91.651 Y50.421 E0.4464
G1 X91.327 Y50.402 E0.4561
G1 X91.003 Y50.417 E0.4658
G1 X90.682 Y50.466 E0.4755
G1 X90.368 Y50.548 E0.4852
G1 X90.057 Y50.665 E0.4952
G1 X89.642 Y50.887 E0.5093
G1 X89.372 Y51.081 E0.5192
G1 X89.122 Y51.303 E0.5292
G1 X88.801 Y51.679 E0.5440
G1 X88.700 Y51.827 E0.5494
G1 X88.479 Y52.233 E0.5632
G1 X88.365 Y52.529 E0.5727
G1 X88.276 Y52.856 E0.5829
G92 E0
G1 E-1.0000 F1800
; solid layer
G1 X90.098 Y56.722 F4800
G1 E0.0000 F1800
G92 E0
G1 X96.357 Y62.981 E0.2650 F1680
G1 X96.357 Y62.416 E0.2819
G1 X90.849 Y56.908 E0.5151
G1 X91.276 Y56.944 E0.5279
G1 X91.443 Y56.936 E0.5329
G1 X96.357 Y61.850 E0.7410
G1 X96.357 Y61.284 E0.7579
G1 X91.953 Y56.880 E0.9443
G1 X92.004 Y56.872 E0.9459
G1 X92.353 Y56.781 E0.9567
G1 X92.401 Y56.763 E0.9582
G1 X96.357 Y60.719 E1.1257
G1 X96.357 Y60.153 E1.1426
G1 X92.802 Y56.598 E1.2932
G1 X93.028 Y56.484 E1.3007
G1 X93.164 Y56.395 E1.3056
G1 X96.357 Y59.587 E1.4408
G1 X96.357 Y59.022 E1.4577
G1 X93.492 Y56.157 E1.5790
G1 X93.598 Y56.071 E1.5831
G1 X93.786 Y55.885 E1.5910
G1 X96.357 Y58.456 E1.6998
G1 X96.357 Y57.890 E1.7168
G1 X94.043 Y55.577 E1.8147
G1 X94.188 Y55.388 E1.8218
G1 X94.273 Y55.241 E1.8269
G1 X96.357 Y57.325 E1.9151
G1 X96.357 Y56.759 E1.9321
G1 X94.464 Y54.866 E2.0122
G1 X94.521 Y54.736 E2.0165
G1 X94.614 Y54.450 E2.0254
G1 X96.357 Y56.193 E2.0992
G1 X96.357 Y55.628 E2.1162
G1 X94.714 Y53.984 E2.1857
G1 X94.744 Y53.700 E2.1943
G1 X94.745 Y53.450 E2.2018
G1 X96.357 Y55.062 E2.2700
G1 X96.357 Y54.496 E2.2869
G1 X94.682 Y52.821 E2.3579
G1 X91.291 Y43.773 F4800
G92 E0
G1 X93.638 Y46.120 E0.0994 F1680
G1 X94.656 Y47.623 E0.1537
G1 X94.737 Y47.785 E0.1591
G1 X89.527 Y42.575 E0.3797
G1 X89.483 Y42.547 E0.3812
G1 X88.476 Y42.090 E0.4143
G1 X95.302 Y48.916 E0.7033
G1 X95.318 Y48.948 E0.7044
G1 X95.593 Y49.773 E0.7304
G1 X87.517 Y41.696 E1.0723
G1 X86.720 Y41.466 E1.0971
G1 X95.876 Y50.621 E1.4847
G1 X96.049 Y51.139 E1.5011
G1 X96.091 Y51.402 E1.5090
G1 X85.924 Y41.235 E1.9394
G1 X85.803 Y41.200 E1.9432
G1 X85.253 Y41.130 E1.9598
G1 X96.201 Y52.077 E2.4233
G1 X96.310 Y52.753 E2.4437
G1 X84.604 Y41.046 E2.9393
G1 X83.955 Y40.963 E2.9589
G1 X96.357 Y53.365 E3.4839
G1 X96.357 Y53.931 E3.5008
G1 X94.383 Y51.956 E3.5844
G1 X94.206 Y51.645 E3.5951
G1 X93.996 Y51.353 E3.6059
G1 X93.756 Y51.083 E3.6167
G1 X93.477 Y50.830 E3.6280
G1 X93.188 Y50.619 E3.6387
G1 X92.871 Y50.445 E3.6495
G1 X83.366 Y40.940 E4.0519
G1 X82.801 Y40.940 E4.0688
G1 X91.993 Y50.132 E4.4580
G1 X91.689 Y50.082 E4.4672
G1 X91.358 Y50.063 E4.4771
G1 X82.235 Y40.940 E4.8633
G1 X81.669 Y40.940 E4.8802
G1 X90.829 Y50.099 E5.2680
G1 X90.613 Y50.132 E5.2745
G1 X90.362 Y50.198 E5.2823
G1 X81.104 Y40.940 E5.6742
G1 X80.538 Y40.940 E5.6912
G1 X89.943 Y50.345 E6.0893
G1 X89.916 Y50.355 E6.0902
G1 X89.572 Y50.539 E6.1019
G1 X79.972 Y40.940 E6.5082
G1 X79.407 Y40.940 E6.5252
G1 X89.231 Y50.764 E6.9410
G1 X89.159 Y50.815 E6.9437
G1 X88.925 Y51.024 E6.9531
G1 X78.841 Y40.940 E7.3800
G1 X78.275 Y40.940 E7.3969
G1 X88.658 Y51.323 E7.8364
G1 X88.531 Y51.472 E7.8423
G1 X88.413 Y51.644 E7.8485
G1 X77.710 Y40.940 E8.3016
G1 X77.144 Y40.940 E8.3186
G1 X88.214 Y52.010 E8.7872
G1 X88.170 Y52.090 E8.7899
G1 X88.047 Y52.409 E8.8002
G1 X76.578 Y40.940 E9.2857
G1 X76.012 Y40.940 E9.3026
G1 X87.931 Y52.859 E9.8072
G1 X87.886 Y53.142 E9.8157
G1 X87.874 Y53.367 E9.8225
G1 X75.447 Y40.940 E10.3486
G1 X74.881 Y40.940 E10.3655
G1 X87.902 Y53.961 E10.9167
G1 X87.940 Y54.201 E10.9240
G1 X88.035 Y54.563 E10.9352
G1 X88.095 Y54.719 E10.9402
G1 X74.315 Y40.940 E11.5236
G1 X73.750 Y40.940 E11.5405
G1 X96.357 Y63.547 E12.4975
G1 X96.357 Y64.113 E12.5145
G1 X73.184 Y40.940 E13.4954
G1 X72.618 Y40.940 E13.5124
G1 X96.357 Y64.679 E14.5173
G1 X96.357 Y65.244 E14.5342
G1 X72.053 Y40.940 E15.5631
G1 X71.487 Y40.940 E15.5801
G1 X96.357 Y65.810 E16.6329
G1 X96.357 Y66.376 E16.6498
G1 X70.921 Y40.940 E17.7266
G1 X70.879 Y40.940 E17.7279
G1 X70.418 Y41.003 E17.7418
G1 X96.357 Y66.941 E18.8398
G1 X96.357 Y66.960 E18.8404
G1 X96.281 Y67.431 E18.8547
G1 X69.921 Y41.071 E19.9706
G1 X69.423 Y41.139 E19.9856
G1 X96.202 Y67.917 E21.1192
G1 X96.123 Y68.404 E21.1340
G1 X68.925 Y41.206 E22.2854
G1 X68.579 Y41.254 E22.2958
G1 X68.447 Y41.294 E22.3000
G1 X96.043 Y68.890 E23.4682
G1 X95.920 Y69.333 E23.4820
G1 X68.014 Y41.426 E24.6633
G1 X67.580 Y41.559 E24.6769
G1 X95.797 Y69.776 E25.8714
G1 X95.793 Y69.792 E25.8719
G1 X95.644 Y70.188 E25.8846
G1 X67.147 Y41.691 E27.0910
G1 X66.721 Y41.821 E27.1043
G1 X66.715 Y41.824 E27.1045
