; G-Code generated by Simplify3D(R) Version 4.0.0
; Jan 7, 2021 at 7:56:24 PM
; Settings Summary
;   processName,Process1
;   applyToModels,todo-list-stencil06mm
;   profileName,new profile (modified)
;   profileVersion,2020-09-07 14:01:24
;   baseProfile,Default (modified)
;   printMaterial,PLA
;   printQuality,Medium
;   printExtruders,
;   extruderName,Primary Extruder
;   extruderToolheadNumber,0
;   extruderDiameter,0.4
;   extruderAutoWidth,0
;   extruderWidth,0.4
;   extrusionMultiplier,0.9
;   extruderUseRetract,1
;   extruderRetractionDistance,1
;   extruderExtraRestartDistance,0
;   extruderRetractionZLift,0
;   extruderRetractionSpeed,1800
;   extruderUseCoasting,0
;   extruderCoastingDistance,0.2
;   extruderUseWipe,0
;   extruderWipeDistance,5
;   primaryExtruder,0
;   layerHeight,0.3
;   topSolidLayers,3
;   bottomSolidLayers,2
;   perimeterOutlines,2
;   printPerimetersInsideOut,1
;   startPointOption,2
;   startPointOriginX,0
;   startPointOriginY,0
;   sequentialIslands,0
;   spiralVaseMode,0
;   firstLayerHeightPercentage,90
;   firstLayerWidthPercentage,103
;   firstLayerUnderspeed,0.3
;   useRaft,0
;   raftExtruder,0
;   raftTopLayers,2
;   raftBaseLayers,2
;   raftOffset,1.4
;   raftSeparationDistance,0.14
;   raftTopInfill,100
;   aboveRaftSpeedMultiplier,0.3
;   useSkirt,0
;   skirtExtruder,0
;   skirtLayers,1
;   skirtOutlines,2
;   skirtOffset,4
;   usePrimePillar,0
;   primePillarExtruder,999
;   primePillarWidth,12
;   primePillarLocation,7
;   primePillarSpeedMultiplier,1
;   useOozeShield,0
;   oozeShieldExtruder,999
;   oozeShieldOffset,2
;   oozeShieldOutlines,1
;   oozeShieldSidewallShape,1
;   oozeShieldSidewallAngle,30
;   oozeShieldSpeedMultiplier,1
;   infillExtruder,0
;   internalInfillPattern,Rectilinear
;   externalInfillPattern,Rectilinear
;   infillPercentage,23
;   outlineOverlapPercentage,15
;   infillExtrusionWidthPercentage,100
;   minInfillLength,5
;   infillLayerInterval,1
;   internalInfillAngles,45,-45
;   overlapInternalInfillAngles,0
;   externalInfillAngles,45,-45
;   generateSupport,1
;   supportExtruder,0
;   supportInfillPercentage,30
;   supportExtraInflation,0
;   supportBaseLayers,0
;   denseSupportExtruder,0
;   denseSupportLayers,0
;   denseSupportInfillPercentage,70
;   supportLayerInterval,1
;   supportHorizontalPartOffset,0.2
;   supportUpperSeparationLayers,1
;   supportLowerSeparationLayers,1
;   supportType,0
;   supportGridSpacing,4
;   maxOverhangAngle,45
;   supportAngles,0
;   temperatureName,Primary Extruder,Hot Bed
;   temperatureNumber,0,1
;   temperatureSetpointCount,1,1
;   temperatureSetpointLayers,1,1
;   temperatureSetpointTemperatures,210,60
;   temperatureStabilizeAtStartup,1,0
;   temperatureHeatedBed,0,1
;   temperatureRelayBetweenLayers,0,0
;   temperatureRelayBetweenLoops,0,0
;   fanLayers,1,2
;   fanSpeeds,0,100
;   blipFanToFullPower,0
;   adjustSpeedForCooling,1
;   minSpeedLayerTime,15
;   minCoolingSpeedSlowdown,20
;   increaseFanForCooling,0
;   minFanLayerTime,45
;   maxCoolingFanSpeed,100
;   increaseFanForBridging,0
;   bridgingFanSpeed,100
;   use5D,1
;   relativeEdistances,0
;   allowEaxisZeroing,1
;   independentExtruderAxes,0
;   includeM10123,0
;   stickySupport,1
;   applyToolheadOffsets,0
;   gcodeXoffset,-0.03
;   gcodeYoffset,-0.03
;   gcodeZoffset,0
;   overrideMachineDefinition,0
;   machineTypeOverride,0
;   strokeXoverride,200
;   strokeYoverride,200
;   strokeZoverride,200
;   originOffsetXoverride,0
;   originOffsetYoverride,0
;   originOffsetZoverride,0
;   homeXdirOverride,-1
;   homeYdirOverride,-1
;   homeZdirOverride,-1
;   flipXoverride,1
;   flipYoverride,-1
;   flipZoverride,1
;   toolheadOffsets,0,0|0,0|0,0|0,0|0,0|0,0
;   overrideFirmwareConfiguration,0
;   firmwareTypeOverride,RepRap (Marlin/Repetier/Sprinter)
;   GPXconfigOverride,r2
;   baudRateOverride,115200
;   overridePrinterModels,0
;   printerModelsOverride
;   startingGcode,G28 ; home all axes,G1 X3 Y5 Z0.2 F3000 ; get ready to prime,G92 E0 ; reset extrusion distance,G1 Y150 E20 F600 ; prime nozzle
;   layerChangeGcode,
;   retractionGcode,
;   toolChangeGcode,
;   endingGcode,M104 S0 ; turn off extruder,M140 S0 ; turn off bedG1 X0 Y0; home,M84 ; disable motors,M107 ; fan off,G28 X Y; Home,M18; Disable steppers
;   exportFileFormat,gcode
;   celebration,0
;   celebrationSong,Random Song
;   postProcessing,
;   defaultSpeed,4600
;   outlineUnderspeed,0.5
;   solidInfillUnderspeed,0.8
;   supportUnderspeed,0.8
;   rapidXYspeed,4800
;   rapidZspeed,1000
;   minBridgingArea,50
;   bridgingExtraInflation,0
;   bridgingExtrusionMultiplier,1
;   bridgingSpeedMultiplier,1
;   useFixedBridgingAngle,0
;   fixedBridgingAngle,0
;   applyBridgingToPerimeters,0
;   filamentDiameters,1.75|1.75|1.75|1.75|1.75|1.75
;   filamentPricesPerKg,46|46|46|46|46|46
;   filamentDensities,1.25|1.25|1.25|1.25|1.25|1.25
;   useMinPrintHeight,0
;   minPrintHeight,0
;   useMaxPrintHeight,0
;   maxPrintHeight,0
;   useDiaphragm,0
;   diaphragmLayerInterval,20
;   robustSlicing,1
;   mergeAllIntoSolid,0
;   onlyRetractWhenCrossingOutline,1
;   retractBetweenLayers,1
;   useRetractionMinTravel,0
;   retractionMinTravel,3
;   retractWhileWiping,0
;   onlyWipeOutlines,1
;   avoidCrossingOutline,0
;   maxMovementDetourFactor,3
;   toolChangeRetractionDistance,12
;   toolChangeExtraRestartDistance,-0.5
;   toolChangeRetractionSpeed,600
;   externalThinWallType,1
;   internalThinWallType,2
;   thinWallAllowedOverlapPercentage,8
;   singleExtrusionMinLength,1
;   singleExtrusionMinPrintingWidthPercentage,50
;   singleExtrusionMaxPrintingWidthPercentage,200
;   singleExtrusionEndpointExtension,0.2
;   horizontalSizeCompensation,0
G90
M82
M106 S0
M140 S60
M104 S210 T0
M109 S210 T0
G28 ; home all axes
G1 X3 Y5 Z0.2 F3000 ; get ready to prime
G92 E0 ; reset extrusion distance
G1 Y150 E20 F600 ; prime nozzle
G92 E0
G1 E-1.0000 F1800
G1 Z0.270 F1000
; process Process1
; layer 1, Z = 0.270
T0
; tool H0.300 W0.412
; inner perimeter
G1 X85.838 Y66.338 F4800
G1 E0.0000 F540
G92 E0
G1 X152.102 Y66.338 E3.0646 F1035
G1 X152.102 Y159.602 E7.3779
G1 X85.838 Y159.602 E10.4425
G1 X85.838 Y66.338 E14.7558
; outer perimeter
G1 X85.426 Y65.926 F4800
G92 E0
G1 X152.514 Y65.926 E3.1027 F690
G1 X152.514 Y160.014 E7.4541
G1 X85.426 Y160.014 E10.5568
G1 X85.426 Y65.926 E14.9082
; inner perimeter
G1 X93.931 Y71.618 F4800
G92 E0
G1 X93.633 Y72.338 E0.0361 F1035
G1 X93.531 Y73.111 E0.0721
G1 X93.633 Y73.884 E0.1081
G1 X93.931 Y74.604 E0.1442
G1 X94.405 Y75.223 E0.1802
G1 X95.024 Y75.697 E0.2163
G1 X95.744 Y75.995 E0.2523
G1 X96.517 Y76.097 E0.2884
G1 X97.289 Y75.995 E0.3244
G1 X98.010 Y75.697 E0.3605
G1 X98.628 Y75.223 E0.3965
G1 X98.749 Y75.065 E0.4057
G1 X98.853 Y75.100 E0.4108
G1 X98.802 Y74.996 E0.4162
G1 X99.102 Y74.604 E0.4390
G1 X99.401 Y73.884 E0.4751
G1 X99.503 Y73.111 E0.5111
G1 X99.401 Y72.338 E0.5472
G1 X99.102 Y71.618 E0.5832
G1 X98.628 Y71.000 E0.6192
G1 X98.010 Y70.525 E0.6553
G1 X97.290 Y70.227 E0.6913
G1 X96.517 Y70.125 E0.7274
G1 X95.744 Y70.227 E0.7634
G1 X95.024 Y70.525 E0.7995
G1 X94.405 Y71.000 E0.8355
G1 X93.931 Y71.618 E0.8716
; outer perimeter
G1 X94.291 Y71.826 F4800
G92 E0
G1 X94.034 Y72.446 E0.0310 F690
G1 X93.947 Y73.111 E0.0621
G1 X94.034 Y73.777 E0.0931
G1 X94.291 Y74.396 E0.1241
G1 X94.699 Y74.929 E0.1552
G1 X95.232 Y75.337 E0.1862
G1 X95.851 Y75.594 E0.2172
G1 X96.517 Y75.682 E0.2483
G1 X97.182 Y75.594 E0.2793
G1 X97.802 Y75.337 E0.3103
G1 X98.334 Y74.929 E0.3413
G1 X98.743 Y74.396 E0.3724
G1 X99.000 Y73.777 E0.4034
G1 X99.087 Y73.111 E0.4344
G1 X99.000 Y72.446 E0.4655
G1 X98.743 Y71.826 E0.4965
G1 X98.334 Y71.294 E0.5275
G1 X97.802 Y70.885 E0.5586
G1 X97.182 Y70.629 E0.5896
G1 X96.517 Y70.541 E0.6206
G1 X95.851 Y70.629 E0.6517
G1 X95.232 Y70.885 E0.6827
G1 X94.699 Y71.294 E0.7137
G1 X94.291 Y71.826 E0.7448
G92 E0
G1 E-1.0000 F1800
; inner perimeter
G1 X96.517 Y76.875 F4800
G1 E0.0000 F1800
G92 E0
G1 X95.744 Y76.977 E0.0361 F1035
G1 X95.024 Y77.275 E0.0721
G1 X94.405 Y77.750 E0.1081
G1 X93.931 Y78.368 E0.1442
G1 X93.633 Y79.089 E0.1803
G1 X93.531 Y79.861 E0.2163
G1 X93.633 Y80.634 E0.2523
G1 X93.931 Y81.354 E0.2884
G1 X94.405 Y81.973 E0.3244
G1 X95.024 Y82.447 E0.3605
G1 X95.744 Y82.745 E0.3965
G1 X96.517 Y82.847 E0.4326
G1 X97.290 Y82.745 E0.4686
G1 X98.010 Y82.447 E0.5047
G1 X98.628 Y81.973 E0.5407
G1 X98.749 Y81.815 E0.5499
G1 X98.853 Y81.850 E0.5550
G1 X98.802 Y81.746 E0.5603
G1 X99.102 Y81.354 E0.5832
G1 X99.401 Y80.634 E0.6192
G1 X99.503 Y79.861 E0.6553
G1 X99.401 Y79.088 E0.6913
G1 X99.102 Y78.368 E0.7274
G1 X99.031 Y78.275 E0.7328
G1 X99.135 Y78.064 E0.7437
G1 X140.137 Y78.064 E2.6400
G1 X140.137 Y81.958 E2.8201
G1 X99.006 Y81.958 E4.7223
G1 X99.006 Y84.571 E4.8431
G1 X98.749 Y84.658 E4.8557
G1 X98.628 Y84.500 E4.8649
G1 X98.010 Y84.025 E4.9009
G1 X97.290 Y83.727 E4.9370
G1 X96.517 Y83.625 E4.9730
G1 X95.744 Y83.727 E5.0091
G1 X95.024 Y84.025 E5.0451
G1 X94.405 Y84.500 E5.0812
G1 X93.931 Y85.118 E5.1172
G1 X93.633 Y85.838 E5.1533
G1 X93.531 Y86.611 E5.1893
G1 X93.633 Y87.384 E5.2254
G1 X93.931 Y88.104 E5.2614
G1 X94.405 Y88.723 E5.2975
G1 X95.024 Y89.197 E5.3335
G1 X95.744 Y89.495 E5.3696
G1 X96.517 Y89.597 E5.4056
G1 X97.290 Y89.495 E5.4417
G1 X98.010 Y89.197 E5.4777
G1 X98.628 Y88.723 E5.5138
G1 X98.749 Y88.565 E5.5230
G1 X98.853 Y88.600 E5.5280
G1 X98.802 Y88.496 E5.5334
G1 X99.102 Y88.104 E5.5562
G1 X99.401 Y87.384 E5.5923
G1 X99.503 Y86.611 E5.6283
G1 X99.401 Y85.838 E5.6644
G1 X99.102 Y85.118 E5.7004
G1 X99.031 Y85.025 E5.7059
G1 X99.135 Y84.814 E5.7168
G1 X140.137 Y84.814 E7.6130
G1 X140.137 Y88.708 E7.7931
G1 X99.006 Y88.708 E9.6953
G1 X99.006 Y91.321 E9.8162
G1 X98.749 Y91.408 E9.8287
G1 X98.628 Y91.250 E9.8379
G1 X98.010 Y90.775 E9.8740
G1 X97.290 Y90.477 E9.9100
G1 X96.517 Y90.375 E9.9461
G1 X95.744 Y90.477 E9.9821
G1 X95.024 Y90.775 E10.0182
G1 X94.405 Y91.250 E10.0542
G1 X93.931 Y91.868 E10.0903
G1 X93.633 Y92.588 E10.1263
G1 X93.531 Y93.361 E10.1624
G1 X93.633 Y94.134 E10.1984
G1 X93.931 Y94.854 E10.2345
G1 X94.405 Y95.473 E10.2705
G1 X95.024 Y95.947 E10.3066
G1 X95.744 Y96.245 E10.3426
G1 X96.517 Y96.347 E10.3787
G1 X97.290 Y96.245 E10.4147
G1 X98.010 Y95.947 E10.4508
G1 X98.628 Y95.473 E10.4868
G1 X98.749 Y95.315 E10.4960
G1 X98.853 Y95.350 E10.5011
G1 X98.802 Y95.246 E10.5064
G1 X99.102 Y94.854 E10.5293
G1 X99.401 Y94.134 E10.5653
G1 X99.503 Y93.361 E10.6014
G1 X99.401 Y92.588 E10.6374
G1 X99.102 Y91.868 E10.6735
G1 X99.031 Y91.775 E10.6789
G1 X99.135 Y91.564 E10.6898
G1 X140.137 Y91.564 E12.5861
G1 X140.137 Y95.458 E12.7661
G1 X99.006 Y95.458 E14.6683
G1 X99.006 Y98.071 E14.7892
G1 X98.749 Y98.158 E14.8018
G1 X98.628 Y98.000 E14.8110
G1 X98.010 Y97.525 E14.8470
G1 X97.290 Y97.227 E14.8831
G1 X96.517 Y97.125 E14.9191
G1 X95.744 Y97.227 E14.9552
G1 X95.024 Y97.525 E14.9912
G1 X94.405 Y98.000 E15.0273
G1 X93.931 Y98.618 E15.0633
G1 X93.633 Y99.338 E15.0994
G1 X93.531 Y100.111 E15.1354
G1 X93.633 Y100.884 E15.1715
G1 X93.931 Y101.604 E15.2075
G1 X94.405 Y102.223 E15.2435
G1 X95.024 Y102.697 E15.2796
G1 X95.744 Y102.995 E15.3156
G1 X96.517 Y103.097 E15.3517
G1 X97.290 Y102.995 E15.3877
G1 X98.010 Y102.697 E15.4238
G1 X98.628 Y102.223 E15.4598
G1 X98.749 Y102.065 E15.4690
G1 X98.853 Y102.100 E15.4741
G1 X98.802 Y101.996 E15.4795
G1 X99.102 Y101.604 E15.5023
G1 X99.401 Y100.884 E15.5384
G1 X99.503 Y100.111 E15.5744
G1 X99.401 Y99.338 E15.6105
G1 X99.102 Y98.618 E15.6465
G1 X99.031 Y98.525 E15.6519
G1 X99.135 Y98.314 E15.6628
G1 X140.137 Y98.314 E17.5591
G1 X140.137 Y102.208 E17.7392
G1 X99.006 Y102.208 E19.6414
G1 X99.006 Y104.821 E19.7622
G1 X98.749 Y104.908 E19.7748
G1 X98.628 Y104.750 E19.7840
G1 X98.010 Y104.275 E19.8200
G1 X97.290 Y103.977 E19.8561
G1 X96.517 Y103.875 E19.8921
G1 X95.744 Y103.977 E19.9282
G1 X95.024 Y104.275 E19.9642
G1 X94.405 Y104.750 E20.0003
G1 X93.931 Y105.368 E20.0363
G1 X93.633 Y106.088 E20.0724
G1 X93.531 Y106.861 E20.1084
G1 X93.633 Y107.634 E20.1445
G1 X93.931 Y108.354 E20.1805
G1 X94.405 Y108.973 E20.2166
G1 X95.024 Y109.447 E20.2526
G1 X95.744 Y109.745 E20.2887
G1 X96.517 Y109.847 E20.3247
G1 X97.289 Y109.745 E20.3608
G1 X98.010 Y109.447 E20.3968
G1 X98.628 Y108.973 E20.4329
G1 X98.749 Y108.815 E20.4421
G1 X98.853 Y108.850 E20.4471
G1 X98.802 Y108.746 E20.4525
G1 X99.102 Y108.354 E20.4753
G1 X99.401 Y107.634 E20.5114
G1 X99.503 Y106.861 E20.5474
G1 X99.401 Y106.088 E20.5835
G1 X99.102 Y105.368 E20.6195
G1 X99.031 Y105.275 E20.6250
G1 X99.135 Y105.064 E20.6359
G1 X140.137 Y105.064 E22.5321
G1 X140.137 Y108.958 E22.7122
G1 X99.006 Y108.958 E24.6144
G1 X99.006 Y111.571 E24.7353
G1 X98.749 Y111.658 E24.7478
G1 X98.628 Y111.500 E24.7570
G1 X98.010 Y111.025 E24.7931
G1 X97.290 Y110.727 E24.8291
G1 X96.517 Y110.625 E24.8652
G1 X95.744 Y110.727 E24.9012
G1 X95.024 Y111.025 E24.9373
G1 X94.405 Y111.500 E24.9733
G1 X93.931 Y112.118 E25.0094
G1 X93.633 Y112.839 E25.0454
G1 X93.531 Y113.611 E25.0815
G1 X93.633 Y114.384 E25.1175
G1 X93.931 Y115.104 E25.1536
G1 X94.405 Y115.723 E25.1896
G1 X95.024 Y116.197 E25.2257
G1 X95.744 Y116.495 E25.2617
G1 X96.517 Y116.597 E25.2978
G1 X97.289 Y116.495 E25.3338
G1 X98.010 Y116.197 E25.3699
G1 X98.628 Y115.723 E25.4059
G1 X98.749 Y115.565 E25.4151
G1 X98.853 Y115.600 E25.4202
G1 X98.802 Y115.496 E25.4255
G1 X99.102 Y115.104 E25.4484
G1 X99.401 Y114.384 E25.4844
G1 X99.503 Y113.611 E25.5205
G1 X99.401 Y112.838 E25.5565
G1 X99.102 Y112.118 E25.5926
G1 X99.031 Y112.025 E25.5980
G1 X99.135 Y111.814 E25.6089
G1 X140.137 Y111.814 E27.5052
G1 X140.137 Y115.708 E27.6852
G1 X99.006 Y115.708 E29.5874
G1 X99.006 Y118.321 E29.7083
G1 X98.749 Y118.408 E29.7209
G1 X98.628 Y118.250 E29.7301
G1 X98.010 Y117.775 E29.7661
G1 X97.290 Y117.477 E29.8022
G1 X96.517 Y117.375 E29.8382
G1 X95.744 Y117.477 E29.8743
G1 X95.024 Y117.775 E29.9103
G1 X94.405 Y118.250 E29.9464
G1 X93.931 Y118.868 E29.9824
G1 X93.633 Y119.588 E30.0185
G1 X93.531 Y120.361 E30.0545
G1 X93.633 Y121.134 E30.0906
G1 X93.931 Y121.854 E30.1266
G1 X94.405 Y122.473 E30.1626
G1 X95.024 Y122.947 E30.1987
G1 X95.744 Y123.245 E30.2347
G1 X96.517 Y123.347 E30.2708
G1 X97.290 Y123.245 E30.3068
G1 X98.010 Y122.947 E30.3429
G1 X98.628 Y122.473 E30.3789
G1 X98.749 Y122.315 E30.3881
G1 X98.853 Y122.350 E30.3932
G1 X98.802 Y122.246 E30.3986
G1 X99.102 Y121.854 E30.4214
G1 X99.401 Y121.134 E30.4574
G1 X99.503 Y120.361 E30.4935
G1 X99.401 Y119.588 E30.5295
G1 X99.102 Y118.868 E30.5656
G1 X99.031 Y118.775 E30.5710
G1 X99.135 Y118.564 E30.5819
G1 X140.137 Y118.564 E32.4782
G1 X140.137 Y122.458 E32.6583
G1 X99.006 Y122.458 E34.5605
G1 X99.006 Y125.071 E34.6813
G1 X98.749 Y125.158 E34.6939
G1 X98.628 Y125.000 E34.7031
G1 X98.010 Y124.525 E34.7391
G1 X97.290 Y124.227 E34.7752
G1 X96.517 Y124.125 E34.8112
G1 X95.744 Y124.227 E34.8473
G1 X95.024 Y124.525 E34.8833
G1 X94.405 Y125.000 E34.9194
G1 X93.931 Y125.618 E34.9554
G1 X93.633 Y126.339 E34.9915
G1 X93.531 Y127.111 E35.0275
G1 X93.633 Y127.884 E35.0636
G1 X93.931 Y128.604 E35.0996
G1 X94.405 Y129.223 E35.1357
G1 X95.024 Y129.697 E35.1717
G1 X95.744 Y129.995 E35.2078
G1 X96.517 Y130.097 E35.2438
G1 X97.290 Y129.995 E35.2799
G1 X98.010 Y129.697 E35.3159
G1 X98.628 Y129.223 E35.3520
G1 X98.749 Y129.065 E35.3612
G1 X98.853 Y129.100 E35.3662
G1 X98.802 Y128.996 E35.3716
G1 X99.102 Y128.604 E35.3944
G1 X99.401 Y127.884 E35.4305
G1 X99.503 Y127.111 E35.4665
G1 X99.401 Y126.338 E35.5026
G1 X99.102 Y125.618 E35.5386
G1 X99.031 Y125.525 E35.5441
G1 X99.135 Y125.314 E35.5550
G1 X140.137 Y125.314 E37.4512
G1 X140.137 Y129.208 E37.6313
G1 X99.006 Y129.208 E39.5335
G1 X99.006 Y131.821 E39.6544
G1 X98.749 Y131.908 E39.6669
G1 X98.628 Y131.750 E39.6761
G1 X98.010 Y131.275 E39.7122
G1 X97.290 Y130.977 E39.7482
G1 X96.517 Y130.875 E39.7843
G1 X95.744 Y130.977 E39.8203
G1 X95.024 Y131.275 E39.8564
G1 X94.405 Y131.750 E39.8924
G1 X93.931 Y132.368 E39.9285
G1 X93.633 Y133.089 E39.9645
G1 X93.531 Y133.861 E40.0006
G1 X93.633 Y134.634 E40.0366
G1 X93.931 Y135.354 E40.0727
G1 X94.405 Y135.973 E40.1087
G1 X95.024 Y136.447 E40.1448
G1 X95.744 Y136.745 E40.1808
G1 X96.517 Y136.847 E40.2169
G1 X97.289 Y136.745 E40.2529
