; G-Code generated by Simplify3D(R) Version 4.0.0
; Jan 7, 2021 at 6:57:43 PM
; Settings Summary
;   processName,Process1
;   applyToModels,todo-list-stencil06mm
;   profileName,new profile (modified)
;   profileVersion,2020-09-07 14:01:24
;   baseProfile,Default (modified)
;   printMaterial,PLA
;   printQuality,Medium
;   printExtruders,
;   extruderName,Primary Extruder
;   extruderToolheadNumber,0
;   extruderDiameter,0.4
;   extruderAutoWidth,0
;   extruderWidth,0.4
;   extrusionMultiplier,0.9
;   extruderUseRetract,1
;   extruderRetractionDistance,1
;   extruderExtraRestartDistance,0
;   extruderRetractionZLift,0
;   extruderRetractionSpeed,1800
;   extruderUseCoasting,0
;   extruderCoastingDistance,0.2
;   extruderUseWipe,0
;   extruderWipeDistance,5
;   primaryExtruder,0
;   layerHeight,0.3
;   topSolidLayers,3
;   bottomSolidLayers,2
;   perimeterOutlines,2
;   printPerimetersInsideOut,1
;   startPointOption,2
;   startPointOriginX,0
;   startPointOriginY,0
;   sequentialIslands,0
;   spiralVaseMode,0
;   firstLayerHeightPercentage,90
;   firstLayerWidthPercentage,103
;   firstLayerUnderspeed,0.3
;   useRaft,0
;   raftExtruder,0
;   raftTopLayers,2
;   raftBaseLayers,2
;   raftOffset,1.4
;   raftSeparationDistance,0.14
;   raftTopInfill,100
;   aboveRaftSpeedMultiplier,0.3
;   useSkirt,0
;   skirtExtruder,0
;   skirtLayers,1
;   skirtOutlines,2
;   skirtOffset,4
;   usePrimePillar,0
;   primePillarExtruder,999
;   primePillarWidth,12
;   primePillarLocation,7
;   primePillarSpeedMultiplier,1
;   useOozeShield,0
;   oozeShieldExtruder,999
;   oozeShieldOffset,2
;   oozeShieldOutlines,1
;   oozeShieldSidewallShape,1
;   oozeShieldSidewallAngle,30
;   oozeShieldSpeedMultiplier,1
;   infillExtruder,0
;   internalInfillPattern,Rectilinear
;   externalInfillPattern,Rectilinear
;   infillPercentage,23
;   outlineOverlapPercentage,15
;   infillExtrusionWidthPercentage,100
;   minInfillLength,5
;   infillLayerInterval,1
;   internalInfillAngles,45,-45
;   overlapInternalInfillAngles,0
;   externalInfillAngles,45,-45
;   generateSupport,1
;   supportExtruder,0
;   supportInfillPercentage,30
;   supportExtraInflation,0
;   supportBaseLayers,0
;   denseSupportExtruder,0
;   denseSupportLayers,0
;   denseSupportInfillPercentage,70
;   supportLayerInterval,1
;   supportHorizontalPartOffset,0.2
;   supportUpperSeparationLayers,1
;   supportLowerSeparationLayers,1
;   supportType,0
;   supportGridSpacing,4
;   maxOverhangAngle,45
;   supportAngles,0
;   temperatureName,Primary Extruder,Hot Bed
;   temperatureNumber,0,1
;   temperatureSetpointCount,1,1
;   temperatureSetpointLayers,1,1
;   temperatureSetpointTemperatures,210,60
;   temperatureStabilizeAtStartup,1,0
;   temperatureHeatedBed,0,1
;   temperatureRelayBetweenLayers,0,0
;   temperatureRelayBetweenLoops,0,0
;   fanLayers,1,2
;   fanSpeeds,0,100
;   blipFanToFullPower,0
;   adjustSpeedForCooling,1
;   minSpeedLayerTime,15
;   minCoolingSpeedSlowdown,20
;   increaseFanForCooling,0
;   minFanLayerTime,45
;   maxCoolingFanSpeed,100
;   increaseFanForBridging,0
;   bridgingFanSpeed,100
;   use5D,1
;   relativeEdistances,0
;   allowEaxisZeroing,1
;   independentExtruderAxes,0
;   includeM10123,0
;   stickySupport,1
;   applyToolheadOffsets,0
;   gcodeXoffset,-0.03
;   gcodeYoffset,-0.03
;   gcodeZoffset,0
;   overrideMachineDefinition,0
;   machineTypeOverride,0
;   strokeXoverride,200
;   strokeYoverride,200
;   strokeZoverride,200
;   originOffsetXoverride,0
;   originOffsetYoverride,0
;   originOffsetZoverride,0
;   homeXdirOverride,-1
;   homeYdirOverride,-1
;   homeZdirOverride,-1
;   flipXoverride,1
;   flipYoverride,-1
;   flipZoverride,1
;   toolheadOffsets,0,0|0,0|0,0|0,0|0,0|0,0
;   overrideFirmwareConfiguration,0
;   firmwareTypeOverride,RepRap (Marlin/Repetier/Sprinter)
;   GPXconfigOverride,r2
;   baudRateOverride,115200
;   overridePrinterModels,0
;   printerModelsOverride
;   startingGcode,G28 ; home all axes,G1 X3 Y5 Z0.2 F3000 ; get ready to prime,G92 E0 ; reset extrusion distance,G1 Y150 E20 F600 ; prime nozzle
;   layerChangeGcode,
;   retractionGcode,
;   toolChangeGcode,
;   endingGcode,M104 S0 ; turn off extruder,M140 S0 ; turn off bedG1 X0 Y0; home,M84 ; disable motors,M107 ; fan off,G28 X Y; Home,M18; Disable steppers
;   exportFileFormat,gcode
;   celebration,0
;   celebrationSong,Random Song
;   postProcessing,
;   defaultSpeed,4600
;   outlineUnderspeed,0.5
;   solidInfillUnderspeed,0.8
;   supportUnderspeed,0.8
;   rapidXYspeed,4800
;   rapidZspeed,1000
;   minBridgingArea,50
;   bridgingExtraInflation,0
;   bridgingExtrusionMultiplier,1
;   bridgingSpeedMultiplier,1
;   useFixedBridgingAngle,0
;   fixedBridgingAngle,0
;   applyBridgingToPerimeters,0
;   filamentDiameters,1.75|1.75|1.75|1.75|1.75|1.75
;   filamentPricesPerKg,46|46|46|46|46|46
;   filamentDensities,1.25|1.25|1.25|1.25|1.25|1.25
;   useMinPrintHeight,0
;   minPrintHeight,0
;   useMaxPrintHeight,0
;   maxPrintHeight,0
;   useDiaphragm,0
;   diaphragmLayerInterval,20
;   robustSlicing,1
;   mergeAllIntoSolid,0
;   onlyRetractWhenCrossingOutline,1
;   retractBetweenLayers,1
;   useRetractionMinTravel,0
;   retractionMinTravel,3
;   retractWhileWiping,0
;   onlyWipeOutlines,1
;   avoidCrossingOutline,0
;   maxMovementDetourFactor,3
;   toolChangeRetractionDistance,12
;   toolChangeExtraRestartDistance,-0.5
;   toolChangeRetractionSpeed,600
;   externalThinWallType,1
;   internalThinWallType,2
;   thinWallAllowedOverlapPercentage,8
;   singleExtrusionMinLength,1
;   singleExtrusionMinPrintingWidthPercentage,50
;   singleExtrusionMaxPrintingWidthPercentage,200
;   singleExtrusionEndpointExtension,0.2
;   horizontalSizeCompensation,0
G90
M82
M106 S0
M140 S60
M104 S210 T0
M109 S210 T0
G28 ; home all axes
G1 X3 Y5 Z0.2 F3000 ; get ready to prime
G92 E0 ; reset extrusion distance
G1 Y150 E20 F600 ; prime nozzle
G92 E0
G1 E-1.0000 F1800
G1 Z0.270 F1000
; process Process1
; layer 1, Z = 0.270
T0
; tool H0.300 W0.412
; inner perimeter
G1 X94.588 Y78.588 F4800
G1 E0.0000 F540
G92 E0
G1 X143.352 Y78.588 E2.2552 F1035
G1 X143.352 Y147.352 E5.4355
G1 X94.588 Y147.352 E7.6907
G1 X94.588 Y78.588 E10.8709
G1 X104.308 Y86.102 F4800
G92 E0
G1 X134.489 Y86.102 E1.3958 F1035
G1 X134.489 Y88.666 E1.5144
G1 X104.400 Y88.666 E2.9059
G1 X104.630 Y88.109 E2.9338
G1 X104.711 Y87.495 E2.9625
G1 X104.630 Y86.881 E2.9911
G1 X104.308 Y86.102 E3.0301
G92 E0
G1 E-1.0000 F1800
G1 X103.811 Y89.331 F4800
G1 E0.0000 F1800
G92 E0
G1 X104.022 Y89.435 E0.0109 F1035
G1 X104.022 Y90.555 E0.0627
G1 X103.811 Y90.659 E0.0736
G1 X103.525 Y90.440 E0.0903
G1 X102.952 Y90.203 E0.1189
G1 X102.638 Y90.161 E0.1336
G1 X102.638 Y89.829 E0.1489
G1 X102.952 Y89.787 E0.1636
G1 X103.525 Y89.550 E0.1922
G1 X103.811 Y89.331 E0.2089
G1 X104.308 Y91.102 F4800
G92 E0
G1 X134.489 Y91.102 E1.3958 F1035
G1 X134.489 Y93.666 E1.5144
G1 X104.400 Y93.666 E2.9059
G1 X104.630 Y93.109 E2.9338
G1 X104.711 Y92.495 E2.9625
G1 X104.630 Y91.881 E2.9911
G1 X104.308 Y91.102 E3.0301
G92 E0
G1 E-1.0000 F1800
G1 X103.811 Y94.331 F4800
G1 E0.0000 F1800
G92 E0
G1 X104.022 Y94.435 E0.0109 F1035
G1 X104.022 Y95.555 E0.0627
G1 X103.811 Y95.659 E0.0736
G1 X103.525 Y95.440 E0.0903
G1 X102.952 Y95.203 E0.1189
G1 X102.638 Y95.161 E0.1336
G1 X102.638 Y94.829 E0.1489
G1 X102.952 Y94.787 E0.1636
G1 X103.525 Y94.550 E0.1922
G1 X103.811 Y94.331 E0.2089
G1 X104.308 Y96.102 F4800
G92 E0
G1 X134.489 Y96.102 E1.3958 F1035
G1 X134.489 Y98.666 E1.5144
G1 X104.400 Y98.666 E2.9059
G1 X104.630 Y98.109 E2.9338
G1 X104.711 Y97.495 E2.9625
G1 X104.630 Y96.881 E2.9911
G1 X104.308 Y96.102 E3.0301
G92 E0
G1 E-1.0000 F1800
G1 X103.811 Y99.331 F4800
G1 E0.0000 F1800
G92 E0
G1 X104.022 Y99.435 E0.0109 F1035
G1 X104.022 Y100.555 E0.0627
G1 X103.811 Y100.659 E0.0736
G1 X103.525 Y100.440 E0.0903
G1 X102.952 Y100.203 E0.1189
G1 X102.638 Y100.161 E0.1336
G1 X102.638 Y99.829 E0.1489
G1 X102.952 Y99.787 E0.1636
G1 X103.525 Y99.550 E0.1922
G1 X103.811 Y99.331 E0.2089
G1 X104.308 Y101.102 F4800
G92 E0
G1 X134.489 Y101.102 E1.3958 F1035
G1 X134.489 Y103.666 E1.5144
G1 X104.400 Y103.666 E2.9059
G1 X104.630 Y103.109 E2.9338
G1 X104.711 Y102.495 E2.9625
G1 X104.630 Y101.881 E2.9911
G1 X104.308 Y101.102 E3.0301
G92 E0
G1 E-1.0000 F1800
G1 X103.811 Y104.331 F4800
G1 E0.0000 F1800
G92 E0
G1 X104.022 Y104.435 E0.0109 F1035
G1 X104.022 Y105.555 E0.0627
G1 X103.811 Y105.659 E0.0736
G1 X103.525 Y105.440 E0.0903
G1 X102.952 Y105.203 E0.1189
G1 X102.638 Y105.161 E0.1336
G1 X102.638 Y104.829 E0.1489
G1 X102.952 Y104.787 E0.1636
G1 X103.525 Y104.550 E0.1922
G1 X103.811 Y104.331 E0.2089
G1 X104.308 Y106.102 F4800
G92 E0
G1 X134.489 Y106.102 E1.3958 F1035
G1 X134.489 Y108.666 E1.5144
G1 X104.400 Y108.666 E2.9059
G1 X104.630 Y108.109 E2.9338
G1 X104.711 Y107.495 E2.9625
G1 X104.630 Y106.881 E2.9911
G1 X104.308 Y106.102 E3.0301
G92 E0
G1 E-1.0000 F1800
G1 X103.811 Y109.331 F4800
G1 E0.0000 F1800
G92 E0
G1 X104.022 Y109.435 E0.0109 F1035
G1 X104.022 Y110.555 E0.0627
G1 X103.811 Y110.659 E0.0736
G1 X103.525 Y110.440 E0.0903
G1 X102.952 Y110.203 E0.1189
G1 X102.638 Y110.161 E0.1336
G1 X102.638 Y109.829 E0.1489
G1 X102.952 Y109.787 E0.1636
G1 X103.525 Y109.550 E0.1922
G1 X103.811 Y109.331 E0.2089
G1 X104.308 Y111.102 F4800
G92 E0
G1 X134.489 Y111.102 E1.3958 F1035
G1 X134.489 Y113.666 E1.5144
G1 X104.400 Y113.666 E2.9059
G1 X104.630 Y113.109 E2.9338
G1 X104.711 Y112.495 E2.9625
G1 X104.630 Y111.881 E2.9911
G1 X104.308 Y111.102 E3.0301
G92 E0
G1 E-1.0000 F1800
G1 X103.811 Y114.331 F4800
G1 E0.0000 F1800
G92 E0
G1 X104.022 Y114.435 E0.0109 F1035
G1 X104.022 Y115.555 E0.0627
G1 X103.811 Y115.659 E0.0736
G1 X103.525 Y115.440 E0.0903
G1 X102.952 Y115.203 E0.1189
G1 X102.638 Y115.161 E0.1336
G1 X102.638 Y114.829 E0.1489
G1 X102.952 Y114.787 E0.1636
G1 X103.525 Y114.550 E0.1922
G1 X103.811 Y114.331 E0.2089
G1 X104.308 Y116.102 F4800
G92 E0
G1 X134.489 Y116.102 E1.3958 F1035
G1 X134.489 Y118.666 E1.5144
G1 X104.400 Y118.666 E2.9059
G1 X104.630 Y118.109 E2.9338
G1 X104.711 Y117.495 E2.9625
G1 X104.630 Y116.881 E2.9911
G1 X104.308 Y116.102 E3.0301
G92 E0
G1 E-1.0000 F1800
G1 X103.811 Y119.331 F4800
G1 E0.0000 F1800
G92 E0
G1 X104.022 Y119.435 E0.0109 F1035
G1 X104.022 Y120.555 E0.0627
G1 X103.811 Y120.659 E0.0736
G1 X103.525 Y120.440 E0.0903
G1 X102.952 Y120.203 E0.1189
G1 X102.638 Y120.161 E0.1336
G1 X102.638 Y119.829 E0.1489
G1 X102.952 Y119.787 E0.1636
G1 X103.525 Y119.550 E0.1922
G1 X103.811 Y119.331 E0.2089
G1 X104.308 Y121.102 F4800
G92 E0
G1 X134.489 Y121.102 E1.3958 F1035
G1 X134.489 Y123.666 E1.5144
G1 X104.400 Y123.666 E2.9059
G1 X104.630 Y123.109 E2.9338
G1 X104.711 Y122.495 E2.9625
G1 X104.630 Y121.881 E2.9911
G1 X104.308 Y121.102 E3.0301
G92 E0
G1 E-1.0000 F1800
G1 X103.811 Y124.331 F4800
G1 E0.0000 F1800
G92 E0
G1 X104.022 Y124.435 E0.0109 F1035
G1 X104.022 Y125.555 E0.0627
G1 X103.811 Y125.659 E0.0736
G1 X103.525 Y125.440 E0.0903
G1 X102.952 Y125.203 E0.1189
G1 X102.638 Y125.161 E0.1336
G1 X102.638 Y124.829 E0.1489
G1 X102.952 Y124.787 E0.1636
G1 X103.525 Y124.550 E0.1922
G1 X103.811 Y124.331 E0.2089
G1 X104.308 Y126.102 F4800
G92 E0
G1 X134.489 Y126.102 E1.3958 F1035
G1 X134.489 Y128.666 E1.5144
G1 X104.400 Y128.666 E2.9059
G1 X104.630 Y128.109 E2.9338
G1 X104.711 Y127.495 E2.9625
G1 X104.630 Y126.881 E2.9911
G1 X104.308 Y126.102 E3.0301
G92 E0
G1 E-1.0000 F1800
G1 X103.811 Y129.331 F4800
G1 E0.0000 F1800
G92 E0
G1 X104.022 Y129.435 E0.0109 F1035
G1 X104.022 Y130.555 E0.0627
G1 X103.811 Y130.659 E0.0736
G1 X103.525 Y130.440 E0.0903
G1 X102.952 Y130.202 E0.1189
G1 X102.638 Y130.161 E0.1336
G1 X102.638 Y129.829 E0.1489
G1 X102.952 Y129.787 E0.1636
G1 X103.525 Y129.550 E0.1922
G1 X103.811 Y129.331 E0.2089
G1 X104.308 Y131.102 F4800
G92 E0
G1 X134.489 Y131.102 E1.3958 F1035
G1 X134.489 Y133.666 E1.5144
G1 X104.400 Y133.666 E2.9059
G1 X104.630 Y133.109 E2.9338
G1 X104.711 Y132.495 E2.9625
G1 X104.630 Y131.881 E2.9911
G1 X104.308 Y131.102 E3.0301
G92 E0
G1 E-1.0000 F1800
G1 X103.811 Y134.331 F4800
G1 E0.0000 F1800
G92 E0
G1 X104.022 Y134.435 E0.0109 F1035
G1 X104.022 Y135.555 E0.0627
G1 X103.811 Y135.659 E0.0736
G1 X103.525 Y135.440 E0.0903
G1 X102.952 Y135.202 E0.1189
G1 X102.638 Y135.161 E0.1336
G1 X102.638 Y134.829 E0.1489
G1 X102.952 Y134.787 E0.1636
G1 X103.525 Y134.550 E0.1922
G1 X103.811 Y134.331 E0.2089
G1 X104.308 Y136.102 F4800
G92 E0
G1 X134.489 Y136.102 E1.3958 F1035
G1 X134.489 Y138.666 E1.5144
G1 X104.400 Y138.666 E2.9059
G1 X104.630 Y138.109 E2.9338
G1 X104.711 Y137.495 E2.9625
G1 X104.630 Y136.881 E2.9911
G1 X104.308 Y136.102 E3.0301
G92 E0
G1 E-1.0000 F1800
G1 X103.811 Y139.331 F4800
G1 E0.0000 F1800
G92 E0
G1 X104.022 Y139.435 E0.0109 F1035
G1 X104.022 Y140.555 E0.0627
G1 X103.811 Y140.659 E0.0736
G1 X103.525 Y140.440 E0.0903
G1 X102.952 Y140.202 E0.1189
G1 X102.638 Y140.161 E0.1336
G1 X102.638 Y139.829 E0.1489
G1 X102.952 Y139.787 E0.1636
G1 X103.525 Y139.550 E0.1922
G1 X103.811 Y139.331 E0.2089
G92 E0
G1 E-1.0000 F1800
; outer perimeter
G1 X94.176 Y147.764 F4800
G1 E0.0000 F1800
G92 E0
G1 X94.176 Y78.176 E3.2183 F690
G1 X143.764 Y78.176 E5.5117
G1 X143.764 Y147.764 E8.7300
G1 X94.176 Y147.764 E11.0234
; inner perimeter
G1 X100.283 Y143.682 F4800
G92 E0
G1 X100.660 Y144.173 E0.0287 F1035
G1 X101.151 Y144.550 E0.0573
G1 X101.724 Y144.787 E0.0860
G1 X102.338 Y144.868 E0.1146
G1 X102.952 Y144.787 E0.1433
G1 X103.525 Y144.550 E0.1719
G1 X104.016 Y144.173 E0.2006
G1 X104.393 Y143.682 E0.2292
G1 X104.630 Y143.109 E0.2579
G1 X104.711 Y142.495 E0.2865
G1 X104.630 Y141.881 E0.3152
G1 X104.308 Y141.102 E0.3542
G1 X134.489 Y141.102 E1.7500
G1 X134.489 Y144.484 E1.9063
G1 X138.725 Y144.484 E2.1022
G1 X138.725 Y140.248 E2.2981
G1 X135.258 Y140.248 E2.4585
G1 X135.258 Y139.484 E2.4938
G1 X138.725 Y139.484 E2.6541
G1 X138.725 Y135.248 E2.8500
G1 X135.258 Y135.248 E3.0104
G1 X135.258 Y134.484 E3.0457
G1 X138.725 Y134.484 E3.2060
G1 X138.725 Y130.248 E3.4019
G1 X135.258 Y130.248 E3.5623
G1 X135.258 Y129.484 E3.5976
G1 X138.725 Y129.484 E3.7579
G1 X138.725 Y125.248 E3.9538
G1 X135.258 Y125.248 E4.1141
G1 X135.258 Y124.484 E4.1495
G1 X138.725 Y124.484 E4.3098
G1 X138.725 Y120.248 E4.5057
G1 X135.258 Y120.248 E4.6660
G1 X135.258 Y119.484 E4.7014
G1 X138.725 Y119.484 E4.8617
G1 X138.725 Y115.248 E5.0576
G1 X135.258 Y115.248 E5.2179
G1 X135.258 Y114.484 E5.2533
G1 X138.725 Y114.484 E5.4136
G1 X138.725 Y110.248 E5.6095
G1 X135.258 Y110.248 E5.7698
G1 X135.258 Y109.484 E5.8051
G1 X138.725 Y109.484 E5.9655
G1 X138.725 Y105.248 E6.1614
G1 X135.258 Y105.248 E6.3217
G1 X135.258 Y104.484 E6.3570
G1 X138.725 Y104.484 E6.5174
G1 X138.725 Y100.248 E6.7133
G1 X135.258 Y100.248 E6.8736
G1 X135.258 Y99.484 E6.9089
G1 X138.725 Y99.484 E7.0692
G1 X138.725 Y95.248 E7.2652
G1 X135.258 Y95.248 E7.4255
G1 X135.258 Y94.484 E7.4608
G1 X138.725 Y94.484 E7.6211
G1 X138.725 Y90.248 E7.8170
G1 X135.258 Y90.248 E7.9774
G1 X135.258 Y89.484 E8.0127
G1 X138.725 Y89.484 E8.1730
G1 X138.725 Y85.248 E8.3689
G1 X135.258 Y85.248 E8.5293
G1 X135.258 Y83.666 E8.6024
G1 X104.022 Y83.666 E10.0470
G1 X104.022 Y85.555 E10.1343
G1 X103.811 Y85.659 E10.1452
G1 X103.525 Y85.440 E10.1619
G1 X102.952 Y85.203 E10.1906
G1 X102.338 Y85.122 E10.2192
G1 X101.724 Y85.202 E10.2479
G1 X101.151 Y85.440 E10.2765
G1 X100.660 Y85.817 E10.3052
G1 X100.283 Y86.308 E10.3338
G1 X100.045 Y86.881 E10.3625
G1 X99.965 Y87.495 E10.3911
G1 X100.045 Y88.109 E10.4198
G1 X100.283 Y88.682 E10.4484
G1 X100.660 Y89.173 E10.4771
G1 X101.151 Y89.550 E10.5057
G1 X101.724 Y89.787 E10.5344
G1 X102.038 Y89.829 E10.5490
G1 X102.038 Y90.161 E10.5644
G1 X101.724 Y90.202 E10.5791
G1 X101.151 Y90.440 E10.6077
G1 X100.660 Y90.817 E10.6364
G1 X100.283 Y91.308 E10.6650
G1 X100.045 Y91.881 E10.6937
G1 X99.965 Y92.495 E10.7223
G1 X100.045 Y93.109 E10.7510
G1 X100.283 Y93.682 E10.7796
G1 X100.660 Y94.173 E10.8083
G1 X101.151 Y94.550 E10.8370
G1 X101.724 Y94.787 E10.8656
G1 X102.038 Y94.829 E10.8803
G1 X102.038 Y95.161 E10.8956
G1 X101.724 Y95.202 E10.9103
G1 X101.151 Y95.440 E10.9389
G1 X100.660 Y95.817 E10.9676
G1 X100.283 Y96.308 E10.9962
G1 X100.045 Y96.881 E11.0249
