; G-Code generated by Simplify3D(R) Version 4.0.0
; Jan 7, 2021 at 7:50:41 PM
; Settings Summary
;   processName,Process1
;   applyToModels,todo-list-stencil06mm
;   profileName,new profile (modified)
;   profileVersion,2020-09-07 14:01:24
;   baseProfile,Default (modified)
;   printMaterial,PLA
;   printQuality,Medium
;   printExtruders,
;   extruderName,Primary Extruder
;   extruderToolheadNumber,0
;   extruderDiameter,0.4
;   extruderAutoWidth,0
;   extruderWidth,0.4
;   extrusionMultiplier,0.9
;   extruderUseRetract,1
;   extruderRetractionDistance,1
;   extruderExtraRestartDistance,0
;   extruderRetractionZLift,0
;   extruderRetractionSpeed,1800
;   extruderUseCoasting,0
;   extruderCoastingDistance,0.2
;   extruderUseWipe,0
;   extruderWipeDistance,5
;   primaryExtruder,0
;   layerHeight,0.3
;   topSolidLayers,3
;   bottomSolidLayers,2
;   perimeterOutlines,2
;   printPerimetersInsideOut,1
;   startPointOption,2
;   startPointOriginX,0
;   startPointOriginY,0
;   sequentialIslands,0
;   spiralVaseMode,0
;   firstLayerHeightPercentage,90
;   firstLayerWidthPercentage,103
;   firstLayerUnderspeed,0.3
;   useRaft,0
;   raftExtruder,0
;   raftTopLayers,2
;   raftBaseLayers,2
;   raftOffset,1.4
;   raftSeparationDistance,0.14
;   raftTopInfill,100
;   aboveRaftSpeedMultiplier,0.3
;   useSkirt,0
;   skirtExtruder,0
;   skirtLayers,1
;   skirtOutlines,2
;   skirtOffset,4
;   usePrimePillar,0
;   primePillarExtruder,999
;   primePillarWidth,12
;   primePillarLocation,7
;   primePillarSpeedMultiplier,1
;   useOozeShield,0
;   oozeShieldExtruder,999
;   oozeShieldOffset,2
;   oozeShieldOutlines,1
;   oozeShieldSidewallShape,1
;   oozeShieldSidewallAngle,30
;   oozeShieldSpeedMultiplier,1
;   infillExtruder,0
;   internalInfillPattern,Rectilinear
;   externalInfillPattern,Rectilinear
;   infillPercentage,23
;   outlineOverlapPercentage,15
;   infillExtrusionWidthPercentage,100
;   minInfillLength,5
;   infillLayerInterval,1
;   internalInfillAngles,45,-45
;   overlapInternalInfillAngles,0
;   externalInfillAngles,45,-45
;   generateSupport,1
;   supportExtruder,0
;   supportInfillPercentage,30
;   supportExtraInflation,0
;   supportBaseLayers,0
;   denseSupportExtruder,0
;   denseSupportLayers,0
;   denseSupportInfillPercentage,70
;   supportLayerInterval,1
;   supportHorizontalPartOffset,0.2
;   supportUpperSeparationLayers,1
;   supportLowerSeparationLayers,1
;   supportType,0
;   supportGridSpacing,4
;   maxOverhangAngle,45
;   supportAngles,0
;   temperatureName,Primary Extruder,Hot Bed
;   temperatureNumber,0,1
;   temperatureSetpointCount,1,1
;   temperatureSetpointLayers,1,1
;   temperatureSetpointTemperatures,210,60
;   temperatureStabilizeAtStartup,1,0
;   temperatureHeatedBed,0,1
;   temperatureRelayBetweenLayers,0,0
;   temperatureRelayBetweenLoops,0,0
;   fanLayers,1,2
;   fanSpeeds,0,100
;   blipFanToFullPower,0
;   adjustSpeedForCooling,1
;   minSpeedLayerTime,15
;   minCoolingSpeedSlowdown,20
;   increaseFanForCooling,0
;   minFanLayerTime,45
;   maxCoolingFanSpeed,100
;   increaseFanForBridging,0
;   bridgingFanSpeed,100
;   use5D,1
;   relativeEdistances,0
;   allowEaxisZeroing,1
;   independentExtruderAxes,0
;   includeM10123,0
;   stickySupport,1
;   applyToolheadOffsets,0
;   gcodeXoffset,-0.03
;   gcodeYoffset,-0.03
;   gcodeZoffset,0
;   overrideMachineDefinition,0
;   machineTypeOverride,0
;   strokeXoverride,200
;   strokeYoverride,200
;   strokeZoverride,200
;   originOffsetXoverride,0
;   originOffsetYoverride,0
;   originOffsetZoverride,0
;   homeXdirOverride,-1
;   homeYdirOverride,-1
;   homeZdirOverride,-1
;   flipXoverride,1
;   flipYoverride,-1
;   flipZoverride,1
;   toolheadOffsets,0,0|0,0|0,0|0,0|0,0|0,0
;   overrideFirmwareConfiguration,0
;   firmwareTypeOverride,RepRap (Marlin/Repetier/Sprinter)
;   GPXconfigOverride,r2
;   baudRateOverride,115200
;   overridePrinterModels,0
;   printerModelsOverride
;   startingGcode,G28 ; home all axes,G1 X3 Y5 Z0.2 F3000 ; get ready to prime,G92 E0 ; reset extrusion distance,G1 Y150 E20 F600 ; prime nozzle
;   layerChangeGcode,
;   retractionGcode,
;   toolChangeGcode,
;   endingGcode,M104 S0 ; turn off extruder,M140 S0 ; turn off bedG1 X0 Y0; home,M84 ; disable motors,M107 ; fan off,G28 X Y; Home,M18; Disable steppers
;   exportFileFormat,gcode
;   celebration,0
;   celebrationSong,Random Song
;   postProcessing,
;   defaultSpeed,4600
;   outlineUnderspeed,0.5
;   solidInfillUnderspeed,0.8
;   supportUnderspeed,0.8
;   rapidXYspeed,4800
;   rapidZspeed,1000
;   minBridgingArea,50
;   bridgingExtraInflation,0
;   bridgingExtrusionMultiplier,1
;   bridgingSpeedMultiplier,1
;   useFixedBridgingAngle,0
;   fixedBridgingAngle,0
;   applyBridgingToPerimeters,0
;   filamentDiameters,1.75|1.75|1.75|1.75|1.75|1.75
;   filamentPricesPerKg,46|46|46|46|46|46
;   filamentDensities,1.25|1.25|1.25|1.25|1.25|1.25
;   useMinPrintHeight,0
;   minPrintHeight,0
;   useMaxPrintHeight,0
;   maxPrintHeight,0
;   useDiaphragm,0
;   diaphragmLayerInterval,20
;   robustSlicing,1
;   mergeAllIntoSolid,0
;   onlyRetractWhenCrossingOutline,1
;   retractBetweenLayers,1
;   useRetractionMinTravel,0
;   retractionMinTravel,3
;   retractWhileWiping,0
;   onlyWipeOutlines,1
;   avoidCrossingOutline,0
;   maxMovementDetourFactor,3
;   toolChangeRetractionDistance,12
;   toolChangeExtraRestartDistance,-0.5
;   toolChangeRetractionSpeed,600
;   externalThinWallType,1
;   internalThinWallType,2
;   thinWallAllowedOverlapPercentage,8
;   singleExtrusionMinLength,1
;   singleExtrusionMinPrintingWidthPercentage,50
;   singleExtrusionMaxPrintingWidthPercentage,200
;   singleExtrusionEndpointExtension,0.2
;   horizontalSizeCompensation,0
G90
M82
M106 S0
M140 S60
M104 S210 T0
M109 S210 T0
G28 ; home all axes
G1 X3 Y5 Z0.2 F3000 ; get ready to prime
G92 E0 ; reset extrusion distance
G1 Y150 E20 F600 ; prime nozzle
G92 E0
G1 E-1.0000 F1800
G1 Z0.270 F1000
; process Process1
; layer 1, Z = 0.270
T0
; tool H0.300 W0.412
; inner perimeter
G1 X94.588 Y78.588 F4800
G1 E0.0000 F540
G92 E0
G1 X143.352 Y78.588 E2.2552 F1035
G1 X143.352 Y147.352 E5.4355
G1 X94.588 Y147.352 E7.6907
G1 X94.588 Y78.588 E10.8709
G92 E0
G1 E-1.0000 F1800
G1 X102.638 Y85.779 F4800
G1 E0.0000 F1800
G92 E0
G1 X102.952 Y85.738 E0.0146 F1035
G1 X103.525 Y85.500 E0.0433
G1 X103.811 Y85.281 E0.0600
G1 X104.022 Y85.385 E0.0709
G1 X104.022 Y86.505 E0.1227
G1 X103.811 Y86.609 E0.1336
G1 X103.525 Y86.390 E0.1502
G1 X102.952 Y86.153 E0.1789
G1 X102.638 Y86.111 E0.1935
G1 X102.638 Y85.779 E0.2089
G1 X104.400 Y87.274 F4800
G92 E0
G1 X134.489 Y87.274 E1.3916 F1035
G1 X134.489 Y89.838 E1.5101
G1 X104.308 Y89.838 E2.9059
G1 X104.630 Y89.059 E2.9449
G1 X104.711 Y88.445 E2.9736
G1 X104.630 Y87.831 E3.0022
G1 X104.400 Y87.274 E3.0301
G1 X103.811 Y90.281 F4800
G92 E0
G1 X104.022 Y90.385 E0.0109 F1035
G1 X104.022 Y91.505 E0.0627
G1 X103.811 Y91.609 E0.0736
G1 X103.525 Y91.390 E0.0902
G1 X102.952 Y91.153 E0.1189
G1 X102.638 Y91.111 E0.1336
G1 X102.638 Y90.779 E0.1489
G1 X102.952 Y90.738 E0.1636
G1 X103.525 Y90.500 E0.1922
G1 X103.811 Y90.281 E0.2089
G1 X104.400 Y92.274 F4800
G92 E0
G1 X134.489 Y92.274 E1.3916 F1035
G1 X134.489 Y94.838 E1.5101
G1 X104.308 Y94.838 E2.9059
G1 X104.630 Y94.059 E2.9449
G1 X104.711 Y93.445 E2.9736
G1 X104.630 Y92.831 E3.0022
G1 X104.400 Y92.274 E3.0301
G1 X103.811 Y95.281 F4800
G92 E0
G1 X104.022 Y95.385 E0.0109 F1035
G1 X104.022 Y96.505 E0.0627
G1 X103.811 Y96.609 E0.0736
G1 X103.525 Y96.390 E0.0902
G1 X102.952 Y96.153 E0.1189
G1 X102.638 Y96.111 E0.1336
G1 X102.638 Y95.779 E0.1489
G1 X102.952 Y95.738 E0.1636
G1 X103.525 Y95.500 E0.1922
G1 X103.811 Y95.281 E0.2089
G1 X104.400 Y97.274 F4800
G92 E0
G1 X134.489 Y97.274 E1.3916 F1035
G1 X134.489 Y99.838 E1.5101
G1 X104.308 Y99.838 E2.9059
G1 X104.630 Y99.059 E2.9449
G1 X104.711 Y98.445 E2.9736
G1 X104.630 Y97.831 E3.0022
G1 X104.400 Y97.274 E3.0301
G1 X103.811 Y100.281 F4800
G92 E0
G1 X104.022 Y100.385 E0.0109 F1035
G1 X104.022 Y101.505 E0.0627
G1 X103.811 Y101.609 E0.0736
G1 X103.525 Y101.390 E0.0903
G1 X102.952 Y101.153 E0.1189
G1 X102.638 Y101.111 E0.1336
G1 X102.638 Y100.779 E0.1489
G1 X102.952 Y100.737 E0.1636
G1 X103.525 Y100.500 E0.1922
G1 X103.811 Y100.281 E0.2089
G1 X104.400 Y102.274 F4800
G92 E0
G1 X134.489 Y102.274 E1.3916 F1035
G1 X134.489 Y104.838 E1.5101
G1 X104.308 Y104.838 E2.9059
G1 X104.630 Y104.059 E2.9449
G1 X104.711 Y103.445 E2.9736
G1 X104.630 Y102.831 E3.0022
G1 X104.400 Y102.274 E3.0301
G1 X103.811 Y105.281 F4800
G92 E0
G1 X104.022 Y105.385 E0.0109 F1035
G1 X104.022 Y106.505 E0.0627
G1 X103.811 Y106.609 E0.0736
G1 X103.525 Y106.390 E0.0902
G1 X102.952 Y106.153 E0.1189
G1 X102.638 Y106.111 E0.1336
G1 X102.638 Y105.779 E0.1489
G1 X102.952 Y105.737 E0.1636
G1 X103.525 Y105.500 E0.1922
G1 X103.811 Y105.281 E0.2089
G1 X104.400 Y107.274 F4800
G92 E0
G1 X134.489 Y107.274 E1.3916 F1035
G1 X134.489 Y109.838 E1.5101
G1 X104.308 Y109.838 E2.9059
G1 X104.630 Y109.059 E2.9449
G1 X104.711 Y108.445 E2.9736
G1 X104.630 Y107.831 E3.0022
G1 X104.400 Y107.274 E3.0301
G1 X103.811 Y110.281 F4800
G92 E0
G1 X104.022 Y110.385 E0.0109 F1035
G1 X104.022 Y111.505 E0.0627
G1 X103.811 Y111.609 E0.0736
G1 X103.525 Y111.390 E0.0902
G1 X102.952 Y111.153 E0.1189
G1 X102.638 Y111.111 E0.1336
G1 X102.638 Y110.779 E0.1489
G1 X102.952 Y110.737 E0.1636
G1 X103.525 Y110.500 E0.1922
G1 X103.811 Y110.281 E0.2089
G1 X104.400 Y112.274 F4800
G92 E0
G1 X134.489 Y112.274 E1.3916 F1035
G1 X134.489 Y114.838 E1.5101
G1 X104.308 Y114.838 E2.9059
G1 X104.630 Y114.059 E2.9449
G1 X104.711 Y113.445 E2.9736
G1 X104.630 Y112.831 E3.0022
G1 X104.400 Y112.274 E3.0301
G1 X103.811 Y115.281 F4800
G92 E0
G1 X104.022 Y115.385 E0.0109 F1035
G1 X104.022 Y116.505 E0.0627
G1 X103.811 Y116.609 E0.0736
G1 X103.525 Y116.390 E0.0902
G1 X102.952 Y116.153 E0.1189
G1 X102.638 Y116.111 E0.1336
G1 X102.638 Y115.779 E0.1489
G1 X102.952 Y115.737 E0.1636
G1 X103.525 Y115.500 E0.1922
G1 X103.811 Y115.281 E0.2089
G1 X104.400 Y117.274 F4800
G92 E0
G1 X134.489 Y117.274 E1.3916 F1035
G1 X134.489 Y119.838 E1.5101
G1 X104.308 Y119.838 E2.9059
G1 X104.630 Y119.059 E2.9449
G1 X104.711 Y118.445 E2.9736
G1 X104.630 Y117.831 E3.0022
G1 X104.400 Y117.274 E3.0301
G1 X103.811 Y120.281 F4800
G92 E0
G1 X104.022 Y120.385 E0.0109 F1035
G1 X104.022 Y121.505 E0.0627
G1 X103.811 Y121.609 E0.0736
G1 X103.525 Y121.390 E0.0902
G1 X102.952 Y121.153 E0.1189
G1 X102.638 Y121.111 E0.1336
G1 X102.638 Y120.779 E0.1489
G1 X102.952 Y120.737 E0.1636
G1 X103.525 Y120.500 E0.1922
G1 X103.811 Y120.281 E0.2089
G1 X104.400 Y122.274 F4800
G92 E0
G1 X134.489 Y122.274 E1.3916 F1035
G1 X134.489 Y124.838 E1.5101
G1 X104.308 Y124.838 E2.9059
G1 X104.630 Y124.059 E2.9449
G1 X104.711 Y123.445 E2.9736
G1 X104.630 Y122.831 E3.0022
G1 X104.400 Y122.274 E3.0301
G1 X103.811 Y125.281 F4800
G92 E0
G1 X104.022 Y125.385 E0.0109 F1035
G1 X104.022 Y126.505 E0.0627
G1 X103.811 Y126.609 E0.0736
G1 X103.525 Y126.390 E0.0902
G1 X102.952 Y126.153 E0.1189
G1 X102.638 Y126.111 E0.1336
G1 X102.638 Y125.779 E0.1489
G1 X102.952 Y125.737 E0.1636
G1 X103.525 Y125.500 E0.1922
G1 X103.811 Y125.281 E0.2089
G1 X104.400 Y127.274 F4800
G92 E0
G1 X134.489 Y127.274 E1.3916 F1035
G1 X134.489 Y129.838 E1.5101
G1 X104.308 Y129.838 E2.9059
G1 X104.630 Y129.059 E2.9449
G1 X104.711 Y128.445 E2.9736
G1 X104.630 Y127.831 E3.0022
G1 X104.400 Y127.274 E3.0301
G1 X103.811 Y130.281 F4800
G92 E0
G1 X104.022 Y130.385 E0.0109 F1035
G1 X104.022 Y131.505 E0.0627
G1 X103.811 Y131.609 E0.0736
G1 X103.525 Y131.390 E0.0902
G1 X102.952 Y131.153 E0.1189
G1 X102.638 Y131.111 E0.1336
G1 X102.638 Y130.779 E0.1489
G1 X102.952 Y130.738 E0.1636
G1 X103.525 Y130.500 E0.1922
G1 X103.811 Y130.281 E0.2089
G1 X104.400 Y132.274 F4800
G92 E0
G1 X134.489 Y132.274 E1.3916 F1035
G1 X134.489 Y134.838 E1.5101
G1 X104.308 Y134.838 E2.9059
G1 X104.630 Y134.059 E2.9449
G1 X104.711 Y133.445 E2.9736
G1 X104.630 Y132.831 E3.0022
G1 X104.400 Y132.274 E3.0301
G1 X103.811 Y135.281 F4800
G92 E0
G1 X104.022 Y135.385 E0.0109 F1035
G1 X104.022 Y136.505 E0.0627
G1 X103.811 Y136.609 E0.0736
G1 X103.525 Y136.390 E0.0902
G1 X102.952 Y136.153 E0.1189
G1 X102.638 Y136.111 E0.1336
G1 X102.638 Y135.779 E0.1489
G1 X102.952 Y135.738 E0.1636
G1 X103.525 Y135.500 E0.1922
G1 X103.811 Y135.281 E0.2089
G1 X104.400 Y137.274 F4800
G92 E0
G1 X134.489 Y137.274 E1.3916 F1035
G1 X134.489 Y139.838 E1.5101
G1 X104.308 Y139.838 E2.9059
G1 X104.630 Y139.059 E2.9449
G1 X104.711 Y138.445 E2.9736
G1 X104.630 Y137.831 E3.0022
G1 X104.400 Y137.274 E3.0301
G92 E0
G1 E-1.0000 F1800
; outer perimeter
G1 X94.176 Y147.764 F4800
G1 E0.0000 F1800
G92 E0
G1 X94.176 Y78.176 E3.2183 F690
G1 X143.764 Y78.176 E5.5117
G1 X143.764 Y147.764 E8.7300
G1 X94.176 Y147.764 E11.0234
; inner perimeter
G1 X101.151 Y140.500 F4800
G92 E0
G1 X101.724 Y140.738 E0.0287 F1035
G1 X102.338 Y140.818 E0.0573
G1 X102.952 Y140.737 E0.0860
G1 X103.525 Y140.500 E0.1146
G1 X103.811 Y140.281 E0.1313
G1 X104.022 Y140.385 E0.1422
G1 X104.022 Y142.274 E0.2295
G1 X135.258 Y142.274 E1.6741
G1 X135.258 Y140.692 E1.7473
G1 X138.725 Y140.692 E1.9076
G1 X138.725 Y136.456 E2.1035
G1 X135.258 Y136.456 E2.2638
G1 X135.258 Y135.692 E2.2991
G1 X138.725 Y135.692 E2.4595
G1 X138.725 Y131.456 E2.6554
G1 X135.258 Y131.456 E2.8157
G1 X135.258 Y130.692 E2.8510
G1 X138.725 Y130.692 E3.0114
G1 X138.725 Y126.456 E3.2073
G1 X135.258 Y126.456 E3.3676
G1 X135.258 Y125.692 E3.4029
G1 X138.725 Y125.692 E3.5633
G1 X138.725 Y121.456 E3.7592
G1 X135.258 Y121.456 E3.9195
G1 X135.258 Y120.692 E3.9548
G1 X138.725 Y120.692 E4.1151
G1 X138.725 Y116.456 E4.3110
G1 X135.258 Y116.456 E4.4714
G1 X135.258 Y115.692 E4.5067
G1 X138.725 Y115.692 E4.6670
G1 X138.725 Y111.456 E4.8629
G1 X135.258 Y111.456 E5.0233
G1 X135.258 Y110.692 E5.0586
G1 X138.725 Y110.692 E5.2189
G1 X138.725 Y106.456 E5.4148
G1 X135.258 Y106.456 E5.5752
G1 X135.258 Y105.692 E5.6105
G1 X138.725 Y105.692 E5.7708
G1 X138.725 Y101.456 E5.9667
G1 X135.258 Y101.456 E6.1270
G1 X135.258 Y100.692 E6.1624
G1 X138.725 Y100.692 E6.3227
G1 X138.725 Y96.456 E6.5186
G1 X135.258 Y96.456 E6.6789
G1 X135.258 Y95.692 E6.7143
G1 X138.725 Y95.692 E6.8746
G1 X138.725 Y91.456 E7.0705
G1 X135.258 Y91.456 E7.2308
G1 X135.258 Y90.692 E7.2662
G1 X138.725 Y90.692 E7.4265
G1 X138.725 Y86.456 E7.6224
G1 X135.258 Y86.456 E7.7827
G1 X135.258 Y85.692 E7.8180
G1 X138.725 Y85.692 E7.9784
G1 X138.725 Y81.456 E8.1743
G1 X134.489 Y81.456 E8.3702
G1 X134.489 Y84.838 E8.5266
G1 X104.308 Y84.838 E9.9224
G1 X104.630 Y84.059 E9.9613
G1 X104.711 Y83.445 E9.9900
G1 X104.630 Y82.831 E10.0186
G1 X104.393 Y82.258 E10.0473
G1 X104.016 Y81.767 E10.0759
G1 X103.525 Y81.390 E10.1046
G1 X102.952 Y81.153 E10.1332
G1 X102.338 Y81.072 E10.1619
G1 X101.724 Y81.153 E10.1906
G1 X101.151 Y81.390 E10.2192
G1 X100.660 Y81.767 E10.2479
G1 X100.283 Y82.258 E10.2765
G1 X100.045 Y82.831 E10.3052
G1 X99.965 Y83.445 E10.3338
G1 X100.045 Y84.059 E10.3625
G1 X100.283 Y84.632 E10.3911
G1 X100.660 Y85.123 E10.4198
G1 X101.151 Y85.500 E10.4484
G1 X101.724 Y85.738 E10.4771
G1 X102.038 Y85.779 E10.4917
G1 X102.038 Y86.111 E10.5071
G1 X101.724 Y86.153 E10.5218
G1 X101.151 Y86.390 E10.5504
G1 X100.660 Y86.767 E10.5791
G1 X100.283 Y87.258 E10.6077
G1 X100.045 Y87.831 E10.6364
G1 X99.965 Y88.445 E10.6650
G1 X100.045 Y89.059 E10.6937
G1 X100.283 Y89.632 E10.7223
G1 X100.660 Y90.123 E10.7510
G1 X101.151 Y90.500 E10.7796
G1 X101.724 Y90.738 E10.8083
G1 X102.038 Y90.779 E10.8229
G1 X102.038 Y91.111 E10.8383
G1 X101.724 Y91.153 E10.8530
G1 X101.151 Y91.390 E10.8816
G1 X100.660 Y91.767 E10.9103
G1 X100.283 Y92.258 E10.9389
G1 X100.045 Y92.831 E10.9676
G1 X99.965 Y93.445 E10.9962
G1 X100.045 Y94.059 E11.0249
G1 X100.283 Y94.632 E11.0535
G1 X100.660 Y95.123 E11.0822
G1 X101.151 Y95.500 E11.1109
G1 X101.724 Y95.738 E11.1395
G1 X102.038 Y95.779 E11.1542
G1 X102.038 Y96.111 E11.1695
G1 X101.724 Y96.153 E11.1842
G1 X101.151 Y96.390 E11.2128
G1 X100.660 Y96.767 E11.2415
G1 X100.283 Y97.258 E11.2701
G1 X100.045 Y97.831 E11.2988
G1 X99.965 Y98.445 E11.3274
G1 X100.045 Y99.059 E11.3561
G1 X100.283 Y99.632 E11.3847
G1 X100.660 Y100.123 E11.4134
