; G-Code generated by Simplify3D(R) Version 4.0.0
; May 7, 2018 at 1:54:11 AM
; Settings Summary
;   processName,nozzle 0.4
;   applyToModels,tolerance_test
;   profileName,Flying Bear 902 Update 7-2017 (modified)
;   profileVersion,2017-07-10 09:45:20
;   baseProfile,Default
;   printMaterial,PLA
;   printQuality,Medium
;   printExtruders,
;   extruderName,Extruder 1
;   extruderToolheadNumber,0
;   extruderDiameter,0.4
;   extruderAutoWidth,1
;   extruderWidth,0.48
;   extrusionMultiplier,0.9
;   extruderUseRetract,1
;   extruderRetractionDistance,2
;   extruderExtraRestartDistance,0
;   extruderRetractionZLift,0
;   extruderRetractionSpeed,3000
;   extruderUseCoasting,0
;   extruderCoastingDistance,0.2
;   extruderUseWipe,1
;   extruderWipeDistance,5
;   primaryExtruder,0
;   layerHeight,0.3
;   topSolidLayers,2
;   bottomSolidLayers,2
;   perimeterOutlines,4
;   printPerimetersInsideOut,0
;   startPointOption,2
;   startPointOriginX,0
;   startPointOriginY,0
;   sequentialIslands,0
;   spiralVaseMode,0
;   firstLayerHeightPercentage,20
;   firstLayerWidthPercentage,115
;   firstLayerUnderspeed,0.3
;   useRaft,0
;   raftExtruder,0
;   raftTopLayers,2
;   raftBaseLayers,2
;   raftOffset,2
;   raftSeparationDistance,0.3
;   raftTopInfill,100
;   aboveRaftSpeedMultiplier,0.3
;   useSkirt,0
;   skirtExtruder,0
;   skirtLayers,1
;   skirtOutlines,2
;   skirtOffset,4
;   usePrimePillar,0
;   primePillarExtruder,999
;   primePillarWidth,12
;   primePillarLocation,7
;   primePillarSpeedMultiplier,1
;   useOozeShield,0
;   oozeShieldExtruder,999
;   oozeShieldOffset,2
;   oozeShieldOutlines,1
;   oozeShieldSidewallShape,1
;   oozeShieldSidewallAngle,30
;   oozeShieldSpeedMultiplier,1
;   infillExtruder,0
;   internalInfillPattern,Rectilinear
;   externalInfillPattern,Rectilinear
;   infillPercentage,10
;   outlineOverlapPercentage,60
;   infillExtrusionWidthPercentage,100
;   minInfillLength,5
;   infillLayerInterval,1
;   internalInfillAngles,45,-45
;   overlapInternalInfillAngles,0
;   externalInfillAngles,45,-45
;   generateSupport,0
;   supportExtruder,0
;   supportInfillPercentage,30
;   supportExtraInflation,0
;   supportBaseLayers,0
;   denseSupportExtruder,0
;   denseSupportLayers,0
;   denseSupportInfillPercentage,50
;   supportLayerInterval,1
;   supportHorizontalPartOffset,0.3
;   supportUpperSeparationLayers,1
;   supportLowerSeparationLayers,1
;   supportType,0
;   supportGridSpacing,4
;   maxOverhangAngle,70
;   supportAngles,0
;   temperatureName,Extruder 1,Heated Bed
;   temperatureNumber,0,0
;   temperatureSetpointCount,1,1
;   temperatureSetpointLayers,1,1
;   temperatureSetpointTemperatures,210,60
;   temperatureStabilizeAtStartup,1,0
;   temperatureHeatedBed,0,1
;   temperatureRelayBetweenLayers,0,0
;   temperatureRelayBetweenLoops,0,0
;   fanLayers,1
;   fanSpeeds,255
;   blipFanToFullPower,0
;   adjustSpeedForCooling,1
;   minSpeedLayerTime,15
;   minCoolingSpeedSlowdown,20
;   increaseFanForCooling,0
;   minFanLayerTime,45
;   maxCoolingFanSpeed,100
;   increaseFanForBridging,0
;   bridgingFanSpeed,100
;   use5D,1
;   relativeEdistances,0
;   allowEaxisZeroing,1
;   independentExtruderAxes,0
;   includeM10123,0
;   stickySupport,1
;   applyToolheadOffsets,0
;   gcodeXoffset,0
;   gcodeYoffset,0
;   gcodeZoffset,0
;   overrideMachineDefinition,1
;   machineTypeOverride,0
;   strokeXoverride,220
;   strokeYoverride,220
;   strokeZoverride,280
;   originOffsetXoverride,0
;   originOffsetYoverride,0
;   originOffsetZoverride,0
;   homeXdirOverride,-1
;   homeYdirOverride,-1
;   homeZdirOverride,-1
;   flipXoverride,1
;   flipYoverride,-1
;   flipZoverride,1
;   toolheadOffsets,0,0|0,0|0,0|0,0|0,0|0,0
;   overrideFirmwareConfiguration,1
;   firmwareTypeOverride,RepRap (Marlin/Repetier/Sprinter)
;   GPXconfigOverride,r2
;   baudRateOverride,250000
;   overridePrinterModels,0
;   printerModelsOverride
;   startingGcode,G28 ; home all axes,G1 X0 Y20 Z0.2 F3000 ; get ready to prime,G92 E0 ; reset extrusion distance,G1 X200 E20 F600 ; prime nozzle
;   layerChangeGcode,
;   retractionGcode,
;   toolChangeGcode,
;   endingGcode,M104 S0 ; turn off extruder,M140 S0 ; turn off bed,G28 X Y ; home x and y axes,M84 ; disable motors
;   exportFileFormat,gcode
;   celebration,0
;   celebrationSong,Random Song
;   postProcessing,
;   defaultSpeed,4400
;   outlineUnderspeed,0.6
;   solidInfillUnderspeed,0.85
;   supportUnderspeed,0.8
;   rapidXYspeed,5200
;   rapidZspeed,1002
;   minBridgingArea,50
;   bridgingExtraInflation,0
;   bridgingExtrusionMultiplier,1
;   bridgingSpeedMultiplier,1
;   useFixedBridgingAngle,0
;   fixedBridgingAngle,0
;   applyBridgingToPerimeters,0
;   filamentDiameters,1.75|1.75|1.75|1.75|1.75|1.75
;   filamentPricesPerKg,46|46|46|46|46|46
;   filamentDensities,1.25|1.25|1.25|1.25|1.25|1.25
;   useMinPrintHeight,0
;   minPrintHeight,0
;   useMaxPrintHeight,0
;   maxPrintHeight,4.3
;   useDiaphragm,0
;   diaphragmLayerInterval,20
;   robustSlicing,1
;   mergeAllIntoSolid,0
;   onlyRetractWhenCrossingOutline,1
;   retractBetweenLayers,1
;   useRetractionMinTravel,0
;   retractionMinTravel,3
;   retractWhileWiping,0
;   onlyWipeOutlines,1
;   avoidCrossingOutline,0
;   maxMovementDetourFactor,3
;   toolChangeRetractionDistance,12
;   toolChangeExtraRestartDistance,-0.5
;   toolChangeRetractionSpeed,600
;   externalThinWallType,0
;   internalThinWallType,0
;   thinWallAllowedOverlapPercentage,20
;   singleExtrusionMinLength,1
;   singleExtrusionMinPrintingWidthPercentage,50
;   singleExtrusionMaxPrintingWidthPercentage,200
;   singleExtrusionEndpointExtension,0.2
;   horizontalSizeCompensation,0
G90
M82
M106 S650
M140 S60
M104 S210 T0
M109 S210 T0
G28 ; home all axes
G1 X0 Y20 Z0.2 F3000 ; get ready to prime
G92 E0 ; reset extrusion distance
G1 X200 E20 F600 ; prime nozzle
G92 E0
G1 E-2.0000 F3000
G1 Z0.060 F1002
; process nozzle 0.4
; layer 1, Z = 0.060
T0
; tool H0.300 W0.552
; outer perimeter
G1 X95.048 Y95.048 F5200
G1 E0.0000 F900
G92 E0
G1 X124.952 Y95.048 E1.8529 F792
G1 X124.952 Y124.952 E3.7058
G1 X95.048 Y124.952 E5.5587
G1 X95.048 Y95.048 E7.4117
G1 X100.048 Y95.048 F4400
; inner perimeter
G1 X95.600 Y95.600 F5200
G92 E0
G1 X124.400 Y95.600 E1.7845 F1056
G1 X124.400 Y124.400 E3.5690
G1 X95.600 Y124.400 E5.3535
G1 X95.600 Y95.600 E7.1380
G1 X96.152 Y96.152 F5200
G92 E0
G1 X123.848 Y96.152 E1.7161 F1056
G1 X123.848 Y123.848 E3.4322
G1 X96.152 Y123.848 E5.1483
G1 X96.152 Y96.152 E6.8644
G1 X96.704 Y96.704 F5200
G92 E0
G1 X123.296 Y96.704 E1.6477 F1056
G1 X123.296 Y123.296 E3.2954
G1 X96.704 Y123.296 E4.9431
G1 X96.704 Y96.704 E6.5908
; outer perimeter
G1 X99.124 Y99.124 F5200
G92 E0
G1 X99.124 Y120.876 E1.3478 F792
G1 X120.876 Y120.876 E2.6957
G1 X120.876 Y99.124 E4.0435
G1 X99.124 Y99.124 E5.3913
G1 X99.124 Y104.124 F4400
; inner perimeter
G1 X98.572 Y98.572 F5200
G92 E0
G1 X98.572 Y121.428 E1.4162 F1056
G1 X121.428 Y121.428 E2.8325
G1 X121.428 Y98.572 E4.2487
G1 X98.572 Y98.572 E5.6650
G1 X98.020 Y98.020 F5200
G92 E0
G1 X98.020 Y121.980 E1.4846 F1056
G1 X121.980 Y121.980 E2.9693
G1 X121.980 Y98.020 E4.4539
G1 X98.020 Y98.020 E5.9386
G1 X97.468 Y97.468 F5200
G92 E0
G1 X97.468 Y122.532 E1.5531 F1056
G1 X122.532 Y122.532 E3.1061
G1 X122.532 Y97.468 E4.6592
G1 X97.468 Y97.468 E6.2122
; solid layer
G1 X122.686 Y96.925 F5200
G92 E0
G1 X123.075 Y97.314 E0.0340 F1122
G1 X123.075 Y98.094 E0.0824
G1 X122.753 Y97.772 E0.1106
G1 X122.753 Y97.247 E0.1431
G1 X122.228 Y97.247 E0.1757
G1 X121.906 Y96.925 E0.2039
G1 X121.125 Y96.925 E0.2523
G1 X121.447 Y97.247 E0.2805
G1 X120.667 Y97.247 E0.3289
G1 X120.345 Y96.925 E0.3571
G1 X119.564 Y96.925 E0.4054
G1 X119.886 Y97.247 E0.4337
G1 X119.105 Y97.247 E0.4820
G1 X118.783 Y96.925 E0.5103
G1 X118.003 Y96.925 E0.5586
G1 X118.325 Y97.247 E0.5869
G1 X117.544 Y97.247 E0.6352
G1 X117.222 Y96.925 E0.6634
G1 X116.441 Y96.925 E0.7118
G1 X116.763 Y97.247 E0.7400
G1 X115.983 Y97.247 E0.7884
G1 X115.661 Y96.925 E0.8166
G1 X114.880 Y96.925 E0.8650
G1 X115.202 Y97.247 E0.8932
G1 X114.421 Y97.247 E0.9416
G1 X114.099 Y96.925 E0.9698
G1 X113.319 Y96.925 E1.0182
G1 X113.641 Y97.247 E1.0464
G1 X112.860 Y97.247 E1.0948
G1 X112.538 Y96.925 E1.1230
G1 X111.757 Y96.925 E1.1714
G1 X112.079 Y97.247 E1.1996
G1 X111.299 Y97.247 E1.2480
G1 X110.977 Y96.925 E1.2762
G1 X110.196 Y96.925 E1.3246
G1 X110.518 Y97.247 E1.3528
G1 X109.738 Y97.247 E1.4011
G1 X109.416 Y96.925 E1.4294
G1 X108.635 Y96.925 E1.4777
G1 X108.957 Y97.247 E1.5060
G1 X108.176 Y97.247 E1.5543
G1 X107.854 Y96.925 E1.5825
G1 X107.074 Y96.925 E1.6309
G1 X107.396 Y97.247 E1.6591
G1 X106.615 Y97.247 E1.7075
G1 X106.293 Y96.925 E1.7357
G1 X105.512 Y96.925 E1.7841
G1 X105.834 Y97.247 E1.8123
G1 X105.054 Y97.247 E1.8607
G1 X104.732 Y96.925 E1.8889
G1 X103.951 Y96.925 E1.9373
G1 X104.273 Y97.247 E1.9655
G1 X103.492 Y97.247 E2.0139
G1 X103.170 Y96.925 E2.0421
G1 X102.390 Y96.925 E2.0905
G1 X102.712 Y97.247 E2.1187
G1 X101.931 Y97.247 E2.1671
G1 X101.609 Y96.925 E2.1953
G1 X100.828 Y96.925 E2.2437
G1 X101.150 Y97.247 E2.2719
G1 X100.370 Y97.247 E2.3202
G1 X100.048 Y96.925 E2.3485
G1 X99.267 Y96.925 E2.3968
G1 X99.589 Y97.247 E2.4251
G1 X98.809 Y97.247 E2.4734
G1 X98.486 Y96.925 E2.5017
G1 X97.706 Y96.925 E2.5500
G1 X98.028 Y97.247 E2.5782
G1 X97.247 Y97.247 E2.6266
G1 X96.925 Y96.925 E2.6548
G1 X96.925 Y97.706 E2.7032
G1 X97.247 Y98.028 E2.7314
G1 X97.247 Y98.808 E2.7798
G1 X96.925 Y98.486 E2.8080
G1 X96.925 Y99.267 E2.8564
G1 X97.247 Y99.589 E2.8846
G1 X97.247 Y100.370 E2.9330
G1 X96.925 Y100.048 E2.9612
G1 X96.925 Y100.828 E3.0096
G1 X97.247 Y101.150 E3.0378
G1 X97.247 Y101.931 E3.0862
G1 X96.925 Y101.609 E3.1144
G1 X96.925 Y102.390 E3.1628
G1 X97.247 Y102.712 E3.1910
G1 X97.247 Y103.492 E3.2394
G1 X96.925 Y103.170 E3.2676
G1 X96.925 Y103.951 E3.3159
G1 X97.247 Y104.273 E3.3442
G1 X97.247 Y105.054 E3.3925
G1 X96.925 Y104.732 E3.4208
G1 X96.925 Y105.512 E3.4691
G1 X97.247 Y105.834 E3.4973
G1 X97.247 Y106.615 E3.5457
G1 X96.925 Y106.293 E3.5739
G1 X96.925 Y107.074 E3.6223
G1 X97.247 Y107.396 E3.6505
G1 X97.247 Y108.176 E3.6989
G1 X96.925 Y107.854 E3.7271
G1 X96.925 Y108.635 E3.7755
G1 X97.247 Y108.957 E3.8037
G1 X97.247 Y109.738 E3.8521
G1 X96.925 Y109.415 E3.8803
G1 X96.925 Y110.196 E3.9287
G1 X97.247 Y110.518 E3.9569
G1 X97.247 Y111.299 E4.0053
G1 X96.925 Y110.977 E4.0335
G1 X96.925 Y111.757 E4.0819
G1 X97.247 Y112.079 E4.1101
G1 X97.247 Y112.860 E4.1585
G1 X96.925 Y112.538 E4.1867
G1 X96.925 Y113.319 E4.2350
G1 X97.247 Y113.641 E4.2633
G1 X97.247 Y114.421 E4.3116
G1 X96.925 Y114.099 E4.3399
G1 X96.925 Y114.880 E4.3882
G1 X97.247 Y115.202 E4.4165
G1 X97.247 Y115.983 E4.4648
G1 X96.925 Y115.661 E4.4930
G1 X96.925 Y116.441 E4.5414
G1 X97.247 Y116.763 E4.5696
G1 X97.247 Y117.544 E4.6180
G1 X96.925 Y117.222 E4.6462
G1 X96.925 Y118.003 E4.6946
G1 X97.247 Y118.325 E4.7228
G1 X97.247 Y119.105 E4.7712
G1 X96.925 Y118.783 E4.7994
G1 X96.925 Y119.564 E4.8478
G1 X97.247 Y119.886 E4.8760
G1 X97.247 Y120.667 E4.9244
G1 X96.925 Y120.345 E4.9526
G1 X96.925 Y121.125 E5.0010
G1 X97.247 Y121.447 E5.0292
G1 X97.247 Y122.228 E5.0776
G1 X96.925 Y121.906 E5.1058
G1 X96.925 Y122.686 E5.1542
G1 X97.314 Y123.075 E5.1882
G1 X98.094 Y123.075 E5.2366
G1 X97.772 Y122.753 E5.2648
G1 X98.553 Y122.753 E5.3131
G1 X98.875 Y123.075 E5.3414
G1 X99.655 Y123.075 E5.3897
G1 X99.333 Y122.753 E5.4180
G1 X100.114 Y122.753 E5.4663
G1 X100.436 Y123.075 E5.4946
G1 X101.217 Y123.075 E5.5429
G1 X100.895 Y122.753 E5.5711
G1 X101.675 Y122.753 E5.6195
G1 X101.997 Y123.075 E5.6477
G1 X102.778 Y123.075 E5.6961
G1 X102.456 Y122.753 E5.7243
G1 X103.237 Y122.753 E5.7727
G1 X103.559 Y123.075 E5.8009
G1 X104.339 Y123.075 E5.8493
G1 X104.017 Y122.753 E5.8775
G1 X104.798 Y122.753 E5.9259
G1 X105.120 Y123.075 E5.9541
G1 X105.901 Y123.075 E6.0025
G1 X105.579 Y122.753 E6.0307
G1 X106.359 Y122.753 E6.0791
G1 X106.681 Y123.075 E6.1073
G1 X107.462 Y123.075 E6.1557
G1 X107.140 Y122.753 E6.1839
G1 X107.921 Y122.753 E6.2322
G1 X108.243 Y123.075 E6.2605
G1 X109.023 Y123.075 E6.3088
G1 X108.701 Y122.753 E6.3371
G1 X109.482 Y122.753 E6.3854
G1 X109.804 Y123.075 E6.4137
G1 X110.585 Y123.075 E6.4620
G1 X110.262 Y122.753 E6.4902
G1 X111.043 Y122.753 E6.5386
G1 X111.365 Y123.075 E6.5668
G1 X112.146 Y123.075 E6.6152
G1 X111.824 Y122.753 E6.6434
G1 X112.604 Y122.753 E6.6918
G1 X112.926 Y123.075 E6.7200
G1 X113.707 Y123.075 E6.7684
G1 X113.385 Y122.753 E6.7966
G1 X114.166 Y122.753 E6.8450
G1 X114.488 Y123.075 E6.8732
G1 X115.268 Y123.075 E6.9216
G1 X114.946 Y122.753 E6.9498
G1 X115.727 Y122.753 E6.9982
G1 X116.049 Y123.075 E7.0264
G1 X116.830 Y123.075 E7.0748
G1 X116.508 Y122.753 E7.1030
G1 X117.288 Y122.753 E7.1514
G1 X117.610 Y123.075 E7.1796
G1 X118.391 Y123.075 E7.2279
G1 X118.069 Y122.753 E7.2562
G1 X118.850 Y122.753 E7.3045
G1 X119.172 Y123.075 E7.3328
G1 X119.952 Y123.075 E7.3811
G1 X119.630 Y122.753 E7.4093
G1 X120.411 Y122.753 E7.4577
G1 X120.733 Y123.075 E7.4859
G1 X121.514 Y123.075 E7.5343
G1 X121.192 Y122.753 E7.5625
G1 X121.972 Y122.753 E7.6109
G1 X122.294 Y123.075 E7.6391
G1 X123.075 Y123.075 E7.6875
G1 X122.753 Y122.753 E7.7157
G1 X122.753 Y121.972 E7.7641
G1 X123.075 Y122.294 E7.7923
G1 X123.075 Y121.514 E7.8407
G1 X122.753 Y121.191 E7.8689
G1 X122.753 Y120.411 E7.9173
G1 X123.075 Y120.733 E7.9455
G1 X123.075 Y119.952 E7.9939
G1 X122.753 Y119.630 E8.0221
G1 X122.753 Y118.850 E8.0705
G1 X123.075 Y119.172 E8.0987
G1 X123.075 Y118.391 E8.1470
G1 X122.753 Y118.069 E8.1753
G1 X122.753 Y117.288 E8.2236
G1 X123.075 Y117.610 E8.2519
G1 X123.075 Y116.830 E8.3002
G1 X122.753 Y116.508 E8.3285
G1 X122.753 Y115.727 E8.3768
G1 X123.075 Y116.049 E8.4050
G1 X123.075 Y115.268 E8.4534
G1 X122.753 Y114.946 E8.4816
G1 X122.753 Y114.166 E8.5300
G1 X123.075 Y114.488 E8.5582
G1 X123.075 Y113.707 E8.6066
G1 X122.753 Y113.385 E8.6348
G1 X122.753 Y112.604 E8.6832
G1 X123.075 Y112.926 E8.7114
G1 X123.075 Y112.146 E8.7598
G1 X122.753 Y111.824 E8.7880
G1 X122.753 Y111.043 E8.8364
G1 X123.075 Y111.365 E8.8646
G1 X123.075 Y110.584 E8.9130
G1 X122.753 Y110.262 E8.9412
G1 X122.753 Y109.482 E8.9896
G1 X123.075 Y109.804 E9.0178
G1 X123.075 Y109.023 E9.0662
G1 X122.753 Y108.701 E9.0944
G1 X122.753 Y107.921 E9.1427
G1 X123.075 Y108.243 E9.1710
G1 X123.075 Y107.462 E9.2193
G1 X122.753 Y107.140 E9.2476
G1 X122.753 Y106.359 E9.2959
G1 X123.075 Y106.681 E9.3241
G1 X123.075 Y105.901 E9.3725
G1 X122.753 Y105.579 E9.4007
G1 X122.753 Y104.798 E9.4491
G1 X123.075 Y105.120 E9.4773
G1 X123.075 Y104.339 E9.5257
G1 X122.753 Y104.017 E9.5539
G1 X122.753 Y103.237 E9.6023
G1 X123.075 Y103.559 E9.6305
G1 X123.075 Y102.778 E9.6789
G1 X122.753 Y102.456 E9.7071
G1 X122.753 Y101.675 E9.7555
G1 X123.075 Y101.997 E9.7837
G1 X123.075 Y101.217 E9.8321
G1 X122.753 Y100.895 E9.8603
G1 X122.753 Y100.114 E9.9087
G1 X123.075 Y100.436 E9.9369
G1 X123.075 Y99.655 E9.9853
G1 X122.753 Y99.333 E10.0135
G1 X122.753 Y98.553 E10.0618
G1 X123.075 Y98.875 E10.0901
G92 E0
G1 E-2.0000 F3000
; outer perimeter
G1 X119.724 Y100.276 F5200
G1 E0.0000 F3000
G92 E0
G1 X119.724 Y119.724 E1.2051 F792
G1 X100.276 Y119.724 E2.4101
G1 X100.276 Y100.276 E3.6152
G1 X119.724 Y100.276 E4.8203
G1 X119.724 Y105.276 F4400
; inner perimeter
G1 X119.172 Y100.828 F5200
G92 E0
G1 X119.172 Y119.172 E1.1367 F1056
G1 X100.828 Y119.172 E2.2733
G1 X100.828 Y100.828 E3.4100
G1 X119.172 Y100.828 E4.5466
G1 X118.620 Y101.380 F5200
G92 E0
G1 X118.620 Y118.620 E1.0683 F1056
G1 X101.380 Y118.620 E2.1365
G1 X101.380 Y101.380 E3.2048
G1 X118.620 Y101.380 E4.2730
G1 X118.068 Y101.932 F5200
G92 E0
G1 X118.068 Y118.068 E0.9998 F1056
G1 X101.932 Y118.068 E1.9997
G1 X101.932 Y101.932 E2.9995
G1 X118.068 Y101.932 E3.9994
; outer perimeter
G1 X116.026 Y103.974 F5200
G92 E0
G1 X103.974 Y103.974 E0.7468 F792
G1 X103.974 Y116.026 E1.4936
G1 X116.026 Y116.026 E2.2404
G1 X116.026 Y103.974 E2.9871
G1 X111.026 Y103.974 F4400
; inner perimeter
G1 X116.578 Y103.422 F5200
G92 E0
G1 X103.422 Y103.422 E0.8152 F1056
G1 X103.422 Y116.578 E1.6304
G1 X116.578 Y116.578 E2.4456
G1 X116.578 Y103.422 E3.2608
G1 X117.130 Y102.870 F5200
G92 E0
G1 X102.870 Y102.870 E0.8836 F1056
G1 X102.870 Y117.130 E1.7672
