; G-Code generated by Simplify3D(R) Version 4.0.0
; Feb 6, 2019 at 2:03:29 PM
; Settings Summary
;   processName,Process1
;   applyToModels,tophat
;   profileName,Flyingbear p902 (modified)
;   profileVersion,2017-02-06 00:22:54
;   baseProfile,Default
;   printMaterial,PLA
;   printQuality,Medium
;   printExtruders,
;   extruderName,Extruder 1
;   extruderToolheadNumber,0
;   extruderDiameter,0.4
;   extruderAutoWidth,1
;   extruderWidth,0.48
;   extrusionMultiplier,1
;   extruderUseRetract,1
;   extruderRetractionDistance,1
;   extruderExtraRestartDistance,0
;   extruderRetractionZLift,0
;   extruderRetractionSpeed,3400
;   extruderUseCoasting,0
;   extruderCoastingDistance,0.2
;   extruderUseWipe,0
;   extruderWipeDistance,5
;   primaryExtruder,0
;   layerHeight,0.3
;   topSolidLayers,3
;   bottomSolidLayers,2
;   perimeterOutlines,2
;   printPerimetersInsideOut,0
;   startPointOption,2
;   startPointOriginX,0
;   startPointOriginY,0
;   sequentialIslands,0
;   spiralVaseMode,0
;   firstLayerHeightPercentage,100
;   firstLayerWidthPercentage,100
;   firstLayerUnderspeed,0.5
;   useRaft,0
;   raftExtruder,0
;   raftTopLayers,3
;   raftBaseLayers,1
;   raftOffset,2
;   raftSeparationDistance,0.2
;   raftTopInfill,100
;   aboveRaftSpeedMultiplier,0.3
;   useSkirt,0
;   skirtExtruder,0
;   skirtLayers,1
;   skirtOutlines,2
;   skirtOffset,4
;   usePrimePillar,0
;   primePillarExtruder,999
;   primePillarWidth,12
;   primePillarLocation,7
;   primePillarSpeedMultiplier,1
;   useOozeShield,0
;   oozeShieldExtruder,999
;   oozeShieldOffset,2
;   oozeShieldOutlines,1
;   oozeShieldSidewallShape,1
;   oozeShieldSidewallAngle,30
;   oozeShieldSpeedMultiplier,1
;   infillExtruder,0
;   internalInfillPattern,Rectilinear
;   externalInfillPattern,Rectilinear
;   infillPercentage,10
;   outlineOverlapPercentage,15
;   infillExtrusionWidthPercentage,100
;   minInfillLength,5
;   infillLayerInterval,1
;   internalInfillAngles,45,-45
;   overlapInternalInfillAngles,0
;   externalInfillAngles,45,-45
;   generateSupport,1
;   supportExtruder,0
;   supportInfillPercentage,15
;   supportExtraInflation,0.5
;   supportBaseLayers,0
;   denseSupportExtruder,0
;   denseSupportLayers,0
;   denseSupportInfillPercentage,70
;   supportLayerInterval,1
;   supportHorizontalPartOffset,0.3
;   supportUpperSeparationLayers,1
;   supportLowerSeparationLayers,1
;   supportType,1
;   supportGridSpacing,1
;   maxOverhangAngle,60
;   supportAngles,0
;   temperatureName,Extruder 1,Heated Bed
;   temperatureNumber,0,0
;   temperatureSetpointCount,1,1
;   temperatureSetpointLayers,1,1
;   temperatureSetpointTemperatures,210,60
;   temperatureStabilizeAtStartup,1,1
;   temperatureHeatedBed,0,1
;   temperatureRelayBetweenLayers,0,0
;   temperatureRelayBetweenLoops,0,0
;   fanLayers,1,2
;   fanSpeeds,0,100
;   blipFanToFullPower,0
;   adjustSpeedForCooling,1
;   minSpeedLayerTime,15
;   minCoolingSpeedSlowdown,20
;   increaseFanForCooling,0
;   minFanLayerTime,45
;   maxCoolingFanSpeed,100
;   increaseFanForBridging,1
;   bridgingFanSpeed,100
;   use5D,1
;   relativeEdistances,0
;   allowEaxisZeroing,1
;   independentExtruderAxes,0
;   includeM10123,0
;   stickySupport,1
;   applyToolheadOffsets,0
;   gcodeXoffset,0
;   gcodeYoffset,0
;   gcodeZoffset,0
;   overrideMachineDefinition,1
;   machineTypeOverride,0
;   strokeXoverride,220
;   strokeYoverride,220
;   strokeZoverride,280
;   originOffsetXoverride,0
;   originOffsetYoverride,0
;   originOffsetZoverride,0
;   homeXdirOverride,-1
;   homeYdirOverride,-1
;   homeZdirOverride,-1
;   flipXoverride,1
;   flipYoverride,-1
;   flipZoverride,1
;   toolheadOffsets,0,0|0,0|0,0|0,0|0,0|0,0
;   overrideFirmwareConfiguration,1
;   firmwareTypeOverride,RepRap (Marlin/Repetier/Sprinter)
;   GPXconfigOverride,r2
;   baudRateOverride,250000
;   overridePrinterModels,0
;   printerModelsOverride
;   startingGcode,G28 ; home all axes,G1 X0 Y5 Z0.2 F3000 ; get ready to prime,G92 E0 ; reset extrusion distance,G1 X200 E20 F600 ; prime nozzle
;   layerChangeGcode,
;   retractionGcode,
;   toolChangeGcode,
;   endingGcode,M104 S0 ; turn off extruder,M140 S0 ; turn off bed,G91 ; use relative coordinates,G1 Z0.6 F5000 ; lift nozzle by 0.6mm,G90 ; use absolute coordinates,G28 X0 ; home X axis,G28 Y0 ; home X axis,M84 ; disable motors,M107 ; turn off fan
;   exportFileFormat,gcode
;   celebration,0
;   celebrationSong,Random Song
;   postProcessing,
;   defaultSpeed,4400
;   outlineUnderspeed,0.9
;   solidInfillUnderspeed,1
;   supportUnderspeed,0.8
;   rapidXYspeed,4200
;   rapidZspeed,1002
;   minBridgingArea,50
;   bridgingExtraInflation,0
;   bridgingExtrusionMultiplier,1
;   bridgingSpeedMultiplier,1
;   useFixedBridgingAngle,0
;   fixedBridgingAngle,0
;   applyBridgingToPerimeters,0
;   filamentDiameters,1.75|1.75|1.75|1.75|1.75|1.75
;   filamentPricesPerKg,46|46|46|46|46|46
;   filamentDensities,1.25|1.25|1.25|1.25|1.25|1.25
;   useMinPrintHeight,0
;   minPrintHeight,0
;   useMaxPrintHeight,0
;   maxPrintHeight,0
;   useDiaphragm,0
;   diaphragmLayerInterval,20
;   robustSlicing,1
;   mergeAllIntoSolid,0
;   onlyRetractWhenCrossingOutline,1
;   retractBetweenLayers,1
;   useRetractionMinTravel,0
;   retractionMinTravel,3
;   retractWhileWiping,0
;   onlyWipeOutlines,1
;   avoidCrossingOutline,0
;   maxMovementDetourFactor,3
;   toolChangeRetractionDistance,12
;   toolChangeExtraRestartDistance,-0.5
;   toolChangeRetractionSpeed,600
;   externalThinWallType,1
;   internalThinWallType,1
;   thinWallAllowedOverlapPercentage,10
;   singleExtrusionMinLength,1
;   singleExtrusionMinPrintingWidthPercentage,50
;   singleExtrusionMaxPrintingWidthPercentage,200
;   singleExtrusionEndpointExtension,0.2
;   horizontalSizeCompensation,0
G90
M82
M106 S0
M140 S60
M190 S60
M104 S210 T0
M109 S210 T0
G28 ; home all axes
G1 X0 Y5 Z0.2 F3000 ; get ready to prime
G92 E0 ; reset extrusion distance
G1 X200 E20 F600 ; prime nozzle
G92 E0
G1 E-1.0000 F3400
G1 Z0.300 F1002
; process Process1
; layer 1, Z = 0.300
T0
; tool H0.300 W0.480
; outer perimeter
G1 X94.604 Y90.766 F4200
G1 E0.0000 F1020
G92 E0
G1 X95.130 Y90.249 E0.0442 F1980
G1 X95.802 Y89.634 E0.0987
G1 X96.639 Y88.935 E0.1640
G1 X97.088 Y88.589 E0.1979
G1 X97.893 Y88.013 E0.2572
G1 X98.782 Y87.443 E0.3204
G1 X99.809 Y86.858 E0.3912
G1 X100.456 Y86.528 E0.4347
G1 X100.967 Y86.291 E0.4684
G1 X101.657 Y85.996 E0.5133
G1 X102.963 Y85.520 E0.5965
G1 X103.869 Y85.252 E0.6531
G1 X105.082 Y84.958 E0.7278
G1 X106.305 Y84.744 E0.8021
G1 X107.270 Y84.630 E0.8603
G1 X108.494 Y84.559 E0.9337
G1 X109.342 Y84.557 E0.9845
G1 X110.624 Y84.619 E1.0613
G1 X111.921 Y84.766 E1.1395
G1 X113.166 Y84.987 E1.2152
G1 X114.487 Y85.311 E1.2966
G1 X115.690 Y85.684 E1.3720
G1 X116.550 Y86.002 E1.4269
G1 X116.955 Y86.167 E1.4531
G1 X117.842 Y86.563 E1.5112
G1 X119.021 Y87.165 E1.5905
G1 X119.877 Y87.660 E1.6497
G1 X120.740 Y88.209 E1.7109
G1 X121.565 Y88.788 E1.7713
G1 X121.985 Y89.103 E1.8027
G1 X122.897 Y89.839 E1.8728
G1 X123.693 Y90.541 E1.9364
G1 X124.115 Y90.939 E1.9711
G1 X124.531 Y91.347 E2.0060
G1 X125.152 Y92.001 E2.0600
G1 X125.880 Y92.829 E2.1260
G1 X126.617 Y93.741 E2.1962
G1 X126.973 Y94.210 E2.2315
G1 X127.439 Y94.865 E2.2796
G1 X128.106 Y95.880 E2.3523
G1 X128.796 Y97.045 E2.4334
G1 X129.260 Y97.906 E2.4919
G1 X129.470 Y98.329 E2.5202
G1 X130.068 Y99.613 E2.6050
G1 X130.497 Y100.664 E2.6729
G1 X130.881 Y101.716 E2.7400
G1 X131.337 Y103.163 E2.8308
G1 X131.663 Y104.392 E2.9070
G1 X131.917 Y105.551 E2.9780
G1 X132.151 Y106.887 E3.0592
G1 X132.314 Y108.135 E3.1346
G1 X132.424 Y109.402 E3.2107
G1 X132.479 Y110.680 E3.2872
G1 X132.478 Y111.960 E3.3639
G1 X132.420 Y113.236 E3.4404
G1 X132.308 Y114.497 E3.5161
G1 X132.145 Y115.722 E3.5902
G1 X131.825 Y117.426 E3.6939
G1 X131.541 Y118.598 E3.7661
G1 X131.244 Y119.630 E3.8304
G1 X130.828 Y120.876 E3.9091
G1 X130.397 Y121.986 E3.9804
G1 X129.937 Y123.034 E4.0489
G1 X129.509 Y123.904 E4.1069
G1 X128.985 Y124.853 E4.1718
G1 X128.682 Y125.374 E4.2079
G1 X128.335 Y125.931 E4.2472
G1 X127.637 Y126.964 E4.3218
G1 X126.972 Y127.844 E4.3879
G1 X126.370 Y128.568 E4.4442
G1 X125.976 Y129.013 E4.4798
G1 X125.414 Y129.611 E4.5289
G1 X124.719 Y130.295 E4.5873
G1 X124.273 Y130.708 E4.6237
G1 X123.640 Y131.255 E4.6738
G1 X122.991 Y131.775 E4.7236
G1 X122.096 Y132.428 E4.7899
G1 X121.254 Y132.961 E4.8496
G1 X120.316 Y133.508 E4.9146
G1 X119.548 Y133.911 E4.9665
G1 X118.315 Y134.462 E5.0474
G1 X117.031 Y134.939 E5.1294
G1 X116.102 Y135.222 E5.1875
G1 X114.898 Y135.508 E5.2616
G1 X114.481 Y135.587 E5.2870
G1 X113.569 Y135.732 E5.3423
G1 X112.530 Y135.844 E5.4049
G1 X111.445 Y135.902 E5.4699
G1 X110.177 Y135.899 E5.5458
G1 X109.321 Y135.850 E5.5971
G1 X108.529 Y135.778 E5.6448
G1 X107.793 Y135.675 E5.6893
G1 X106.066 Y135.341 E5.7946
G1 X105.571 Y135.208 E5.8253
G1 X105.139 Y135.061 E5.8526
G1 X104.770 Y134.964 E5.8754
G1 X104.268 Y134.806 E5.9069
G1 X103.294 Y134.454 E5.9689
G1 X102.164 Y133.968 E6.0426
G1 X101.024 Y133.394 E6.1190
G1 X100.068 Y132.846 E6.1849
G1 X99.205 Y132.305 E6.2459
G1 X98.178 Y131.578 E6.3213
G1 X97.488 Y131.045 E6.3735
G1 X96.852 Y130.514 E6.4231
G1 X95.519 Y129.268 E6.5323
G1 X94.934 Y128.675 E6.5821
G1 X94.523 Y128.230 E6.6184
G1 X93.782 Y127.362 E6.6867
G1 X93.042 Y126.411 E6.7589
G1 X92.434 Y125.578 E6.8206
G1 X91.765 Y124.556 E6.8938
G1 X91.208 Y123.619 E6.9590
G1 X90.596 Y122.491 E7.0358
G1 X90.129 Y121.533 E7.0997
G1 X89.674 Y120.497 E7.1674
G1 X89.187 Y119.246 E7.2478
G1 X88.858 Y118.292 E7.3082
G1 X88.481 Y117.034 E7.3868
G1 X88.174 Y115.813 E7.4622
G1 X87.979 Y114.888 E7.5188
G1 X87.761 Y113.638 E7.5948
G1 X87.597 Y112.388 E7.6702
G1 X87.487 Y111.112 E7.7469
G1 X87.434 Y109.811 E7.8248
G1 X87.429 Y108.956 E7.8760
G1 X87.464 Y107.736 E7.9491
G1 X87.475 Y107.549 E7.9603
G1 X87.559 Y106.457 E8.0259
G1 X87.626 Y105.811 E8.0648
G1 X87.783 Y104.674 E8.1335
G1 X87.999 Y103.490 E8.2055
G1 X88.302 Y102.159 E8.2873
G1 X88.677 Y100.834 E8.3697
G1 X89.079 Y99.632 E8.4456
G1 X89.549 Y98.426 E8.5231
G1 X89.983 Y97.447 E8.5872
G1 X90.544 Y96.317 E8.6627
G1 X91.055 Y95.413 E8.7249
G1 X91.615 Y94.501 E8.7889
G1 X91.893 Y94.081 E8.8191
G1 X92.461 Y93.278 E8.8780
G1 X93.214 Y92.311 E8.9514
G1 X93.688 Y91.753 E8.9952
G1 X94.129 Y91.265 E9.0346
G1 X94.604 Y90.766 E9.0758
; inner perimeter
G1 X94.946 Y91.103 F4200
G92 E0
G1 X95.461 Y90.597 E0.0432 F2090
G1 X96.119 Y89.995 E0.0966
G1 X96.939 Y89.309 E0.1606
G1 X97.374 Y88.974 E0.1935
G1 X98.162 Y88.411 E0.2515
G1 X99.031 Y87.854 E0.3132
G1 X100.037 Y87.281 E0.3826
G1 X100.667 Y86.960 E0.4249
G1 X101.163 Y86.729 E0.4577
G1 X101.833 Y86.443 E0.5013
G1 X103.114 Y85.976 E0.5829
G1 X103.994 Y85.716 E0.6378
G1 X105.180 Y85.429 E0.7109
G1 X106.375 Y85.219 E0.7835
G1 X107.312 Y85.108 E0.8400
G1 X108.509 Y85.039 E0.9118
G1 X109.331 Y85.037 E0.9610
G1 X110.586 Y85.098 E1.0362
G1 X111.852 Y85.241 E1.1125
G1 X113.067 Y85.457 E1.1864
G1 X114.358 Y85.773 E1.2660
G1 X115.535 Y86.139 E1.3398
G1 X116.376 Y86.449 E1.3934
G1 X116.766 Y86.609 E1.4187
G1 X117.635 Y86.997 E1.4756
G1 X118.791 Y87.587 E1.5534
G1 X119.628 Y88.070 E1.6112
G1 X120.473 Y88.609 E1.6712
G1 X121.283 Y89.177 E1.7304
G1 X121.690 Y89.482 E1.7609
G1 X122.587 Y90.206 E1.8299
G1 X123.370 Y90.895 E1.8923
G1 X123.781 Y91.285 E1.9263
G1 X124.189 Y91.684 E1.9604
G1 X124.798 Y92.325 E2.0134
G1 X125.513 Y93.138 E2.0782
G1 X126.239 Y94.037 E2.1474
G1 X126.585 Y94.494 E2.1817
G1 X127.043 Y95.136 E2.2289
G1 X127.699 Y96.134 E2.3004
G1 X128.378 Y97.281 E2.3802
G1 X128.833 Y98.127 E2.4377
G1 X129.037 Y98.538 E2.4652
G1 X129.628 Y99.805 E2.5489
G1 X130.050 Y100.837 E2.6156
G1 X130.426 Y101.870 E2.6814
G1 X130.876 Y103.297 E2.7710
G1 X131.197 Y104.505 E2.8458
G1 X131.445 Y105.644 E2.9156
G1 X131.676 Y106.960 E2.9956
G1 X131.837 Y108.188 E3.0697
G1 X131.945 Y109.433 E3.1446
G1 X131.999 Y110.690 E3.2199
G1 X131.998 Y111.949 E3.2953
G1 X131.941 Y113.204 E3.3705
G1 X131.831 Y114.443 E3.4450
G1 X131.670 Y115.647 E3.5177
G1 X131.356 Y117.325 E3.6199
G1 X131.077 Y118.475 E3.6907
G1 X130.786 Y119.487 E3.7538
G1 X130.377 Y120.713 E3.8311
G1 X129.953 Y121.803 E3.9012
G1 X129.502 Y122.832 E3.9684
G1 X129.083 Y123.682 E4.0252
G1 X128.568 Y124.616 E4.0890
G1 X128.271 Y125.127 E4.1244
G1 X127.932 Y125.670 E4.1627
G1 X127.246 Y126.685 E4.2361
G1 X126.595 Y127.546 E4.3007
G1 X126.006 Y128.255 E4.3559
G1 X125.621 Y128.690 E4.3907
G1 X125.071 Y129.275 E4.4387
G1 X124.387 Y129.948 E4.4962
G1 X123.953 Y130.350 E4.5316
G1 X123.333 Y130.886 E4.5807
G1 X122.700 Y131.393 E4.6292
G1 X121.826 Y132.031 E4.6940
G1 X121.004 Y132.551 E4.7522
G1 X120.084 Y133.088 E4.8160
G1 X119.338 Y133.479 E4.8664
G1 X118.134 Y134.018 E4.9454
G1 X116.877 Y134.484 E5.0256
G1 X115.976 Y134.758 E5.0820
G1 X114.798 Y135.039 E5.1546
G1 X114.399 Y135.114 E5.1788
G1 X113.505 Y135.256 E5.2330
G1 X112.491 Y135.366 E5.2941
G1 X111.433 Y135.422 E5.3575
G1 X110.192 Y135.419 E5.4318
G1 X109.357 Y135.371 E5.4819
G1 X108.584 Y135.301 E5.5284
G1 X107.872 Y135.201 E5.5714
G1 X106.173 Y134.873 E5.6750
G1 X105.710 Y134.749 E5.7037
G1 X105.278 Y134.601 E5.7310
G1 X104.903 Y134.503 E5.7542
G1 X104.422 Y134.351 E5.7845
G1 X103.470 Y134.008 E5.8450
G1 X102.367 Y133.533 E5.9169
G1 X101.251 Y132.971 E5.9917
G1 X100.315 Y132.434 E6.0563
G1 X99.472 Y131.905 E6.1159
G1 X98.463 Y131.191 E6.1899
G1 X97.789 Y130.671 E6.2409
G1 X97.169 Y130.154 E6.2892
G1 X95.854 Y128.924 E6.3970
G1 X95.282 Y128.344 E6.4458
G1 X94.882 Y127.911 E6.4811
G1 X94.154 Y127.059 E6.5481
G1 X93.426 Y126.122 E6.6192
G1 X92.829 Y125.305 E6.6798
G1 X92.172 Y124.302 E6.7516
G1 X91.626 Y123.381 E6.8156
G1 X91.023 Y122.272 E6.8913
G1 X90.565 Y121.331 E6.9539
G1 X90.117 Y120.313 E7.0205
G1 X89.637 Y119.080 E7.0997
G1 X89.315 Y118.144 E7.1589
G1 X88.944 Y116.907 E7.2363
G1 X88.642 Y115.705 E7.3105
G1 X88.451 Y114.797 E7.3660
G1 X88.235 Y113.566 E7.4409
G1 X88.075 Y112.336 E7.5151
G1 X87.966 Y111.081 E7.5905
G1 X87.914 Y109.800 E7.6673
G1 X87.909 Y108.962 E7.7174
G1 X87.944 Y107.757 E7.7896
G1 X87.954 Y107.580 E7.8002
G1 X88.037 Y106.501 E7.8650
G1 X88.103 Y105.868 E7.9031
G1 X88.257 Y104.750 E7.9707
G1 X88.469 Y103.586 E8.0415
G1 X88.768 Y102.278 E8.1218
G1 X89.136 Y100.975 E8.2029
G1 X89.530 Y99.795 E8.2774
G1 X89.992 Y98.611 E8.3535
G1 X90.418 Y97.652 E8.4163
G1 X90.969 Y96.542 E8.4905
G1 X91.468 Y95.657 E8.5513
G1 X92.020 Y94.759 E8.6144
G1 X92.289 Y94.352 E8.6436
G1 X92.847 Y93.564 E8.7014
G1 X93.586 Y92.615 E8.7735
G1 X94.049 Y92.069 E8.8163
G1 X94.481 Y91.591 E8.8549
G1 X94.946 Y91.103 E8.8952
; solid layer
G1 X123.218 Y91.313 F4200
G92 E0
G1 X124.333 Y92.428 E0.0944 F2200
G1 X124.497 Y92.601 E0.1086
G1 X125.201 Y93.401 E0.1725
G1 X125.917 Y94.288 E0.2407
G1 X126.257 Y94.737 E0.2744
G1 X126.706 Y95.366 E0.3207
G1 X126.924 Y95.698 E0.3445
G1 X120.047 Y88.821 E0.9268
G1 X119.417 Y88.419 E0.9715
G1 X118.596 Y87.945 E1.0282
G1 X118.384 Y87.837 E1.0425
G1 X128.013 Y97.466 E1.8578
G1 X128.023 Y97.482 E1.8589
G1 X128.471 Y98.314 E1.9155
G1 X128.670 Y98.714 E1.9422
G1 X128.746 Y98.878 E1.9530
G1 X117.051 Y87.183 E2.9432
G1 X116.606 Y86.984 E2.9724
G1 X116.228 Y86.830 E2.9968
G1 X115.897 Y86.708 E3.0179
G1 X129.320 Y100.131 E4.1544
G1 X129.669 Y100.984 E4.2096
G1 X129.769 Y101.258 E4.2271
G1 X114.870 Y86.360 E5.4885
G1 X114.249 Y86.167 E5.5275
G1 X113.917 Y86.085 E5.5479
G1 X130.134 Y102.303 E6.9210
G1 X130.447 Y103.294 E6.9832
G1 X113.018 Y85.865 E8.4589
G1 X112.983 Y85.856 E8.4610
G1 X112.190 Y85.716 E8.5093
G1 X130.700 Y104.226 E10.0765
G1 X130.800 Y104.601 E10.0997
G1 X130.913 Y105.117 E10.1314
G1 X111.396 Y85.600 E11.7838
G1 X110.630 Y85.513 E11.8300
G1 X131.089 Y105.972 E13.5622
G1 X131.234 Y106.796 E13.6122
G1 X109.911 Y85.474 E15.4175
G1 X109.322 Y85.445 E15.4529
G1 X109.204 Y85.446 E15.4599
G1 X131.347 Y107.588 E17.3346
G1 X131.431 Y108.232 E17.3735
G1 X131.442 Y108.362 E17.3813
G1 X108.527 Y85.447 E19.3214
G1 X108.521 Y85.447 E19.3218
G1 X107.885 Y85.484 E19.3599
G1 X131.507 Y109.106 E21.3599
G1 X131.538 Y109.460 E21.3812
G1 X131.554 Y109.831 E21.4035
G1 X107.249 Y85.526 E23.4613
G1 X106.642 Y85.598 E23.4979
G1 X131.584 Y110.540 E25.6096
