; G-Code generated by Simplify3D(R) Version 4.0.0
; Jan 29, 2021 at 7:40:27 PM
; Settings Summary
;   processName,Process1
;   applyToModels,trapezmildestek
;   profileName,def (modified)
;   profileVersion,2020-09-07 14:01:24
;   baseProfile,Default (modified)
;   printMaterial,PLA
;   printQuality,Medium
;   printExtruders,
;   extruderName,Primary Extruder
;   extruderToolheadNumber,0
;   extruderDiameter,0.4
;   extruderAutoWidth,0
;   extruderWidth,0.4
;   extrusionMultiplier,0.9
;   extruderUseRetract,1
;   extruderRetractionDistance,1
;   extruderExtraRestartDistance,0
;   extruderRetractionZLift,0
;   extruderRetractionSpeed,1800
;   extruderUseCoasting,0
;   extruderCoastingDistance,0.2
;   extruderUseWipe,0
;   extruderWipeDistance,5
;   primaryExtruder,0
;   layerHeight,0.2
;   topSolidLayers,3
;   bottomSolidLayers,3
;   perimeterOutlines,2
;   printPerimetersInsideOut,1
;   startPointOption,2
;   startPointOriginX,0
;   startPointOriginY,0
;   sequentialIslands,0
;   spiralVaseMode,0
;   firstLayerHeightPercentage,90
;   firstLayerWidthPercentage,103
;   firstLayerUnderspeed,0.3
;   useRaft,0
;   raftExtruder,0
;   raftTopLayers,2
;   raftBaseLayers,2
;   raftOffset,1.4
;   raftSeparationDistance,0.14
;   raftTopInfill,100
;   aboveRaftSpeedMultiplier,0.3
;   useSkirt,0
;   skirtExtruder,0
;   skirtLayers,1
;   skirtOutlines,2
;   skirtOffset,4
;   usePrimePillar,0
;   primePillarExtruder,999
;   primePillarWidth,12
;   primePillarLocation,7
;   primePillarSpeedMultiplier,1
;   useOozeShield,0
;   oozeShieldExtruder,999
;   oozeShieldOffset,2
;   oozeShieldOutlines,1
;   oozeShieldSidewallShape,1
;   oozeShieldSidewallAngle,30
;   oozeShieldSpeedMultiplier,1
;   infillExtruder,0
;   internalInfillPattern,Rectilinear
;   externalInfillPattern,Rectilinear
;   infillPercentage,30
;   outlineOverlapPercentage,15
;   infillExtrusionWidthPercentage,100
;   minInfillLength,5
;   infillLayerInterval,1
;   internalInfillAngles,45,-45
;   overlapInternalInfillAngles,0
;   externalInfillAngles,45,-45
;   generateSupport,1
;   supportExtruder,0
;   supportInfillPercentage,30
;   supportExtraInflation,0
;   supportBaseLayers,0
;   denseSupportExtruder,0
;   denseSupportLayers,0
;   denseSupportInfillPercentage,70
;   supportLayerInterval,1
;   supportHorizontalPartOffset,0.2
;   supportUpperSeparationLayers,1
;   supportLowerSeparationLayers,1
;   supportType,0
;   supportGridSpacing,4
;   maxOverhangAngle,45
;   supportAngles,0
;   temperatureName,Primary Extruder,Hot Bed
;   temperatureNumber,0,1
;   temperatureSetpointCount,1,1
;   temperatureSetpointLayers,1,1
;   temperatureSetpointTemperatures,210,60
;   temperatureStabilizeAtStartup,1,0
;   temperatureHeatedBed,0,1
;   temperatureRelayBetweenLayers,0,0
;   temperatureRelayBetweenLoops,0,0
;   fanLayers,1,2
;   fanSpeeds,0,100
;   blipFanToFullPower,0
;   adjustSpeedForCooling,1
;   minSpeedLayerTime,15
;   minCoolingSpeedSlowdown,20
;   increaseFanForCooling,0
;   minFanLayerTime,45
;   maxCoolingFanSpeed,100
;   increaseFanForBridging,0
;   bridgingFanSpeed,100
;   use5D,1
;   relativeEdistances,0
;   allowEaxisZeroing,1
;   independentExtruderAxes,0
;   includeM10123,0
;   stickySupport,1
;   applyToolheadOffsets,0
;   gcodeXoffset,-0.09
;   gcodeYoffset,-0.03
;   gcodeZoffset,0
;   overrideMachineDefinition,0
;   machineTypeOverride,0
;   strokeXoverride,200
;   strokeYoverride,200
;   strokeZoverride,200
;   originOffsetXoverride,0
;   originOffsetYoverride,0
;   originOffsetZoverride,0
;   homeXdirOverride,-1
;   homeYdirOverride,-1
;   homeZdirOverride,-1
;   flipXoverride,1
;   flipYoverride,-1
;   flipZoverride,1
;   toolheadOffsets,0,0|0,0|0,0|0,0|0,0|0,0
;   overrideFirmwareConfiguration,0
;   firmwareTypeOverride,RepRap (Marlin/Repetier/Sprinter)
;   GPXconfigOverride,r2
;   baudRateOverride,115200
;   overridePrinterModels,0
;   printerModelsOverride
;   startingGcode,G28 ; home all axes,G1 X2 Y2 Z0.2 F3000 ; get ready to prime,G92 E0 ; reset extrusion distance,G1 Y150 E20 F600 ; prime nozzle
;   layerChangeGcode,
;   retractionGcode,
;   toolChangeGcode,
;   endingGcode,M104 S0 ; turn off extruder,M140 S0 ; turn off bedG1 X0 Y0; home,M84 ; disable motors,M107 ; fan off,G28 X Y; Home,M18; Disable steppers
;   exportFileFormat,gcode
;   celebration,0
;   celebrationSong,Random Song
;   postProcessing,
;   defaultSpeed,4600
;   outlineUnderspeed,0.5
;   solidInfillUnderspeed,0.8
;   supportUnderspeed,0.8
;   rapidXYspeed,4600
;   rapidZspeed,1000
;   minBridgingArea,50
;   bridgingExtraInflation,0
;   bridgingExtrusionMultiplier,1
;   bridgingSpeedMultiplier,1
;   useFixedBridgingAngle,0
;   fixedBridgingAngle,0
;   applyBridgingToPerimeters,0
;   filamentDiameters,1.75|1.75|1.75|1.75|1.75|1.75
;   filamentPricesPerKg,46|46|46|46|46|46
;   filamentDensities,1.25|1.25|1.25|1.25|1.25|1.25
;   useMinPrintHeight,0
;   minPrintHeight,0
;   useMaxPrintHeight,0
;   maxPrintHeight,0.6
;   useDiaphragm,0
;   diaphragmLayerInterval,20
;   robustSlicing,1
;   mergeAllIntoSolid,0
;   onlyRetractWhenCrossingOutline,1
;   retractBetweenLayers,1
;   useRetractionMinTravel,0
;   retractionMinTravel,3
;   retractWhileWiping,0
;   onlyWipeOutlines,1
;   avoidCrossingOutline,0
;   maxMovementDetourFactor,3
;   toolChangeRetractionDistance,12
;   toolChangeExtraRestartDistance,-0.5
;   toolChangeRetractionSpeed,600
;   externalThinWallType,1
;   internalThinWallType,1
;   thinWallAllowedOverlapPercentage,8
;   singleExtrusionMinLength,1
;   singleExtrusionMinPrintingWidthPercentage,50
;   singleExtrusionMaxPrintingWidthPercentage,200
;   singleExtrusionEndpointExtension,0.2
;   horizontalSizeCompensation,0
G90
M82
M106 S0
M140 S60
M104 S210 T0
M109 S210 T0
G28 ; home all axes
G1 X2 Y2 Z0.2 F3000 ; get ready to prime
G92 E0 ; reset extrusion distance
G1 Y150 E20 F600 ; prime nozzle
G92 E0
G1 E-1.0000 F1800
G1 Z0.180 F1000
; process Process1
; layer 1, Z = 0.180
T0
; tool H0.200 W0.412
; inner perimeter
G1 X134.258 Y55.183 F4600
G1 E0.0000 F540
G92 E0
G1 X150.962 Y55.174 E0.5150 F1035
G1 X150.962 Y59.766 E0.6566
G1 X134.258 Y59.765 E1.1716
G1 X134.258 Y55.183 E1.3129
; outer perimeter
G1 X133.846 Y54.984 F4600
G92 E0
G1 X133.856 Y54.934 E0.0016 F690
G1 X133.909 Y54.843 E0.0048
G1 X133.960 Y54.798 E0.0069
G1 X134.026 Y54.771 E0.0091
G1 X151.136 Y54.762 E0.5367
G1 X151.243 Y54.781 E0.5400
G1 X151.310 Y54.842 E0.5428
G1 X151.374 Y54.954 E0.5467
G1 X151.374 Y59.945 E0.7006
G1 X151.350 Y60.042 E0.7037
G1 X151.315 Y60.093 E0.7056
G1 X151.241 Y60.160 E0.7087
G1 X151.131 Y60.178 E0.7121
G1 X134.081 Y60.177 E1.2378
G1 X134.009 Y60.165 E1.2401
G1 X133.927 Y60.114 E1.2431
G1 X133.846 Y60.006 E1.2472
G1 X133.846 Y54.984 E1.4021
; solid layer
G1 X134.608 Y59.154 F4600
G92 E0
G1 X134.870 Y59.415 E0.0114 F1104
G1 X135.452 Y59.415 E0.0294
G1 X134.608 Y58.571 E0.0662
G1 X134.608 Y57.989 E0.0841
G1 X136.035 Y59.415 E0.1463
G1 X136.618 Y59.415 E0.1643
G1 X134.608 Y57.406 E0.2519
G1 X134.608 Y56.823 E0.2699
G1 X137.200 Y59.415 E0.3829
G1 X137.783 Y59.415 E0.4009
G1 X134.608 Y56.241 E0.5393
G1 X134.608 Y55.658 E0.5573
G1 X138.366 Y59.415 E0.7211
G1 X138.948 Y59.415 E0.7391
G1 X135.065 Y55.532 E0.9084
G1 X135.648 Y55.532 E0.9263
G1 X139.531 Y59.415 E1.0956
G1 X140.114 Y59.415 E1.1136
G1 X136.230 Y55.532 E1.2829
G1 X136.813 Y55.532 E1.3009
G1 X140.696 Y59.415 E1.4702
G1 X141.279 Y59.415 E1.4882
G1 X137.395 Y55.531 E1.6576
G1 X137.977 Y55.531 E1.6755
G1 X141.862 Y59.415 E1.8449
G1 X142.444 Y59.415 E1.8629
G1 X138.560 Y55.531 E2.0322
G1 X139.142 Y55.530 E2.0502
G1 X143.027 Y59.415 E2.2196
G1 X143.610 Y59.415 E2.2376
G1 X139.724 Y55.530 E2.4070
G1 X140.307 Y55.530 E2.4249
G1 X144.192 Y59.415 E2.5944
G1 X144.775 Y59.415 E2.6123
G1 X140.889 Y55.530 E2.7818
G1 X141.471 Y55.529 E2.7997
G1 X145.358 Y59.416 E2.9692
G1 X145.940 Y59.416 E2.9871
G1 X142.054 Y55.529 E3.1566
G1 X142.636 Y55.529 E3.1746
G1 X146.523 Y59.416 E3.3440
G1 X147.106 Y59.416 E3.3620
G1 X143.219 Y55.528 E3.5315
G1 X143.801 Y55.528 E3.5494
G1 X147.688 Y59.416 E3.7189
G1 X148.271 Y59.416 E3.7369
G1 X144.383 Y55.528 E3.9064
G1 X144.966 Y55.528 E3.9244
G1 X148.854 Y59.416 E4.0939
G1 X149.436 Y59.416 E4.1119
G1 X145.548 Y55.527 E4.2814
G1 X146.130 Y55.527 E4.2994
G1 X150.019 Y59.416 E4.4690
G1 X150.602 Y59.416 E4.4869
G1 X146.713 Y55.527 E4.6565
G1 X147.295 Y55.526 E4.6744
G1 X150.612 Y58.843 E4.8191
G1 X150.612 Y58.260 E4.8370
G1 X147.877 Y55.526 E4.9563
G1 X148.460 Y55.526 E4.9742
G1 X150.612 Y57.678 E5.0680
G1 X150.612 Y57.095 E5.0860
G1 X149.042 Y55.525 E5.1544
G1 X149.625 Y55.525 E5.1724
G1 X150.612 Y56.512 E5.2154
G1 X150.612 Y55.930 E5.2334
G1 X150.207 Y55.525 E5.2511
G92 E0
G1 E-1.0000 F1800
; support
G1 X152.590 Y55.470 F4600
G1 E0.0000 F1800
G92 E0
G1 X164.630 Y55.470 E0.3712 F1104
G1 X164.630 Y56.803 E0.4123
G1 X152.590 Y56.803 E0.7835
G1 X152.590 Y58.137 E0.8247
G1 X164.630 Y58.137 E1.1959
G1 X164.630 Y59.470 E1.2370
G1 X152.590 Y59.470 E1.6082
G92 E0
G1 E-1.0000 F1800
G1 X140.590 Y62.137 F4600
G1 E0.0000 F1800
G92 E0
G1 X144.630 Y62.137 E0.1246 F1104
G1 X144.630 Y63.470 E0.1657
G1 X140.590 Y63.470 E0.2902
G1 X140.590 Y64.803 E0.3313
G1 X144.630 Y64.803 E0.4559
G1 X144.630 Y66.137 E0.4970
G1 X140.590 Y66.137 E0.6216
G1 X140.590 Y67.470 E0.6627
G1 X144.630 Y67.470 E0.7872
G1 X144.630 Y68.803 E0.8284
G1 X140.590 Y68.803 E0.9529
G1 X140.590 Y70.137 E0.9940
G1 X144.630 Y70.137 E1.1186
G1 X144.630 Y71.470 E1.1597
G1 X140.590 Y71.470 E1.2843
G1 X140.590 Y72.803 E1.3254
G1 X144.630 Y72.803 E1.4499
G1 X144.630 Y74.137 E1.4910
G1 X140.590 Y74.137 E1.6156
G1 X140.590 Y75.470 E1.6567
G1 X144.630 Y75.470 E1.7813
G1 X144.630 Y76.803 E1.8224
G1 X140.590 Y76.803 E1.9469
G1 X140.590 Y78.137 E1.9881
G1 X144.630 Y78.137 E2.1126
G1 X144.630 Y79.470 E2.1537
G1 X140.590 Y79.470 E2.2783
G1 X140.590 Y80.803 E2.3194
G1 X144.630 Y80.803 E2.4440
G1 X144.630 Y82.137 E2.4851
G1 X140.590 Y82.137 E2.6096
G1 X140.590 Y83.470 E2.6507
G1 X144.630 Y83.470 E2.7753
G1 X144.630 Y84.803 E2.8164
G1 X140.590 Y84.803 E2.9410
G1 X140.590 Y86.137 E2.9821
G1 X144.630 Y86.137 E3.1066
G1 X144.630 Y87.470 E3.1478
G1 X140.590 Y87.470 E3.2723
G1 X140.590 Y88.803 E3.3134
G1 X144.630 Y88.803 E3.4380
G1 X144.630 Y90.137 E3.4791
G1 X140.590 Y90.137 E3.6037
G1 X140.590 Y91.470 E3.6448
G1 X144.630 Y91.470 E3.7693
G1 X144.630 Y92.803 E3.8104
G1 X140.590 Y92.803 E3.9350
G1 X140.590 Y94.137 E3.9761
G1 X144.630 Y94.137 E4.1007
G1 X144.630 Y95.470 E4.1418
G1 X140.590 Y95.470 E4.2663
G1 X140.590 Y96.803 E4.3075
G1 X144.630 Y96.803 E4.4320
G1 X144.630 Y98.137 E4.4731
G1 X140.590 Y98.137 E4.5977
G1 X140.590 Y99.450 E4.6382
G1 X128.590 Y99.450 E5.0082
G1 X128.590 Y99.470 E5.0088
G1 X156.630 Y99.470 E5.8733
G1 X156.630 Y100.803 E5.9144
G1 X128.590 Y100.803 E6.7790
G1 X128.590 Y102.137 E6.8201
G1 X156.630 Y102.137 E7.6846
G1 X156.630 Y103.470 E7.7257
G1 X128.590 Y103.470 E8.5902
G1 X128.590 Y104.803 E8.6314
G1 X156.630 Y104.803 E9.4959
G1 X156.630 Y106.137 E9.5370
G1 X128.590 Y106.137 E10.4015
G1 X128.590 Y107.470 E10.4426
G1 X156.630 Y107.470 E11.3072
G1 X156.630 Y108.803 E11.3483
G1 X128.590 Y108.803 E12.2128
G1 X128.590 Y110.137 E12.2539
G1 X156.630 Y110.137 E13.1185
G1 X156.630 Y111.470 E13.1596
G1 X128.590 Y111.470 E14.0241
G92 E0
G1 E-1.0000 F1800
G1 X120.590 Y59.470 F4600
G1 E0.0000 F1800
G92 E0
G1 X132.630 Y59.470 E0.3712 F1104
G1 X132.630 Y58.137 E0.4123
G1 X120.590 Y58.137 E0.7835
G1 X120.590 Y56.803 E0.8247
G1 X132.630 Y56.803 E1.1959
G1 X132.630 Y55.470 E1.2370
G1 X120.590 Y55.470 E1.6082
G92 E0
G1 E-1.0000 F1800
; layer 2, Z = 0.380
M106 S255
; tool H0.200 W0.400
; inner perimeter
G1 X133.675 Y55.065 F4600
G1 Z0.380 F1000
G1 E0.0000 F1800
G92 E0
G1 X133.840 Y54.968 E0.0057 F3358
G1 X134.081 Y54.876 E0.0134
G1 X151.144 Y54.878 E0.5242
G1 X151.182 Y54.885 E0.5254
G1 X151.215 Y54.896 E0.5264
G1 X151.550 Y55.059 E0.5376
G1 X151.545 Y59.875 E0.6817
G1 X151.357 Y59.983 E0.6882
G1 X151.178 Y60.054 E0.6940
G1 X151.107 Y60.064 E0.6961
G1 X134.103 Y60.064 E1.2051
G1 X134.041 Y60.058 E1.2070
G1 X133.841 Y59.973 E1.2135
G1 X133.670 Y59.880 E1.2193
G1 X133.675 Y55.065 E1.3635
; outer perimeter
G1 X133.463 Y54.725 F4600
G92 E0
G1 X133.667 Y54.606 E0.0071 F2238
G1 X133.980 Y54.487 E0.0171
G1 X134.082 Y54.476 E0.0202
G1 X151.177 Y54.478 E0.5319
G1 X151.282 Y54.496 E0.5351
G1 X151.369 Y54.526 E0.5378
G1 X151.704 Y54.689 E0.5490
G1 X151.812 Y54.766 E0.5530
G1 X151.883 Y54.835 E0.5559
G1 X151.950 Y54.953 E0.5600
G1 X151.945 Y60.015 E0.7115
G1 X151.890 Y60.097 E0.7145
G1 X151.758 Y60.214 E0.7197
G1 X151.532 Y60.344 E0.7276
G1 X151.280 Y60.444 E0.7357
G1 X151.134 Y60.464 E0.7401
G1 X134.082 Y60.464 E1.2505
G1 X133.972 Y60.453 E1.2538
G1 X133.899 Y60.432 E1.2561
G1 X133.667 Y60.334 E1.2636
G1 X133.520 Y60.254 E1.2686
G1 X133.408 Y60.174 E1.2728
G1 X133.332 Y60.100 E1.2759
G1 X133.291 Y60.038 E1.2782
G1 X133.270 Y59.973 E1.2802
G1 X133.275 Y54.925 E1.4313
G1 X133.331 Y54.843 E1.4343
G1 X133.463 Y54.725 E1.4396
; solid layer
G1 X134.015 Y55.296 F4600
G92 E0
G1 X134.063 Y55.247 E0.0021 F3581
G1 X134.144 Y55.216 E0.0046
G1 X134.660 Y55.217 E0.0201
G1 X134.014 Y55.862 E0.0474
G1 X134.013 Y56.428 E0.0644
G1 X135.225 Y55.217 E0.1157
G1 X135.791 Y55.217 E0.1326
G1 X134.013 Y56.995 E0.2079
G1 X134.012 Y57.561 E0.2248
G1 X136.357 Y55.217 E0.3241
G1 X136.922 Y55.217 E0.3410
G1 X134.012 Y58.127 E0.4642
G1 X134.011 Y58.693 E0.4811
G1 X137.488 Y55.217 E0.6283
G1 X138.053 Y55.217 E0.6453
G1 X134.011 Y59.260 E0.8164
G1 X134.010 Y59.676 E0.8289
G1 X134.116 Y59.720 E0.8323
G1 X138.619 Y55.217 E1.0229
G1 X139.185 Y55.217 E1.0398
G1 X134.678 Y59.724 E1.2306
G1 X135.243 Y59.724 E1.2476
G1 X139.750 Y55.217 E1.4384
G1 X140.316 Y55.217 E1.4553
G1 X135.809 Y59.724 E1.6461
G1 X136.375 Y59.724 E1.6630
G1 X140.882 Y55.217 E1.8538
G1 X141.447 Y55.217 E1.8707
G1 X136.941 Y59.724 E2.0615
G1 X137.506 Y59.724 E2.0785
G1 X142.013 Y55.217 E2.2692
G1 X142.579 Y55.217 E2.2862
G1 X138.072 Y59.724 E2.4770
G1 X138.638 Y59.724 E2.4939
G1 X143.144 Y55.217 E2.6847
G1 X143.710 Y55.217 E2.7016
G1 X139.203 Y59.724 E2.8924
G1 X139.769 Y59.724 E2.9093
G1 X144.275 Y55.217 E3.1001
G1 X144.841 Y55.217 E3.1170
G1 X140.335 Y59.724 E3.3078
G1 X140.900 Y59.724 E3.3247
G1 X145.407 Y55.217 E3.5155
G1 X145.972 Y55.218 E3.5324
G1 X141.466 Y59.724 E3.7232
G1 X142.032 Y59.724 E3.7401
G1 X146.538 Y55.218 E3.9309
G1 X147.104 Y55.218 E3.9478
G1 X142.597 Y59.724 E4.1386
G1 X143.163 Y59.724 E4.1555
G1 X147.669 Y55.218 E4.3463
G1 X148.235 Y55.218 E4.3632
G1 X143.729 Y59.724 E4.5540
G1 X144.294 Y59.724 E4.5709
G1 X148.800 Y55.218 E4.7617
G1 X149.366 Y55.218 E4.7786
G1 X144.860 Y59.724 E4.9693
G1 X145.426 Y59.724 E4.9863
G1 X149.932 Y55.218 E5.1770
G1 X150.497 Y55.218 E5.1940
G1 X145.991 Y59.724 E5.3847
G1 X146.557 Y59.724 E5.4016
G1 X151.063 Y55.218 E5.5924
G1 X151.100 Y55.218 E5.5935
G1 X151.210 Y55.272 E5.5972
G1 X151.209 Y55.637 E5.6081
G1 X147.123 Y59.724 E5.7811
G1 X147.689 Y59.724 E5.7980
G1 X151.209 Y56.204 E5.9471
G1 X151.208 Y56.770 E5.9640
G1 X148.254 Y59.724 E6.0891
G1 X148.820 Y59.724 E6.1060
G1 X151.208 Y57.336 E6.2071
G1 X151.207 Y57.902 E6.2240
G1 X149.386 Y59.724 E6.3011
G1 X149.951 Y59.724 E6.3181
G1 X151.207 Y58.469 E6.3712
G1 X151.206 Y59.035 E6.3882
G1 X150.517 Y59.724 E6.4173
G1 X151.083 Y59.724 E6.4343
G1 X151.206 Y59.601 E6.4395
G92 E0
G1 E-1.0000 F1800
; support
G1 X153.145 Y59.470 F4600
G1 E0.0000 F1800
G92 E0
G1 X164.630 Y59.470 E0.3438 F3581
G1 X164.630 Y58.137 E0.3837
G1 X153.147 Y58.137 E0.7274
G1 X153.148 Y56.803 E0.7674
G1 X164.630 Y56.803 E1.1111
G1 X164.630 Y55.470 E1.1510
G1 X153.149 Y55.470 E1.4946
G92 E0
G1 E-1.0000 F1800
G1 X140.590 Y62.137 F4600
G1 E0.0000 F1800
G92 E0
G1 X144.630 Y62.137 E0.1209 F3581
G1 X144.630 Y63.470 E0.1608
G1 X140.590 Y63.470 E0.2818
G1 X140.590 Y64.803 E0.3217
G1 X144.630 Y64.803 E0.4426
G1 X144.630 Y66.137 E0.4825
G1 X140.590 Y66.137 E0.6035
G1 X140.590 Y67.470 E0.6434
G1 X144.630 Y67.470 E0.7643
G1 X144.630 Y68.803 E0.8042
G1 X140.590 Y68.803 E0.9252
G1 X140.590 Y70.137 E0.9651
G1 X144.630 Y70.137 E1.0860
G1 X144.630 Y71.470 E1.1259
G1 X140.590 Y71.470 E1.2469
