; G-Code generated by Simplify3D(R) Version 4.0.0
; May 18, 2018 at 6:57:54 PM
; Settings Summary
;   processName,nozzle 0.4
;   applyToModels,turntable150
;   profileName,Flying Bear 902 Update 7-2017 (modified)
;   profileVersion,2017-07-10 09:45:20
;   baseProfile,Default
;   printMaterial,PLA
;   printQuality,Medium
;   printExtruders,
;   extruderName,Extruder 1
;   extruderToolheadNumber,0
;   extruderDiameter,0.4
;   extruderAutoWidth,1
;   extruderWidth,0.48
;   extrusionMultiplier,0.9
;   extruderUseRetract,1
;   extruderRetractionDistance,3
;   extruderExtraRestartDistance,0
;   extruderRetractionZLift,0
;   extruderRetractionSpeed,3000
;   extruderUseCoasting,0
;   extruderCoastingDistance,0.2
;   extruderUseWipe,1
;   extruderWipeDistance,5
;   primaryExtruder,0
;   layerHeight,0.2
;   topSolidLayers,3
;   bottomSolidLayers,2
;   perimeterOutlines,3
;   printPerimetersInsideOut,0
;   startPointOption,2
;   startPointOriginX,0
;   startPointOriginY,0
;   sequentialIslands,0
;   spiralVaseMode,0
;   firstLayerHeightPercentage,20
;   firstLayerWidthPercentage,115
;   firstLayerUnderspeed,0.3
;   useRaft,0
;   raftExtruder,0
;   raftTopLayers,2
;   raftBaseLayers,2
;   raftOffset,2
;   raftSeparationDistance,0.3
;   raftTopInfill,100
;   aboveRaftSpeedMultiplier,0.3
;   useSkirt,0
;   skirtExtruder,0
;   skirtLayers,1
;   skirtOutlines,2
;   skirtOffset,4
;   usePrimePillar,0
;   primePillarExtruder,999
;   primePillarWidth,12
;   primePillarLocation,7
;   primePillarSpeedMultiplier,1
;   useOozeShield,0
;   oozeShieldExtruder,999
;   oozeShieldOffset,2
;   oozeShieldOutlines,1
;   oozeShieldSidewallShape,1
;   oozeShieldSidewallAngle,30
;   oozeShieldSpeedMultiplier,1
;   infillExtruder,0
;   internalInfillPattern,Rectilinear
;   externalInfillPattern,Rectilinear
;   infillPercentage,5
;   outlineOverlapPercentage,60
;   infillExtrusionWidthPercentage,100
;   minInfillLength,5
;   infillLayerInterval,1
;   internalInfillAngles,45,-45
;   overlapInternalInfillAngles,0
;   externalInfillAngles,45,-45
;   generateSupport,0
;   supportExtruder,0
;   supportInfillPercentage,30
;   supportExtraInflation,0
;   supportBaseLayers,0
;   denseSupportExtruder,0
;   denseSupportLayers,0
;   denseSupportInfillPercentage,50
;   supportLayerInterval,1
;   supportHorizontalPartOffset,0.3
;   supportUpperSeparationLayers,1
;   supportLowerSeparationLayers,1
;   supportType,0
;   supportGridSpacing,4
;   maxOverhangAngle,60
;   supportAngles,0
;   temperatureName,Extruder 1,Heated Bed
;   temperatureNumber,0,0
;   temperatureSetpointCount,1,1
;   temperatureSetpointLayers,1,1
;   temperatureSetpointTemperatures,210,60
;   temperatureStabilizeAtStartup,1,0
;   temperatureHeatedBed,0,1
;   temperatureRelayBetweenLayers,0,0
;   temperatureRelayBetweenLoops,0,0
;   fanLayers,1
;   fanSpeeds,255
;   blipFanToFullPower,0
;   adjustSpeedForCooling,1
;   minSpeedLayerTime,15
;   minCoolingSpeedSlowdown,20
;   increaseFanForCooling,0
;   minFanLayerTime,45
;   maxCoolingFanSpeed,100
;   increaseFanForBridging,0
;   bridgingFanSpeed,100
;   use5D,1
;   relativeEdistances,0
;   allowEaxisZeroing,1
;   independentExtruderAxes,0
;   includeM10123,0
;   stickySupport,1
;   applyToolheadOffsets,0
;   gcodeXoffset,0
;   gcodeYoffset,0
;   gcodeZoffset,0
;   overrideMachineDefinition,1
;   machineTypeOverride,0
;   strokeXoverride,220
;   strokeYoverride,220
;   strokeZoverride,280
;   originOffsetXoverride,0
;   originOffsetYoverride,0
;   originOffsetZoverride,0
;   homeXdirOverride,-1
;   homeYdirOverride,-1
;   homeZdirOverride,-1
;   flipXoverride,1
;   flipYoverride,-1
;   flipZoverride,1
;   toolheadOffsets,0,0|0,0|0,0|0,0|0,0|0,0
;   overrideFirmwareConfiguration,1
;   firmwareTypeOverride,RepRap (Marlin/Repetier/Sprinter)
;   GPXconfigOverride,r2
;   baudRateOverride,250000
;   overridePrinterModels,0
;   printerModelsOverride
;   startingGcode,G28 ; home all axes,G1 X0 Y20 Z0.2 F3000 ; get ready to prime,G92 E0 ; reset extrusion distance,G1 X200 E20 F600 ; prime nozzle
;   layerChangeGcode,
;   retractionGcode,
;   toolChangeGcode,
;   endingGcode,M104 S0 ; turn off extruder,M140 S0 ; turn off bed,G28 X Y ; home x and y axes,M84 ; disable motors
;   exportFileFormat,gcode
;   celebration,0
;   celebrationSong,Random Song
;   postProcessing,
;   defaultSpeed,4400
;   outlineUnderspeed,0.6
;   solidInfillUnderspeed,0.85
;   supportUnderspeed,0.8
;   rapidXYspeed,4600
;   rapidZspeed,1002
;   minBridgingArea,50
;   bridgingExtraInflation,0
;   bridgingExtrusionMultiplier,1
;   bridgingSpeedMultiplier,1
;   useFixedBridgingAngle,0
;   fixedBridgingAngle,0
;   applyBridgingToPerimeters,0
;   filamentDiameters,1.75|1.75|1.75|1.75|1.75|1.75
;   filamentPricesPerKg,46|46|46|46|46|46
;   filamentDensities,1.25|1.25|1.25|1.25|1.25|1.25
;   useMinPrintHeight,0
;   minPrintHeight,0
;   useMaxPrintHeight,0
;   maxPrintHeight,4.3
;   useDiaphragm,0
;   diaphragmLayerInterval,20
;   robustSlicing,1
;   mergeAllIntoSolid,0
;   onlyRetractWhenCrossingOutline,1
;   retractBetweenLayers,1
;   useRetractionMinTravel,0
;   retractionMinTravel,3
;   retractWhileWiping,0
;   onlyWipeOutlines,1
;   avoidCrossingOutline,0
;   maxMovementDetourFactor,3
;   toolChangeRetractionDistance,12
;   toolChangeExtraRestartDistance,-0.5
;   toolChangeRetractionSpeed,600
;   externalThinWallType,1
;   internalThinWallType,1
;   thinWallAllowedOverlapPercentage,20
;   singleExtrusionMinLength,1
;   singleExtrusionMinPrintingWidthPercentage,50
;   singleExtrusionMaxPrintingWidthPercentage,200
;   singleExtrusionEndpointExtension,0.2
;   horizontalSizeCompensation,0
G90
M82
M106 S650
M140 S60
M104 S210 T0
M109 S210 T0
G28 ; home all axes
G1 X0 Y20 Z0.2 F3000 ; get ready to prime
G92 E0 ; reset extrusion distance
G1 X200 E20 F600 ; prime nozzle
G92 E0
G1 E-3.0000 F3000
G1 Z0.040 F1002
; process nozzle 0.4
; layer 1, Z = 0.040
T0
; tool H0.200 W0.552
; outer perimeter
G1 X57.965 Y59.677 F4600
G1 E0.0000 F900
G92 E0
G1 X60.220 Y57.446 E0.1310 F792
G1 X62.585 Y55.303 E0.2629
G1 X65.027 Y53.278 E0.3939
G1 X67.570 Y51.351 E0.5257
G1 X70.181 Y49.549 E0.6568
G1 X72.883 Y47.852 E0.7886
G1 X75.642 Y46.286 E0.9196
G1 X78.467 Y44.842 E1.0507
G1 X81.369 Y43.515 E1.1825
G1 X84.309 Y42.325 E1.3136
G1 X87.317 Y41.258 E1.4454
G1 X90.351 Y40.330 E1.5764
G1 X93.440 Y39.532 E1.7082
G1 X96.544 Y38.874 E1.8393
G1 X99.673 Y38.353 E1.9703
G1 X102.840 Y37.967 E2.1022
G1 X106.004 Y37.723 E2.2332
G1 X109.193 Y37.617 E2.3650
G1 X112.365 Y37.651 E2.4961
G1 X115.551 Y37.825 E2.6279
G1 X118.708 Y38.138 E2.7589
G1 X121.848 Y38.589 E2.8900
G1 X124.984 Y39.180 E3.0218
G1 X128.073 Y39.905 E3.1529
G1 X131.144 Y40.769 E3.2847
G1 X134.157 Y41.762 E3.4157
G1 X137.142 Y42.893 E3.5476
G1 X140.055 Y44.147 E3.6786
G1 X142.912 Y45.527 E3.8096
G1 X145.721 Y47.040 E3.9415
G1 X148.445 Y48.666 E4.0725
G1 X151.112 Y50.419 E4.2043
G1 X153.682 Y52.278 E4.3354
G1 X156.184 Y54.259 E4.4672
G1 X158.582 Y56.336 E4.5982
G1 X160.886 Y58.517 E4.7293
G1 X163.106 Y60.809 E4.8611
G1 X165.210 Y63.183 E4.9922
G1 X167.220 Y65.662 E5.1240
G1 X169.107 Y68.211 E5.2550
G1 X170.892 Y70.857 E5.3869
G1 X172.548 Y73.563 E5.5179
G1 X174.085 Y76.338 E5.6489
G1 X175.506 Y79.195 E5.7808
G1 X176.793 Y82.095 E5.9118
G1 X177.958 Y85.066 E6.0436
G1 X178.985 Y88.067 E6.1747
G1 X179.885 Y91.129 E6.3065
G1 X180.644 Y94.209 E6.4375
G1 X181.268 Y97.319 E6.5686
G1 X181.758 Y100.472 E6.7004
G1 X182.106 Y103.626 E6.8315
G1 X182.317 Y106.810 E6.9633
G1 X182.388 Y109.981 E7.0943
G1 X182.318 Y113.171 E7.2261
G1 X182.110 Y116.337 E7.3572
G1 X181.763 Y119.491 E7.4882
G1 X181.275 Y122.644 E7.6201
G1 X180.652 Y125.755 E7.7511
G1 X179.890 Y128.853 E7.8829
G1 X178.996 Y131.897 E8.0140
G1 X177.970 Y134.899 E8.1450
G1 X176.807 Y137.871 E8.2768
G1 X175.522 Y140.771 E8.4079
G1 X174.102 Y143.629 E8.5397
G1 X172.567 Y146.405 E8.6708
G1 X170.902 Y149.127 E8.8026
G1 X169.129 Y151.758 E8.9336
G1 X167.243 Y154.308 E9.0647
G1 X165.234 Y156.788 E9.1965
G1 X163.131 Y159.163 E9.3275
G1 X160.913 Y161.457 E9.4594
G1 X158.609 Y163.639 E9.5904
G1 X156.198 Y165.729 E9.7222
G1 X153.712 Y167.699 E9.8533
G1 X151.142 Y169.559 E9.9843
G1 X148.477 Y171.315 E10.1161
G1 X145.754 Y172.941 E10.2472
G1 X142.945 Y174.456 E10.3790
G1 X140.089 Y175.838 E10.5101
G1 X137.159 Y177.100 E10.6419
G1 X134.193 Y178.225 E10.7729
G1 X131.180 Y179.219 E10.9040
G1 X128.109 Y180.086 E11.0358
G1 X125.021 Y180.812 E11.1668
G1 X121.885 Y181.405 E11.2987
G1 X118.745 Y181.857 E11.4297
G1 X115.570 Y182.173 E11.5615
G1 X112.402 Y182.348 E11.6926
G1 X109.230 Y182.383 E11.8236
G1 X106.041 Y182.279 E11.9554
G1 X102.878 Y182.036 E12.0865
G1 X99.710 Y181.653 E12.2183
G1 X96.581 Y181.133 E12.3493
G1 X93.458 Y180.472 E12.4812
G1 X90.387 Y179.680 E12.6122
G1 X87.353 Y178.753 E12.7433
G1 X84.344 Y177.689 E12.8751
G1 X81.403 Y176.500 E13.0061
G1 X78.500 Y175.175 E13.1380
G1 X75.675 Y173.732 E13.2690
G1 X72.899 Y172.157 E13.4008
G1 X70.212 Y170.472 E13.5319
G1 X67.601 Y168.671 E13.6629
G1 X65.056 Y166.745 E13.7947
G1 X62.613 Y164.721 E13.9258
G1 X60.247 Y162.580 E14.0576
G1 X57.991 Y160.349 E14.1887
G1 X55.823 Y158.009 E14.3205
G1 X53.771 Y155.589 E14.4515
G1 X51.828 Y153.081 E14.5826
G1 X49.986 Y150.476 E14.7144
G1 X48.270 Y147.807 E14.8454
G1 X46.664 Y145.050 E14.9773
G1 X45.189 Y142.241 E15.1083
G1 X43.831 Y139.354 E15.2401
G1 X42.608 Y136.426 E15.3712
G1 X41.515 Y133.448 E15.5022
G1 X40.548 Y130.407 E15.6340
G1 X39.721 Y127.345 E15.7651
G1 X39.025 Y124.230 E15.8969
G1 X38.470 Y121.107 E16.0280
G1 X38.049 Y117.944 E16.1598
G1 X37.770 Y114.784 E16.2908
G1 X37.630 Y111.613 E16.4219
G1 X37.612 Y110.000 E16.4886
G1 X37.630 Y108.411 E16.5542
G1 X37.768 Y105.254 E16.6847
G1 X38.047 Y102.075 E16.8166
G1 X38.464 Y98.930 E16.9476
G1 X39.018 Y95.806 E17.0787
G1 X39.712 Y92.692 E17.2105
G1 X40.538 Y89.629 E17.3415
G1 X41.509 Y86.569 E17.4741
G1 X42.595 Y83.609 E17.6044
G1 X43.823 Y80.663 E17.7362
G1 X45.172 Y77.792 E17.8673
G1 X46.646 Y74.983 E17.9983
G1 X48.250 Y72.225 E18.1301
G1 X49.965 Y69.556 E18.2612
G1 X51.806 Y66.949 E18.3930
G1 X53.748 Y64.441 E18.5240
G1 X55.810 Y62.006 E18.6559
G1 X57.965 Y59.677 E18.7869
G1 X60.220 Y57.446 F4400
G1 X61.574 Y56.219 F4400
; inner perimeter
G1 X62.946 Y55.720 F4600
G92 E0
G1 X65.370 Y53.711 E0.1300 F1056
G1 X67.894 Y51.798 E0.2609
G1 X70.484 Y50.010 E0.3909
G1 X73.167 Y48.326 E0.5217
G1 X75.904 Y46.772 E0.6518
G1 X78.707 Y45.339 E0.7818
G1 X81.587 Y44.022 E0.9126
G1 X84.505 Y42.841 E1.0427
G1 X87.490 Y41.782 E1.1735
G1 X90.500 Y40.862 E1.3035
G1 X93.567 Y40.069 E1.4344
G1 X96.646 Y39.417 E1.5644
G1 X99.752 Y38.900 E1.6945
G1 X102.895 Y38.517 E1.8253
G1 X106.034 Y38.274 E1.9553
G1 X109.199 Y38.169 E2.0861
G1 X112.347 Y38.203 E2.2162
G1 X115.509 Y38.376 E2.3470
G1 X118.642 Y38.686 E2.4770
G1 X121.758 Y39.134 E2.6071
G1 X124.870 Y39.720 E2.7379
G1 X127.935 Y40.439 E2.8679
G1 X130.983 Y41.297 E2.9988
G1 X133.973 Y42.283 E3.1288
G1 X136.934 Y43.405 E3.2596
G1 X139.826 Y44.649 E3.3897
G1 X142.661 Y46.019 E3.5197
G1 X145.449 Y47.520 E3.6505
G1 X148.152 Y49.133 E3.7806
G1 X150.798 Y50.874 E3.9114
G1 X153.349 Y52.718 E4.0414
G1 X155.832 Y54.684 E4.1723
G1 X158.211 Y56.746 E4.3023
G1 X160.498 Y58.909 E4.4324
G1 X162.701 Y61.184 E4.5632
G1 X164.789 Y63.540 E4.6932
G1 X166.784 Y66.000 E4.8240
G1 X168.657 Y68.530 E4.9541
G1 X170.428 Y71.156 E5.0849
G1 X172.071 Y73.840 E5.2149
G1 X173.596 Y76.595 E5.3450
G1 X175.006 Y79.430 E5.4758
G1 X176.283 Y82.308 E5.6059
G1 X177.440 Y85.256 E5.7367
G1 X178.459 Y88.234 E5.8667
G1 X179.352 Y91.273 E5.9975
G1 X180.105 Y94.329 E6.1276
G1 X180.724 Y97.416 E6.2576
G1 X181.211 Y100.545 E6.3884
G1 X181.556 Y103.674 E6.5185
G1 X181.766 Y106.834 E6.6493
G1 X181.836 Y109.981 E6.7793
G1 X181.767 Y113.147 E6.9102
G1 X181.560 Y116.289 E7.0402
G1 X181.215 Y119.418 E7.1703
G1 X180.731 Y122.548 E7.3011
G1 X180.113 Y125.634 E7.4311
G1 X179.357 Y128.709 E7.5619
G1 X178.470 Y131.730 E7.6920
G1 X177.452 Y134.709 E7.8220
G1 X176.298 Y137.658 E7.9529
G1 X175.022 Y140.536 E8.0829
G1 X173.613 Y143.372 E8.2137
G1 X172.090 Y146.127 E8.3438
G1 X170.438 Y148.829 E8.4746
G1 X168.678 Y151.439 E8.6046
G1 X166.806 Y153.970 E8.7347
G1 X164.813 Y156.431 E8.8655
G1 X162.726 Y158.788 E8.9955
G1 X160.525 Y161.065 E9.1263
G1 X158.239 Y163.229 E9.2564
G1 X155.846 Y165.304 E9.3872
G1 X153.379 Y167.259 E9.5172
G1 X150.828 Y169.105 E9.6473
G1 X148.184 Y170.847 E9.7781
G1 X145.481 Y172.461 E9.9082
G1 X142.694 Y173.965 E10.0390
G1 X139.860 Y175.335 E10.1690
G1 X136.952 Y176.588 E10.2998
G1 X134.008 Y177.705 E10.4299
G1 X131.019 Y178.691 E10.5599
G1 X127.971 Y179.551 E10.6908
G1 X124.906 Y180.272 E10.8208
G1 X121.795 Y180.861 E10.9516
G1 X118.679 Y181.309 E11.0817
G1 X115.527 Y181.623 E11.2125
G1 X112.384 Y181.796 E11.3425
G1 X109.236 Y181.831 E11.4726
G1 X106.071 Y181.728 E11.6034
G1 X102.932 Y181.487 E11.7334
G1 X99.788 Y181.106 E11.8643
G1 X96.683 Y180.590 E11.9943
G1 X93.585 Y179.935 E12.1251
G1 X90.536 Y179.148 E12.2552
G1 X87.525 Y178.229 E12.3852
G1 X84.540 Y177.173 E12.5160
G1 X81.621 Y175.992 E12.6461
G1 X78.741 Y174.678 E12.7769
G1 X75.937 Y173.246 E12.9069
G1 X73.182 Y171.683 E13.0378
G1 X70.515 Y170.011 E13.1678
G1 X67.924 Y168.223 E13.2978
G1 X65.399 Y166.312 E13.4287
G1 X62.974 Y164.304 E13.5587
G1 X60.627 Y162.179 E13.6895
G1 X58.388 Y159.965 E13.8196
G1 X56.236 Y157.642 E13.9504
G1 X54.200 Y155.241 E14.0804
G1 X52.272 Y152.753 E14.2105
G1 X50.443 Y150.167 E14.3413
G1 X48.741 Y147.519 E14.4713
G1 X47.147 Y144.783 E14.6022
G1 X45.683 Y141.995 E14.7322
G1 X44.335 Y139.130 E14.8630
G1 X43.122 Y136.225 E14.9931
G1 X42.038 Y133.269 E15.1231
G1 X41.078 Y130.251 E15.2539
G1 X40.257 Y127.212 E15.3840
G1 X39.566 Y124.122 E15.5148
G1 X39.015 Y121.022 E15.6448
G1 X38.598 Y117.883 E15.7757
G1 X38.321 Y114.747 E15.9057
G1 X38.182 Y111.597 E16.0359
G1 X38.164 Y110.000 E16.1019
G1 X38.181 Y108.426 E16.1669
G1 X38.319 Y105.290 E16.2966
G1 X38.596 Y102.135 E16.4274
G1 X39.009 Y99.015 E16.5575
G1 X39.559 Y95.915 E16.6875
G1 X40.248 Y92.824 E16.8183
G1 X41.068 Y89.784 E16.9484
G1 X42.031 Y86.748 E17.0800
G1 X43.109 Y83.810 E17.2092
G1 X44.328 Y80.887 E17.3401
G1 X45.667 Y78.038 E17.4701
G1 X47.129 Y75.250 E17.6002
G1 X48.721 Y72.513 E17.7310
G1 X50.423 Y69.864 E17.8610
G1 X52.249 Y67.277 E17.9918
G1 X54.177 Y64.788 E18.1219
G1 X56.224 Y62.371 E18.2527
G1 X58.362 Y60.061 E18.3827
G1 X60.600 Y57.847 E18.5128
G1 X62.946 Y55.720 E18.6436
G1 X63.308 Y56.137 F4600
G92 E0
G1 X65.713 Y54.144 E0.1290 F1056
G1 X68.217 Y52.246 E0.2588
G1 X70.788 Y50.471 E0.3879
G1 X73.450 Y48.800 E0.5177
G1 X76.166 Y47.258 E0.6467
G1 X78.948 Y45.836 E0.7758
G1 X81.806 Y44.529 E0.9056
G1 X84.701 Y43.357 E1.0347
G1 X87.663 Y42.307 E1.1645
G1 X90.650 Y41.393 E1.2935
G1 X93.693 Y40.607 E1.4233
G1 X96.749 Y39.959 E1.5524
G1 X99.830 Y39.446 E1.6814
G1 X102.950 Y39.066 E1.8112
G1 X106.065 Y38.825 E1.9403
G1 X109.205 Y38.721 E2.0701
G1 X112.329 Y38.755 E2.1991
G1 X115.467 Y38.926 E2.3290
G1 X118.575 Y39.234 E2.4580
G1 X121.668 Y39.678 E2.5870
G1 X124.756 Y40.260 E2.7169
G1 X127.797 Y40.974 E2.8459
G1 X130.822 Y41.825 E2.9757
G1 X133.789 Y42.803 E3.1048
G1 X136.727 Y43.917 E3.2346
G1 X139.597 Y45.151 E3.3636
G1 X142.410 Y46.511 E3.4927
G1 X145.177 Y48.000 E3.6225
G1 X147.859 Y49.601 E3.7515
G1 X150.484 Y51.328 E3.8813
G1 X153.016 Y53.159 E4.0104
G1 X155.479 Y55.109 E4.1402
G1 X157.841 Y57.155 E4.2692
G1 X160.110 Y59.302 E4.3983
G1 X162.296 Y61.560 E4.5281
G1 X164.368 Y63.897 E4.6571
G1 X166.347 Y66.338 E4.7870
G1 X168.206 Y68.849 E4.9160
G1 X169.963 Y71.454 E5.0458
G1 X171.594 Y74.118 E5.1748
G1 X173.107 Y76.852 E5.3039
G1 X174.507 Y79.665 E5.4337
G1 X175.774 Y82.520 E5.5627
G1 X176.921 Y85.446 E5.6926
G1 X177.933 Y88.402 E5.8216
G1 X178.819 Y91.417 E5.9514
G1 X179.567 Y94.450 E6.0805
G1 X180.181 Y97.513 E6.2095
G1 X180.663 Y100.618 E6.3393
G1 X181.006 Y103.723 E6.4684
G1 X181.214 Y106.858 E6.5982
G1 X181.283 Y109.982 E6.7272
G1 X181.215 Y113.123 E6.8570
G1 X181.010 Y116.240 E6.9861
G1 X180.668 Y119.346 E7.1151
G1 X180.188 Y122.451 E7.2450
G1 X179.575 Y125.514 E7.3740
G1 X178.823 Y128.566 E7.5038
G1 X177.944 Y131.563 E7.6328
