; G-Code generated by Simplify3D(R) Version 4.0.0
; May 18, 2018 at 6:56:19 PM
; Settings Summary
;   processName,nozzle 0.4
;   applyToModels,turntable150-base
;   profileName,Flying Bear 902 Update 7-2017 (modified)
;   profileVersion,2017-07-10 09:45:20
;   baseProfile,Default
;   printMaterial,PLA
;   printQuality,Medium
;   printExtruders,
;   extruderName,Extruder 1
;   extruderToolheadNumber,0
;   extruderDiameter,0.4
;   extruderAutoWidth,1
;   extruderWidth,0.48
;   extrusionMultiplier,0.9
;   extruderUseRetract,1
;   extruderRetractionDistance,3
;   extruderExtraRestartDistance,0
;   extruderRetractionZLift,0
;   extruderRetractionSpeed,3000
;   extruderUseCoasting,0
;   extruderCoastingDistance,0.2
;   extruderUseWipe,1
;   extruderWipeDistance,5
;   primaryExtruder,0
;   layerHeight,0.2
;   topSolidLayers,3
;   bottomSolidLayers,2
;   perimeterOutlines,3
;   printPerimetersInsideOut,0
;   startPointOption,2
;   startPointOriginX,0
;   startPointOriginY,0
;   sequentialIslands,0
;   spiralVaseMode,0
;   firstLayerHeightPercentage,20
;   firstLayerWidthPercentage,115
;   firstLayerUnderspeed,0.3
;   useRaft,0
;   raftExtruder,0
;   raftTopLayers,2
;   raftBaseLayers,2
;   raftOffset,2
;   raftSeparationDistance,0.3
;   raftTopInfill,100
;   aboveRaftSpeedMultiplier,0.3
;   useSkirt,0
;   skirtExtruder,0
;   skirtLayers,1
;   skirtOutlines,2
;   skirtOffset,4
;   usePrimePillar,0
;   primePillarExtruder,999
;   primePillarWidth,12
;   primePillarLocation,7
;   primePillarSpeedMultiplier,1
;   useOozeShield,0
;   oozeShieldExtruder,999
;   oozeShieldOffset,2
;   oozeShieldOutlines,1
;   oozeShieldSidewallShape,1
;   oozeShieldSidewallAngle,30
;   oozeShieldSpeedMultiplier,1
;   infillExtruder,0
;   internalInfillPattern,Rectilinear
;   externalInfillPattern,Rectilinear
;   infillPercentage,20
;   outlineOverlapPercentage,60
;   infillExtrusionWidthPercentage,100
;   minInfillLength,5
;   infillLayerInterval,1
;   internalInfillAngles,45,-45
;   overlapInternalInfillAngles,0
;   externalInfillAngles,45,-45
;   generateSupport,0
;   supportExtruder,0
;   supportInfillPercentage,30
;   supportExtraInflation,0
;   supportBaseLayers,0
;   denseSupportExtruder,0
;   denseSupportLayers,0
;   denseSupportInfillPercentage,50
;   supportLayerInterval,1
;   supportHorizontalPartOffset,0.3
;   supportUpperSeparationLayers,1
;   supportLowerSeparationLayers,1
;   supportType,0
;   supportGridSpacing,4
;   maxOverhangAngle,60
;   supportAngles,0
;   temperatureName,Extruder 1,Heated Bed
;   temperatureNumber,0,0
;   temperatureSetpointCount,1,1
;   temperatureSetpointLayers,1,1
;   temperatureSetpointTemperatures,210,60
;   temperatureStabilizeAtStartup,1,0
;   temperatureHeatedBed,0,1
;   temperatureRelayBetweenLayers,0,0
;   temperatureRelayBetweenLoops,0,0
;   fanLayers,1
;   fanSpeeds,255
;   blipFanToFullPower,0
;   adjustSpeedForCooling,1
;   minSpeedLayerTime,15
;   minCoolingSpeedSlowdown,20
;   increaseFanForCooling,0
;   minFanLayerTime,45
;   maxCoolingFanSpeed,100
;   increaseFanForBridging,0
;   bridgingFanSpeed,100
;   use5D,1
;   relativeEdistances,0
;   allowEaxisZeroing,1
;   independentExtruderAxes,0
;   includeM10123,0
;   stickySupport,1
;   applyToolheadOffsets,0
;   gcodeXoffset,0
;   gcodeYoffset,0
;   gcodeZoffset,0
;   overrideMachineDefinition,1
;   machineTypeOverride,0
;   strokeXoverride,220
;   strokeYoverride,220
;   strokeZoverride,280
;   originOffsetXoverride,0
;   originOffsetYoverride,0
;   originOffsetZoverride,0
;   homeXdirOverride,-1
;   homeYdirOverride,-1
;   homeZdirOverride,-1
;   flipXoverride,1
;   flipYoverride,-1
;   flipZoverride,1
;   toolheadOffsets,0,0|0,0|0,0|0,0|0,0|0,0
;   overrideFirmwareConfiguration,1
;   firmwareTypeOverride,RepRap (Marlin/Repetier/Sprinter)
;   GPXconfigOverride,r2
;   baudRateOverride,250000
;   overridePrinterModels,0
;   printerModelsOverride
;   startingGcode,G28 ; home all axes,G1 X0 Y20 Z0.2 F3000 ; get ready to prime,G92 E0 ; reset extrusion distance,G1 X200 E20 F600 ; prime nozzle
;   layerChangeGcode,
;   retractionGcode,
;   toolChangeGcode,
;   endingGcode,M104 S0 ; turn off extruder,M140 S0 ; turn off bed,G28 X Y ; home x and y axes,M84 ; disable motors
;   exportFileFormat,gcode
;   celebration,0
;   celebrationSong,Random Song
;   postProcessing,
;   defaultSpeed,4400
;   outlineUnderspeed,0.6
;   solidInfillUnderspeed,0.85
;   supportUnderspeed,0.8
;   rapidXYspeed,4600
;   rapidZspeed,1002
;   minBridgingArea,50
;   bridgingExtraInflation,0
;   bridgingExtrusionMultiplier,1
;   bridgingSpeedMultiplier,1
;   useFixedBridgingAngle,0
;   fixedBridgingAngle,0
;   applyBridgingToPerimeters,0
;   filamentDiameters,1.75|1.75|1.75|1.75|1.75|1.75
;   filamentPricesPerKg,46|46|46|46|46|46
;   filamentDensities,1.25|1.25|1.25|1.25|1.25|1.25
;   useMinPrintHeight,0
;   minPrintHeight,0
;   useMaxPrintHeight,0
;   maxPrintHeight,4.3
;   useDiaphragm,0
;   diaphragmLayerInterval,20
;   robustSlicing,1
;   mergeAllIntoSolid,0
;   onlyRetractWhenCrossingOutline,1
;   retractBetweenLayers,1
;   useRetractionMinTravel,0
;   retractionMinTravel,3
;   retractWhileWiping,0
;   onlyWipeOutlines,1
;   avoidCrossingOutline,0
;   maxMovementDetourFactor,3
;   toolChangeRetractionDistance,12
;   toolChangeExtraRestartDistance,-0.5
;   toolChangeRetractionSpeed,600
;   externalThinWallType,1
;   internalThinWallType,1
;   thinWallAllowedOverlapPercentage,20
;   singleExtrusionMinLength,1
;   singleExtrusionMinPrintingWidthPercentage,50
;   singleExtrusionMaxPrintingWidthPercentage,200
;   singleExtrusionEndpointExtension,0.2
;   horizontalSizeCompensation,0
G90
M82
M106 S650
M140 S60
M104 S210 T0
M109 S210 T0
G28 ; home all axes
G1 X0 Y20 Z0.2 F3000 ; get ready to prime
G92 E0 ; reset extrusion distance
G1 X200 E20 F600 ; prime nozzle
G92 E0
G1 E-3.0000 F3000
G1 Z0.040 F1002
; process nozzle 0.4
; layer 1, Z = 0.040
T0
; tool H0.200 W0.552
; outer perimeter
G1 X33.997 Y34.188 F4600
G1 E0.0000 F900
G92 E0
G1 X34.758 Y33.502 E0.0423 F792
G1 X35.607 Y32.928 E0.0846
G1 X36.527 Y32.478 E0.1270
G1 X37.501 Y32.161 E0.1693
G1 X38.512 Y31.982 E0.2117
G1 X39.286 Y31.940 E0.2437
G1 X46.459 Y31.940 E0.5400
G1 X47.427 Y32.003 E0.5801
G1 X48.369 Y32.191 E0.6198
G1 X49.278 Y32.499 E0.6594
G1 X50.140 Y32.924 E0.6991
G1 X50.938 Y33.458 E0.7388
G1 X51.667 Y34.097 E0.7789
G1 X63.203 Y45.633 E1.4528
G1 X63.978 Y46.312 E1.4953
G1 X64.844 Y46.889 E1.5383
G1 X65.777 Y47.346 E1.5813
G1 X66.763 Y47.678 E1.6242
G1 X67.784 Y47.876 E1.6672
G1 X68.822 Y47.939 E1.7101
G1 X69.859 Y47.865 E1.7531
G1 X70.878 Y47.656 E1.7960
G1 X71.860 Y47.314 E1.8390
G1 X72.760 Y46.861 E1.8806
G1 X75.619 Y45.261 E2.0160
G1 X78.525 Y43.800 E2.1503
G1 X81.493 Y42.468 E2.2847
G1 X84.517 Y41.270 E2.4191
G1 X87.592 Y40.207 E2.5535
G1 X90.710 Y39.282 E2.6878
G1 X93.867 Y38.496 E2.8222
G1 X97.055 Y37.850 E2.9566
G1 X100.269 Y37.347 E3.0910
G1 X103.502 Y36.987 E3.2254
G1 X106.748 Y36.770 E3.3597
G1 X110.000 Y36.698 E3.4941
G1 X113.251 Y36.770 E3.6285
G1 X116.496 Y36.987 E3.7628
G1 X119.729 Y37.347 E3.8972
G1 X122.942 Y37.850 E4.0315
G1 X126.129 Y38.495 E4.1658
G1 X129.285 Y39.281 E4.3002
G1 X132.403 Y40.206 E4.4345
G1 X135.477 Y41.268 E4.5689
G1 X138.501 Y42.466 E4.7032
G1 X141.468 Y43.797 E4.8376
G1 X144.374 Y45.258 E4.9719
G1 X147.222 Y46.852 E5.1068
G1 X148.140 Y47.314 E5.1492
G1 X149.122 Y47.656 E5.1922
G1 X150.141 Y47.865 E5.2351
G1 X151.178 Y47.939 E5.2781
G1 X152.216 Y47.876 E5.3211
G1 X153.237 Y47.678 E5.3640
G1 X154.223 Y47.346 E5.4070
G1 X155.156 Y46.889 E5.4499
G1 X156.022 Y46.312 E5.4929
G1 X156.797 Y45.633 E5.5355
G1 X168.333 Y34.097 E6.2094
G1 X169.062 Y33.458 E6.2494
G1 X169.860 Y32.924 E6.2891
G1 X170.722 Y32.499 E6.3288
G1 X171.631 Y32.191 E6.3685
G1 X172.573 Y32.003 E6.4081
G1 X173.541 Y31.940 E6.4482
G1 X180.962 Y31.944 E6.7548
G1 X181.984 Y32.051 E6.7972
G1 X182.979 Y32.298 E6.8395
G1 X183.929 Y32.681 E6.8819
G1 X184.817 Y33.193 E6.9242
G1 X185.624 Y33.823 E6.9665
G1 X186.337 Y34.559 E7.0088
G1 X186.940 Y35.387 E7.0511
G1 X187.421 Y36.291 E7.0935
G1 X187.773 Y37.253 E7.1358
G1 X187.987 Y38.255 E7.1781
G1 X188.060 Y39.294 E7.2211
G1 X188.060 Y46.459 E7.5171
G1 X187.997 Y47.427 E7.5571
G1 X187.809 Y48.369 E7.5968
G1 X187.501 Y49.278 E7.6365
G1 X187.076 Y50.140 E7.6762
G1 X186.542 Y50.938 E7.7159
G1 X185.903 Y51.667 E7.7559
G1 X174.367 Y63.203 E8.4298
G1 X173.688 Y63.978 E8.4724
G1 X173.111 Y64.844 E8.5154
G1 X172.654 Y65.777 E8.5583
G1 X172.322 Y66.763 E8.6013
G1 X172.124 Y67.784 E8.6442
G1 X172.061 Y68.822 E8.6872
G1 X172.135 Y69.859 E8.7301
G1 X172.344 Y70.878 E8.7731
G1 X172.686 Y71.860 E8.8161
G1 X173.139 Y72.760 E8.8577
G1 X174.739 Y75.619 E8.9930
G1 X176.200 Y78.525 E9.1274
G1 X177.531 Y81.493 E9.2618
G1 X178.730 Y84.517 E9.3962
G1 X179.793 Y87.592 E9.5305
G1 X180.718 Y90.710 E9.6649
G1 X181.504 Y93.867 E9.7993
G1 X182.150 Y97.055 E9.9337
G1 X182.653 Y100.269 E10.0680
G1 X183.013 Y103.502 E10.2024
G1 X183.230 Y106.748 E10.3368
G1 X183.302 Y110.000 E10.4712
G1 X183.230 Y113.251 E10.6055
G1 X183.013 Y116.496 E10.7399
G1 X182.653 Y119.729 E10.8742
G1 X182.150 Y122.942 E11.0086
G1 X181.505 Y126.129 E11.1429
G1 X180.719 Y129.285 E11.2773
G1 X179.794 Y132.403 E11.4116
G1 X178.732 Y135.477 E11.5459
G1 X177.534 Y138.501 E11.6803
G1 X176.203 Y141.468 E11.8146
G1 X174.742 Y144.374 E11.9490
G1 X173.148 Y147.222 E12.0838
G1 X172.686 Y148.140 E12.1263
G1 X172.344 Y149.122 E12.1692
G1 X172.135 Y150.141 E12.2122
G1 X172.061 Y151.178 E12.2552
G1 X172.124 Y152.216 E12.2981
G1 X172.322 Y153.237 E12.3411
G1 X172.654 Y154.223 E12.3840
G1 X173.111 Y155.156 E12.4270
G1 X173.688 Y156.022 E12.4700
G1 X174.367 Y156.797 E12.5125
G1 X185.903 Y168.333 E13.1864
G1 X186.542 Y169.062 E13.2265
G1 X187.076 Y169.860 E13.2662
G1 X187.501 Y170.722 E13.3058
G1 X187.809 Y171.631 E13.3455
G1 X187.997 Y172.573 E13.3852
G1 X188.060 Y173.541 E13.4253
G1 X188.060 Y180.706 E13.7213
G1 X187.988 Y181.738 E13.7640
G1 X187.776 Y182.733 E13.8060
G1 X187.427 Y183.697 E13.8483
G1 X186.947 Y184.601 E13.8907
G1 X186.345 Y185.431 E13.9330
G1 X185.635 Y186.168 E13.9753
G1 X184.828 Y186.800 E14.0176
G1 X183.941 Y187.313 E14.0599
G1 X182.992 Y187.697 E14.1022
G1 X181.998 Y187.946 E14.1446
G1 X180.974 Y188.055 E14.1871
G1 X173.541 Y188.060 E14.4942
G1 X172.573 Y187.997 E14.5342
G1 X171.631 Y187.809 E14.5739
G1 X170.722 Y187.501 E14.6136
G1 X169.860 Y187.076 E14.6532
G1 X169.062 Y186.542 E14.6929
G1 X168.333 Y185.903 E14.7330
G1 X156.797 Y174.367 E15.4069
G1 X156.022 Y173.688 E15.4495
G1 X155.156 Y173.111 E15.4924
G1 X154.223 Y172.654 E15.5354
G1 X153.237 Y172.322 E15.5783
G1 X152.216 Y172.124 E15.6213
G1 X151.178 Y172.061 E15.6642
G1 X150.141 Y172.135 E15.7072
G1 X149.122 Y172.344 E15.7502
G1 X148.140 Y172.686 E15.7931
G1 X147.240 Y173.139 E15.8347
G1 X144.374 Y174.742 E15.9704
G1 X141.475 Y176.200 E16.1045
G1 X138.507 Y177.531 E16.2388
G1 X135.483 Y178.730 E16.3732
G1 X132.408 Y179.793 E16.5076
G1 X129.290 Y180.718 E16.6420
G1 X126.133 Y181.504 E16.7764
G1 X122.945 Y182.150 E16.9107
G1 X119.731 Y182.653 E17.0451
G1 X116.498 Y183.013 E17.1795
G1 X113.252 Y183.230 E17.3139
G1 X110.000 Y183.302 E17.4482
G1 X106.749 Y183.230 E17.5826
G1 X103.504 Y183.013 E17.7169
G1 X100.271 Y182.653 E17.8513
G1 X97.058 Y182.150 E17.9856
G1 X93.871 Y181.505 E18.1200
G1 X90.715 Y180.719 E18.2543
G1 X87.597 Y179.794 E18.3887
G1 X84.523 Y178.732 E18.5230
G1 X81.499 Y177.534 E18.6574
G1 X78.532 Y176.203 E18.7917
G1 X75.626 Y174.742 E18.9261
G1 X72.778 Y173.148 E19.0609
G1 X71.860 Y172.686 E19.1034
G1 X70.878 Y172.344 E19.1463
G1 X69.859 Y172.135 E19.1893
G1 X68.822 Y172.061 E19.2322
G1 X67.784 Y172.124 E19.2752
G1 X66.763 Y172.322 E19.3181
G1 X65.777 Y172.654 E19.3611
G1 X64.844 Y173.111 E19.4041
G1 X63.978 Y173.688 E19.4470
G1 X63.203 Y174.367 E19.4896
G1 X51.667 Y185.903 E20.1635
G1 X50.938 Y186.542 E20.2036
G1 X50.140 Y187.076 E20.2432
G1 X49.278 Y187.501 E20.2829
G1 X48.369 Y187.809 E20.3226
G1 X47.427 Y187.997 E20.3623
G1 X46.459 Y188.060 E20.4023
G1 X39.291 Y188.060 E20.6984
G1 X38.519 Y188.020 E20.7304
G1 X37.514 Y187.843 E20.7725
G1 X36.539 Y187.527 E20.8148
G1 X35.618 Y187.079 E20.8572
G1 X34.768 Y186.507 E20.8995
G1 X34.007 Y185.822 E20.9418
G1 X33.347 Y185.038 E20.9841
G1 X32.804 Y184.169 E21.0264
G1 X32.386 Y183.234 E21.0687
G1 X32.103 Y182.249 E21.1111
G1 X31.959 Y181.230 E21.1536
G1 X31.940 Y180.715 E21.1749
G1 X31.940 Y173.541 E21.4712
G1 X32.003 Y172.573 E21.5113
G1 X32.191 Y171.631 E21.5510
G1 X32.499 Y170.722 E21.5906
G1 X32.924 Y169.860 E21.6303
G1 X33.458 Y169.062 E21.6700
G1 X34.097 Y168.333 E21.7101
G1 X45.633 Y156.797 E22.3840
G1 X46.312 Y156.022 E22.4265
G1 X46.889 Y155.156 E22.4695
G1 X47.346 Y154.223 E22.5125
G1 X47.678 Y153.237 E22.5554
G1 X47.876 Y152.216 E22.5984
G1 X47.939 Y151.178 E22.6413
G1 X47.865 Y150.141 E22.6843
G1 X47.656 Y149.122 E22.7272
G1 X47.314 Y148.140 E22.7702
G1 X46.861 Y147.240 E22.8118
G1 X45.258 Y144.374 E22.9475
G1 X43.800 Y141.475 E23.0815
G1 X42.468 Y138.507 E23.2159
G1 X41.270 Y135.483 E23.3503
G1 X40.207 Y132.408 E23.4847
G1 X39.282 Y129.290 E23.6191
G1 X38.496 Y126.133 E23.7534
G1 X37.850 Y122.945 E23.8878
G1 X37.347 Y119.731 E24.0222
G1 X36.987 Y116.498 E24.1566
G1 X36.770 Y113.252 E24.2909
G1 X36.698 Y110.000 E24.4253
G1 X36.770 Y106.749 E24.5597
G1 X36.987 Y103.504 E24.6940
G1 X37.347 Y100.271 E24.8284
G1 X37.850 Y97.058 E24.9627
G1 X38.495 Y93.871 E25.0971
G1 X39.281 Y90.715 E25.2314
G1 X40.206 Y87.597 E25.3658
G1 X41.268 Y84.523 E25.5001
G1 X42.466 Y81.499 E25.6344
G1 X43.797 Y78.532 E25.7688
G1 X45.258 Y75.626 E25.9031
G1 X46.852 Y72.778 E26.0380
G1 X47.314 Y71.860 E26.0804
G1 X47.656 Y70.878 E26.1234
G1 X47.865 Y69.859 E26.1664
G1 X47.939 Y68.822 E26.2093
G1 X47.876 Y67.784 E26.2523
G1 X47.678 Y66.763 E26.2952
G1 X47.346 Y65.777 E26.3382
G1 X46.889 Y64.844 E26.3811
G1 X46.312 Y63.978 E26.4241
G1 X45.633 Y63.203 E26.4667
G1 X34.097 Y51.667 E27.1406
G1 X33.458 Y50.938 E27.1806
G1 X32.924 Y50.140 E27.2203
G1 X32.499 Y49.278 E27.2600
G1 X32.191 Y48.369 E27.2997
G1 X32.003 Y47.427 E27.3393
G1 X31.940 Y46.459 E27.3794
G1 X31.940 Y39.289 E27.6756
G1 X31.958 Y38.776 E27.6968
G1 X32.100 Y37.764 E27.7390
G1 X32.382 Y36.779 E27.7813
G1 X32.797 Y35.843 E27.8237
G1 X33.343 Y34.967 E27.8663
G1 X33.997 Y34.188 E27.9083
G1 X34.758 Y33.502 F4400
G1 X35.607 Y32.928 F4400
G1 X36.527 Y32.478 F4400
G1 X37.501 Y32.161 F4400
G1 X38.389 Y32.003 F4400
; inner perimeter
G1 X37.635 Y32.698 F4600
G92 E0
G1 X38.575 Y32.531 E0.0394 F1056
G1 X39.301 Y32.492 E0.0694
G1 X46.441 Y32.492 E0.3644
G1 X47.354 Y32.552 E0.4022
G1 X48.226 Y32.725 E0.4389
G1 X49.067 Y33.011 E0.4756
G1 X49.863 Y33.403 E0.5123
G1 X50.602 Y33.897 E0.5490
G1 X51.290 Y34.500 E0.5868
G1 X62.825 Y46.036 E1.2607
G1 X63.642 Y46.751 E1.3055
G1 X64.568 Y47.368 E1.3515
G1 X65.567 Y47.858 E1.3975
G1 X66.622 Y48.213 E1.4434
G1 X67.714 Y48.425 E1.4894
G1 X68.825 Y48.493 E1.5354
G1 X69.935 Y48.413 E1.5813
G1 X71.025 Y48.189 E1.6273
G1 X72.075 Y47.824 E1.6733
G1 X73.019 Y47.349 E1.7169
G1 X75.878 Y45.749 E1.8522
G1 X78.762 Y44.298 E1.9856
G1 X81.708 Y42.977 E2.1190
G1 X84.709 Y41.788 E2.2523
G1 X87.761 Y40.733 E2.3857
G1 X90.856 Y39.814 E2.5191
G1 X93.989 Y39.034 E2.6524
G1 X97.153 Y38.394 E2.7858
G1 X100.342 Y37.894 E2.9192
G1 X103.551 Y37.537 E3.0525
G1 X106.772 Y37.322 E3.1859
G1 X110.000 Y37.250 E3.3193
G1 X113.227 Y37.322 E3.4526
G1 X116.448 Y37.537 E3.5859
G1 X119.655 Y37.894 E3.7193
G1 X122.844 Y38.393 E3.8526
G1 X126.008 Y39.033 E3.9859
G1 X129.140 Y39.813 E4.1193
G1 X132.234 Y40.731 E4.2526
G1 X135.285 Y41.786 E4.3859
G1 X138.286 Y42.975 E4.5193
G1 X141.231 Y44.295 E4.6526
G1 X144.115 Y45.745 E4.7859
G1 X146.963 Y47.339 E4.9208
G1 X147.925 Y47.824 E4.9652
G1 X148.975 Y48.189 E5.0112
G1 X150.065 Y48.413 E5.0572
G1 X151.175 Y48.493 E5.1031
G1 X152.286 Y48.425 E5.1491
G1 X153.378 Y48.213 E5.1951
G1 X154.433 Y47.858 E5.2410
G1 X155.432 Y47.368 E5.2870
G1 X156.358 Y46.751 E5.3330
G1 X157.175 Y46.036 E5.3778
G1 X168.710 Y34.500 E6.0517
G1 X169.398 Y33.897 E6.0895
G1 X170.137 Y33.403 E6.1262
G1 X170.933 Y33.011 E6.1629
G1 X171.774 Y32.725 E6.1996
