; G-Code generated by Simplify3D(R) Version 4.0.0
; Aug 20, 2018 at 2:21:43 PM
; Settings Summary
;   processName,vase
;   applyToModels,Twisted_Vase_Basic
;   profileName,Flyingbear p902 (modified)
;   profileVersion,2017-02-06 00:22:54
;   baseProfile,Default
;   printMaterial,PLA
;   printQuality,Medium
;   printExtruders,
;   extruderName,Extruder 1
;   extruderToolheadNumber,0
;   extruderDiameter,0.4
;   extruderAutoWidth,1
;   extruderWidth,0.48
;   extrusionMultiplier,1
;   extruderUseRetract,1
;   extruderRetractionDistance,1
;   extruderExtraRestartDistance,0
;   extruderRetractionZLift,0
;   extruderRetractionSpeed,3400
;   extruderUseCoasting,0
;   extruderCoastingDistance,0.2
;   extruderUseWipe,0
;   extruderWipeDistance,5
;   primaryExtruder,0
;   layerHeight,0.3
;   topSolidLayers,3
;   bottomSolidLayers,3
;   perimeterOutlines,1
;   printPerimetersInsideOut,1
;   startPointOption,2
;   startPointOriginX,0
;   startPointOriginY,0
;   sequentialIslands,0
;   spiralVaseMode,1
;   firstLayerHeightPercentage,90
;   firstLayerWidthPercentage,100
;   firstLayerUnderspeed,0.5
;   useRaft,0
;   raftExtruder,0
;   raftTopLayers,3
;   raftBaseLayers,1
;   raftOffset,2
;   raftSeparationDistance,0.2
;   raftTopInfill,100
;   aboveRaftSpeedMultiplier,0.3
;   useSkirt,0
;   skirtExtruder,0
;   skirtLayers,1
;   skirtOutlines,2
;   skirtOffset,4
;   usePrimePillar,0
;   primePillarExtruder,999
;   primePillarWidth,12
;   primePillarLocation,7
;   primePillarSpeedMultiplier,1
;   useOozeShield,0
;   oozeShieldExtruder,999
;   oozeShieldOffset,2
;   oozeShieldOutlines,1
;   oozeShieldSidewallShape,1
;   oozeShieldSidewallAngle,30
;   oozeShieldSpeedMultiplier,1
;   infillExtruder,0
;   internalInfillPattern,Rectilinear
;   externalInfillPattern,Rectilinear
;   infillPercentage,0
;   outlineOverlapPercentage,15
;   infillExtrusionWidthPercentage,100
;   minInfillLength,5
;   infillLayerInterval,1
;   internalInfillAngles,45,-45
;   overlapInternalInfillAngles,0
;   externalInfillAngles,45,-45
;   generateSupport,0
;   supportExtruder,0
;   supportInfillPercentage,15
;   supportExtraInflation,0.5
;   supportBaseLayers,0
;   denseSupportExtruder,0
;   denseSupportLayers,0
;   denseSupportInfillPercentage,70
;   supportLayerInterval,1
;   supportHorizontalPartOffset,0.3
;   supportUpperSeparationLayers,1
;   supportLowerSeparationLayers,1
;   supportType,1
;   supportGridSpacing,1
;   maxOverhangAngle,60
;   supportAngles,0
;   temperatureName,Extruder 1,Heated Bed
;   temperatureNumber,0,0
;   temperatureSetpointCount,1,1
;   temperatureSetpointLayers,1,1
;   temperatureSetpointTemperatures,210,60
;   temperatureStabilizeAtStartup,1,1
;   temperatureHeatedBed,0,1
;   temperatureRelayBetweenLayers,0,0
;   temperatureRelayBetweenLoops,0,0
;   fanLayers,1,2
;   fanSpeeds,0,100
;   blipFanToFullPower,0
;   adjustSpeedForCooling,1
;   minSpeedLayerTime,15
;   minCoolingSpeedSlowdown,20
;   increaseFanForCooling,0
;   minFanLayerTime,45
;   maxCoolingFanSpeed,100
;   increaseFanForBridging,1
;   bridgingFanSpeed,100
;   use5D,1
;   relativeEdistances,0
;   allowEaxisZeroing,1
;   independentExtruderAxes,0
;   includeM10123,0
;   stickySupport,1
;   applyToolheadOffsets,0
;   gcodeXoffset,0
;   gcodeYoffset,0
;   gcodeZoffset,0
;   overrideMachineDefinition,1
;   machineTypeOverride,0
;   strokeXoverride,220
;   strokeYoverride,220
;   strokeZoverride,280
;   originOffsetXoverride,0
;   originOffsetYoverride,0
;   originOffsetZoverride,0
;   homeXdirOverride,-1
;   homeYdirOverride,-1
;   homeZdirOverride,-1
;   flipXoverride,1
;   flipYoverride,-1
;   flipZoverride,1
;   toolheadOffsets,0,0|0,0|0,0|0,0|0,0|0,0
;   overrideFirmwareConfiguration,1
;   firmwareTypeOverride,RepRap (Marlin/Repetier/Sprinter)
;   GPXconfigOverride,r2
;   baudRateOverride,250000
;   overridePrinterModels,0
;   printerModelsOverride
;   startingGcode,G28 ; home all axes,G1 X0 Y5 Z0.2 F3000 ; get ready to prime,G92 E0 ; reset extrusion distance,G1 X200 E20 F600 ; prime nozzle
;   layerChangeGcode,
;   retractionGcode,
;   toolChangeGcode,
;   endingGcode,M104 S0 ; turn off extruder,M140 S0 ; turn off bed,G91 ; use relative coordinates,G1 Z0.6 F5000 ; lift nozzle by 0.6mm,G90 ; use absolute coordinates,G28 X0 ; home X axis,G28 Y0 ; home X axis,M84 ; disable motors,M107 ; turn off fan
;   exportFileFormat,gcode
;   celebration,0
;   celebrationSong,Random Song
;   postProcessing,
;   defaultSpeed,4200
;   outlineUnderspeed,0.9
;   solidInfillUnderspeed,1
;   supportUnderspeed,0.8
;   rapidXYspeed,4200
;   rapidZspeed,1002
;   minBridgingArea,50
;   bridgingExtraInflation,0
;   bridgingExtrusionMultiplier,1
;   bridgingSpeedMultiplier,1
;   useFixedBridgingAngle,0
;   fixedBridgingAngle,0
;   applyBridgingToPerimeters,0
;   filamentDiameters,1.75|1.75|1.75|1.75|1.75|1.75
;   filamentPricesPerKg,46|46|46|46|46|46
;   filamentDensities,1.25|1.25|1.25|1.25|1.25|1.25
;   useMinPrintHeight,0
;   minPrintHeight,0
;   useMaxPrintHeight,0
;   maxPrintHeight,197
;   useDiaphragm,0
;   diaphragmLayerInterval,20
;   robustSlicing,1
;   mergeAllIntoSolid,0
;   onlyRetractWhenCrossingOutline,1
;   retractBetweenLayers,1
;   useRetractionMinTravel,0
;   retractionMinTravel,3
;   retractWhileWiping,0
;   onlyWipeOutlines,1
;   avoidCrossingOutline,0
;   maxMovementDetourFactor,3
;   toolChangeRetractionDistance,12
;   toolChangeExtraRestartDistance,-0.5
;   toolChangeRetractionSpeed,600
;   externalThinWallType,1
;   internalThinWallType,1
;   thinWallAllowedOverlapPercentage,10
;   singleExtrusionMinLength,1
;   singleExtrusionMinPrintingWidthPercentage,50
;   singleExtrusionMaxPrintingWidthPercentage,200
;   singleExtrusionEndpointExtension,0.2
;   horizontalSizeCompensation,0
G90
M82
M106 S0
M140 S60
M190 S60
M104 S210 T0
M109 S210 T0
G28 ; home all axes
G1 X0 Y5 Z0.2 F3000 ; get ready to prime
G92 E0 ; reset extrusion distance
G1 X200 E20 F600 ; prime nozzle
G92 E0
G1 E-1.0000 F3400
G1 Z0.270 F1002
; process vase
; layer 1, Z = 0.270
T0
; tool H0.300 W0.480
; outer perimeter
G1 X85.161 Y66.978 F4200
G1 E0.0000 F1020
G92 E0
G1 X134.875 Y66.978 E2.9763 F1890
G1 X147.297 Y88.492 E4.4636
G1 X147.326 Y88.607 E4.4706
G1 X159.677 Y110.000 E5.9496
G1 X134.839 Y153.022 E8.9236
G1 X85.125 Y153.022 E11.8999
G1 X72.703 Y131.508 E13.3872
G1 X72.674 Y131.393 E13.3943
G1 X60.323 Y110.000 E14.8732
G1 X85.161 Y66.978 E17.8473
; solid layer
G1 X134.590 Y67.386 F4200
G92 E0
G1 X134.709 Y67.505 E0.0101 F2100
G1 X135.636 Y69.111 E0.1211
G1 X133.911 Y67.386 E0.2672
G1 X133.232 Y67.386 E0.3078
G1 X136.563 Y70.717 E0.5898
G1 X137.490 Y72.323 E0.7009
G1 X132.553 Y67.386 E1.1189
G1 X131.874 Y67.386 E1.1595
G1 X138.418 Y73.930 E1.7135
G1 X139.345 Y75.536 E1.8246
G1 X131.195 Y67.386 E2.5146
G1 X130.517 Y67.386 E2.5552
G1 X140.272 Y77.142 E3.3812
G1 X141.200 Y78.748 E3.4922
G1 X129.838 Y67.386 E4.4542
G1 X129.159 Y67.386 E4.4948
G1 X142.127 Y80.354 E5.5928
G1 X143.054 Y81.960 E5.7038
G1 X128.480 Y67.386 E6.9377
G1 X127.801 Y67.386 E6.9783
G1 X143.981 Y83.566 E8.3483
G1 X144.909 Y85.172 E8.4593
G1 X127.123 Y67.386 E9.9652
G1 X126.444 Y67.386 E10.0058
G1 X145.836 Y86.778 E11.6477
G1 X146.763 Y88.385 E11.7587
G1 X125.765 Y67.386 E13.5366
G1 X125.086 Y67.386 E13.5772
G1 X147.604 Y89.904 E15.4837
G1 X148.531 Y91.510 E15.5948
G1 X124.407 Y67.386 E17.6372
G1 X123.728 Y67.386 E17.6779
G1 X149.458 Y93.116 E19.8563
G1 X150.385 Y94.722 E19.9673
G1 X123.050 Y67.386 E22.2818
G1 X122.371 Y67.386 E22.3224
G1 X151.313 Y96.328 E24.7728
G1 X152.240 Y97.934 E24.8839
G1 X121.692 Y67.386 E27.4703
G1 X121.013 Y67.386 E27.5109
G1 X153.167 Y99.540 E30.2333
G1 X154.095 Y101.146 E30.3443
G1 X120.334 Y67.386 E33.2027
G1 X119.655 Y67.386 E33.2433
G1 X155.022 Y102.753 E36.2377
G1 X155.949 Y104.359 E36.3487
G1 X118.977 Y67.386 E39.4790
G1 X118.298 Y67.386 E39.5197
G1 X156.877 Y105.965 E42.7860
G1 X157.804 Y107.571 E42.8970
G1 X117.619 Y67.386 E46.2993
G1 X116.940 Y67.386 E46.3400
G1 X158.731 Y109.177 E49.8782
G1 X159.206 Y110.000 E49.9351
G1 X159.085 Y110.210 E49.9496
G1 X116.261 Y67.386 E53.5754
G1 X115.583 Y67.386 E53.6160
G1 X158.837 Y110.640 E57.2782
G1 X158.588 Y111.071 E57.3079
G1 X114.904 Y67.386 E61.0065
G1 X114.225 Y67.386 E61.0472
G1 X158.340 Y111.501 E64.7822
G1 X158.091 Y111.931 E64.8120
G1 X113.546 Y67.386 E68.5834
G1 X112.867 Y67.386 E68.6241
G1 X157.843 Y112.362 E72.4320
G1 X157.594 Y112.792 E72.4618
G1 X112.188 Y67.386 E76.3061
G1 X111.510 Y67.386 E76.3467
G1 X157.346 Y113.222 E80.2275
G1 X157.097 Y113.653 E80.2573
G1 X110.831 Y67.386 E84.1745
G1 X110.152 Y67.386 E84.2151
G1 X156.849 Y114.083 E88.1688
G1 X156.600 Y114.513 E88.1986
G1 X109.473 Y67.386 E92.1887
G1 X108.794 Y67.386 E92.2293
G1 X156.352 Y114.944 E96.2558
G1 X156.103 Y115.374 E96.2856
G1 X108.116 Y67.386 E100.3486
G1 X107.437 Y67.386 E100.3892
G1 X155.855 Y115.804 E104.4886
G1 X155.607 Y116.235 E104.5183
G1 X106.758 Y67.386 E108.6542
G1 X106.079 Y67.386 E108.6948
G1 X155.358 Y116.665 E112.8671
G1 X155.110 Y117.096 E112.8969
G1 X105.400 Y67.386 E117.1056
G1 X104.721 Y67.386 E117.1462
G1 X154.861 Y117.526 E121.3914
G1 X154.613 Y117.956 E121.4211
G1 X104.043 Y67.386 E125.7027
G1 X103.364 Y67.386 E125.7434
G1 X154.364 Y118.387 E130.0614
G1 X154.116 Y118.817 E130.0911
G1 X102.685 Y67.386 E134.4456
G1 X102.006 Y67.386 E134.4862
G1 X153.867 Y119.247 E138.8771
G1 X153.619 Y119.678 E138.9069
G1 X101.327 Y67.386 E143.3342
G1 X100.648 Y67.386 E143.3749
G1 X153.370 Y120.108 E147.8387
G1 X153.122 Y120.538 E147.8684
G1 X99.970 Y67.386 E152.3686
G1 X99.291 Y67.386 E152.4093
G1 X152.873 Y120.969 E156.9459
G1 X152.625 Y121.399 E156.9757
G1 X98.612 Y67.386 E161.5487
G1 X97.933 Y67.386 E161.5894
G1 X152.376 Y121.829 E166.1989
G1 X152.128 Y122.260 E166.2287
G1 X97.254 Y67.386 E170.8746
G1 X96.576 Y67.386 E170.9153
G1 X151.880 Y122.690 E175.5976
G1 X151.631 Y123.121 E175.6274
G1 X95.897 Y67.386 E180.3462
G1 X95.218 Y67.386 E180.3869
G1 X151.383 Y123.551 E185.1421
G1 X151.134 Y123.981 E185.1719
G1 X94.539 Y67.386 E189.9636
G1 X93.860 Y67.386 E190.0042
G1 X150.886 Y124.412 E194.8324
G1 X150.637 Y124.842 E194.8621
G1 X93.181 Y67.386 E199.7267
G1 X92.503 Y67.386 E199.7673
G1 X150.389 Y125.272 E204.6684
G1 X150.140 Y125.703 E204.6981
G1 X91.824 Y67.386 E209.6356
G1 X91.145 Y67.386 E209.6762
G1 X149.892 Y126.133 E214.6501
G1 X149.643 Y126.563 E214.6798
G1 X90.466 Y67.386 E219.6902
G1 X89.787 Y67.386 E219.7308
G1 X149.395 Y126.994 E224.7776
G1 X149.146 Y127.424 E224.8073
G1 X89.108 Y67.386 E229.8905
G1 X88.430 Y67.386 E229.9312
G1 X148.898 Y127.854 E235.0508
G1 X148.649 Y128.285 E235.0806
G1 X87.751 Y67.386 E240.2366
G1 X87.072 Y67.386 E240.2773
G1 X148.401 Y128.715 E245.4698
G1 X148.153 Y129.145 E245.4995
G1 X86.393 Y67.386 E250.7285
G1 X85.714 Y67.386 E250.7691
G1 X147.904 Y129.576 E256.0345
G1 X147.656 Y130.006 E256.0642
G1 X85.265 Y67.615 E261.3467
G1 X85.016 Y68.046 E261.3764
G1 X147.407 Y130.437 E266.6588
G1 X147.159 Y130.867 E266.6886
G1 X84.768 Y68.476 E271.9710
G1 X84.519 Y68.906 E272.0008
G1 X146.910 Y131.297 E277.2832
G1 X146.662 Y131.728 E277.3129
G1 X84.271 Y69.337 E282.5954
G1 X84.022 Y69.767 E282.6251
G1 X146.413 Y132.158 E287.9075
G1 X146.165 Y132.588 E287.9373
G1 X83.774 Y70.197 E293.2197
G1 X83.525 Y70.628 E293.2495
G1 X145.916 Y133.019 E298.5319
G1 X145.668 Y133.449 E298.5616
G1 X83.277 Y71.058 E303.8441
G1 X83.028 Y71.488 E303.8738
G1 X145.419 Y133.879 E309.1562
G1 X145.171 Y134.310 E309.1860
G1 X82.780 Y71.919 E314.4684
G1 X82.532 Y72.349 E314.4982
G1 X144.922 Y134.740 E319.7806
G1 X144.674 Y135.170 E319.8103
G1 X82.283 Y72.780 E325.0928
G1 X82.035 Y73.210 E325.1225
G1 X144.426 Y135.601 E330.4049
G1 X144.177 Y136.031 E330.4347
G1 X81.786 Y73.640 E335.7171
G1 X81.538 Y74.071 E335.7469
G1 X143.929 Y136.462 E341.0293
G1 X143.680 Y136.892 E341.0590
G1 X81.289 Y74.501 E346.3415
G1 X81.041 Y74.931 E346.3712
G1 X143.432 Y137.322 E351.6536
G1 X143.183 Y137.753 E351.6834
G1 X80.792 Y75.362 E356.9658
G1 X80.544 Y75.792 E356.9956
G1 X142.935 Y138.183 E362.2780
G1 X142.686 Y138.613 E362.3077
G1 X80.295 Y76.222 E367.5902
G1 X80.047 Y76.653 E367.6199
G1 X142.438 Y139.044 E372.9023
G1 X142.189 Y139.474 E372.9321
G1 X79.798 Y77.083 E378.2145
G1 X79.550 Y77.513 E378.2443
G1 X141.941 Y139.904 E383.5267
G1 X141.692 Y140.335 E383.5564
G1 X79.301 Y77.944 E388.8389
G1 X79.053 Y78.374 E388.8686
G1 X141.444 Y140.765 E394.1510
G1 X141.195 Y141.195 E394.1808
G1 X78.805 Y78.804 E399.4632
G1 X78.556 Y79.235 E399.4930
G1 X140.947 Y141.626 E404.7754
G1 X140.699 Y142.056 E404.8051
G1 X78.308 Y79.665 E410.0876
G1 X78.059 Y80.096 E410.1173
G1 X140.450 Y142.487 E415.3997
G1 X140.202 Y142.917 E415.4295
G1 X77.811 Y80.526 E420.7119
G1 X77.562 Y80.956 E420.7417
G1 X139.953 Y143.347 E426.0241
G1 X139.705 Y143.778 E426.0538
G1 X77.314 Y81.387 E431.3363
G1 X77.065 Y81.817 E431.3660
G1 X139.456 Y144.208 E436.6484
G1 X139.208 Y144.638 E436.6782
G1 X76.817 Y82.247 E441.9606
G1 X76.568 Y82.678 E441.9904
G1 X138.959 Y145.069 E447.2728
G1 X138.711 Y145.499 E447.3025
G1 X76.320 Y83.108 E452.5850
G1 X76.071 Y83.538 E452.6147
G1 X138.462 Y145.929 E457.8971
G1 X138.214 Y146.360 E457.9269
G1 X75.823 Y83.969 E463.2093
G1 X75.574 Y84.399 E463.2391
G1 X137.965 Y146.790 E468.5215
G1 X137.717 Y147.220 E468.5512
G1 X75.326 Y84.829 E473.8337
G1 X75.078 Y85.260 E473.8634
G1 X137.468 Y147.651 E479.1458
G1 X137.220 Y148.081 E479.1756
G1 X74.829 Y85.690 E484.4580
G1 X74.581 Y86.121 E484.4878
G1 X136.972 Y148.512 E489.7702
G1 X136.723 Y148.942 E489.7999
G1 X74.332 Y86.551 E495.0824
G1 X74.084 Y86.981 E495.1121
G1 X136.475 Y149.372 E500.3945
G1 X136.226 Y149.803 E500.4243
G1 X73.835 Y87.412 E505.7067
G1 X73.587 Y87.842 E505.7365
G1 X135.978 Y150.233 E511.0189
G1 X135.729 Y150.663 E511.0486
G1 X73.338 Y88.272 E516.3311
G1 X73.090 Y88.703 E516.3608
G1 X135.481 Y151.094 E521.6432
G1 X135.232 Y151.524 E521.6730
G1 X72.841 Y89.133 E526.9554
G1 X72.593 Y89.563 E526.9852
G1 X134.984 Y151.954 E532.2676
G1 X134.735 Y152.385 E532.2973
G1 X72.344 Y89.994 E537.5798
G1 X72.096 Y90.424 E537.6095
G1 X134.286 Y152.614 E542.8749
G1 X133.607 Y152.614 E542.9155
G1 X71.847 Y90.854 E548.1445
G1 X71.599 Y91.285 E548.1742
G1 X132.928 Y152.614 E553.3667
G1 X132.249 Y152.614 E553.4074
G1 X71.351 Y91.715 E558.5635
G1 X71.102 Y92.146 E558.5932
G1 X131.570 Y152.614 E563.7128
G1 X130.892 Y152.614 E563.7535
G1 X70.854 Y92.576 E568.8367
G1 X70.605 Y93.006 E568.8664
G1 X130.213 Y152.614 E573.9132
G1 X129.534 Y152.614 E573.9538
G1 X70.357 Y93.437 E578.9642
G1 X70.108 Y93.867 E578.9939
G1 X128.855 Y152.614 E583.9678
G1 X128.176 Y152.614 E584.0085
G1 X69.860 Y94.297 E588.9459
G1 X69.611 Y94.728 E588.9757
G1 X127.497 Y152.614 E593.8767
G1 X126.819 Y152.614 E593.9173
G1 X69.363 Y95.158 E598.7819
G1 X69.114 Y95.588 E598.8116
G1 X126.140 Y152.614 E603.6398
G1 X125.461 Y152.614 E603.6804
G1 X68.866 Y96.019 E608.4721
G1 X68.617 Y96.449 E608.5019
G1 X124.782 Y152.614 E613.2572
G1 X124.103 Y152.614 E613.2978
G1 X68.369 Y96.879 E618.0166
G1 X68.120 Y97.310 E618.0464
G1 X123.424 Y152.614 E622.7288
G1 X122.746 Y152.614 E622.7694
G1 X67.872 Y97.740 E627.4154
G1 X67.624 Y98.171 E627.4451
G1 X122.067 Y152.614 E632.0547
G1 X121.388 Y152.614 E632.0953
G1 X67.375 Y98.601 E636.6684
G1 X67.127 Y99.031 E636.6981
G1 X120.709 Y152.614 E641.2348
G1 X120.030 Y152.614 E641.2754
G1 X66.878 Y99.462 E645.7756
G1 X66.630 Y99.892 E645.8054
G1 X119.352 Y152.614 E650.2692
G1 X118.673 Y152.614 E650.3098
G1 X66.381 Y100.322 E654.7372
G1 X66.133 Y100.753 E654.7669
G1 X117.994 Y152.614 E659.1578
G1 X117.315 Y152.614 E659.1984
G1 X65.884 Y101.183 E663.5529
G1 X65.636 Y101.613 E663.5827
G1 X116.636 Y152.614 E667.9007
G1 X115.957 Y152.614 E667.9413
G1 X65.387 Y102.044 E672.2229
G1 X65.139 Y102.474 E672.2527
G1 X115.279 Y152.614 E676.4978
G1 X114.600 Y152.614 E676.5385
G1 X64.890 Y102.904 E680.7472
G1 X64.642 Y103.335 E680.7769
G1 X113.921 Y152.614 E684.9492
G1 X113.242 Y152.614 E684.9899
G1 X64.393 Y103.765 E689.1257
G1 X64.145 Y104.196 E689.1555
G1 X112.563 Y152.614 E693.2549
G1 X111.885 Y152.614 E693.2955
G1 X63.897 Y104.626 E697.3585
