; G-Code generated by Simplify3D(R) Version 4.0.0
; Oct 23, 2019 at 9:57:38 PM
; Settings Summary
;   processName,Process2
;   applyToModels,Unicorn_Top_Rigth
;   profileName,Default(2) (modified)
;   profileVersion,2019-07-27 15:21:07
;   baseProfile,
;   printMaterial,PLA
;   printQuality,Medium
;   printExtruders,
;   extruderName,Primary Extruder
;   extruderToolheadNumber,0
;   extruderDiameter,0.4
;   extruderAutoWidth,1
;   extruderWidth,0.48
;   extrusionMultiplier,0.9
;   extruderUseRetract,1
;   extruderRetractionDistance,1
;   extruderExtraRestartDistance,0
;   extruderRetractionZLift,0
;   extruderRetractionSpeed,1800
;   extruderUseCoasting,0
;   extruderCoastingDistance,0.2
;   extruderUseWipe,0
;   extruderWipeDistance,5
;   primaryExtruder,0
;   layerHeight,0.3
;   topSolidLayers,3
;   bottomSolidLayers,2
;   perimeterOutlines,2
;   printPerimetersInsideOut,1
;   startPointOption,2
;   startPointOriginX,0
;   startPointOriginY,0
;   sequentialIslands,0
;   spiralVaseMode,0
;   firstLayerHeightPercentage,90
;   firstLayerWidthPercentage,100
;   firstLayerUnderspeed,0.5
;   useRaft,0
;   raftExtruder,0
;   raftTopLayers,3
;   raftBaseLayers,2
;   raftOffset,3
;   raftSeparationDistance,0.14
;   raftTopInfill,100
;   aboveRaftSpeedMultiplier,0.3
;   useSkirt,0
;   skirtExtruder,0
;   skirtLayers,1
;   skirtOutlines,2
;   skirtOffset,4
;   usePrimePillar,0
;   primePillarExtruder,999
;   primePillarWidth,12
;   primePillarLocation,7
;   primePillarSpeedMultiplier,1
;   useOozeShield,0
;   oozeShieldExtruder,999
;   oozeShieldOffset,2
;   oozeShieldOutlines,1
;   oozeShieldSidewallShape,1
;   oozeShieldSidewallAngle,30
;   oozeShieldSpeedMultiplier,1
;   infillExtruder,0
;   internalInfillPattern,Rectilinear
;   externalInfillPattern,Rectilinear
;   infillPercentage,10
;   outlineOverlapPercentage,15
;   infillExtrusionWidthPercentage,100
;   minInfillLength,5
;   infillLayerInterval,1
;   internalInfillAngles,45,-45
;   overlapInternalInfillAngles,0
;   externalInfillAngles,45,-45
;   generateSupport,0
;   supportExtruder,0
;   supportInfillPercentage,30
;   supportExtraInflation,0
;   supportBaseLayers,0
;   denseSupportExtruder,0
;   denseSupportLayers,0
;   denseSupportInfillPercentage,70
;   supportLayerInterval,1
;   supportHorizontalPartOffset,0.3
;   supportUpperSeparationLayers,1
;   supportLowerSeparationLayers,1
;   supportType,0
;   supportGridSpacing,4
;   maxOverhangAngle,45
;   supportAngles,0
;   temperatureName,Primary Extruder,Hot Bed
;   temperatureNumber,0,1
;   temperatureSetpointCount,1,1
;   temperatureSetpointLayers,1,1
;   temperatureSetpointTemperatures,200,60
;   temperatureStabilizeAtStartup,1,0
;   temperatureHeatedBed,0,1
;   temperatureRelayBetweenLayers,0,0
;   temperatureRelayBetweenLoops,0,0
;   fanLayers,1,2
;   fanSpeeds,0,100
;   blipFanToFullPower,0
;   adjustSpeedForCooling,1
;   minSpeedLayerTime,15
;   minCoolingSpeedSlowdown,20
;   increaseFanForCooling,0
;   minFanLayerTime,45
;   maxCoolingFanSpeed,100
;   increaseFanForBridging,0
;   bridgingFanSpeed,100
;   use5D,1
;   relativeEdistances,0
;   allowEaxisZeroing,1
;   independentExtruderAxes,0
;   includeM10123,0
;   stickySupport,1
;   applyToolheadOffsets,0
;   gcodeXoffset,-9
;   gcodeYoffset,-4
;   gcodeZoffset,0
;   overrideMachineDefinition,0
;   machineTypeOverride,0
;   strokeXoverride,200
;   strokeYoverride,200
;   strokeZoverride,200
;   originOffsetXoverride,0
;   originOffsetYoverride,0
;   originOffsetZoverride,0
;   homeXdirOverride,-1
;   homeYdirOverride,-1
;   homeZdirOverride,-1
;   flipXoverride,1
;   flipYoverride,-1
;   flipZoverride,1
;   toolheadOffsets,0,0|0,0|0,0|0,0|0,0|0,0
;   overrideFirmwareConfiguration,0
;   firmwareTypeOverride,RepRap (Marlin/Repetier/Sprinter)
;   GPXconfigOverride,r2
;   baudRateOverride,115200
;   overridePrinterModels,0
;   printerModelsOverride
;   startingGcode,G28 ; home all axes,G1 X2 Y15 Z0.2 F3000 ; get ready to prime,G92 E0 ; reset extrusion distance,G1 Y150 E20 F600 ; prime nozzle
;   layerChangeGcode,
;   retractionGcode,
;   toolChangeGcode,
;   endingGcode,M104 S0 ; turn off extruder,M140 S0 ; turn off bed,G28 X Y ; home X & Y,M84 ; disable motors,M107; Fan off
;   exportFileFormat,gcode
;   celebration,0
;   celebrationSong,Random Song
;   postProcessing,
;   defaultSpeed,3200
;   outlineUnderspeed,0.5
;   solidInfillUnderspeed,0.8
;   supportUnderspeed,0.8
;   rapidXYspeed,4800
;   rapidZspeed,1000
;   minBridgingArea,50
;   bridgingExtraInflation,0
;   bridgingExtrusionMultiplier,1
;   bridgingSpeedMultiplier,1
;   useFixedBridgingAngle,0
;   fixedBridgingAngle,0
;   applyBridgingToPerimeters,0
;   filamentDiameters,1.75|1.75|1.75|1.75|1.75|1.75
;   filamentPricesPerKg,46|46|46|46|46|46
;   filamentDensities,1.25|1.25|1.25|1.25|1.25|1.25
;   useMinPrintHeight,0
;   minPrintHeight,0
;   useMaxPrintHeight,0
;   maxPrintHeight,0
;   useDiaphragm,0
;   diaphragmLayerInterval,20
;   robustSlicing,1
;   mergeAllIntoSolid,0
;   onlyRetractWhenCrossingOutline,1
;   retractBetweenLayers,1
;   useRetractionMinTravel,0
;   retractionMinTravel,3
;   retractWhileWiping,0
;   onlyWipeOutlines,1
;   avoidCrossingOutline,0
;   maxMovementDetourFactor,3
;   toolChangeRetractionDistance,12
;   toolChangeExtraRestartDistance,-0.5
;   toolChangeRetractionSpeed,600
;   externalThinWallType,1
;   internalThinWallType,1
;   thinWallAllowedOverlapPercentage,10
;   singleExtrusionMinLength,1
;   singleExtrusionMinPrintingWidthPercentage,50
;   singleExtrusionMaxPrintingWidthPercentage,200
;   singleExtrusionEndpointExtension,0.2
;   horizontalSizeCompensation,0
G90
M82
M106 S0
M140 S60
M104 S200 T0
M109 S200 T0
G28 ; home all axes
G1 X2 Y15 Z0.2 F3000 ; get ready to prime
G92 E0 ; reset extrusion distance
G1 Y150 E20 F600 ; prime nozzle
G92 E0
G1 E-1.0000 F1800
G1 Z0.270 F1000
; process Process2
; layer 1, Z = 0.270
T0
; tool H0.300 W0.480
; inner perimeter
G1 X51.417 Y150.302 F4800
G1 E0.0000 F540
G92 E0
G1 X50.915 Y150.610 E0.0317 F1200
G1 X49.954 Y151.550 E0.1041
G1 X49.425 Y152.258 E0.1518
G1 X49.373 Y152.274 E0.1547
G1 X48.896 Y153.116 E0.2068
G1 X48.812 Y153.403 E0.2230
G1 X48.596 Y153.668 E0.2414
G1 X48.382 Y154.158 E0.2702
G1 X48.316 Y154.446 E0.2861
G1 X48.238 Y154.985 E0.3155
G1 X48.250 Y155.347 E0.3350
G1 X48.202 Y155.542 E0.3458
G1 X48.156 Y155.962 E0.3686
G1 X48.134 Y157.250 E0.4380
G1 X48.165 Y157.618 E0.4579
G1 X48.165 Y157.947 E0.4756
G1 X48.211 Y158.279 E0.4937
G1 X48.211 Y158.644 E0.5133
G1 X48.389 Y159.711 E0.5716
G1 X48.584 Y160.178 E0.5989
G1 X48.756 Y160.419 E0.6148
G1 X48.779 Y160.616 E0.6255
G1 X48.986 Y161.054 E0.6516
G1 X49.189 Y161.707 E0.6885
G1 X49.524 Y162.345 E0.7273
G1 X49.655 Y162.789 E0.7522
G1 X49.776 Y163.087 E0.7696
G1 X50.321 Y163.748 E0.8157
G1 X50.536 Y164.184 E0.8419
G1 X50.649 Y164.313 E0.8512
G1 X50.670 Y164.453 E0.8588
G1 X50.992 Y165.040 E0.8949
G1 X51.249 Y165.355 E0.9168
G1 X51.655 Y165.746 E0.9472
G1 X51.853 Y166.029 E0.9657
G1 X52.129 Y166.345 E0.9884
G1 X52.484 Y166.927 E1.0251
G1 X53.182 Y167.677 E1.0803
G1 X53.743 Y168.337 E1.1270
G1 X54.444 Y168.994 E1.1788
G1 X55.132 Y169.700 E1.2319
G1 X55.533 Y170.042 E1.2603
G1 X55.817 Y170.244 E1.2790
G1 X56.657 Y170.980 E1.3392
G1 X57.104 Y171.262 E1.3677
G1 X57.448 Y171.584 E1.3931
G1 X57.712 Y171.801 E1.4115
G1 X58.178 Y172.231 E1.4457
G1 X58.399 Y172.406 E1.4609
G1 X58.718 Y172.626 E1.4818
G1 X58.624 Y172.930 E1.4989
G1 X58.265 Y172.930 E1.5182
G1 X57.810 Y172.886 E1.5429
G1 X56.257 Y172.849 E1.6265
G1 X54.387 Y172.739 E1.7275
G1 X53.766 Y172.698 E1.7610
G1 X53.170 Y172.630 E1.7933
G1 X52.804 Y172.559 E1.8134
G1 X52.538 Y172.559 E1.8278
G1 X52.047 Y172.395 E1.8557
G1 X51.951 Y172.395 E1.8609
G1 X51.733 Y172.285 E1.8740
G1 X51.284 Y172.174 E1.8989
G1 X50.349 Y172.022 E1.9500
G1 X49.962 Y172.003 E1.9708
G1 X49.619 Y171.919 E1.9899
G1 X49.319 Y171.919 E2.0060
G1 X48.861 Y171.786 E2.0317
G1 X48.713 Y171.786 E2.0397
G1 X48.333 Y171.636 E2.0617
G1 X48.075 Y171.574 E2.0760
G1 X46.840 Y171.384 E2.1434
G1 X46.422 Y171.225 E2.1674
G1 X46.246 Y171.213 E2.1769
G1 X45.971 Y171.037 E2.1945
G1 X45.571 Y170.885 E2.2176
G1 X44.922 Y170.759 E2.2532
G1 X44.522 Y170.618 E2.2761
G1 X44.268 Y170.604 E2.2898
G1 X43.676 Y170.331 E2.3249
G1 X42.983 Y170.191 E2.3630
G1 X42.751 Y170.123 E2.3761
G1 X42.421 Y170.074 E2.3940
G1 X41.823 Y169.707 E2.4318
G1 X41.136 Y169.507 E2.4704
G1 X40.673 Y169.301 E2.4977
G1 X40.457 Y169.287 E2.5093
G1 X40.132 Y169.106 E2.5294
G1 X39.813 Y168.986 E2.5477
G1 X39.217 Y168.853 E2.5806
G1 X38.714 Y168.589 E2.6112
G1 X38.621 Y168.576 E2.6163
G1 X38.514 Y168.491 E2.6236
G1 X37.984 Y168.280 E2.6544
G1 X37.535 Y168.047 E2.6817
G1 X37.311 Y168.007 E2.6939
G1 X37.036 Y167.832 E2.7115
G1 X36.426 Y167.604 E2.7466
G1 X36.048 Y167.519 E2.7674
G1 X35.447 Y167.125 E2.8061
G1 X34.804 Y166.891 E2.8430
G1 X34.137 Y166.460 E2.8858
G1 X33.487 Y166.285 E2.9221
G1 X32.901 Y165.927 E2.9591
G1 X32.231 Y165.645 E2.9983
G1 X32.231 Y51.959 E9.1238
G1 X168.301 Y51.959 E16.4555
G1 X168.378 Y52.293 E16.4740
G1 X168.150 Y52.405 E16.4876
G1 X167.957 Y52.534 E16.5001
G1 X167.035 Y53.261 E16.5634
G1 X166.648 Y53.643 E16.5927
G1 X165.686 Y54.251 E16.6541
G1 X166.581 Y55.435 E16.7340
G1 X166.956 Y55.731 E16.7598
G1 X167.506 Y55.900 E16.7908
G1 X167.743 Y55.989 E16.8044
G1 X168.079 Y56.072 E16.8231
G1 X168.469 Y56.343 E16.8486
G1 X168.709 Y56.465 E16.8632
G1 X168.955 Y56.576 E16.8777
G1 X169.373 Y56.677 E16.9009
G1 X170.006 Y57.087 E16.9415
G1 X170.668 Y57.264 E16.9784
G1 X171.268 Y57.606 E17.0156
G1 X171.280 Y57.617 E17.0165
G1 X171.879 Y57.873 E17.0517
G1 X172.547 Y58.321 E17.0949
G1 X173.204 Y58.535 E17.1322
G1 X173.855 Y58.929 E17.1732
G1 X174.424 Y59.169 E17.2064
G1 X175.065 Y59.653 E17.2498
G1 X175.361 Y59.778 E17.2670
G1 X175.748 Y59.884 E17.2887
G1 X176.140 Y60.174 E17.3149
G1 X176.328 Y60.279 E17.3266
G1 X176.679 Y60.521 E17.3495
G1 X176.958 Y60.644 E17.3660
G1 X177.144 Y60.806 E17.3792
G1 X177.623 Y61.057 E17.4084
G1 X178.321 Y61.521 E17.4535
G1 X178.860 Y61.765 E17.4854
G1 X179.147 Y62.043 E17.5070
G1 X179.510 Y62.302 E17.5310
G1 X180.295 Y62.801 E17.5811
G1 X180.330 Y62.801 E17.5830
G1 X180.762 Y63.027 E17.6093
G1 X181.052 Y63.316 E17.6313
G1 X182.360 Y64.297 E17.7194
G1 X182.676 Y64.492 E17.7394
G1 X182.802 Y64.610 E17.7487
G1 X183.309 Y64.972 E17.7823
G1 X183.647 Y65.267 E17.8065
G1 X183.946 Y65.464 E17.8258
G1 X184.548 Y66.043 E17.8708
G1 X185.183 Y66.612 E17.9167
G1 X185.818 Y67.244 E17.9650
G1 X186.458 Y67.841 E18.0121
G1 X186.999 Y68.390 E18.0537
G1 X187.579 Y69.033 E18.1003
G1 X188.207 Y69.661 E18.1482
G1 X188.976 Y70.602 E18.2137
G1 X189.237 Y70.889 E18.2346
G1 X189.512 Y71.351 E18.2636
G1 X189.512 Y71.373 E18.2648
G1 X189.987 Y72.139 E18.3133
G1 X190.251 Y72.510 E18.3378
G1 X190.528 Y72.788 E18.3590
G1 X190.731 Y73.276 E18.3875
G1 X191.114 Y73.932 E18.4284
G1 X191.207 Y74.323 E18.4500
G1 X191.310 Y74.604 E18.4662
G1 X191.480 Y74.906 E18.4848
G1 X191.732 Y75.246 E18.5076
G1 X191.800 Y75.565 E18.5252
G1 X191.913 Y75.833 E18.5409
G1 X192.070 Y76.330 E18.5690
G1 X192.162 Y76.467 E18.5779
G1 X192.167 Y76.534 E18.5815
G1 X192.351 Y77.015 E18.6092
G1 X192.366 Y77.323 E18.6259
G1 X192.433 Y77.604 E18.6414
G1 X192.448 Y77.992 E18.6623
G1 X192.511 Y78.719 E18.7017
G1 X192.647 Y79.951 E18.7685
G1 X192.436 Y80.098 E18.7823
G1 X192.312 Y80.036 E18.7898
G1 X191.662 Y79.848 E18.8262
G1 X191.349 Y79.740 E18.8441
G1 X191.043 Y79.695 E18.8608
G1 X190.414 Y79.333 E18.8999
G1 X189.421 Y79.152 E18.9542
G1 X189.020 Y79.111 E18.9760
G1 X188.667 Y79.008 E18.9958
G1 X188.419 Y78.986 E19.0092
G1 X187.817 Y78.728 E19.0445
G1 X186.908 Y78.539 E19.0945
G1 X186.480 Y78.473 E19.1178
G1 X186.064 Y78.345 E19.1413
G1 X185.831 Y78.345 E19.1538
G1 X185.257 Y78.090 E19.1877
G1 X184.333 Y77.906 E19.2384
G1 X183.556 Y77.833 E19.2805
G1 X183.153 Y77.833 E19.3022
G1 X182.566 Y77.773 E19.3340
G1 X182.175 Y77.713 E19.3553
G1 X181.907 Y77.713 E19.3698
G1 X181.461 Y77.622 E19.3943
G1 X181.253 Y77.622 E19.4055
G1 X180.719 Y77.534 E19.4347
G1 X180.631 Y77.534 E19.4394
G1 X180.182 Y77.435 E19.4642
G1 X179.975 Y77.412 E19.4754
G1 X178.663 Y77.329 E19.5462
G1 X177.266 Y77.290 E19.6215
G1 X175.422 Y77.289 E19.7209
G1 X174.125 Y77.309 E19.7908
G1 X173.463 Y77.338 E19.8265
G1 X172.225 Y77.431 E19.8934
G1 X171.516 Y77.566 E19.9323
G1 X171.366 Y77.566 E19.9404
G1 X170.865 Y77.676 E19.9680
G1 X170.630 Y77.676 E19.9806
G1 X170.214 Y77.750 E20.0034
G1 X169.876 Y77.772 E20.0217
G1 X169.588 Y77.821 E20.0374
G1 X169.205 Y77.834 E20.0580
G1 X168.463 Y77.910 E20.0982
G1 X168.260 Y77.934 E20.1092
G1 X167.500 Y78.099 E20.1512
G1 X166.930 Y78.382 E20.1854
G1 X166.671 Y78.382 E20.1994
G1 X166.259 Y78.515 E20.2227
G1 X165.334 Y78.748 E20.2741
G1 X164.973 Y78.925 E20.2958
G1 X164.777 Y78.947 E20.3064
G1 X164.365 Y79.111 E20.3303
G1 X163.974 Y79.149 E20.3515
G1 X163.685 Y79.227 E20.3676
G1 X163.120 Y79.422 E20.3998
G1 X163.000 Y79.507 E20.4078
G1 X162.891 Y79.516 E20.4136
G1 X162.320 Y79.829 E20.4487
G1 X161.690 Y80.050 E20.4847
G1 X161.080 Y80.386 E20.5222
G1 X160.691 Y80.467 E20.5436
G1 X160.406 Y80.562 E20.5598
G1 X160.082 Y80.735 E20.5796
G1 X159.728 Y80.984 E20.6029
G1 X159.345 Y81.106 E20.6246
G1 X158.832 Y81.386 E20.6561
G1 X158.436 Y81.693 E20.6831
G1 X158.026 Y81.814 E20.7061
G1 X157.779 Y81.918 E20.7206
G1 X157.109 Y82.389 E20.7647
G1 X156.554 Y82.688 E20.7987
G1 X156.451 Y82.792 E20.8065
G1 X156.299 Y82.848 E20.8153
G1 X155.805 Y83.171 E20.8471
G1 X155.565 Y83.339 E20.8628
G1 X155.139 Y83.690 E20.8926
G1 X154.695 Y83.983 E20.9213
G1 X154.512 Y84.148 E20.9345
G1 X154.156 Y84.333 E20.9561
G1 X153.849 Y84.547 E20.9763
G1 X153.173 Y85.107 E21.0236
G1 X152.552 Y85.672 E21.0688
G1 X151.956 Y86.094 E21.1082
G1 X151.954 Y86.154 E21.1114
G1 X151.464 Y86.592 E21.1469
G1 X151.231 Y86.826 E21.1647
G1 X150.770 Y87.229 E21.1976
G1 X149.929 Y88.060 E21.2614
G1 X149.266 Y88.751 E21.3129
G1 X148.884 Y89.202 E21.3448
G1 X147.953 Y90.215 E21.4189
G1 X147.752 Y90.513 E21.4383
G1 X147.195 Y91.123 E21.4828
G1 X146.599 Y91.818 E21.5321
G1 X146.458 Y92.052 E21.5469
G1 X146.286 Y92.473 E21.5713
G1 X146.035 Y92.720 E21.5903
G1 X145.784 Y93.109 E21.6153
G1 X145.224 Y93.850 E21.6654
G1 X144.984 Y94.877 E21.7222
G1 X145.347 Y95.682 E21.7697
G1 X145.632 Y95.995 E21.7925
G1 X146.153 Y96.340 E21.8262
G1 X146.499 Y96.657 E21.8515
G1 X146.866 Y96.894 E21.8750
G1 X147.432 Y97.214 E21.9101
G1 X147.621 Y97.250 E21.9204
G1 X147.851 Y97.387 E21.9349
G1 X148.343 Y97.543 E21.9627
G1 X148.957 Y97.660 E21.9964
G1 X149.386 Y97.831 E22.0213
G1 X149.556 Y97.849 E22.0304
G1 X149.820 Y98.019 E22.0474
G1 X150.264 Y98.172 E22.0727
G1 X150.930 Y98.281 E22.1091
G1 X151.275 Y98.374 E22.1283
G1 X151.604 Y98.374 E22.1460
G1 X152.005 Y98.511 E22.1689
G1 X152.179 Y98.529 E22.1783
G1 X152.553 Y98.691 E22.2002
G1 X152.880 Y98.772 E22.2184
G1 X153.714 Y98.857 E22.2636
G1 X154.829 Y98.942 E22.3238
G1 X155.095 Y98.995 E22.3384
G1 X155.448 Y99.031 E22.3575
G1 X155.892 Y99.135 E22.3821
G1 X156.088 Y99.135 E22.3927
G1 X156.717 Y99.349 E22.4285
G1 X158.275 Y99.588 E22.5134
G1 X158.669 Y99.614 E22.5347
G1 X159.015 Y99.688 E22.5538
G1 X159.302 Y99.688 E22.5692
G1 X159.768 Y99.834 E22.5955
G1 X159.924 Y99.834 E22.6039
G1 X160.329 Y99.982 E22.6272
G1 X160.569 Y100.032 E22.6404
G1 X161.393 Y100.146 E22.6852
G1 X162.492 Y100.243 E22.7446
G1 X162.820 Y100.327 E22.7629
G1 X163.100 Y100.352 E22.7780
G1 X163.734 Y100.579 E22.8143
G1 X163.775 Y100.602 E22.8168
G1 X164.383 Y100.756 E22.8506
G1 X164.966 Y100.864 E22.8826
G1 X165.473 Y101.083 E22.9124
G1 X165.620 Y101.075 E22.9203
G1 X165.837 Y101.218 E22.9343
G1 X166.282 Y101.379 E22.9598
G1 X166.920 Y101.471 E22.9945
G1 X167.256 Y101.597 E23.0139
G1 X167.479 Y101.617 E23.0259
G1 X167.783 Y101.836 E23.0461
G1 X168.324 Y102.083 E23.0782
G1 X168.683 Y102.190 E23.0983
G1 X169.001 Y102.442 E23.1202
G1 X169.291 Y102.620 E23.1385
G1 X169.811 Y102.926 E23.1710
G1 X169.796 Y103.188 E23.1852
G1 X169.508 Y103.318 E23.2023
G1 X169.277 Y103.318 E23.2147
G1 X168.824 Y103.473 E23.2405
G1 X168.126 Y103.630 E23.2791
G1 X167.808 Y103.802 E23.2985
