; G-Code generated by Simplify3D(R) Version 4.0.0
; Oct 23, 2019 at 9:57:52 PM
; Settings Summary
;   processName,Process2
;   applyToModels,Unicorn_Top_Left
;   profileName,Default(2) (modified)
;   profileVersion,2019-07-27 15:21:07
;   baseProfile,
;   printMaterial,PLA
;   printQuality,Medium
;   printExtruders,
;   extruderName,Primary Extruder
;   extruderToolheadNumber,0
;   extruderDiameter,0.4
;   extruderAutoWidth,1
;   extruderWidth,0.48
;   extrusionMultiplier,0.9
;   extruderUseRetract,1
;   extruderRetractionDistance,1
;   extruderExtraRestartDistance,0
;   extruderRetractionZLift,0
;   extruderRetractionSpeed,1800
;   extruderUseCoasting,0
;   extruderCoastingDistance,0.2
;   extruderUseWipe,0
;   extruderWipeDistance,5
;   primaryExtruder,0
;   layerHeight,0.3
;   topSolidLayers,3
;   bottomSolidLayers,2
;   perimeterOutlines,2
;   printPerimetersInsideOut,1
;   startPointOption,2
;   startPointOriginX,0
;   startPointOriginY,0
;   sequentialIslands,0
;   spiralVaseMode,0
;   firstLayerHeightPercentage,90
;   firstLayerWidthPercentage,100
;   firstLayerUnderspeed,0.5
;   useRaft,0
;   raftExtruder,0
;   raftTopLayers,3
;   raftBaseLayers,2
;   raftOffset,3
;   raftSeparationDistance,0.14
;   raftTopInfill,100
;   aboveRaftSpeedMultiplier,0.3
;   useSkirt,0
;   skirtExtruder,0
;   skirtLayers,1
;   skirtOutlines,2
;   skirtOffset,4
;   usePrimePillar,0
;   primePillarExtruder,999
;   primePillarWidth,12
;   primePillarLocation,7
;   primePillarSpeedMultiplier,1
;   useOozeShield,0
;   oozeShieldExtruder,999
;   oozeShieldOffset,2
;   oozeShieldOutlines,1
;   oozeShieldSidewallShape,1
;   oozeShieldSidewallAngle,30
;   oozeShieldSpeedMultiplier,1
;   infillExtruder,0
;   internalInfillPattern,Rectilinear
;   externalInfillPattern,Rectilinear
;   infillPercentage,10
;   outlineOverlapPercentage,15
;   infillExtrusionWidthPercentage,100
;   minInfillLength,5
;   infillLayerInterval,1
;   internalInfillAngles,45,-45
;   overlapInternalInfillAngles,0
;   externalInfillAngles,45,-45
;   generateSupport,0
;   supportExtruder,0
;   supportInfillPercentage,30
;   supportExtraInflation,0
;   supportBaseLayers,0
;   denseSupportExtruder,0
;   denseSupportLayers,0
;   denseSupportInfillPercentage,70
;   supportLayerInterval,1
;   supportHorizontalPartOffset,0.3
;   supportUpperSeparationLayers,1
;   supportLowerSeparationLayers,1
;   supportType,0
;   supportGridSpacing,4
;   maxOverhangAngle,45
;   supportAngles,0
;   temperatureName,Primary Extruder,Hot Bed
;   temperatureNumber,0,1
;   temperatureSetpointCount,1,1
;   temperatureSetpointLayers,1,1
;   temperatureSetpointTemperatures,200,60
;   temperatureStabilizeAtStartup,1,0
;   temperatureHeatedBed,0,1
;   temperatureRelayBetweenLayers,0,0
;   temperatureRelayBetweenLoops,0,0
;   fanLayers,1,2
;   fanSpeeds,0,100
;   blipFanToFullPower,0
;   adjustSpeedForCooling,1
;   minSpeedLayerTime,15
;   minCoolingSpeedSlowdown,20
;   increaseFanForCooling,0
;   minFanLayerTime,45
;   maxCoolingFanSpeed,100
;   increaseFanForBridging,0
;   bridgingFanSpeed,100
;   use5D,1
;   relativeEdistances,0
;   allowEaxisZeroing,1
;   independentExtruderAxes,0
;   includeM10123,0
;   stickySupport,1
;   applyToolheadOffsets,0
;   gcodeXoffset,-9
;   gcodeYoffset,-4
;   gcodeZoffset,0
;   overrideMachineDefinition,0
;   machineTypeOverride,0
;   strokeXoverride,200
;   strokeYoverride,200
;   strokeZoverride,200
;   originOffsetXoverride,0
;   originOffsetYoverride,0
;   originOffsetZoverride,0
;   homeXdirOverride,-1
;   homeYdirOverride,-1
;   homeZdirOverride,-1
;   flipXoverride,1
;   flipYoverride,-1
;   flipZoverride,1
;   toolheadOffsets,0,0|0,0|0,0|0,0|0,0|0,0
;   overrideFirmwareConfiguration,0
;   firmwareTypeOverride,RepRap (Marlin/Repetier/Sprinter)
;   GPXconfigOverride,r2
;   baudRateOverride,115200
;   overridePrinterModels,0
;   printerModelsOverride
;   startingGcode,G28 ; home all axes,G1 X2 Y15 Z0.2 F3000 ; get ready to prime,G92 E0 ; reset extrusion distance,G1 Y150 E20 F600 ; prime nozzle
;   layerChangeGcode,
;   retractionGcode,
;   toolChangeGcode,
;   endingGcode,M104 S0 ; turn off extruder,M140 S0 ; turn off bed,G28 X Y ; home X & Y,M84 ; disable motors,M107; Fan off
;   exportFileFormat,gcode
;   celebration,0
;   celebrationSong,Random Song
;   postProcessing,
;   defaultSpeed,3200
;   outlineUnderspeed,0.5
;   solidInfillUnderspeed,0.8
;   supportUnderspeed,0.8
;   rapidXYspeed,4800
;   rapidZspeed,1000
;   minBridgingArea,50
;   bridgingExtraInflation,0
;   bridgingExtrusionMultiplier,1
;   bridgingSpeedMultiplier,1
;   useFixedBridgingAngle,0
;   fixedBridgingAngle,0
;   applyBridgingToPerimeters,0
;   filamentDiameters,1.75|1.75|1.75|1.75|1.75|1.75
;   filamentPricesPerKg,46|46|46|46|46|46
;   filamentDensities,1.25|1.25|1.25|1.25|1.25|1.25
;   useMinPrintHeight,0
;   minPrintHeight,0
;   useMaxPrintHeight,0
;   maxPrintHeight,0
;   useDiaphragm,0
;   diaphragmLayerInterval,20
;   robustSlicing,1
;   mergeAllIntoSolid,0
;   onlyRetractWhenCrossingOutline,1
;   retractBetweenLayers,1
;   useRetractionMinTravel,0
;   retractionMinTravel,3
;   retractWhileWiping,0
;   onlyWipeOutlines,1
;   avoidCrossingOutline,0
;   maxMovementDetourFactor,3
;   toolChangeRetractionDistance,12
;   toolChangeExtraRestartDistance,-0.5
;   toolChangeRetractionSpeed,600
;   externalThinWallType,1
;   internalThinWallType,1
;   thinWallAllowedOverlapPercentage,10
;   singleExtrusionMinLength,1
;   singleExtrusionMinPrintingWidthPercentage,50
;   singleExtrusionMaxPrintingWidthPercentage,200
;   singleExtrusionEndpointExtension,0.2
;   horizontalSizeCompensation,0
G90
M82
M106 S0
M140 S60
M104 S200 T0
M109 S200 T0
G28 ; home all axes
G1 X2 Y15 Z0.2 F3000 ; get ready to prime
G92 E0 ; reset extrusion distance
G1 Y150 E20 F600 ; prime nozzle
G92 E0
G1 E-1.0000 F1800
G1 Z0.270 F1000
; process Process2
; layer 1, Z = 0.270
T0
; tool H0.300 W0.480
; inner perimeter
G1 X81.568 Y32.366 F4800
G1 E0.0000 F540
G92 E0
G1 X81.366 Y32.083 E0.0188 F1200
G1 X81.081 Y31.775 E0.0413
G1 X80.765 Y31.152 E0.0790
G1 X80.125 Y30.431 E0.1309
G1 X79.131 Y29.187 E0.2167
G1 X78.779 Y28.716 E0.2484
G1 X78.570 Y28.525 E0.2637
G1 X78.256 Y28.005 E0.2964
G1 X78.380 Y27.785 E0.3100
G1 X216.780 Y27.785 E7.7672
G1 X216.780 Y140.652 E13.8487
G1 X216.126 Y140.278 E13.8893
G1 X215.721 Y140.116 E13.9128
G1 X215.434 Y139.873 E13.9330
G1 X215.053 Y139.648 E13.9569
G1 X214.561 Y139.395 E13.9867
G1 X214.377 Y139.362 E13.9967
G1 X214.199 Y139.214 E14.0092
G1 X213.812 Y139.021 E14.0325
G1 X213.147 Y138.495 E14.0782
G1 X212.495 Y138.234 E14.1160
G1 X212.091 Y137.936 E14.1431
G1 X211.902 Y137.827 E14.1549
G1 X211.382 Y137.429 E14.1901
G1 X211.287 Y137.389 E14.1957
G1 X211.222 Y137.318 E14.2009
G1 X210.581 Y136.990 E14.2397
G1 X209.988 Y136.604 E14.2778
G1 X209.739 Y136.424 E14.2944
G1 X209.351 Y136.217 E14.3180
G1 X209.141 Y136.032 E14.3331
G1 X208.697 Y135.770 E14.3609
G1 X207.735 Y135.057 E14.4254
G1 X207.444 Y134.891 E14.4435
G1 X207.294 Y134.754 E14.4544
G1 X206.782 Y134.454 E14.4864
G1 X206.339 Y134.107 E14.5167
G1 X206.159 Y133.993 E14.5282
G1 X205.471 Y133.425 E14.5763
G1 X204.878 Y133.076 E14.6134
G1 X204.591 Y132.825 E14.6339
G1 X204.243 Y132.627 E14.6555
G1 X203.647 Y132.071 E14.6994
G1 X202.975 Y131.522 E14.7462
G1 X202.753 Y131.357 E14.7610
G1 X202.342 Y131.135 E14.7862
G1 X202.179 Y130.956 E14.7992
G1 X201.693 Y130.596 E14.8318
G1 X201.095 Y130.106 E14.8735
G1 X200.668 Y129.677 E14.9061
G1 X200.382 Y129.444 E14.9260
G1 X199.459 Y128.899 E14.9837
G1 X198.677 Y129.591 E15.0400
G1 X198.560 Y130.114 E15.0689
G1 X198.493 Y131.476 E15.1424
G1 X198.503 Y134.070 E15.2821
G1 X198.601 Y136.683 E15.4230
G1 X198.692 Y137.310 E15.4572
G1 X198.692 Y137.400 E15.4620
G1 X198.783 Y137.958 E15.4924
G1 X198.783 Y138.126 E15.5015
G1 X198.852 Y138.593 E15.5269
G1 X198.852 Y138.848 E15.5407
G1 X198.927 Y139.265 E15.5635
G1 X198.944 Y139.579 E15.5805
G1 X198.983 Y139.877 E15.5966
G1 X198.992 Y140.258 E15.6172
G1 X199.024 Y140.512 E15.6309
G1 X199.029 Y140.919 E15.6529
G1 X199.120 Y141.869 E15.7043
G1 X199.301 Y142.566 E15.7432
G1 X199.317 Y142.591 E15.7447
G1 X199.560 Y143.183 E15.7792
G1 X199.574 Y143.477 E15.7951
G1 X199.622 Y143.619 E15.8031
G1 X199.362 Y143.805 E15.8204
G1 X199.103 Y143.607 E15.8379
G1 X198.696 Y143.343 E15.8640
G1 X198.456 Y143.258 E15.8778
G1 X198.337 Y143.130 E15.8872
G1 X197.852 Y142.763 E15.9199
G1 X197.246 Y142.265 E15.9622
G1 X196.823 Y141.855 E15.9940
G1 X196.092 Y141.210 E16.0465
G1 X195.343 Y140.513 E16.1016
G1 X194.085 Y139.269 E16.1970
G1 X193.440 Y138.548 E16.2491
G1 X192.805 Y137.939 E16.2965
G1 X192.162 Y137.191 E16.3496
G1 X191.701 Y136.758 E16.3837
G1 X190.870 Y135.805 E16.4518
G1 X190.497 Y135.478 E16.4786
G1 X190.271 Y135.194 E16.4981
G1 X189.598 Y134.433 E16.5529
G1 X189.377 Y134.220 E16.5694
G1 X188.738 Y133.344 E16.6278
G1 X188.383 Y132.923 E16.6575
G1 X187.782 Y132.291 E16.7045
G1 X187.224 Y131.643 E16.7506
G1 X186.598 Y131.018 E16.7982
G1 X186.430 Y130.797 E16.8132
G1 X185.757 Y130.052 E16.8673
G1 X185.440 Y129.732 E16.8915
G1 X185.140 Y129.354 E16.9176
G1 X184.297 Y128.448 E16.9842
G1 X183.831 Y127.914 E17.0224
G1 X183.701 Y127.792 E17.0320
G1 X183.208 Y127.213 E17.0730
G1 X181.944 Y125.869 E17.1724
G1 X181.245 Y125.155 E17.2263
G1 X180.791 Y124.755 E17.2589
G1 X180.564 Y124.590 E17.2740
G1 X179.807 Y123.901 E17.3292
G1 X179.320 Y123.501 E17.3631
G1 X179.105 Y123.274 E17.3799
G1 X178.649 Y122.909 E17.4114
G1 X178.010 Y122.351 E17.4571
G1 X177.512 Y121.945 E17.4918
G1 X177.359 Y121.842 E17.5017
G1 X176.710 Y121.221 E17.5501
G1 X176.347 Y120.993 E17.5732
G1 X175.998 Y120.857 E17.5933
G1 X175.752 Y120.648 E17.6107
G1 X175.397 Y120.449 E17.6327
G1 X174.746 Y119.894 E17.6788
G1 X174.403 Y119.718 E17.6996
G1 X174.015 Y119.596 E17.7214
G1 X173.623 Y119.337 E17.7468
G1 X173.362 Y119.206 E17.7625
G1 X173.118 Y119.104 E17.7768
G1 X172.765 Y119.012 E17.7964
G1 X172.440 Y118.730 E17.8196
G1 X172.085 Y118.527 E17.8416
G1 X171.739 Y118.400 E17.8615
G1 X171.341 Y118.344 E17.8832
G1 X170.791 Y118.097 E17.9156
G1 X170.653 Y118.097 E17.9231
G1 X170.421 Y117.994 E17.9367
G1 X169.709 Y117.828 E17.9761
G1 X169.049 Y118.288 E18.0195
G1 X168.991 Y119.273 E18.0727
G1 X169.195 Y119.900 E18.1082
G1 X169.334 Y120.148 E18.1235
G1 X169.334 Y120.302 E18.1317
G1 X169.555 Y120.825 E18.1623
G1 X169.708 Y121.483 E18.1987
G1 X169.874 Y121.827 E18.2194
G1 X170.086 Y122.136 E18.2395
G1 X170.107 Y122.360 E18.2516
G1 X170.235 Y122.710 E18.2717
G1 X170.439 Y123.884 E18.3359
G1 X170.662 Y124.561 E18.3743
G1 X170.662 Y124.773 E18.3858
G1 X170.757 Y125.170 E18.4078
G1 X170.757 Y125.478 E18.4243
G1 X170.803 Y125.781 E18.4409
G1 X170.803 Y126.138 E18.4601
G1 X170.926 Y127.691 E18.5440
G1 X170.950 Y128.307 E18.5773
G1 X170.962 Y129.374 E18.6347
G1 X170.938 Y130.825 E18.7129
G1 X170.830 Y132.705 E18.8144
G1 X170.791 Y132.995 E18.8302
G1 X170.791 Y133.353 E18.8495
G1 X170.734 Y133.678 E18.8672
G1 X170.734 Y133.967 E18.8828
G1 X170.627 Y134.401 E18.9069
G1 X170.627 Y134.583 E18.9167
G1 X170.438 Y135.171 E18.9500
G1 X170.229 Y136.428 E19.0186
G1 X170.084 Y136.803 E19.0403
G1 X170.068 Y137.022 E19.0521
G1 X169.858 Y137.347 E19.0729
G1 X169.723 Y137.675 E19.0921
G1 X169.561 Y138.337 E19.1288
G1 X169.403 Y138.795 E19.1549
G1 X169.403 Y139.017 E19.1668
G1 X169.178 Y139.483 E19.1947
G1 X168.994 Y140.203 E19.2348
G1 X168.776 Y140.620 E19.2601
G1 X168.749 Y140.782 E19.2690
G1 X168.608 Y140.943 E19.2805
G1 X168.158 Y141.912 E19.3381
G1 X168.142 Y142.157 E19.3513
G1 X167.931 Y142.497 E19.3728
G1 X167.760 Y142.926 E19.3977
G1 X167.642 Y143.334 E19.4206
G1 X167.344 Y143.722 E19.4470
G1 X167.204 Y143.946 E19.4612
G1 X167.040 Y144.256 E19.4801
G1 X166.920 Y144.628 E19.5011
G1 X166.676 Y144.986 E19.5245
G1 X166.381 Y145.553 E19.5589
G1 X166.274 Y145.870 E19.5769
G1 X166.062 Y146.123 E19.5948
G1 X165.855 Y146.483 E19.6171
G1 X165.396 Y147.143 E19.6604
G1 X165.125 Y147.770 E19.6973
G1 X164.787 Y148.178 E19.7258
G1 X164.662 Y148.380 E19.7386
G1 X164.223 Y148.947 E19.7772
G1 X164.186 Y149.035 E19.7824
G1 X164.127 Y149.099 E19.7870
G1 X163.857 Y149.681 E19.8217
G1 X163.528 Y150.072 E19.8492
G1 X163.389 Y150.259 E19.8617
G1 X162.799 Y150.926 E19.9097
G1 X162.629 Y151.208 E19.9275
G1 X162.483 Y151.588 E19.9494
G1 X162.257 Y151.807 E19.9663
G1 X161.997 Y152.187 E19.9911
G1 X161.431 Y152.809 E20.0365
G1 X160.920 Y153.455 E20.0808
G1 X160.518 Y153.915 E20.1137
G1 X159.922 Y154.744 E20.1688
G1 X159.686 Y155.004 E20.1877
G1 X159.425 Y155.371 E20.2120
G1 X158.810 Y155.985 E20.2588
G1 X158.414 Y156.435 E20.2911
G1 X158.257 Y156.634 E20.3047
G1 X157.602 Y157.259 E20.3535
G1 X157.031 Y157.900 E20.3997
G1 X156.366 Y158.536 E20.4494
G1 X155.772 Y159.178 E20.4965
G1 X154.617 Y160.295 E20.5831
G1 X153.983 Y160.934 E20.6316
G1 X153.341 Y161.525 E20.6786
G1 X152.718 Y162.158 E20.7264
G1 X152.494 Y162.336 E20.7418
G1 X152.067 Y162.723 E20.7729
G1 X151.463 Y163.315 E20.8185
G1 X151.047 Y163.595 E20.8455
G1 X150.819 Y163.795 E20.8618
G1 X149.977 Y164.454 E20.9194
G1 X149.537 Y164.840 E20.9510
G1 X148.885 Y165.353 E20.9957
G1 X148.266 Y165.943 E21.0417
G1 X147.930 Y166.164 E21.0634
G1 X147.662 Y166.422 E21.0835
G1 X147.170 Y166.655 E21.1128
G1 X146.994 Y166.767 E21.1240
G1 X146.331 Y167.376 E21.1725
G1 X145.816 Y167.769 E21.2074
G1 X145.374 Y167.383 E21.2391
G1 X144.938 Y166.914 E21.2736
G1 X144.792 Y166.709 E21.2872
G1 X144.388 Y166.271 E21.3193
G1 X144.155 Y165.953 E21.3405
G1 X143.907 Y165.666 E21.3609
G1 X143.532 Y165.034 E21.4005
G1 X143.121 Y164.437 E21.4395
G1 X142.916 Y164.039 E21.4637
G1 X142.743 Y163.823 E21.4786
G1 X142.664 Y163.565 E21.4931
G1 X142.260 Y162.884 E21.5358
G1 X141.990 Y162.557 E21.5587
G1 X141.912 Y162.225 E21.5770
G1 X141.809 Y161.960 E21.5923
G1 X141.658 Y161.639 E21.6114
G1 X141.453 Y161.328 E21.6315
G1 X141.403 Y161.064 E21.6460
G1 X141.004 Y160.214 E21.6966
G1 X140.855 Y160.024 E21.7096
G1 X140.828 Y159.856 E21.7188
G1 X140.638 Y159.446 E21.7432
G1 X140.493 Y158.828 E21.7774
G1 X140.402 Y158.594 E21.7909
G1 X140.186 Y158.189 E21.8156
G1 X140.162 Y157.934 E21.8294
G1 X139.993 Y157.528 E21.8531
G1 X139.814 Y156.851 E21.8908
G1 X139.483 Y156.243 E21.9282
G1 X139.432 Y155.929 E21.9453
G1 X139.342 Y155.662 E21.9605
G1 X139.240 Y155.048 E21.9940
G1 X139.147 Y154.686 E22.0141
G1 X139.006 Y154.377 E22.0325
G1 X138.996 Y154.228 E22.0405
G1 X138.838 Y153.779 E22.0662
G1 X138.824 Y153.441 E22.0844
G1 X138.729 Y153.113 E22.1028
G1 X138.614 Y152.454 E22.1388
G1 X138.481 Y152.069 E22.1608
G1 X138.316 Y151.794 E22.1780
G1 X138.316 Y151.649 E22.1859
G1 X138.162 Y151.186 E22.2122
G1 X137.888 Y149.317 E22.3139
G1 X137.682 Y148.677 E22.3501
G1 X137.682 Y148.479 E22.3608
G1 X137.577 Y148.061 E22.3841
G1 X137.577 Y147.752 E22.4007
G1 X137.512 Y147.424 E22.4187
G1 X137.496 Y147.039 E22.4395
G1 X137.365 Y146.109 E22.4901
G1 X137.240 Y145.461 E22.5257
G1 X137.005 Y144.819 E22.5625
G1 X137.005 Y144.603 E22.5741
G1 X136.908 Y144.196 E22.5967
G1 X136.882 Y143.834 E22.6162
G1 X136.829 Y143.565 E22.6310
G1 X136.617 Y141.088 E22.7650
G1 X136.483 Y140.393 E22.8031
G1 X136.483 Y140.256 E22.8105
G1 X136.390 Y139.755 E22.8379
G1 X136.390 Y139.540 E22.8495
G1 X136.337 Y139.133 E22.8716
G1 X136.337 Y138.853 E22.8867
G1 X136.295 Y138.498 E22.9060
G1 X136.295 Y138.176 E22.9233
G1 X136.264 Y137.855 E22.9407
G1 X136.223 Y136.190 E23.0304
G1 X136.172 Y135.302 E23.0783
G1 X136.125 Y134.016 E23.1477
G1 X136.034 Y132.775 E23.2147
G1 X135.980 Y131.563 E23.2801
G1 X135.883 Y130.774 E23.3229
G1 X135.813 Y130.028 E23.3633
G1 X135.659 Y129.677 E23.3840
G1 X135.452 Y129.044 E23.4199
G1 X134.759 Y128.734 E23.4608
G1 X133.964 Y128.771 E23.5037
G1 X133.409 Y128.771 E23.5336
G1 X132.029 Y128.811 E23.6079
G1 X131.250 Y128.853 E23.6500
G1 X130.705 Y128.924 E23.6796
G1 X129.949 Y128.978 E23.7204
G1 X129.447 Y129.031 E23.7477
G1 X127.943 Y129.080 E23.8288
G1 X127.543 Y129.115 E23.8504
G1 X127.278 Y129.115 E23.8646
G1 X126.902 Y129.148 E23.8850
G1 X126.605 Y129.148 E23.9010
G1 X126.253 Y129.179 E23.9200
G1 X122.354 Y129.266 E24.1302
G1 X121.426 Y129.494 E24.1816
