; G-Code generated by Simplify3D(R) Version 4.0.0
; Oct 23, 2019 at 9:58:30 PM
; Settings Summary
;   processName,Process2
;   applyToModels,Unicorn_Bottom_Left
;   profileName,Default(2) (modified)
;   profileVersion,2019-07-27 15:21:07
;   baseProfile,
;   printMaterial,PLA
;   printQuality,Medium
;   printExtruders,
;   extruderName,Primary Extruder
;   extruderToolheadNumber,0
;   extruderDiameter,0.4
;   extruderAutoWidth,1
;   extruderWidth,0.48
;   extrusionMultiplier,0.9
;   extruderUseRetract,1
;   extruderRetractionDistance,1
;   extruderExtraRestartDistance,0
;   extruderRetractionZLift,0
;   extruderRetractionSpeed,1800
;   extruderUseCoasting,0
;   extruderCoastingDistance,0.2
;   extruderUseWipe,0
;   extruderWipeDistance,5
;   primaryExtruder,0
;   layerHeight,0.3
;   topSolidLayers,3
;   bottomSolidLayers,2
;   perimeterOutlines,2
;   printPerimetersInsideOut,1
;   startPointOption,2
;   startPointOriginX,0
;   startPointOriginY,0
;   sequentialIslands,0
;   spiralVaseMode,0
;   firstLayerHeightPercentage,90
;   firstLayerWidthPercentage,100
;   firstLayerUnderspeed,0.5
;   useRaft,0
;   raftExtruder,0
;   raftTopLayers,3
;   raftBaseLayers,2
;   raftOffset,3
;   raftSeparationDistance,0.14
;   raftTopInfill,100
;   aboveRaftSpeedMultiplier,0.3
;   useSkirt,0
;   skirtExtruder,0
;   skirtLayers,1
;   skirtOutlines,2
;   skirtOffset,4
;   usePrimePillar,0
;   primePillarExtruder,999
;   primePillarWidth,12
;   primePillarLocation,7
;   primePillarSpeedMultiplier,1
;   useOozeShield,0
;   oozeShieldExtruder,999
;   oozeShieldOffset,2
;   oozeShieldOutlines,1
;   oozeShieldSidewallShape,1
;   oozeShieldSidewallAngle,30
;   oozeShieldSpeedMultiplier,1
;   infillExtruder,0
;   internalInfillPattern,Rectilinear
;   externalInfillPattern,Rectilinear
;   infillPercentage,10
;   outlineOverlapPercentage,15
;   infillExtrusionWidthPercentage,100
;   minInfillLength,5
;   infillLayerInterval,1
;   internalInfillAngles,45,-45
;   overlapInternalInfillAngles,0
;   externalInfillAngles,45,-45
;   generateSupport,0
;   supportExtruder,0
;   supportInfillPercentage,30
;   supportExtraInflation,0
;   supportBaseLayers,0
;   denseSupportExtruder,0
;   denseSupportLayers,0
;   denseSupportInfillPercentage,70
;   supportLayerInterval,1
;   supportHorizontalPartOffset,0.3
;   supportUpperSeparationLayers,1
;   supportLowerSeparationLayers,1
;   supportType,0
;   supportGridSpacing,4
;   maxOverhangAngle,45
;   supportAngles,0
;   temperatureName,Primary Extruder,Hot Bed
;   temperatureNumber,0,1
;   temperatureSetpointCount,1,1
;   temperatureSetpointLayers,1,1
;   temperatureSetpointTemperatures,200,60
;   temperatureStabilizeAtStartup,1,0
;   temperatureHeatedBed,0,1
;   temperatureRelayBetweenLayers,0,0
;   temperatureRelayBetweenLoops,0,0
;   fanLayers,1,2
;   fanSpeeds,0,100
;   blipFanToFullPower,0
;   adjustSpeedForCooling,1
;   minSpeedLayerTime,15
;   minCoolingSpeedSlowdown,20
;   increaseFanForCooling,0
;   minFanLayerTime,45
;   maxCoolingFanSpeed,100
;   increaseFanForBridging,0
;   bridgingFanSpeed,100
;   use5D,1
;   relativeEdistances,0
;   allowEaxisZeroing,1
;   independentExtruderAxes,0
;   includeM10123,0
;   stickySupport,1
;   applyToolheadOffsets,0
;   gcodeXoffset,-9
;   gcodeYoffset,-4
;   gcodeZoffset,0
;   overrideMachineDefinition,0
;   machineTypeOverride,0
;   strokeXoverride,200
;   strokeYoverride,200
;   strokeZoverride,200
;   originOffsetXoverride,0
;   originOffsetYoverride,0
;   originOffsetZoverride,0
;   homeXdirOverride,-1
;   homeYdirOverride,-1
;   homeZdirOverride,-1
;   flipXoverride,1
;   flipYoverride,-1
;   flipZoverride,1
;   toolheadOffsets,0,0|0,0|0,0|0,0|0,0|0,0
;   overrideFirmwareConfiguration,0
;   firmwareTypeOverride,RepRap (Marlin/Repetier/Sprinter)
;   GPXconfigOverride,r2
;   baudRateOverride,115200
;   overridePrinterModels,0
;   printerModelsOverride
;   startingGcode,G28 ; home all axes,G1 X2 Y15 Z0.2 F3000 ; get ready to prime,G92 E0 ; reset extrusion distance,G1 Y150 E20 F600 ; prime nozzle
;   layerChangeGcode,
;   retractionGcode,
;   toolChangeGcode,
;   endingGcode,M104 S0 ; turn off extruder,M140 S0 ; turn off bed,G28 X Y ; home X & Y,M84 ; disable motors,M107; Fan off
;   exportFileFormat,gcode
;   celebration,0
;   celebrationSong,Random Song
;   postProcessing,
;   defaultSpeed,3200
;   outlineUnderspeed,0.5
;   solidInfillUnderspeed,0.8
;   supportUnderspeed,0.8
;   rapidXYspeed,4800
;   rapidZspeed,1000
;   minBridgingArea,50
;   bridgingExtraInflation,0
;   bridgingExtrusionMultiplier,1
;   bridgingSpeedMultiplier,1
;   useFixedBridgingAngle,0
;   fixedBridgingAngle,0
;   applyBridgingToPerimeters,0
;   filamentDiameters,1.75|1.75|1.75|1.75|1.75|1.75
;   filamentPricesPerKg,46|46|46|46|46|46
;   filamentDensities,1.25|1.25|1.25|1.25|1.25|1.25
;   useMinPrintHeight,0
;   minPrintHeight,0
;   useMaxPrintHeight,0
;   maxPrintHeight,0
;   useDiaphragm,0
;   diaphragmLayerInterval,20
;   robustSlicing,1
;   mergeAllIntoSolid,0
;   onlyRetractWhenCrossingOutline,1
;   retractBetweenLayers,1
;   useRetractionMinTravel,0
;   retractionMinTravel,3
;   retractWhileWiping,0
;   onlyWipeOutlines,1
;   avoidCrossingOutline,0
;   maxMovementDetourFactor,3
;   toolChangeRetractionDistance,12
;   toolChangeExtraRestartDistance,-0.5
;   toolChangeRetractionSpeed,600
;   externalThinWallType,1
;   internalThinWallType,1
;   thinWallAllowedOverlapPercentage,10
;   singleExtrusionMinLength,1
;   singleExtrusionMinPrintingWidthPercentage,50
;   singleExtrusionMaxPrintingWidthPercentage,200
;   singleExtrusionEndpointExtension,0.2
;   horizontalSizeCompensation,0
G90
M82
M106 S0
M140 S60
M104 S200 T0
M109 S200 T0
G28 ; home all axes
G1 X2 Y15 Z0.2 F3000 ; get ready to prime
G92 E0 ; reset extrusion distance
G1 Y150 E20 F600 ; prime nozzle
G92 E0
G1 E-1.0000 F1800
G1 Z0.270 F1000
; process Process2
; layer 1, Z = 0.270
T0
; tool H0.300 W0.480
; inner perimeter
G1 X41.327 Y87.328 F4800
G1 E0.0000 F540
G92 E0
G1 X41.948 Y87.093 E0.0358 F1200
G1 X42.587 Y86.718 E0.0757
G1 X43.253 Y86.426 E0.1149
G1 X43.258 Y86.424 E0.1151
G1 X43.267 Y86.414 E0.1159
G1 X43.844 Y86.040 E0.1529
G1 X44.657 Y85.802 E0.1986
G1 X44.815 Y85.595 E0.2126
G1 X45.406 Y85.492 E0.2449
G1 X46.189 Y85.165 E0.2906
G1 X46.381 Y85.017 E0.3037
G1 X46.533 Y85.001 E0.3119
G1 X46.964 Y84.808 E0.3374
G1 X47.548 Y84.692 E0.3695
G1 X47.994 Y84.572 E0.3944
G1 X48.200 Y84.466 E0.4068
G1 X48.298 Y84.466 E0.4121
G1 X48.788 Y84.294 E0.4401
G1 X49.079 Y84.294 E0.4558
G1 X49.444 Y84.200 E0.4761
G1 X50.081 Y84.114 E0.5107
G1 X50.779 Y83.944 E0.5494
G1 X51.365 Y83.712 E0.5834
G1 X51.581 Y83.712 E0.5951
G1 X51.980 Y83.612 E0.6172
G1 X52.340 Y83.589 E0.6366
G1 X52.599 Y83.541 E0.6508
G1 X53.188 Y83.500 E0.6826
G1 X54.321 Y83.459 E0.7437
G1 X56.465 Y83.459 E0.8592
G1 X56.958 Y83.475 E0.8858
G1 X58.172 Y83.555 E0.9514
G1 X58.472 Y83.623 E0.9680
G1 X58.791 Y83.635 E0.9852
G1 X59.274 Y83.789 E1.0125
G1 X59.393 Y83.780 E1.0189
G1 X59.653 Y83.926 E1.0349
G1 X60.032 Y84.033 E1.0562
G1 X60.990 Y84.215 E1.1087
G1 X61.343 Y84.238 E1.1277
G1 X61.764 Y84.374 E1.1516
G1 X61.965 Y84.374 E1.1624
G1 X62.399 Y84.570 E1.1881
G1 X62.573 Y84.626 E1.1979
G1 X63.183 Y84.758 E1.2316
G1 X63.495 Y84.889 E1.2498
G1 X63.750 Y84.932 E1.2637
G1 X64.045 Y85.152 E1.2835
G1 X64.398 Y85.330 E1.3048
G1 X64.687 Y85.433 E1.3214
G1 X65.073 Y85.515 E1.3426
G1 X65.686 Y85.844 E1.3801
G1 X66.283 Y86.031 E1.4138
G1 X66.899 Y86.462 E1.4544
G1 X67.543 Y86.723 E1.4918
G1 X68.167 Y87.150 E1.5325
G1 X68.378 Y87.249 E1.5451
G1 X68.785 Y87.384 E1.5682
G1 X69.067 Y87.656 E1.5893
G1 X70.086 Y88.377 E1.6566
G1 X70.683 Y88.654 E1.6920
G1 X70.986 Y88.935 E1.7143
G1 X71.274 Y89.151 E1.7337
G1 X71.913 Y89.714 E1.7796
G1 X72.586 Y90.229 E1.8252
G1 X72.645 Y90.253 E1.8287
G1 X73.192 Y90.680 E1.8661
G1 X73.403 Y90.865 E1.8812
G1 X73.806 Y91.164 E1.9082
G1 X74.071 Y91.456 E1.9295
G1 X74.802 Y92.106 E1.9822
G1 X75.432 Y92.750 E2.0307
G1 X75.725 Y93.004 E2.0516
G1 X76.084 Y93.358 E2.0788
G1 X76.324 Y93.636 E2.0986
G1 X77.299 Y94.636 E2.1738
G1 X77.612 Y94.994 E2.1994
G1 X77.871 Y95.250 E2.2191
G1 X78.212 Y95.760 E2.2521
G1 X78.862 Y96.444 E2.3029
G1 X78.883 Y96.512 E2.3068
G1 X79.343 Y97.160 E2.3496
G1 X79.538 Y97.377 E2.3653
G1 X80.015 Y97.844 E2.4013
G1 X80.508 Y98.414 E2.4419
G1 X80.752 Y98.824 E2.4676
G1 X80.957 Y99.064 E2.4846
G1 X81.314 Y99.612 E2.5198
G1 X81.883 Y100.339 E2.5696
G1 X82.043 Y100.573 E2.5849
G1 X82.464 Y101.090 E2.6208
G1 X82.975 Y101.436 E2.6541
G1 X83.449 Y101.536 E2.6802
G1 X83.785 Y101.536 E2.6983
G1 X84.178 Y101.667 E2.7206
G1 X84.414 Y101.667 E2.7333
G1 X85.027 Y101.894 E2.7685
G1 X86.312 Y102.095 E2.8386
G1 X86.594 Y102.174 E2.8544
G1 X86.916 Y102.214 E2.8719
G1 X87.563 Y102.489 E2.9098
G1 X87.579 Y102.499 E2.9108
G1 X88.426 Y102.734 E2.9581
G1 X88.826 Y102.801 E2.9800
G1 X89.366 Y103.027 E3.0115
G1 X89.517 Y103.017 E3.0197
G1 X89.783 Y103.152 E3.0357
G1 X90.156 Y103.253 E3.0566
G1 X90.782 Y103.356 E3.0908
G1 X91.052 Y103.441 E3.1060
G1 X91.374 Y103.484 E3.1235
G1 X91.980 Y103.790 E3.1601
G1 X92.625 Y103.975 E3.1963
G1 X93.001 Y104.141 E3.2184
G1 X93.291 Y104.175 E3.2341
G1 X93.730 Y104.412 E3.2610
G1 X93.943 Y104.500 E3.2734
G1 X94.622 Y104.635 E3.3107
G1 X94.894 Y104.714 E3.3260
G1 X95.192 Y104.755 E3.3422
G1 X95.788 Y105.108 E3.3796
G1 X96.441 Y105.292 E3.4161
G1 X96.987 Y105.591 E3.4496
G1 X97.097 Y105.604 E3.4556
G1 X97.223 Y105.690 E3.4638
G1 X98.061 Y105.967 E3.5114
G1 X98.407 Y106.009 E3.5301
G1 X98.987 Y106.340 E3.5661
G1 X99.606 Y106.543 E3.6012
G1 X100.247 Y106.958 E3.6424
G1 X100.251 Y106.959 E3.6426
G1 X100.959 Y107.189 E3.6827
G1 X101.323 Y107.329 E3.7037
G1 X101.569 Y107.368 E3.7172
G1 X101.888 Y107.585 E3.7379
G1 X102.446 Y107.859 E3.7714
G1 X102.790 Y107.956 E3.7907
G1 X103.113 Y108.208 E3.8128
G1 X103.453 Y108.387 E3.8335
G1 X103.785 Y108.529 E3.8529
G1 X104.122 Y108.596 E3.8714
G1 X104.522 Y108.863 E3.8973
G1 X104.918 Y109.066 E3.9213
G1 X105.316 Y109.216 E3.9443
G1 X105.620 Y109.471 E3.9656
G1 X105.986 Y109.690 E3.9886
G1 X106.429 Y109.899 E4.0150
G1 X106.684 Y109.945 E4.0290
G1 X106.980 Y110.150 E4.0483
G1 X107.242 Y110.272 E4.0639
G1 X107.690 Y110.592 E4.0936
G1 X107.853 Y110.660 E4.1031
G1 X107.967 Y110.765 E4.1115
G1 X108.538 Y111.044 E4.1457
G1 X109.211 Y111.464 E4.1884
G1 X109.774 Y111.714 E4.2216
G1 X110.101 Y112.007 E4.2453
G1 X110.402 Y112.224 E4.2653
G1 X111.069 Y112.661 E4.3082
G1 X111.113 Y112.670 E4.3107
G1 X111.136 Y112.691 E4.3124
G1 X111.670 Y112.942 E4.3441
G1 X111.994 Y113.267 E4.3688
G1 X112.312 Y113.513 E4.3905
G1 X112.955 Y113.940 E4.4321
G1 X112.959 Y113.944 E4.4324
G1 X112.970 Y113.951 E4.4331
G1 X113.089 Y114.029 E4.4408
G1 X113.124 Y114.032 E4.4427
G1 X113.596 Y114.283 E4.4715
G1 X113.892 Y114.551 E4.4930
G1 X114.689 Y115.218 E4.5490
G1 X114.957 Y115.410 E4.5668
G1 X115.268 Y115.522 E4.5846
G1 X115.845 Y115.668 E4.6167
G1 X116.291 Y115.668 E4.6407
G1 X118.519 Y115.573 E4.7608
G1 X120.424 Y115.547 E4.8635
G1 X125.531 Y115.547 E5.1387
G1 X126.381 Y115.578 E5.1845
G1 X126.810 Y115.578 E5.2076
G1 X127.703 Y115.620 E5.2558
G1 X128.085 Y115.620 E5.2764
G1 X129.038 Y115.682 E5.3278
G1 X129.352 Y115.682 E5.3448
G1 X129.702 Y115.718 E5.3637
G1 X129.981 Y115.718 E5.3788
G1 X130.385 Y115.773 E5.4007
G1 X130.608 Y115.773 E5.4127
G1 X131.098 Y115.859 E5.4395
G1 X131.225 Y115.859 E5.4464
G1 X131.814 Y116.002 E5.4790
G1 X134.734 Y116.260 E5.6370
G1 X135.107 Y116.260 E5.6571
G1 X135.397 Y116.299 E5.6729
G1 X135.725 Y116.299 E5.6905
G1 X136.104 Y116.374 E5.7113
G1 X136.383 Y116.361 E5.7264
G1 X136.800 Y116.443 E5.7493
G1 X136.973 Y116.443 E5.7586
G1 X137.637 Y116.637 E5.7959
G1 X138.312 Y116.719 E5.8325
G1 X140.191 Y116.866 E5.9341
G1 X140.456 Y116.912 E5.9485
G1 X140.799 Y116.942 E5.9671
G1 X141.234 Y117.054 E5.9913
G1 X141.434 Y117.054 E6.0021
G1 X142.011 Y117.265 E6.0352
G1 X142.885 Y117.441 E6.0833
G1 X143.354 Y117.501 E6.1087
G1 X143.676 Y117.577 E6.1266
G1 X143.991 Y117.589 E6.1435
G1 X144.466 Y117.752 E6.1706
G1 X144.623 Y117.752 E6.1791
G1 X144.982 Y117.899 E6.1999
G1 X145.279 Y117.968 E6.2164
G1 X146.120 Y118.082 E6.2621
G1 X146.570 Y118.122 E6.2864
G1 X146.831 Y118.185 E6.3009
G1 X147.155 Y118.216 E6.3185
G1 X147.662 Y118.422 E6.3480
G1 X147.748 Y118.428 E6.3526
G1 X147.911 Y118.524 E6.3628
G1 X148.605 Y118.702 E6.4014
G1 X149.058 Y118.779 E6.4262
G1 X149.472 Y118.938 E6.4501
G1 X149.697 Y118.949 E6.4622
G1 X150.084 Y119.152 E6.4858
G1 X150.345 Y119.248 E6.5007
G1 X151.030 Y119.364 E6.5382
G1 X151.266 Y119.419 E6.5512
G1 X151.632 Y119.460 E6.5711
G1 X152.085 Y119.647 E6.5975
G1 X152.215 Y119.659 E6.6045
G1 X152.425 Y119.791 E6.6178
G1 X153.077 Y120.002 E6.6548
G1 X153.476 Y120.091 E6.6768
G1 X154.117 Y120.445 E6.7163
G1 X155.119 Y120.721 E6.7723
G1 X155.447 Y120.756 E6.7900
G1 X155.961 Y121.020 E6.8212
G1 X155.995 Y121.049 E6.8236
G1 X156.650 Y121.276 E6.8609
G1 X157.148 Y121.539 E6.8913
G1 X157.299 Y121.555 E6.8995
G1 X157.459 Y121.679 E6.9104
G1 X157.953 Y121.894 E6.9394
G1 X158.326 Y122.029 E6.9608
G1 X158.618 Y122.056 E6.9766
G1 X159.045 Y122.332 E7.0040
G1 X159.334 Y122.458 E7.0210
G1 X159.796 Y122.606 E7.0471
G1 X160.188 Y122.917 E7.0741
G1 X160.450 Y123.095 E7.0911
G1 X160.765 Y123.211 E7.1093
G1 X161.151 Y123.288 E7.1304
G1 X161.734 Y123.654 E7.1675
G1 X162.328 Y123.896 E7.2021
G1 X162.677 Y124.188 E7.2266
G1 X162.972 Y124.398 E7.2462
G1 X163.425 Y124.624 E7.2734
G1 X163.674 Y124.678 E7.2871
G1 X163.923 Y124.869 E7.3040
G1 X164.216 Y125.020 E7.3218
G1 X164.851 Y125.581 E7.3674
G1 X165.177 Y125.757 E7.3874
G1 X165.558 Y125.874 E7.4089
G1 X165.880 Y126.140 E7.4314
G1 X166.136 Y126.277 E7.4470
G1 X166.745 Y126.809 E7.4906
G1 X167.017 Y126.997 E7.5084
G1 X167.425 Y127.197 E7.5329
G1 X167.660 Y127.405 E7.5498
G1 X168.018 Y127.619 E7.5723
G1 X168.377 Y127.990 E7.6001
G1 X169.269 Y128.735 E7.6627
G1 X169.828 Y129.274 E7.7046
G1 X170.541 Y129.892 E7.7554
G1 X171.176 Y130.528 E7.8038
G1 X171.787 Y131.168 E7.8515
G1 X173.499 Y133.041 E7.9882
G1 X173.667 Y133.275 E8.0038
G1 X174.001 Y133.671 E8.0316
G1 X174.335 Y134.133 E8.0624
G1 X174.634 Y134.410 E8.0844
G1 X175.685 Y135.283 E8.1579
G1 X176.328 Y134.275 E8.2223
G1 X176.857 Y133.551 E8.2707
G1 X177.059 Y132.867 E8.3091
G1 X177.369 Y132.308 E8.3435
G1 X177.377 Y132.263 E8.3460
G1 X177.425 Y132.206 E8.3500
G1 X177.648 Y131.638 E8.3829
G1 X178.088 Y130.965 E8.4262
G1 X178.327 Y130.290 E8.4648
G1 X178.533 Y129.823 E8.4923
G1 X178.553 Y129.648 E8.5018
G1 X178.717 Y129.415 E8.5171
G1 X178.865 Y129.044 E8.5387
G1 X179.031 Y128.728 E8.5579
G1 X179.106 Y128.441 E8.5739
G1 X179.321 Y128.185 E8.5919
G1 X179.551 Y127.750 E8.6184
G1 X179.682 Y127.372 E8.6400
G1 X179.762 Y126.775 E8.6724
G1 X179.986 Y126.575 E8.6886
G1 X180.224 Y125.841 E8.7301
G1 X180.571 Y125.270 E8.7662
G1 X180.580 Y125.211 E8.7694
G1 X180.628 Y125.156 E8.7733
G1 X181.041 Y124.094 E8.8347
G1 X181.066 Y123.833 E8.8489
G1 X181.295 Y123.412 E8.8747
G1 X181.379 Y123.200 E8.8869
G1 X181.529 Y122.617 E8.9194
G1 X181.873 Y122.042 E8.9555
G1 X181.877 Y122.010 E8.9572
G1 X181.907 Y121.976 E8.9597
G1 X182.332 Y120.876 E9.0232
G1 X182.353 Y120.607 E9.0378
G1 X182.639 Y120.022 E9.0728
G1 X182.800 Y119.378 E9.1086
G1 X182.992 Y118.976 E9.1326
G1 X183.023 Y118.790 E9.1428
G1 X183.187 Y118.578 E9.1572
G1 X183.394 Y118.111 E9.1847
G1 X183.500 Y117.789 E9.2030
G1 X183.559 Y117.423 E9.2230
G1 X183.842 Y116.812 E9.2593
G1 X183.842 Y116.763 E9.2619
G1 X183.874 Y116.707 E9.2654
G1 X184.098 Y115.902 E9.3104
G1 X184.166 Y115.540 E9.3302
G1 X184.506 Y114.942 E9.3673
G1 X184.880 Y113.828 E9.4306
G1 X184.900 Y113.581 E9.4440
G1 X185.131 Y113.169 E9.4694
G1 X185.232 Y112.940 E9.4829
G1 X185.467 Y111.686 E9.5517
G1 X185.796 Y111.066 E9.5895
G1 X185.998 Y110.393 E9.6273
G1 X186.131 Y110.033 E9.6480
G1 X186.166 Y109.723 E9.6648
G1 X186.456 Y109.114 E9.7012
G1 X186.660 Y108.187 E9.7523
G1 X186.718 Y107.781 E9.7744
G1 X186.871 Y107.373 E9.7979
G1 X186.891 Y107.197 E9.8074
G1 X186.997 Y107.150 E9.8137
G1 X187.249 Y106.360 E9.8583
G1 X187.346 Y105.891 E9.8842
G1 X187.547 Y105.403 E9.9126
G1 X187.547 Y105.208 E9.9231
