; G-Code generated by Simplify3D(R) Version 4.0.0
; Oct 22, 2019 at 12:18:38 AM
; Settings Summary
;   processName,Process2
;   applyToModels,unicorn
;   profileName,Default(2) (modified)
;   profileVersion,2019-07-27 15:21:07
;   baseProfile,
;   printMaterial,PLA
;   printQuality,Medium
;   printExtruders,
;   extruderName,Primary Extruder
;   extruderToolheadNumber,0
;   extruderDiameter,0.4
;   extruderAutoWidth,1
;   extruderWidth,0.48
;   extrusionMultiplier,0.9
;   extruderUseRetract,1
;   extruderRetractionDistance,1
;   extruderExtraRestartDistance,0
;   extruderRetractionZLift,0
;   extruderRetractionSpeed,1800
;   extruderUseCoasting,0
;   extruderCoastingDistance,0.2
;   extruderUseWipe,0
;   extruderWipeDistance,5
;   primaryExtruder,0
;   layerHeight,0.3
;   topSolidLayers,3
;   bottomSolidLayers,2
;   perimeterOutlines,2
;   printPerimetersInsideOut,1
;   startPointOption,2
;   startPointOriginX,0
;   startPointOriginY,0
;   sequentialIslands,0
;   spiralVaseMode,0
;   firstLayerHeightPercentage,90
;   firstLayerWidthPercentage,100
;   firstLayerUnderspeed,0.5
;   useRaft,0
;   raftExtruder,0
;   raftTopLayers,3
;   raftBaseLayers,2
;   raftOffset,3
;   raftSeparationDistance,0.14
;   raftTopInfill,100
;   aboveRaftSpeedMultiplier,0.3
;   useSkirt,0
;   skirtExtruder,0
;   skirtLayers,1
;   skirtOutlines,2
;   skirtOffset,4
;   usePrimePillar,0
;   primePillarExtruder,999
;   primePillarWidth,12
;   primePillarLocation,7
;   primePillarSpeedMultiplier,1
;   useOozeShield,0
;   oozeShieldExtruder,999
;   oozeShieldOffset,2
;   oozeShieldOutlines,1
;   oozeShieldSidewallShape,1
;   oozeShieldSidewallAngle,30
;   oozeShieldSpeedMultiplier,1
;   infillExtruder,0
;   internalInfillPattern,Rectilinear
;   externalInfillPattern,Rectilinear
;   infillPercentage,10
;   outlineOverlapPercentage,15
;   infillExtrusionWidthPercentage,100
;   minInfillLength,5
;   infillLayerInterval,1
;   internalInfillAngles,45,-45
;   overlapInternalInfillAngles,0
;   externalInfillAngles,45,-45
;   generateSupport,0
;   supportExtruder,0
;   supportInfillPercentage,30
;   supportExtraInflation,0
;   supportBaseLayers,0
;   denseSupportExtruder,0
;   denseSupportLayers,0
;   denseSupportInfillPercentage,70
;   supportLayerInterval,1
;   supportHorizontalPartOffset,0.3
;   supportUpperSeparationLayers,1
;   supportLowerSeparationLayers,1
;   supportType,0
;   supportGridSpacing,4
;   maxOverhangAngle,45
;   supportAngles,0
;   temperatureName,Primary Extruder,Hot Bed
;   temperatureNumber,0,1
;   temperatureSetpointCount,1,1
;   temperatureSetpointLayers,1,1
;   temperatureSetpointTemperatures,200,60
;   temperatureStabilizeAtStartup,1,0
;   temperatureHeatedBed,0,1
;   temperatureRelayBetweenLayers,0,0
;   temperatureRelayBetweenLoops,0,0
;   fanLayers,1,2
;   fanSpeeds,0,100
;   blipFanToFullPower,0
;   adjustSpeedForCooling,1
;   minSpeedLayerTime,15
;   minCoolingSpeedSlowdown,20
;   increaseFanForCooling,0
;   minFanLayerTime,45
;   maxCoolingFanSpeed,100
;   increaseFanForBridging,0
;   bridgingFanSpeed,100
;   use5D,1
;   relativeEdistances,0
;   allowEaxisZeroing,1
;   independentExtruderAxes,0
;   includeM10123,0
;   stickySupport,1
;   applyToolheadOffsets,0
;   gcodeXoffset,-9
;   gcodeYoffset,-4
;   gcodeZoffset,0
;   overrideMachineDefinition,0
;   machineTypeOverride,0
;   strokeXoverride,200
;   strokeYoverride,200
;   strokeZoverride,200
;   originOffsetXoverride,0
;   originOffsetYoverride,0
;   originOffsetZoverride,0
;   homeXdirOverride,-1
;   homeYdirOverride,-1
;   homeZdirOverride,-1
;   flipXoverride,1
;   flipYoverride,-1
;   flipZoverride,1
;   toolheadOffsets,0,0|0,0|0,0|0,0|0,0|0,0
;   overrideFirmwareConfiguration,0
;   firmwareTypeOverride,RepRap (Marlin/Repetier/Sprinter)
;   GPXconfigOverride,r2
;   baudRateOverride,115200
;   overridePrinterModels,0
;   printerModelsOverride
;   startingGcode,G28 ; home all axes,G1 X2 Y15 Z0.2 F3000 ; get ready to prime,G92 E0 ; reset extrusion distance,G1 Y150 E20 F600 ; prime nozzle
;   layerChangeGcode,
;   retractionGcode,
;   toolChangeGcode,
;   endingGcode,M104 S0 ; turn off extruder,M140 S0 ; turn off bed,G28 X Y ; home X & Y,M84 ; disable motors,M107; Fan off
;   exportFileFormat,gcode
;   celebration,0
;   celebrationSong,Random Song
;   postProcessing,
;   defaultSpeed,4400
;   outlineUnderspeed,0.5
;   solidInfillUnderspeed,0.8
;   supportUnderspeed,0.8
;   rapidXYspeed,4800
;   rapidZspeed,1000
;   minBridgingArea,50
;   bridgingExtraInflation,0
;   bridgingExtrusionMultiplier,1
;   bridgingSpeedMultiplier,1
;   useFixedBridgingAngle,0
;   fixedBridgingAngle,0
;   applyBridgingToPerimeters,0
;   filamentDiameters,1.75|1.75|1.75|1.75|1.75|1.75
;   filamentPricesPerKg,46|46|46|46|46|46
;   filamentDensities,1.25|1.25|1.25|1.25|1.25|1.25
;   useMinPrintHeight,0
;   minPrintHeight,0
;   useMaxPrintHeight,0
;   maxPrintHeight,0
;   useDiaphragm,0
;   diaphragmLayerInterval,20
;   robustSlicing,1
;   mergeAllIntoSolid,0
;   onlyRetractWhenCrossingOutline,1
;   retractBetweenLayers,1
;   useRetractionMinTravel,0
;   retractionMinTravel,3
;   retractWhileWiping,0
;   onlyWipeOutlines,1
;   avoidCrossingOutline,0
;   maxMovementDetourFactor,3
;   toolChangeRetractionDistance,12
;   toolChangeExtraRestartDistance,-0.5
;   toolChangeRetractionSpeed,600
;   externalThinWallType,1
;   internalThinWallType,1
;   thinWallAllowedOverlapPercentage,10
;   singleExtrusionMinLength,1
;   singleExtrusionMinPrintingWidthPercentage,50
;   singleExtrusionMaxPrintingWidthPercentage,200
;   singleExtrusionEndpointExtension,0.2
;   horizontalSizeCompensation,0
G90
M82
M106 S0
M140 S60
M104 S200 T0
M109 S200 T0
G28 ; home all axes
G1 X2 Y15 Z0.2 F3000 ; get ready to prime
G92 E0 ; reset extrusion distance
G1 Y150 E20 F600 ; prime nozzle
G92 E0
G1 E-1.0000 F1800
G1 Z0.270 F1000
; process Process2
; layer 1, Z = 0.270
T0
; tool H0.300 W0.480
; inner perimeter
G1 X50.697 Y35.225 F4800
G1 E0.0000 F540
G92 E0
G1 X51.221 Y34.731 E0.0388 F1650
G1 X51.408 Y34.586 E0.0516
G1 X51.827 Y34.209 E0.0819
G1 X51.902 Y34.123 E0.0881
G1 X52.283 Y33.844 E0.1135
G1 X52.600 Y33.574 E0.1359
G1 X52.937 Y33.245 E0.1613
G1 X53.339 Y32.904 E0.1897
G1 X53.563 Y32.665 E0.2074
G1 X54.062 Y32.233 E0.2429
G1 X54.225 Y32.047 E0.2563
G1 X54.787 Y31.588 E0.2953
G1 X54.884 Y31.485 E0.3029
G1 X55.130 Y31.273 E0.3205
G1 X55.228 Y31.218 E0.3266
G1 X55.529 Y30.984 E0.3471
G1 X55.867 Y30.629 E0.3735
G1 X56.191 Y30.360 E0.3962
G1 X56.530 Y30.022 E0.4220
G1 X57.371 Y29.273 E0.4826
G1 X57.519 Y29.126 E0.4939
G1 X58.142 Y28.579 E0.5386
G1 X58.475 Y28.327 E0.5611
G1 X59.642 Y27.281 E0.6455
G1 X59.839 Y27.067 E0.6612
G1 X60.354 Y26.624 E0.6978
G1 X60.489 Y26.473 E0.7087
G1 X60.670 Y26.334 E0.7210
G1 X61.110 Y25.951 E0.7524
G1 X61.339 Y25.781 E0.7678
G1 X62.476 Y24.748 E0.8506
G1 X62.782 Y24.442 E0.8738
G1 X62.905 Y24.350 E0.8822
G1 X63.439 Y23.856 E0.9213
G1 X63.668 Y23.675 E0.9371
G1 X63.775 Y23.567 E0.9453
G1 X64.043 Y23.363 E0.9634
G1 X64.770 Y22.725 E1.0155
G1 X65.556 Y22.011 E1.0728
G1 X66.095 Y21.492 E1.1131
G1 X66.428 Y21.208 E1.1366
G1 X66.722 Y20.919 E1.1589
G1 X67.053 Y20.709 E1.1800
G1 X67.415 Y20.351 E1.2074
G1 X67.737 Y20.087 E1.2298
G1 X69.049 Y18.864 E1.3265
G1 X69.220 Y18.733 E1.3381
G1 X69.713 Y18.271 E1.3745
G1 X69.988 Y18.054 E1.3934
G1 X70.048 Y17.990 E1.3981
G1 X70.367 Y17.766 E1.4191
G1 X70.715 Y17.421 E1.4455
G1 X71.049 Y17.152 E1.4686
G1 X71.390 Y16.804 E1.4949
G1 X71.848 Y16.401 E1.5277
G1 X72.345 Y15.924 E1.5648
G1 X72.565 Y15.768 E1.5794
G1 X72.983 Y15.367 E1.6106
G1 X73.166 Y15.260 E1.6220
G1 X73.349 Y15.122 E1.6344
G1 X73.724 Y14.746 E1.6630
G1 X74.099 Y14.418 E1.6898
G1 X74.433 Y14.089 E1.7151
G1 X74.809 Y13.762 E1.7419
G1 X75.322 Y13.272 E1.7802
G1 X75.521 Y13.125 E1.7935
G1 X75.987 Y12.696 E1.8276
G1 X76.657 Y12.160 E1.8739
G1 X76.988 Y11.833 E1.8989
G1 X77.326 Y11.561 E1.9223
G1 X77.664 Y11.207 E1.9487
G1 X78.152 Y10.791 E1.9832
G1 X78.619 Y10.337 E2.0183
G1 X78.877 Y10.157 E2.0352
G1 X79.246 Y9.808 E2.0626
G1 X79.319 Y9.768 E2.0671
G1 X79.634 Y9.521 E2.0887
G1 X79.977 Y9.165 E2.1153
G1 X80.385 Y8.809 E2.1445
G1 X80.944 Y8.276 E2.1861
G1 X81.086 Y8.163 E2.1959
G1 X81.599 Y7.688 E2.2336
G1 X81.982 Y7.386 E2.2599
G1 X82.253 Y7.634 E2.2796
G1 X82.131 Y7.820 E2.2916
G1 X82.012 Y8.161 E2.3111
G1 X81.978 Y8.334 E2.3205
G1 X81.779 Y8.644 E2.3404
G1 X81.613 Y9.277 E2.3757
G1 X81.601 Y9.458 E2.3855
G1 X81.532 Y9.665 E2.3972
G1 X81.527 Y9.748 E2.4017
G1 X81.442 Y9.929 E2.4125
G1 X81.398 Y10.094 E2.4217
G1 X81.336 Y10.407 E2.4388
G1 X81.284 Y10.566 E2.4479
G1 X81.268 Y10.716 E2.4560
G1 X81.109 Y11.042 E2.4756
G1 X81.011 Y11.452 E2.4982
G1 X80.947 Y11.990 E2.5275
G1 X80.947 Y12.175 E2.5374
G1 X80.923 Y12.307 E2.5447
G1 X80.914 Y12.472 E2.5535
G1 X80.864 Y12.698 E2.5660
G1 X80.864 Y12.823 E2.5728
G1 X80.807 Y13.087 E2.5873
G1 X80.807 Y13.146 E2.5905
G1 X80.736 Y13.446 E2.6071
G1 X80.669 Y14.226 E2.6493
G1 X80.609 Y15.315 E2.7080
G1 X80.584 Y16.350 E2.7638
G1 X80.584 Y17.375 E2.8191
G1 X80.612 Y18.411 E2.8749
G1 X80.666 Y19.474 E2.9322
G1 X80.747 Y20.508 E2.9881
G1 X80.831 Y20.900 E3.0098
G1 X80.831 Y20.990 E3.0146
G1 X80.882 Y21.230 E3.0278
G1 X80.882 Y21.364 E3.0350
G1 X80.918 Y21.553 E3.0454
G1 X80.918 Y21.698 E3.0532
G1 X81.007 Y22.586 E3.1013
G1 X81.102 Y23.037 E3.1261
G1 X81.220 Y23.308 E3.1420
G1 X81.228 Y23.437 E3.1490
G1 X81.302 Y23.633 E3.1603
G1 X81.321 Y23.812 E3.1700
G1 X81.440 Y24.459 E3.2055
G1 X81.511 Y24.565 E3.2123
G1 X81.511 Y24.681 E3.2186
G1 X81.589 Y24.919 E3.2320
G1 X81.596 Y25.076 E3.2405
G1 X81.631 Y25.228 E3.2489
G1 X81.661 Y25.593 E3.2687
G1 X81.800 Y26.009 E3.2923
G1 X81.800 Y26.013 E3.2925
G1 X81.805 Y26.022 E3.2930
G1 X81.806 Y26.025 E3.2932
G1 X81.807 Y26.026 E3.2933
G1 X81.952 Y26.322 E3.3111
G1 X81.974 Y26.480 E3.3196
G1 X82.100 Y26.962 E3.3465
G1 X82.240 Y27.279 E3.3651
G1 X82.252 Y27.422 E3.3729
G1 X82.306 Y27.589 E3.3824
G1 X82.355 Y27.944 E3.4017
G1 X82.472 Y28.237 E3.4187
G1 X82.544 Y28.343 E3.4256
G1 X82.553 Y28.430 E3.4303
G1 X82.664 Y28.667 E3.4444
G1 X82.758 Y29.016 E3.4639
G1 X82.909 Y29.297 E3.4810
G1 X82.923 Y29.422 E3.4878
G1 X82.980 Y29.595 E3.4976
G1 X83.063 Y30.010 E3.5204
G1 X83.270 Y30.341 E3.5415
G1 X83.303 Y30.503 E3.5504
G1 X83.470 Y30.909 E3.5740
G1 X83.549 Y31.018 E3.5813
G1 X83.561 Y31.089 E3.5851
G1 X83.647 Y31.291 E3.5970
G1 X83.742 Y31.673 E3.6182
G1 X83.946 Y32.003 E3.6391
G1 X83.994 Y32.195 E3.6498
G1 X84.062 Y32.359 E3.6594
G1 X84.281 Y32.771 E3.6845
G1 X84.287 Y32.800 E3.6861
G1 X84.443 Y33.238 E3.7111
G1 X84.481 Y33.298 E3.7149
G1 X84.491 Y33.373 E3.7190
G1 X84.685 Y33.705 E3.7398
G1 X84.813 Y33.982 E3.7562
G1 X84.861 Y34.037 E3.7601
G1 X84.871 Y34.085 E3.7627
G1 X85.002 Y34.327 E3.7776
G1 X85.122 Y34.660 E3.7966
G1 X85.123 Y34.668 E3.7971
G1 X85.338 Y35.031 E3.8198
G1 X85.476 Y35.322 E3.8372
G1 X85.518 Y35.371 E3.8406
G1 X85.533 Y35.426 E3.8437
G1 X85.685 Y35.677 E3.8595
G1 X85.783 Y35.920 E3.8737
G1 X85.810 Y35.955 E3.8761
G1 X85.814 Y36.010 E3.8790
G1 X86.164 Y36.608 E3.9163
G1 X86.280 Y36.732 E3.9255
G1 X86.343 Y36.898 E3.9351
G1 X86.461 Y37.117 E3.9485
G1 X86.613 Y37.334 E3.9628
G1 X86.704 Y37.602 E3.9780
G1 X87.237 Y38.437 E4.0314
G1 X88.069 Y37.744 E4.0897
G1 X88.226 Y37.183 E4.1211
G1 X88.281 Y36.949 E4.1340
G1 X88.291 Y36.803 E4.1419
G1 X88.372 Y36.532 E4.1572
G1 X88.372 Y36.500 E4.1589
G1 X88.429 Y36.375 E4.1663
G1 X88.548 Y35.682 E4.2042
G1 X88.565 Y35.515 E4.2132
G1 X88.647 Y35.287 E4.2263
G1 X88.647 Y35.211 E4.2304
G1 X88.726 Y35.070 E4.2391
G1 X88.793 Y34.871 E4.2504
G1 X88.885 Y34.343 E4.2793
G1 X88.898 Y34.144 E4.2900
G1 X88.937 Y33.988 E4.2987
G1 X88.947 Y33.846 E4.3064
G1 X89.052 Y33.537 E4.3240
G1 X89.080 Y33.485 E4.3271
G1 X89.192 Y32.923 E4.3580
G1 X89.283 Y32.705 E4.3707
G1 X89.290 Y32.629 E4.3749
G1 X89.365 Y32.516 E4.3822
G1 X89.468 Y32.261 E4.3970
G1 X89.593 Y31.661 E4.4300
G1 X89.599 Y31.538 E4.4366
G1 X89.699 Y31.273 E4.4519
G1 X89.726 Y31.233 E4.4545
G1 X89.857 Y30.668 E4.4858
G1 X90.047 Y30.340 E4.5062
G1 X90.246 Y29.725 E4.5410
G1 X90.253 Y29.572 E4.5493
G1 X90.373 Y29.287 E4.5659
G1 X90.523 Y28.819 E4.5924
G1 X90.543 Y28.712 E4.5982
G1 X90.658 Y28.554 E4.6088
G1 X90.765 Y28.354 E4.6210
G1 X90.860 Y27.996 E4.6409
G1 X91.000 Y27.675 E4.6598
G1 X91.000 Y27.634 E4.6620
G1 X91.029 Y27.586 E4.6651
G1 X91.162 Y27.210 E4.6865
G1 X91.196 Y27.071 E4.6943
G1 X91.418 Y26.753 E4.7151
G1 X91.528 Y26.379 E4.7362
G1 X91.708 Y26.035 E4.7571
G1 X91.790 Y25.753 E4.7729
G1 X91.954 Y25.504 E4.7889
G1 X91.971 Y25.488 E4.7902
G1 X91.983 Y25.461 E4.7918
G1 X92.139 Y25.108 E4.8126
G1 X92.338 Y24.751 E4.8346
G1 X92.373 Y24.687 E4.8385
G1 X92.373 Y24.648 E4.8406
G1 X92.446 Y24.452 E4.8519
G1 X92.619 Y24.186 E4.8690
G1 X92.790 Y23.823 E4.8906
G1 X93.038 Y23.457 E4.9144
G1 X93.135 Y23.164 E4.9311
G1 X93.261 Y23.015 E4.9416
G1 X93.556 Y22.585 E4.9697
G1 X93.586 Y22.506 E4.9743
G1 X93.635 Y22.444 E4.9785
G1 X93.749 Y22.197 E4.9932
G1 X93.927 Y21.976 E5.0084
G1 X94.111 Y21.706 E5.0261
G1 X94.183 Y21.548 E5.0354
G1 X94.270 Y21.448 E5.0426
G1 X94.391 Y21.231 E5.0559
G1 X94.916 Y20.590 E5.1006
G1 X95.106 Y20.240 E5.1221
G1 X95.314 Y19.991 E5.1396
G1 X95.531 Y19.775 E5.1561
G1 X95.898 Y19.332 E5.1870
G1 X96.244 Y18.994 E5.2131
G1 X96.487 Y18.682 E5.2344
G1 X96.861 Y18.362 E5.2609
G1 X97.114 Y18.062 E5.2821
G1 X97.466 Y17.785 E5.3062
G1 X97.798 Y17.438 E5.3320
G1 X98.267 Y17.062 E5.3644
G1 X98.439 Y16.879 E5.3780
G1 X98.612 Y16.764 E5.3892
G1 X98.685 Y16.693 E5.3947
G1 X98.819 Y16.648 E5.4023
G1 X99.058 Y16.499 E5.4175
G1 X99.378 Y16.226 E5.4401
G1 X99.554 Y16.125 E5.4511
G1 X99.645 Y16.040 E5.4578
G1 X99.754 Y16.014 E5.4638
G1 X100.013 Y15.878 E5.4796
G1 X100.325 Y15.636 E5.5008
G1 X100.645 Y15.493 E5.5197
G1 X100.897 Y15.339 E5.5356
G1 X101.235 Y15.251 E5.5544
G1 X101.557 Y15.045 E5.5750
G1 X101.721 Y15.007 E5.5841
G1 X101.881 Y14.944 E5.5934
G1 X102.093 Y14.850 E5.6059
G1 X102.212 Y14.766 E5.6137
G1 X102.288 Y14.754 E5.6178
G1 X102.646 Y14.615 E5.6386
G1 X102.668 Y15.385 E5.6801
G1 X102.714 Y15.915 E5.7087
G1 X102.732 Y16.436 E5.7368
G1 X102.837 Y17.913 E5.8166
G1 X102.871 Y18.264 E5.8356
G1 X102.993 Y18.910 E5.8711
G1 X102.993 Y19.039 E5.8780
G1 X103.031 Y19.241 E5.8891
G1 X103.031 Y19.371 E5.8961
G1 X103.099 Y20.144 E5.9379
G1 X103.167 Y20.640 E5.9648
G1 X103.242 Y20.912 E5.9801
G1 X103.291 Y21.005 E5.9857
G1 X103.291 Y21.054 E5.9884
G1 X103.386 Y21.300 E6.0026
G1 X103.391 Y21.459 E6.0111
G1 X103.442 Y21.642 E6.0214
G1 X103.553 Y22.293 E6.0570
G1 X103.582 Y22.350 E6.0604
G1 X103.670 Y22.625 E6.0760
G1 X103.685 Y22.765 E6.0835
G1 X103.727 Y22.909 E6.0916
G1 X103.727 Y23.066 E6.1001
G1 X103.819 Y23.630 E6.1309
G1 X103.912 Y23.934 E6.1480
G1 X103.947 Y23.994 E6.1518
G1 X103.947 Y24.044 E6.1545
G1 X104.084 Y24.345 E6.1723
G1 X104.118 Y24.530 E6.1824
G1 X104.235 Y24.976 E6.2073
G1 X104.252 Y25.004 E6.2090
G1 X104.371 Y25.309 E6.2267
G1 X104.481 Y25.964 E6.2624
G1 X104.589 Y26.255 E6.2792
G1 X104.648 Y26.345 E6.2850
G1 X104.653 Y26.414 E6.2887
G1 X104.774 Y26.680 E6.3045
G1 X104.897 Y27.148 E6.3306
G1 X105.015 Y27.337 E6.3425
G1 X105.024 Y27.426 E6.3473
G1 X105.091 Y27.609 E6.3578
G1 X105.145 Y27.961 E6.3771
G1 X105.262 Y28.230 E6.3928
G1 X105.341 Y28.345 E6.4003
G1 X105.349 Y28.423 E6.4046
G1 X105.600 Y29.053 E6.4411
G1 X105.617 Y29.073 E6.4425
G1 X105.733 Y29.304 E6.4564
G1 X105.764 Y29.492 E6.4667
G1 X105.902 Y29.903 E6.4901
G1 X105.959 Y29.991 E6.4957
G1 X105.969 Y30.074 E6.5002
G1 X106.127 Y30.367 E6.5182
G1 X106.239 Y30.671 E6.5356
G1 X106.240 Y30.678 E6.5360
G1 X106.246 Y30.688 E6.5366
G1 X106.260 Y30.728 E6.5389
G1 X106.281 Y30.750 E6.5406
G1 X106.422 Y30.996 E6.5558
G1 X106.490 Y31.287 E6.5719
G1 X106.579 Y31.494 E6.5841
G1 X106.685 Y31.657 E6.5945
G1 X106.709 Y31.801 E6.6024
G1 X106.936 Y32.256 E6.6298
G1 X107.035 Y32.380 E6.6383
G1 X107.060 Y32.476 E6.6437
G1 X107.237 Y32.912 E6.6690
G1 X107.274 Y32.969 E6.6727
G1 X107.282 Y33.033 E6.6762
G1 X107.608 Y33.663 E6.7144
G1 X107.660 Y33.722 E6.7186
G1 X107.679 Y33.792 E6.7225
G1 X107.805 Y34.013 E6.7363
G1 X107.899 Y34.253 E6.7501
G1 X107.936 Y34.306 E6.7536
