; G-Code generated by Simplify3D(R) Version 4.0.0
; Oct 23, 2019 at 9:58:19 PM
; Settings Summary
;   processName,Process2
;   applyToModels,Unicorn_Bottom_Rigth
;   profileName,Default(2) (modified)
;   profileVersion,2019-07-27 15:21:07
;   baseProfile,
;   printMaterial,PLA
;   printQuality,Medium
;   printExtruders,
;   extruderName,Primary Extruder
;   extruderToolheadNumber,0
;   extruderDiameter,0.4
;   extruderAutoWidth,1
;   extruderWidth,0.48
;   extrusionMultiplier,0.9
;   extruderUseRetract,1
;   extruderRetractionDistance,1
;   extruderExtraRestartDistance,0
;   extruderRetractionZLift,0
;   extruderRetractionSpeed,1800
;   extruderUseCoasting,0
;   extruderCoastingDistance,0.2
;   extruderUseWipe,0
;   extruderWipeDistance,5
;   primaryExtruder,0
;   layerHeight,0.3
;   topSolidLayers,3
;   bottomSolidLayers,2
;   perimeterOutlines,2
;   printPerimetersInsideOut,1
;   startPointOption,2
;   startPointOriginX,0
;   startPointOriginY,0
;   sequentialIslands,0
;   spiralVaseMode,0
;   firstLayerHeightPercentage,90
;   firstLayerWidthPercentage,100
;   firstLayerUnderspeed,0.5
;   useRaft,0
;   raftExtruder,0
;   raftTopLayers,3
;   raftBaseLayers,2
;   raftOffset,3
;   raftSeparationDistance,0.14
;   raftTopInfill,100
;   aboveRaftSpeedMultiplier,0.3
;   useSkirt,0
;   skirtExtruder,0
;   skirtLayers,1
;   skirtOutlines,2
;   skirtOffset,4
;   usePrimePillar,0
;   primePillarExtruder,999
;   primePillarWidth,12
;   primePillarLocation,7
;   primePillarSpeedMultiplier,1
;   useOozeShield,0
;   oozeShieldExtruder,999
;   oozeShieldOffset,2
;   oozeShieldOutlines,1
;   oozeShieldSidewallShape,1
;   oozeShieldSidewallAngle,30
;   oozeShieldSpeedMultiplier,1
;   infillExtruder,0
;   internalInfillPattern,Rectilinear
;   externalInfillPattern,Rectilinear
;   infillPercentage,10
;   outlineOverlapPercentage,15
;   infillExtrusionWidthPercentage,100
;   minInfillLength,5
;   infillLayerInterval,1
;   internalInfillAngles,45,-45
;   overlapInternalInfillAngles,0
;   externalInfillAngles,45,-45
;   generateSupport,0
;   supportExtruder,0
;   supportInfillPercentage,30
;   supportExtraInflation,0
;   supportBaseLayers,0
;   denseSupportExtruder,0
;   denseSupportLayers,0
;   denseSupportInfillPercentage,70
;   supportLayerInterval,1
;   supportHorizontalPartOffset,0.3
;   supportUpperSeparationLayers,1
;   supportLowerSeparationLayers,1
;   supportType,0
;   supportGridSpacing,4
;   maxOverhangAngle,45
;   supportAngles,0
;   temperatureName,Primary Extruder,Hot Bed
;   temperatureNumber,0,1
;   temperatureSetpointCount,1,1
;   temperatureSetpointLayers,1,1
;   temperatureSetpointTemperatures,200,60
;   temperatureStabilizeAtStartup,1,0
;   temperatureHeatedBed,0,1
;   temperatureRelayBetweenLayers,0,0
;   temperatureRelayBetweenLoops,0,0
;   fanLayers,1,2
;   fanSpeeds,0,100
;   blipFanToFullPower,0
;   adjustSpeedForCooling,1
;   minSpeedLayerTime,15
;   minCoolingSpeedSlowdown,20
;   increaseFanForCooling,0
;   minFanLayerTime,45
;   maxCoolingFanSpeed,100
;   increaseFanForBridging,0
;   bridgingFanSpeed,100
;   use5D,1
;   relativeEdistances,0
;   allowEaxisZeroing,1
;   independentExtruderAxes,0
;   includeM10123,0
;   stickySupport,1
;   applyToolheadOffsets,0
;   gcodeXoffset,-9
;   gcodeYoffset,-4
;   gcodeZoffset,0
;   overrideMachineDefinition,0
;   machineTypeOverride,0
;   strokeXoverride,200
;   strokeYoverride,200
;   strokeZoverride,200
;   originOffsetXoverride,0
;   originOffsetYoverride,0
;   originOffsetZoverride,0
;   homeXdirOverride,-1
;   homeYdirOverride,-1
;   homeZdirOverride,-1
;   flipXoverride,1
;   flipYoverride,-1
;   flipZoverride,1
;   toolheadOffsets,0,0|0,0|0,0|0,0|0,0|0,0
;   overrideFirmwareConfiguration,0
;   firmwareTypeOverride,RepRap (Marlin/Repetier/Sprinter)
;   GPXconfigOverride,r2
;   baudRateOverride,115200
;   overridePrinterModels,0
;   printerModelsOverride
;   startingGcode,G28 ; home all axes,G1 X2 Y15 Z0.2 F3000 ; get ready to prime,G92 E0 ; reset extrusion distance,G1 Y150 E20 F600 ; prime nozzle
;   layerChangeGcode,
;   retractionGcode,
;   toolChangeGcode,
;   endingGcode,M104 S0 ; turn off extruder,M140 S0 ; turn off bed,G28 X Y ; home X & Y,M84 ; disable motors,M107; Fan off
;   exportFileFormat,gcode
;   celebration,0
;   celebrationSong,Random Song
;   postProcessing,
;   defaultSpeed,3200
;   outlineUnderspeed,0.5
;   solidInfillUnderspeed,0.8
;   supportUnderspeed,0.8
;   rapidXYspeed,4800
;   rapidZspeed,1000
;   minBridgingArea,50
;   bridgingExtraInflation,0
;   bridgingExtrusionMultiplier,1
;   bridgingSpeedMultiplier,1
;   useFixedBridgingAngle,0
;   fixedBridgingAngle,0
;   applyBridgingToPerimeters,0
;   filamentDiameters,1.75|1.75|1.75|1.75|1.75|1.75
;   filamentPricesPerKg,46|46|46|46|46|46
;   filamentDensities,1.25|1.25|1.25|1.25|1.25|1.25
;   useMinPrintHeight,0
;   minPrintHeight,0
;   useMaxPrintHeight,0
;   maxPrintHeight,0
;   useDiaphragm,0
;   diaphragmLayerInterval,20
;   robustSlicing,1
;   mergeAllIntoSolid,0
;   onlyRetractWhenCrossingOutline,1
;   retractBetweenLayers,1
;   useRetractionMinTravel,0
;   retractionMinTravel,3
;   retractWhileWiping,0
;   onlyWipeOutlines,1
;   avoidCrossingOutline,0
;   maxMovementDetourFactor,3
;   toolChangeRetractionDistance,12
;   toolChangeExtraRestartDistance,-0.5
;   toolChangeRetractionSpeed,600
;   externalThinWallType,1
;   internalThinWallType,1
;   thinWallAllowedOverlapPercentage,10
;   singleExtrusionMinLength,1
;   singleExtrusionMinPrintingWidthPercentage,50
;   singleExtrusionMaxPrintingWidthPercentage,200
;   singleExtrusionEndpointExtension,0.2
;   horizontalSizeCompensation,0
G90
M82
M106 S0
M140 S60
M104 S200 T0
M109 S200 T0
G28 ; home all axes
G1 X2 Y15 Z0.2 F3000 ; get ready to prime
G92 E0 ; reset extrusion distance
G1 Y150 E20 F600 ; prime nozzle
G92 E0
G1 E-1.0000 F1800
G1 Z0.270 F1000
; process Process2
; layer 1, Z = 0.270
T0
; tool H0.300 W0.480
; inner perimeter
G1 X8.888 Y28.625 F4800
G1 E0.0000 F540
G92 E0
G1 X9.095 Y28.625 E0.0112 F1200
G1 X9.646 Y28.773 E0.0419
G1 X9.745 Y28.773 E0.0472
G1 X10.080 Y28.853 E0.0658
G1 X11.055 Y28.958 E0.1186
G1 X11.162 Y28.963 E0.1244
G1 X12.277 Y29.072 E0.1848
G1 X12.565 Y29.138 E0.2007
G1 X12.901 Y29.166 E0.2189
G1 X13.372 Y29.303 E0.2453
G1 X13.507 Y29.303 E0.2525
G1 X13.824 Y29.458 E0.2716
G1 X14.157 Y29.550 E0.2902
G1 X15.072 Y29.708 E0.3402
G1 X15.486 Y29.747 E0.3626
G1 X15.840 Y29.824 E0.3821
G1 X16.129 Y29.824 E0.3977
G1 X16.592 Y29.965 E0.4238
G1 X16.738 Y29.965 E0.4317
G1 X17.104 Y30.111 E0.4529
G1 X17.389 Y30.179 E0.4687
G1 X18.672 Y30.337 E0.5383
G1 X18.946 Y30.403 E0.5535
G1 X19.268 Y30.438 E0.5710
G1 X19.810 Y30.649 E0.6023
G1 X19.868 Y30.649 E0.6054
G1 X19.987 Y30.726 E0.6131
G1 X20.556 Y30.891 E0.6450
G1 X21.188 Y31.005 E0.6796
G1 X21.604 Y31.138 E0.7031
G1 X21.857 Y31.138 E0.7168
G1 X22.479 Y31.398 E0.7531
G1 X23.170 Y31.525 E0.7910
G1 X23.767 Y31.607 E0.8234
G1 X24.067 Y31.701 E0.8404
G1 X24.353 Y31.730 E0.8559
G1 X24.949 Y32.044 E0.8922
G1 X25.649 Y32.214 E0.9310
G1 X25.954 Y32.313 E0.9482
G1 X26.282 Y32.350 E0.9660
G1 X26.933 Y32.668 E1.0051
G1 X27.815 Y32.874 E1.0539
G1 X28.219 Y32.933 E1.0759
G1 X28.648 Y33.107 E1.1008
G1 X28.795 Y33.123 E1.1088
G1 X29.020 Y33.274 E1.1234
G1 X29.684 Y33.511 E1.1614
G1 X30.083 Y33.595 E1.1833
G1 X30.733 Y33.940 E1.2230
G1 X31.712 Y34.209 E1.2777
G1 X32.038 Y34.241 E1.2953
G1 X32.551 Y34.518 E1.3268
G1 X32.587 Y34.548 E1.3293
G1 X33.253 Y34.768 E1.3671
G1 X33.725 Y35.014 E1.3958
G1 X33.899 Y35.034 E1.4052
G1 X34.092 Y35.178 E1.4181
G1 X34.575 Y35.380 E1.4464
G1 X34.889 Y35.472 E1.4640
G1 X35.251 Y35.513 E1.4836
G1 X35.772 Y35.770 E1.5149
G1 X35.813 Y35.775 E1.5172
G1 X35.876 Y35.824 E1.5215
G1 X36.428 Y36.029 E1.5532
G1 X36.935 Y36.327 E1.5849
G1 X37.075 Y36.354 E1.5926
G1 X37.216 Y36.462 E1.6021
G1 X38.134 Y36.826 E1.6554
G1 X38.408 Y36.857 E1.6702
G1 X38.793 Y37.110 E1.6950
G1 X39.178 Y37.269 E1.7175
G1 X39.602 Y37.397 E1.7413
G1 X39.974 Y37.691 E1.7669
G1 X40.250 Y37.880 E1.7849
G1 X40.584 Y38.002 E1.8041
G1 X40.978 Y38.076 E1.8257
G1 X41.595 Y38.410 E1.8635
G1 X42.154 Y38.615 E1.8956
G1 X42.805 Y39.107 E1.9395
G1 X43.495 Y39.337 E1.9787
G1 X44.115 Y39.679 E2.0168
G1 X44.714 Y39.901 E2.0513
G1 X45.361 Y40.398 E2.0952
G1 X46.040 Y40.633 E2.1340
G1 X46.691 Y41.025 E2.1749
G1 X47.256 Y41.213 E2.2070
G1 X47.592 Y41.520 E2.2315
G1 X47.902 Y41.733 E2.2518
G1 X48.349 Y41.959 E2.2787
G1 X48.608 Y42.013 E2.2930
G1 X48.873 Y42.211 E2.3108
G1 X49.205 Y42.377 E2.3308
G1 X49.628 Y42.629 E2.3574
G1 X49.812 Y42.683 E2.3677
G1 X49.940 Y42.812 E2.3775
G1 X51.143 Y43.510 E2.4524
G1 X51.755 Y43.746 E2.4878
G1 X52.346 Y44.206 E2.5281
G1 X52.670 Y44.401 E2.5485
G1 X53.044 Y44.545 E2.5701
G1 X53.351 Y44.773 E2.5906
G1 X53.687 Y44.944 E2.6110
G1 X54.126 Y45.205 E2.6385
G1 X54.307 Y45.261 E2.6487
G1 X54.442 Y45.387 E2.6587
G1 X54.932 Y45.656 E2.6888
G1 X55.597 Y46.137 E2.7330
G1 X55.833 Y46.242 E2.7469
G1 X56.236 Y46.362 E2.7696
G1 X56.558 Y46.653 E2.7930
G1 X57.385 Y47.190 E2.8461
G1 X57.548 Y47.236 E2.8552
G1 X57.686 Y47.343 E2.8646
G1 X58.169 Y47.557 E2.8931
G1 X58.801 Y47.986 E2.9343
G1 X59.404 Y48.281 E2.9704
G1 X59.764 Y48.586 E2.9958
G1 X60.084 Y48.784 E3.0162
G1 X60.535 Y49.022 E3.0436
G1 X60.740 Y49.061 E3.0548
G1 X60.919 Y49.232 E3.0682
G1 X61.332 Y49.452 E3.0934
G1 X62.013 Y49.976 E3.1397
G1 X62.671 Y50.214 E3.1774
G1 X63.123 Y50.529 E3.2071
G1 X63.511 Y50.761 E3.2315
G1 X63.894 Y50.925 E3.2539
G1 X64.142 Y51.147 E3.2718
G1 X64.566 Y51.402 E3.2985
G1 X65.179 Y51.744 E3.3363
G1 X65.259 Y51.755 E3.3407
G1 X65.335 Y51.821 E3.3461
G1 X65.819 Y52.035 E3.3746
G1 X66.456 Y52.583 E3.4199
G1 X66.860 Y52.770 E3.4439
G1 X67.203 Y52.835 E3.4627
G1 X67.580 Y53.100 E3.4875
G1 X68.043 Y53.350 E3.5159
G1 X68.394 Y53.466 E3.5358
G1 X68.644 Y53.701 E3.5542
G1 X69.055 Y53.958 E3.5804
G1 X69.631 Y54.255 E3.6153
G1 X69.767 Y54.266 E3.6226
G1 X69.914 Y54.388 E3.6330
G1 X70.349 Y54.576 E3.6585
G1 X70.902 Y54.940 E3.6942
G1 X70.981 Y54.960 E3.6986
G1 X71.037 Y55.011 E3.7026
G1 X71.642 Y55.305 E3.7389
G1 X72.323 Y55.683 E3.7808
G1 X72.334 Y55.690 E3.7815
G1 X72.343 Y55.691 E3.7820
G1 X72.907 Y55.896 E3.8143
G1 X73.545 Y56.381 E3.8575
G1 X74.230 Y56.635 E3.8969
G1 X74.887 Y57.012 E3.9377
G1 X75.495 Y57.205 E3.9721
G1 X76.119 Y57.643 E4.0131
G1 X76.791 Y57.899 E4.0519
G1 X77.455 Y58.277 E4.0931
G1 X78.095 Y58.475 E4.1292
G1 X78.585 Y58.748 E4.1594
G1 X78.696 Y58.767 E4.1655
G1 X78.808 Y58.867 E4.1736
G1 X79.342 Y59.098 E4.2049
G1 X79.901 Y59.412 E4.2395
G1 X80.049 Y59.425 E4.2475
G1 X80.212 Y59.539 E4.2582
G1 X80.961 Y59.809 E4.3011
G1 X81.300 Y59.891 E4.3199
G1 X81.726 Y60.160 E4.3470
G1 X81.950 Y60.275 E4.3606
G1 X82.567 Y60.470 E4.3955
G1 X83.225 Y60.867 E4.4368
G1 X83.921 Y61.046 E4.4755
G1 X84.273 Y61.189 E4.4960
G1 X84.505 Y61.221 E4.5086
G1 X84.803 Y61.445 E4.5287
G1 X85.400 Y61.695 E4.5636
G1 X85.804 Y61.785 E4.5859
G1 X86.435 Y62.150 E4.6252
G1 X87.141 Y62.331 E4.6645
G1 X87.457 Y62.443 E4.6826
G1 X87.754 Y62.491 E4.6987
G1 X88.224 Y62.748 E4.7276
G1 X88.402 Y62.821 E4.7380
G1 X89.012 Y62.982 E4.7720
G1 X89.489 Y63.228 E4.8009
G1 X89.654 Y63.248 E4.8098
G1 X89.854 Y63.383 E4.8229
G1 X90.344 Y63.563 E4.8510
G1 X90.608 Y63.627 E4.8656
G1 X91.030 Y63.674 E4.8885
G1 X91.384 Y63.802 E4.9088
G1 X91.591 Y63.830 E4.9200
G1 X91.923 Y64.031 E4.9409
G1 X92.275 Y64.159 E4.9611
G1 X92.870 Y64.288 E4.9939
G1 X93.386 Y64.555 E5.0252
G1 X93.519 Y64.564 E5.0324
G1 X93.682 Y64.671 E5.0429
G1 X94.207 Y64.850 E5.0728
G1 X94.452 Y64.901 E5.0862
G1 X94.886 Y64.954 E5.1098
G1 X95.226 Y65.060 E5.1290
G1 X95.504 Y65.087 E5.1441
G1 X96.138 Y65.346 E5.1810
G1 X96.767 Y65.499 E5.2158
G1 X97.006 Y65.574 E5.2293
G1 X97.363 Y65.632 E5.2488
G1 X97.985 Y65.973 E5.2871
G1 X98.714 Y66.169 E5.3277
G1 X99.004 Y66.231 E5.3437
G1 X99.416 Y66.250 E5.3659
G1 X99.728 Y66.330 E5.3833
G1 X100.017 Y66.345 E5.3988
G1 X100.538 Y66.537 E5.4288
G1 X100.607 Y66.542 E5.4325
G1 X100.763 Y66.623 E5.4420
G1 X101.310 Y66.746 E5.4722
G1 X101.895 Y66.836 E5.5041
G1 X102.254 Y66.979 E5.5249
G1 X102.513 Y66.994 E5.5389
G1 X102.913 Y67.227 E5.5638
G1 X103.158 Y67.330 E5.5782
G1 X104.123 Y67.511 E5.6311
G1 X104.535 Y67.551 E5.6534
G1 X104.899 Y67.632 E5.6734
G1 X105.179 Y67.632 E5.6885
G1 X105.660 Y67.782 E5.7157
G1 X105.818 Y67.782 E5.7242
G1 X106.266 Y67.924 E5.7495
G1 X107.261 Y68.089 E5.8039
G1 X107.698 Y68.144 E5.8276
G1 X108.032 Y68.249 E5.8464
G1 X108.313 Y68.269 E5.8616
G1 X108.936 Y68.550 E5.8985
G1 X109.641 Y68.704 E5.9374
G1 X110.645 Y68.859 E5.9921
G1 X110.988 Y68.847 E6.0106
G1 X111.296 Y68.915 E6.0276
G1 X111.596 Y68.928 E6.0438
G1 X112.069 Y69.041 E6.0700
G1 X112.230 Y69.041 E6.0786
G1 X112.824 Y69.219 E6.1121
G1 X113.532 Y69.315 E6.1506
G1 X114.797 Y69.446 E6.2191
G1 X115.101 Y69.502 E6.2357
G1 X115.408 Y69.513 E6.2523
G1 X115.866 Y69.669 E6.2784
G1 X116.043 Y69.669 E6.2879
G1 X116.479 Y69.841 E6.3131
G1 X117.523 Y70.024 E6.3703
G1 X118.315 Y70.121 E6.4132
G1 X118.688 Y70.121 E6.4334
G1 X118.992 Y70.167 E6.4499
G1 X119.319 Y70.167 E6.4675
G1 X119.689 Y70.235 E6.4878
G1 X119.953 Y70.235 E6.5020
G1 X120.416 Y70.326 E6.5274
G1 X120.592 Y70.326 E6.5369
G1 X121.426 Y70.497 E6.5828
G1 X121.879 Y70.546 E6.6073
G1 X123.334 Y70.661 E6.6860
G1 X124.425 Y70.729 E6.7449
G1 X124.698 Y70.775 E6.7598
G1 X125.065 Y70.800 E6.7797
G1 X125.449 Y70.864 E6.8006
G1 X125.711 Y70.864 E6.8147
G1 X126.173 Y70.967 E6.8402
G1 X126.326 Y70.967 E6.8485
G1 X126.887 Y71.132 E6.8800
G1 X127.636 Y71.229 E6.9207
G1 X129.156 Y71.358 E7.0029
G1 X129.866 Y71.397 E7.0412
G1 X130.241 Y71.397 E7.0614
G1 X130.519 Y71.423 E7.0764
G1 X130.883 Y71.423 E7.0960
G1 X131.188 Y71.451 E7.1125
G1 X131.511 Y71.451 E7.1300
G1 X131.860 Y71.495 E7.1489
G1 X132.158 Y71.495 E7.1650
G1 X132.550 Y71.537 E7.1862
G1 X132.791 Y71.537 E7.1992
G1 X133.240 Y71.595 E7.2236
G1 X133.418 Y71.595 E7.2332
G1 X133.958 Y71.685 E7.2627
G1 X134.073 Y71.685 E7.2689
G1 X134.855 Y71.784 E7.3114
G1 X136.022 Y71.843 E7.3743
G1 X136.666 Y71.843 E7.4090
G1 X137.285 Y71.887 E7.4425
G1 X138.584 Y71.928 E7.5125
G1 X141.145 Y71.978 E7.6505
G1 X143.349 Y72.060 E7.7693
G1 X144.325 Y72.060 E7.8219
G1 X144.638 Y72.099 E7.8389
G1 X145.625 Y72.099 E7.8921
G1 X145.952 Y72.123 E7.9098
G1 X146.636 Y72.140 E7.9466
G1 X147.552 Y72.140 E7.9960
G1 X147.928 Y72.162 E8.0163
G1 X149.466 Y72.162 E8.0992
G1 X149.863 Y72.193 E8.1206
G1 X150.553 Y72.216 E8.1578
G1 X153.257 Y72.216 E8.3035
G1 X153.666 Y72.310 E8.3261
G1 X154.162 Y72.682 E8.3595
G1 X154.356 Y72.856 E8.3735
G1 X154.857 Y73.422 E8.4143
G1 X155.146 Y73.877 E8.4433
G1 X155.319 Y74.103 E8.4586
G1 X155.966 Y74.757 E8.5082
G1 X156.514 Y75.399 E8.5537
G1 X157.159 Y76.044 E8.6028
G1 X157.931 Y76.922 E8.6658
G1 X158.892 Y77.941 E8.7413
G1 X159.192 Y78.329 E8.7678
G1 X159.880 Y79.094 E8.8232
G1 X160.056 Y79.248 E8.8358
G1 X160.476 Y79.801 E8.8732
G1 X160.557 Y79.935 E8.8816
G1 X161.135 Y80.611 E8.9295
G1 X161.774 Y81.268 E8.9790
G1 X162.426 Y82.037 E9.0332
G1 X162.874 Y82.458 E9.0663
G1 X163.718 Y83.428 E9.1357
G1 X164.076 Y83.743 E9.1613
G1 X164.570 Y84.333 E9.2028
G1 X164.979 Y84.853 E9.2384
G1 X165.156 Y85.019 E9.2515
G1 X165.635 Y85.576 E9.2911
G1 X165.723 Y85.733 E9.3008
G1 X166.153 Y86.286 E9.3386
G1 X166.833 Y86.934 E9.3892
G1 X167.360 Y87.568 E9.4336
G1 X167.996 Y88.205 E9.4821
G1 X168.167 Y88.417 E9.4968
G1 X168.830 Y89.150 E9.5500
G1 X169.158 Y89.485 E9.5753
G1 X169.461 Y89.855 E9.6011
G1 X169.736 Y90.130 E9.6220
G1 X170.087 Y90.557 E9.6518
G1 X170.760 Y91.327 E9.7069
G1 X170.845 Y91.406 E9.7132
G1 X171.111 Y91.773 E9.7376
G1 X172.026 Y92.812 E9.8122
G1 X172.664 Y93.489 E9.8623
G1 X173.321 Y94.252 E9.9165
G1 X173.732 Y94.629 E9.9466
G1 X174.247 Y95.243 E9.9898
G1 X174.611 Y95.648 E10.0191
G1 X174.894 Y95.903 E10.0396
G1 X175.201 Y96.300 E10.0667
G1 X175.880 Y97.106 E10.1235
G1 X175.952 Y97.174 E10.1288
G1 X176.184 Y97.487 E10.1498
G1 X176.505 Y97.854 E10.1761
G1 X177.056 Y98.465 E10.2204
G1 X177.669 Y99.102 E10.2680
G1 X178.232 Y99.747 E10.3142
G1 X178.854 Y100.369 E10.3615
G1 X179.052 Y100.633 E10.3794
G1 X179.991 Y101.647 E10.4538
G1 X180.348 Y102.098 E10.4848
