; G-Code generated by Simplify3D(R) Version 4.0.0
; Oct 19, 2020 at 4:56:32 PM
; Settings Summary
;   processName,Process1
;   applyToModels,UniversalAdapterHDD2.5_3.5
;   profileName,new profile
;   profileVersion,2020-09-07 14:01:24
;   baseProfile,Default (modified)
;   printMaterial,PLA
;   printQuality,Medium
;   printExtruders,
;   extruderName,Primary Extruder
;   extruderToolheadNumber,0
;   extruderDiameter,0.4
;   extruderAutoWidth,0
;   extruderWidth,0.4
;   extrusionMultiplier,0.9
;   extruderUseRetract,1
;   extruderRetractionDistance,1
;   extruderExtraRestartDistance,0
;   extruderRetractionZLift,0
;   extruderRetractionSpeed,1800
;   extruderUseCoasting,0
;   extruderCoastingDistance,0.2
;   extruderUseWipe,0
;   extruderWipeDistance,5
;   primaryExtruder,0
;   layerHeight,0.3
;   topSolidLayers,3
;   bottomSolidLayers,3
;   perimeterOutlines,2
;   printPerimetersInsideOut,1
;   startPointOption,2
;   startPointOriginX,0
;   startPointOriginY,0
;   sequentialIslands,0
;   spiralVaseMode,0
;   firstLayerHeightPercentage,100
;   firstLayerWidthPercentage,100
;   firstLayerUnderspeed,0.5
;   useRaft,0
;   raftExtruder,0
;   raftTopLayers,3
;   raftBaseLayers,2
;   raftOffset,3
;   raftSeparationDistance,0.14
;   raftTopInfill,100
;   aboveRaftSpeedMultiplier,0.3
;   useSkirt,0
;   skirtExtruder,0
;   skirtLayers,1
;   skirtOutlines,2
;   skirtOffset,4
;   usePrimePillar,0
;   primePillarExtruder,999
;   primePillarWidth,12
;   primePillarLocation,7
;   primePillarSpeedMultiplier,1
;   useOozeShield,0
;   oozeShieldExtruder,999
;   oozeShieldOffset,2
;   oozeShieldOutlines,1
;   oozeShieldSidewallShape,1
;   oozeShieldSidewallAngle,30
;   oozeShieldSpeedMultiplier,1
;   infillExtruder,0
;   internalInfillPattern,Rectilinear
;   externalInfillPattern,Rectilinear
;   infillPercentage,15
;   outlineOverlapPercentage,15
;   infillExtrusionWidthPercentage,100
;   minInfillLength,5
;   infillLayerInterval,1
;   internalInfillAngles,45,-45
;   overlapInternalInfillAngles,0
;   externalInfillAngles,45,-45
;   generateSupport,0
;   supportExtruder,0
;   supportInfillPercentage,30
;   supportExtraInflation,0
;   supportBaseLayers,0
;   denseSupportExtruder,0
;   denseSupportLayers,0
;   denseSupportInfillPercentage,70
;   supportLayerInterval,1
;   supportHorizontalPartOffset,0.3
;   supportUpperSeparationLayers,1
;   supportLowerSeparationLayers,1
;   supportType,1
;   supportGridSpacing,4
;   maxOverhangAngle,45
;   supportAngles,0
;   temperatureName,Primary Extruder,Hot Bed
;   temperatureNumber,0,1
;   temperatureSetpointCount,1,1
;   temperatureSetpointLayers,1,1
;   temperatureSetpointTemperatures,210,60
;   temperatureStabilizeAtStartup,1,0
;   temperatureHeatedBed,0,1
;   temperatureRelayBetweenLayers,0,0
;   temperatureRelayBetweenLoops,0,0
;   fanLayers,1,2
;   fanSpeeds,0,100
;   blipFanToFullPower,0
;   adjustSpeedForCooling,1
;   minSpeedLayerTime,15
;   minCoolingSpeedSlowdown,20
;   increaseFanForCooling,0
;   minFanLayerTime,45
;   maxCoolingFanSpeed,100
;   increaseFanForBridging,0
;   bridgingFanSpeed,100
;   use5D,1
;   relativeEdistances,0
;   allowEaxisZeroing,1
;   independentExtruderAxes,0
;   includeM10123,0
;   stickySupport,1
;   applyToolheadOffsets,0
;   gcodeXoffset,0
;   gcodeYoffset,0
;   gcodeZoffset,0
;   overrideMachineDefinition,0
;   machineTypeOverride,0
;   strokeXoverride,200
;   strokeYoverride,200
;   strokeZoverride,200
;   originOffsetXoverride,0
;   originOffsetYoverride,0
;   originOffsetZoverride,0
;   homeXdirOverride,-1
;   homeYdirOverride,-1
;   homeZdirOverride,-1
;   flipXoverride,1
;   flipYoverride,-1
;   flipZoverride,1
;   toolheadOffsets,0,0|0,0|0,0|0,0|0,0|0,0
;   overrideFirmwareConfiguration,0
;   firmwareTypeOverride,RepRap (Marlin/Repetier/Sprinter)
;   GPXconfigOverride,r2
;   baudRateOverride,115200
;   overridePrinterModels,0
;   printerModelsOverride
;   startingGcode,G28 ; home all axes,G1 X0 Y5 Z0.2 F3000 ; get ready to prime,G92 E0 ; reset extrusion distance,G1 Y150 E20 F600 ; prime nozzle
;   layerChangeGcode,
;   retractionGcode,
;   toolChangeGcode,
;   endingGcode,M104 S0 ; turn off extruder,M140 S0 ; turn off bed,M84 ; disable motors,G1 X0 Y0; home,M107 ; fan off
;   exportFileFormat,gcode
;   celebration,0
;   celebrationSong,Random Song
;   postProcessing,
;   defaultSpeed,4600
;   outlineUnderspeed,0.5
;   solidInfillUnderspeed,0.8
;   supportUnderspeed,0.8
;   rapidXYspeed,4800
;   rapidZspeed,1000
;   minBridgingArea,50
;   bridgingExtraInflation,0
;   bridgingExtrusionMultiplier,1
;   bridgingSpeedMultiplier,1
;   useFixedBridgingAngle,0
;   fixedBridgingAngle,0
;   applyBridgingToPerimeters,0
;   filamentDiameters,1.75|1.75|1.75|1.75|1.75|1.75
;   filamentPricesPerKg,46|46|46|46|46|46
;   filamentDensities,1.25|1.25|1.25|1.25|1.25|1.25
;   useMinPrintHeight,0
;   minPrintHeight,0
;   useMaxPrintHeight,0
;   maxPrintHeight,0
;   useDiaphragm,0
;   diaphragmLayerInterval,20
;   robustSlicing,1
;   mergeAllIntoSolid,0
;   onlyRetractWhenCrossingOutline,1
;   retractBetweenLayers,1
;   useRetractionMinTravel,0
;   retractionMinTravel,3
;   retractWhileWiping,0
;   onlyWipeOutlines,1
;   avoidCrossingOutline,0
;   maxMovementDetourFactor,3
;   toolChangeRetractionDistance,12
;   toolChangeExtraRestartDistance,-0.5
;   toolChangeRetractionSpeed,600
;   externalThinWallType,1
;   internalThinWallType,1
;   thinWallAllowedOverlapPercentage,10
;   singleExtrusionMinLength,1
;   singleExtrusionMinPrintingWidthPercentage,50
;   singleExtrusionMaxPrintingWidthPercentage,200
;   singleExtrusionEndpointExtension,0.2
;   horizontalSizeCompensation,0
G90
M82
M106 S0
M140 S60
M104 S210 T0
M109 S210 T0
G28 ; home all axes
G1 X0 Y5 Z0.2 F3000 ; get ready to prime
G92 E0 ; reset extrusion distance
G1 Y150 E20 F600 ; prime nozzle
G92 E0
G1 E-1.0000 F1800
G1 Z0.300 F1000
; process Process1
; layer 1, Z = 0.300
T0
; tool H0.300 W0.400
; inner perimeter
G1 X50.100 Y55.611 F4800
G1 E0.0000 F540
G92 E0
G1 X67.891 Y55.611 E0.7988 F1725
G1 X70.847 Y56.080 E0.9332
G1 X73.470 Y57.420 E1.0655
G1 X75.549 Y59.507 E1.1978
G1 X76.907 Y62.188 E1.3327
G1 X78.713 Y67.115 E1.5683
G1 X81.626 Y73.073 E1.8661
G1 X85.017 Y78.092 E2.1381
G1 X88.809 Y82.041 E2.3839
G1 X92.915 Y84.811 E2.6063
G1 X97.237 Y86.311 E2.8117
G1 X101.649 Y86.481 E3.0100
G1 X106.007 Y85.313 E3.2125
G1 X110.178 Y82.857 E3.4299
G1 X114.058 Y79.197 E3.6694
G1 X117.558 Y74.437 E3.9347
G1 X120.600 Y68.701 E4.2262
G1 X123.091 Y62.192 E4.5392
G1 X124.451 Y59.507 E4.6743
G1 X126.530 Y57.420 E4.8065
G1 X129.153 Y56.080 E4.9388
G1 X132.109 Y55.611 E5.0732
G1 X149.900 Y55.611 E5.8721
G1 X149.900 Y121.827 E8.8453
G1 X137.501 Y140.226 E9.8415
G1 X135.540 Y142.352 E9.9713
G1 X133.072 Y143.770 E10.0991
G1 X130.337 Y144.374 E10.2249
G1 X127.279 Y143.640 E10.3661
G1 X124.544 Y141.865 E10.5125
G1 X119.242 Y137.813 E10.8121
G1 X113.211 Y134.779 E11.1153
G1 X106.722 Y132.915 E11.4184
G1 X100.000 Y132.286 E11.7216
G1 X93.278 Y132.915 E12.0247
G1 X86.789 Y134.779 E12.3279
G1 X80.758 Y137.813 E12.6310
G1 X75.456 Y141.865 E12.9306
G1 X72.721 Y143.640 E13.0770
G1 X69.663 Y144.374 E13.2182
G1 X66.928 Y143.770 E13.3440
G1 X64.460 Y142.352 E13.4718
G1 X62.499 Y140.226 E13.6017
G1 X50.100 Y121.827 E14.5979
G1 X50.100 Y55.611 E17.5711
; outer perimeter
G1 X49.700 Y55.211 F4800
G92 E0
G1 X67.923 Y55.211 E0.8182 F1150
G1 X70.973 Y55.695 E0.9569
G1 X73.709 Y57.093 E1.0949
G1 X75.877 Y59.269 E1.2328
G1 X77.274 Y62.028 E1.3717
G1 X79.082 Y66.958 E1.6074
G1 X81.973 Y72.872 E1.9030
G1 X85.329 Y77.840 E2.1722
G1 X89.068 Y81.733 E2.4146
G1 X93.096 Y84.450 E2.6327
G1 X97.312 Y85.913 E2.8331
G1 X101.604 Y86.079 E3.0260
G1 X105.851 Y84.941 E3.2234
G1 X109.936 Y82.536 E3.4363
G1 X113.757 Y78.931 E3.6721
G1 X117.218 Y74.224 E3.9344
G1 X120.235 Y68.535 E4.2236
G1 X122.725 Y62.030 E4.5363
G1 X124.123 Y59.269 E4.6753
G1 X126.291 Y57.093 E4.8132
G1 X129.027 Y55.695 E4.9512
G1 X132.077 Y55.211 E5.0899
G1 X150.300 Y55.211 E5.9081
G1 X150.300 Y121.950 E8.9047
G1 X137.816 Y140.475 E9.9078
G1 X135.792 Y142.668 E10.0418
G1 X133.218 Y144.147 E10.1751
G1 X130.334 Y144.784 E10.3077
G1 X127.119 Y144.013 E10.4562
G1 X124.313 Y142.192 E10.6064
G1 X119.029 Y138.154 E10.9050
G1 X113.065 Y135.153 E11.2048
G1 X106.648 Y133.310 E11.5045
G1 X100.000 Y132.688 E11.8043
G1 X93.352 Y133.310 E12.1041
G1 X86.935 Y135.153 E12.4039
G1 X80.971 Y138.154 E12.7037
G1 X75.687 Y142.192 E13.0023
G1 X72.881 Y144.013 E13.1525
G1 X69.666 Y144.784 E13.3010
G1 X66.782 Y144.147 E13.4336
G1 X64.208 Y142.668 E13.5669
G1 X62.184 Y140.475 E13.7009
G1 X49.700 Y121.950 E14.7039
G1 X49.700 Y55.211 E17.7006
; inner perimeter
G1 X66.842 Y60.265 F4800
G92 E0
G1 X66.508 Y61.511 E0.0579 F1725
G1 X66.842 Y62.756 E0.1158
G1 X67.754 Y63.668 E0.1737
G1 X69.000 Y64.002 E0.2316
G1 X70.246 Y63.668 E0.2895
G1 X71.158 Y62.756 E0.3475
G1 X71.492 Y61.511 E0.4054
G1 X71.158 Y60.265 E0.4633
G1 X70.246 Y59.353 E0.5212
G1 X69.000 Y59.019 E0.5791
G1 X67.754 Y59.353 E0.6370
G1 X66.842 Y60.265 E0.6949
; outer perimeter
G1 X67.201 Y60.472 F4800
G92 E0
G1 X66.923 Y61.511 E0.0483 F1150
G1 X67.201 Y62.549 E0.0966
G1 X67.961 Y63.310 E0.1449
G1 X69.000 Y63.588 E0.1931
G1 X70.039 Y63.310 E0.2414
G1 X70.799 Y62.549 E0.2897
G1 X71.077 Y61.511 E0.3380
G1 X70.799 Y60.472 E0.3863
G1 X70.039 Y59.712 E0.4346
G1 X69.000 Y59.433 E0.4828
G1 X67.961 Y59.712 E0.5311
G1 X67.201 Y60.472 E0.5794
; inner perimeter
G1 X64.878 Y75.593 F4800
G92 E0
G1 X61.203 Y75.781 E0.1652 F1725
G1 X58.110 Y77.177 E0.3176
G1 X55.800 Y79.712 E0.4716
G1 X54.392 Y83.215 E0.6411
G1 X53.911 Y87.502 E0.8348
G1 X54.349 Y92.395 E1.0554
G1 X55.673 Y97.698 E1.3008
G1 X57.821 Y103.196 E1.5658
G1 X60.701 Y108.660 E1.8432
G1 X64.190 Y113.862 E2.1244
G1 X68.142 Y118.582 E2.4008
G1 X72.391 Y122.622 E2.6641
G1 X76.764 Y125.810 E2.9071
G1 X81.086 Y128.009 E3.1248
G1 X85.190 Y129.117 E3.3157
G1 X88.916 Y129.056 E3.4830
G1 X92.035 Y127.807 E3.6339
G1 X92.697 Y127.325 E3.6707
G1 X94.882 Y124.715 E3.8235
G1 X96.192 Y121.121 E3.9952
G1 X96.573 Y116.760 E4.1918
G1 X96.038 Y111.813 E4.4152
G1 X94.623 Y106.478 E4.6630
G1 X92.391 Y100.973 E4.9298
G1 X89.440 Y95.526 E5.2079
G1 X85.894 Y90.366 E5.4891
G1 X81.903 Y85.710 E5.7644
G1 X77.632 Y81.753 E6.0259
G1 X73.256 Y78.665 E6.2663
G1 X68.950 Y76.578 E6.4812
G1 X64.878 Y75.593 E6.6693
; outer perimeter
G1 X64.840 Y75.995 F4800
G92 E0
G1 X61.298 Y76.177 E0.1592 F1150
G1 X58.350 Y77.508 E0.3045
G1 X56.145 Y79.929 E0.4515
G1 X54.783 Y83.313 E0.6154
G1 X54.313 Y87.506 E0.8048
G1 X54.745 Y92.328 E1.0222
G1 X56.055 Y97.577 E1.2651
G1 X58.186 Y103.030 E1.5279
G1 X61.045 Y108.455 E1.8033
G1 X64.511 Y113.622 E2.0826
G1 X68.434 Y118.308 E2.3571
G1 X72.648 Y122.314 E2.6181
G1 X76.974 Y125.468 E2.8585
G1 X81.230 Y127.634 E3.0730
G1 X85.240 Y128.716 E3.2595
G1 X88.836 Y128.658 E3.4209
G1 X91.840 Y127.454 E3.5662
G1 X92.422 Y127.030 E3.5986
G1 X94.530 Y124.512 E3.7460
G1 X95.798 Y121.033 E3.9123
G1 X96.172 Y116.764 E4.1047
G1 X95.644 Y111.887 E4.3250
G1 X94.243 Y106.605 E4.5703
G1 X92.029 Y101.144 E4.8349
G1 X89.099 Y95.735 E5.1111
G1 X85.577 Y90.610 E5.3904
G1 X81.614 Y85.987 E5.6638
G1 X77.379 Y82.065 E5.9229
G1 X73.052 Y79.011 E6.1608
G1 X68.814 Y76.957 E6.3722
G1 X64.840 Y75.995 E6.5558
G92 E0
G1 E-1.0000 F1800
; inner perimeter
G1 X109.874 Y96.675 F4800
G1 E0.0000 F1800
G92 E0
G1 X107.067 Y102.154 E0.2764 F1725
G1 X105.003 Y107.642 E0.5397
G1 X103.771 Y112.912 E0.7827
G1 X103.430 Y117.749 E1.0004
G1 X104.010 Y121.960 E1.1913
G1 X105.518 Y125.368 E1.3586
G1 X107.884 Y127.753 E1.5095
G1 X108.586 Y128.175 E1.5462
G1 X111.841 Y129.170 E1.6990
G1 X115.662 Y128.976 E1.8708
G1 X119.826 Y127.627 E2.0674
G1 X124.173 Y125.207 E2.2908
G1 X128.534 Y121.824 E2.5386
G1 X132.735 Y117.623 E2.8053
G1 X136.600 Y112.782 E3.0835
G1 X139.971 Y107.506 E3.3646
G1 X142.703 Y102.015 E3.6400
G1 X144.682 Y96.540 E3.9014
G1 X145.821 Y91.306 E4.1419
G1 X146.064 Y86.527 E4.3568
G1 X145.385 Y82.393 E4.5449
G1 X143.779 Y79.082 E4.7101
G1 X141.288 Y76.778 E4.8625
G1 X138.053 Y75.639 E5.0165
G1 X134.279 Y75.707 E5.1860
G1 X130.143 Y76.935 E5.3797
G1 X125.808 Y79.246 E5.6002
G1 X121.440 Y82.532 E5.8457
G1 X117.214 Y86.653 E6.1107
G1 X113.304 Y91.435 E6.3881
G1 X109.874 Y96.675 E6.6693
; outer perimeter
G1 X110.220 Y96.877 F4800
G92 E0
G1 X107.433 Y102.316 E0.2744 F1150
G1 X105.387 Y107.758 E0.5355
G1 X104.168 Y112.972 E0.7759
G1 X103.832 Y117.735 E0.9903
G1 X104.399 Y121.850 E1.1768
G1 X105.854 Y125.139 E1.3383
G1 X108.133 Y127.436 E1.4836
G1 X108.750 Y127.807 E1.5159
G1 X111.890 Y128.767 E1.6634
G1 X115.588 Y128.579 E1.8296
G1 X119.665 Y127.259 E2.0221
G1 X123.952 Y124.872 E2.2423
G1 X128.269 Y121.523 E2.4877
G1 X132.436 Y117.356 E2.7523
G1 X136.275 Y112.549 E3.0285
G1 X139.622 Y107.308 E3.3077
G1 X142.335 Y101.857 E3.5811
G1 X144.297 Y96.429 E3.8403
G1 X145.423 Y91.253 E4.0781
G1 X145.662 Y86.550 E4.2896
G1 X145.000 Y82.516 E4.4731
G1 X143.452 Y79.325 E4.6324
G1 X141.077 Y77.128 E4.7776
G1 X137.988 Y76.040 E4.9247
G1 X134.340 Y76.106 E5.0885
G1 X130.296 Y77.307 E5.2779
G1 X126.024 Y79.584 E5.4953
G1 X121.701 Y82.836 E5.7382
G1 X117.509 Y86.924 E6.0011
G1 X113.627 Y91.672 E6.2765
G1 X110.220 Y96.877 E6.5558
; inner perimeter
G1 X129.754 Y63.668 F4800
G92 E0
G1 X131.000 Y64.002 E0.0579 F1725
G1 X132.246 Y63.668 E0.1158
G1 X133.158 Y62.756 E0.1737
G1 X133.492 Y61.511 E0.2316
G1 X133.158 Y60.265 E0.2895
G1 X132.246 Y59.353 E0.3475
G1 X131.000 Y59.019 E0.4054
G1 X129.754 Y59.353 E0.4633
G1 X128.842 Y60.265 E0.5212
G1 X128.508 Y61.511 E0.5791
G1 X128.842 Y62.756 E0.6370
G1 X129.754 Y63.668 E0.6949
; outer perimeter
G1 X129.961 Y63.310 F4800
G92 E0
G1 X131.000 Y63.588 E0.0483 F1150
G1 X132.039 Y63.310 E0.0966
G1 X132.799 Y62.549 E0.1449
G1 X133.077 Y61.511 E0.1931
G1 X132.799 Y60.472 E0.2414
G1 X132.039 Y59.712 E0.2897
G1 X131.000 Y59.433 E0.3380
G1 X129.961 Y59.712 E0.3863
G1 X129.201 Y60.472 E0.4346
G1 X128.923 Y61.511 E0.4828
G1 X129.201 Y62.549 E0.5311
G1 X129.961 Y63.310 E0.5794
G92 E0
G1 E-1.0000 F1800
; inner perimeter
G1 X131.000 Y135.875 F4800
G1 E0.0000 F1800
G92 E0
G1 X129.682 Y136.228 E0.0613 F1725
G1 X128.718 Y137.193 E0.1225
G1 X128.365 Y138.511 E0.1838
G1 X128.718 Y139.828 E0.2450
G1 X129.682 Y140.793 E0.3063
G1 X131.000 Y141.146 E0.3675
G1 X132.318 Y140.793 E0.4288
G1 X133.282 Y139.828 E0.4900
G1 X133.635 Y138.511 E0.5513
G1 X133.282 Y137.193 E0.6125
G1 X132.318 Y136.228 E0.6738
G1 X131.000 Y135.875 E0.7350
; outer perimeter
G1 X131.000 Y136.289 F4800
G92 E0
G1 X129.889 Y136.587 E0.0516 F1150
G1 X129.076 Y137.400 E0.1033
G1 X128.779 Y138.511 E0.1549
G1 X129.076 Y139.621 E0.2065
G1 X129.889 Y140.434 E0.2581
G1 X131.000 Y140.732 E0.3098
G1 X132.111 Y140.434 E0.3614
G1 X132.924 Y139.621 E0.4130
G1 X133.221 Y138.511 E0.4647
G1 X132.924 Y137.400 E0.5163
G1 X132.111 Y136.587 E0.5679
G1 X131.000 Y136.289 E0.6195
G92 E0
G1 E-1.0000 F1800
; inner perimeter
G1 X71.635 Y138.511 F4800
G1 E0.0000 F1800
G92 E0
G1 X71.282 Y137.193 E0.0613 F1725
G1 X70.318 Y136.228 E0.1225
G1 X69.000 Y135.875 E0.1838
G1 X67.682 Y136.228 E0.2450
G1 X66.718 Y137.193 E0.3063
G1 X66.365 Y138.511 E0.3675
G1 X66.718 Y139.828 E0.4288
G1 X67.682 Y140.793 E0.4900
G1 X69.000 Y141.146 E0.5513
G1 X70.318 Y140.793 E0.6125
G1 X71.282 Y139.828 E0.6738
G1 X71.635 Y138.511 E0.7350
; outer perimeter
G1 X71.221 Y138.511 F4800
G92 E0
G1 X70.924 Y137.400 E0.0516 F1150
G1 X70.111 Y136.587 E0.1033
G1 X69.000 Y136.289 E0.1549
G1 X67.889 Y136.587 E0.2065
G1 X67.076 Y137.400 E0.2581
G1 X66.779 Y138.511 E0.3098
G1 X67.076 Y139.621 E0.3614
G1 X67.889 Y140.434 E0.4130
G1 X69.000 Y140.732 E0.4647
G1 X70.111 Y140.434 E0.5163
G1 X70.924 Y139.621 E0.5679
G1 X71.221 Y138.511 E0.6195
; solid layer
G1 X71.864 Y138.049 F4800
G92 E0
G1 X75.340 Y141.526 E0.2208 F1840
G1 X75.260 Y141.587 E0.2253
G1 X75.003 Y141.754 E0.2391
G1 X71.939 Y138.690 E0.4336
G1 X71.820 Y139.136 E0.4544
G1 X74.660 Y141.977 E0.6347
G1 X74.317 Y142.199 E0.6531
G1 X71.700 Y139.582 E0.8193
G1 X71.587 Y140.004 E0.8389
G1 X71.572 Y140.020 E0.8398
G1 X73.974 Y142.422 E0.9924
G1 X73.631 Y142.644 E1.0107
G1 X71.289 Y140.303 E1.1595
