; G-Code generated by Simplify3D(R) Version 4.0.0
; Dec 28, 2020 at 11:18:12 PM
; Settings Summary
;   processName,Process1
;   applyToModels,UniversalDockBase
;   profileName,new profile (modified)
;   profileVersion,2020-09-07 14:01:24
;   baseProfile,Default (modified)
;   printMaterial,PLA
;   printQuality,Medium
;   printExtruders,
;   extruderName,Primary Extruder
;   extruderToolheadNumber,0
;   extruderDiameter,0.4
;   extruderAutoWidth,0
;   extruderWidth,0.4
;   extrusionMultiplier,0.9
;   extruderUseRetract,1
;   extruderRetractionDistance,1
;   extruderExtraRestartDistance,0
;   extruderRetractionZLift,0
;   extruderRetractionSpeed,1800
;   extruderUseCoasting,0
;   extruderCoastingDistance,0.2
;   extruderUseWipe,0
;   extruderWipeDistance,5
;   primaryExtruder,0
;   layerHeight,0.3
;   topSolidLayers,3
;   bottomSolidLayers,3
;   perimeterOutlines,2
;   printPerimetersInsideOut,1
;   startPointOption,2
;   startPointOriginX,0
;   startPointOriginY,0
;   sequentialIslands,0
;   spiralVaseMode,0
;   firstLayerHeightPercentage,90
;   firstLayerWidthPercentage,103
;   firstLayerUnderspeed,0.5
;   useRaft,0
;   raftExtruder,0
;   raftTopLayers,3
;   raftBaseLayers,2
;   raftOffset,3
;   raftSeparationDistance,0.14
;   raftTopInfill,100
;   aboveRaftSpeedMultiplier,0.3
;   useSkirt,0
;   skirtExtruder,0
;   skirtLayers,1
;   skirtOutlines,2
;   skirtOffset,4
;   usePrimePillar,0
;   primePillarExtruder,999
;   primePillarWidth,12
;   primePillarLocation,7
;   primePillarSpeedMultiplier,1
;   useOozeShield,0
;   oozeShieldExtruder,999
;   oozeShieldOffset,2
;   oozeShieldOutlines,1
;   oozeShieldSidewallShape,1
;   oozeShieldSidewallAngle,30
;   oozeShieldSpeedMultiplier,1
;   infillExtruder,0
;   internalInfillPattern,Rectilinear
;   externalInfillPattern,Rectilinear
;   infillPercentage,20
;   outlineOverlapPercentage,15
;   infillExtrusionWidthPercentage,100
;   minInfillLength,5
;   infillLayerInterval,1
;   internalInfillAngles,45,-45
;   overlapInternalInfillAngles,0
;   externalInfillAngles,45,-45
;   generateSupport,1
;   supportExtruder,0
;   supportInfillPercentage,30
;   supportExtraInflation,0
;   supportBaseLayers,0
;   denseSupportExtruder,0
;   denseSupportLayers,0
;   denseSupportInfillPercentage,70
;   supportLayerInterval,1
;   supportHorizontalPartOffset,0.3
;   supportUpperSeparationLayers,1
;   supportLowerSeparationLayers,1
;   supportType,0
;   supportGridSpacing,4
;   maxOverhangAngle,45
;   supportAngles,0
;   temperatureName,Primary Extruder,Hot Bed
;   temperatureNumber,0,1
;   temperatureSetpointCount,1,1
;   temperatureSetpointLayers,1,1
;   temperatureSetpointTemperatures,210,60
;   temperatureStabilizeAtStartup,1,0
;   temperatureHeatedBed,0,1
;   temperatureRelayBetweenLayers,0,0
;   temperatureRelayBetweenLoops,0,0
;   fanLayers,1,2
;   fanSpeeds,0,100
;   blipFanToFullPower,0
;   adjustSpeedForCooling,1
;   minSpeedLayerTime,15
;   minCoolingSpeedSlowdown,20
;   increaseFanForCooling,0
;   minFanLayerTime,45
;   maxCoolingFanSpeed,100
;   increaseFanForBridging,0
;   bridgingFanSpeed,100
;   use5D,1
;   relativeEdistances,0
;   allowEaxisZeroing,1
;   independentExtruderAxes,0
;   includeM10123,0
;   stickySupport,1
;   applyToolheadOffsets,0
;   gcodeXoffset,-0.03
;   gcodeYoffset,-0.03
;   gcodeZoffset,0
;   overrideMachineDefinition,0
;   machineTypeOverride,0
;   strokeXoverride,200
;   strokeYoverride,200
;   strokeZoverride,200
;   originOffsetXoverride,0
;   originOffsetYoverride,0
;   originOffsetZoverride,0
;   homeXdirOverride,-1
;   homeYdirOverride,-1
;   homeZdirOverride,-1
;   flipXoverride,1
;   flipYoverride,-1
;   flipZoverride,1
;   toolheadOffsets,0,0|0,0|0,0|0,0|0,0|0,0
;   overrideFirmwareConfiguration,0
;   firmwareTypeOverride,RepRap (Marlin/Repetier/Sprinter)
;   GPXconfigOverride,r2
;   baudRateOverride,115200
;   overridePrinterModels,0
;   printerModelsOverride
;   startingGcode,G28 ; home all axes,G1 X3 Y5 Z0.2 F3000 ; get ready to prime,G92 E0 ; reset extrusion distance,G1 Y150 E20 F600 ; prime nozzle
;   layerChangeGcode,
;   retractionGcode,
;   toolChangeGcode,
;   endingGcode,M104 S0 ; turn off extruder,M140 S0 ; turn off bedG1 X0 Y0; home,M84 ; disable motors,M107 ; fan off,G28 X Y; Home,M18; Disable steppers
;   exportFileFormat,gcode
;   celebration,0
;   celebrationSong,Random Song
;   postProcessing,
;   defaultSpeed,4600
;   outlineUnderspeed,0.5
;   solidInfillUnderspeed,0.8
;   supportUnderspeed,0.8
;   rapidXYspeed,4800
;   rapidZspeed,1000
;   minBridgingArea,50
;   bridgingExtraInflation,0
;   bridgingExtrusionMultiplier,1
;   bridgingSpeedMultiplier,1
;   useFixedBridgingAngle,0
;   fixedBridgingAngle,0
;   applyBridgingToPerimeters,0
;   filamentDiameters,1.75|1.75|1.75|1.75|1.75|1.75
;   filamentPricesPerKg,46|46|46|46|46|46
;   filamentDensities,1.25|1.25|1.25|1.25|1.25|1.25
;   useMinPrintHeight,0
;   minPrintHeight,0
;   useMaxPrintHeight,0
;   maxPrintHeight,0
;   useDiaphragm,0
;   diaphragmLayerInterval,20
;   robustSlicing,1
;   mergeAllIntoSolid,0
;   onlyRetractWhenCrossingOutline,1
;   retractBetweenLayers,1
;   useRetractionMinTravel,0
;   retractionMinTravel,3
;   retractWhileWiping,0
;   onlyWipeOutlines,1
;   avoidCrossingOutline,0
;   maxMovementDetourFactor,3
;   toolChangeRetractionDistance,12
;   toolChangeExtraRestartDistance,-0.5
;   toolChangeRetractionSpeed,600
;   externalThinWallType,1
;   internalThinWallType,1
;   thinWallAllowedOverlapPercentage,10
;   singleExtrusionMinLength,1
;   singleExtrusionMinPrintingWidthPercentage,50
;   singleExtrusionMaxPrintingWidthPercentage,200
;   singleExtrusionEndpointExtension,0.2
;   horizontalSizeCompensation,0
G90
M82
M106 S0
M140 S60
M104 S210 T0
M109 S210 T0
G28 ; home all axes
G1 X3 Y5 Z0.2 F3000 ; get ready to prime
G92 E0 ; reset extrusion distance
G1 Y150 E20 F600 ; prime nozzle
G92 E0
G1 E-1.0000 F1800
G1 Z0.270 F1000
; process Process1
; layer 1, Z = 0.270
T0
; tool H0.300 W0.412
; inner perimeter
G1 X66.096 Y89.246 F4800
G1 E0.0000 F540
G92 E0
G1 X66.680 Y88.929 E0.0307 F1725
G1 X67.313 Y88.735 E0.0613
G1 X68.001 Y88.666 E0.0933
G1 X93.987 Y88.666 E1.2951
G1 X93.987 Y102.729 E1.9455
G1 X109.711 Y102.729 E2.6728
G1 X109.838 Y102.799 E2.6795
G1 X110.251 Y103.062 E2.7021
G1 X110.552 Y103.282 E2.7194
G1 X111.123 Y103.775 E2.7542
G1 X111.310 Y103.988 E2.7673
G1 X111.507 Y104.184 E2.7802
G1 X111.507 Y149.298 E4.8666
G1 X68.000 Y149.298 E6.8787
G1 X67.311 Y149.230 E6.9107
G1 X66.677 Y149.038 E6.9414
G1 X66.093 Y148.726 E6.9720
G1 X65.581 Y148.305 E7.0026
G1 X65.160 Y147.793 E7.0333
G1 X64.848 Y147.209 E7.0639
G1 X64.656 Y146.575 E7.0946
G1 X64.588 Y145.886 E7.1266
G1 X64.588 Y92.139 E9.6123
G1 X64.656 Y91.436 E9.6449
G1 X64.849 Y90.790 E9.6761
G1 X65.163 Y90.194 E9.7073
G1 X65.584 Y89.673 E9.7382
G1 X66.096 Y89.246 E9.7691
; outer perimeter
G1 X65.864 Y88.904 F4800
G92 E0
G1 X66.519 Y88.548 E0.0345 F1150
G1 X67.231 Y88.329 E0.0689
G1 X67.980 Y88.254 E0.1038
G1 X94.399 Y88.254 E1.3256
G1 X94.399 Y102.317 E1.9760
G1 X109.817 Y102.317 E2.6890
G1 X110.048 Y102.444 E2.7012
G1 X110.483 Y102.722 E2.7251
G1 X110.809 Y102.960 E2.7437
G1 X111.414 Y103.481 E2.7807
G1 X111.611 Y103.706 E2.7945
G1 X111.918 Y104.013 E2.8146
G1 X111.918 Y149.710 E4.9280
G1 X67.980 Y149.710 E6.9601
G1 X67.230 Y149.636 E6.9950
G1 X66.518 Y149.420 E7.0293
G1 X65.863 Y149.070 E7.0637
G1 X65.288 Y148.598 E7.0981
G1 X64.816 Y148.023 E7.1325
G1 X64.466 Y147.368 E7.1669
G1 X64.250 Y146.656 E7.2013
G1 X64.176 Y145.906 E7.2361
G1 X64.176 Y92.119 E9.7237
G1 X64.250 Y91.357 E9.7591
G1 X64.466 Y90.633 E9.7940
G1 X64.817 Y89.967 E9.8289
G1 X65.289 Y89.383 E9.8636
G1 X65.864 Y88.904 E9.8982
; solid layer
G1 X79.355 Y89.016 F4800
G92 E0
G1 X111.156 Y120.818 E2.0800 F1840
G1 X111.156 Y121.400 E2.1069
G1 X78.772 Y89.016 E4.2250
G1 X78.189 Y89.016 E4.2520
G1 X111.156 Y121.983 E6.4081
G1 X111.156 Y122.566 E6.4351
G1 X77.607 Y89.016 E8.6294
G1 X77.024 Y89.016 E8.6563
G1 X111.156 Y123.148 E10.8888
G1 X111.156 Y123.731 E10.9157
G1 X76.441 Y89.016 E13.1862
G1 X75.859 Y89.016 E13.2132
G1 X111.156 Y124.313 E15.5218
G1 X111.156 Y124.896 E15.5487
G1 X75.276 Y89.016 E17.8955
G1 X74.694 Y89.016 E17.9224
G1 X111.156 Y125.479 E20.3073
G1 X111.156 Y126.061 E20.3342
G1 X74.111 Y89.016 E22.7572
G1 X73.528 Y89.016 E22.7841
G1 X111.156 Y126.644 E25.2452
G1 X111.156 Y127.227 E25.2721
G1 X72.946 Y89.016 E27.7713
G1 X72.363 Y89.016 E27.7982
G1 X111.156 Y127.809 E30.3355
G1 X111.156 Y128.392 E30.3625
G1 X71.780 Y89.016 E32.9378
G1 X71.198 Y89.016 E32.9648
G1 X111.156 Y128.975 E35.5783
G1 X111.156 Y129.557 E35.6052
G1 X70.615 Y89.016 E38.2568
G1 X70.032 Y89.016 E38.2838
G1 X111.156 Y130.140 E40.9735
G1 X111.156 Y130.723 E41.0004
G1 X69.450 Y89.016 E43.7283
G1 X68.867 Y89.016 E43.7552
G1 X111.156 Y131.305 E46.5211
G1 X111.156 Y131.888 E46.5481
G1 X68.284 Y89.016 E49.3521
G1 X68.018 Y89.016 E49.3644
G1 X67.730 Y89.045 E49.3778
G1 X111.156 Y132.471 E52.2181
G1 X111.156 Y133.053 E52.2450
G1 X67.230 Y89.127 E55.1180
G1 X66.816 Y89.254 E55.1380
G1 X66.789 Y89.269 E55.1395
G1 X111.156 Y133.636 E58.0413
G1 X111.156 Y134.219 E58.0683
G1 X66.411 Y89.474 E60.9948
G1 X66.294 Y89.537 E61.0010
G1 X66.075 Y89.720 E61.0142
G1 X111.156 Y134.801 E63.9627
G1 X111.156 Y135.384 E63.9896
G1 X65.771 Y89.999 E66.9580
G1 X65.511 Y90.321 E66.9772
G1 X111.156 Y135.967 E69.9627
G1 X111.156 Y136.549 E69.9896
G1 X65.297 Y90.690 E72.9890
G1 X65.175 Y90.923 E73.0011
G1 X65.123 Y91.098 E73.0096
G1 X111.156 Y137.132 E76.0204
G1 X111.156 Y137.715 E76.0474
G1 X64.997 Y91.555 E79.0665
G1 X64.945 Y92.086 E79.0911
G1 X111.156 Y138.297 E82.1136
G1 X111.156 Y138.880 E82.1405
G1 X64.938 Y92.662 E85.1634
G1 X64.938 Y93.244 E85.1904
G1 X111.156 Y139.463 E88.2132
G1 X111.156 Y140.045 E88.2402
G1 X64.938 Y93.827 E91.2631
G1 X64.938 Y94.410 E91.2900
G1 X111.156 Y140.628 E94.3129
G1 X111.156 Y141.210 E94.3399
G1 X64.938 Y94.992 E97.3627
G1 X64.938 Y95.575 E97.3897
G1 X111.156 Y141.793 E100.4126
G1 X111.156 Y142.376 E100.4395
G1 X64.938 Y96.158 E103.4624
G1 X64.938 Y96.740 E103.4894
G1 X111.156 Y142.958 E106.5123
G1 X111.156 Y143.541 E106.5392
G1 X64.938 Y97.323 E109.5621
G1 X64.938 Y97.906 E109.5890
G1 X111.156 Y144.124 E112.6119
G1 X111.156 Y144.706 E112.6389
G1 X64.938 Y98.488 E115.6618
G1 X64.938 Y99.071 E115.6887
G1 X111.156 Y145.289 E118.7116
G1 X111.156 Y145.872 E118.7385
G1 X64.938 Y99.654 E121.7614
G1 X64.938 Y100.236 E121.7884
G1 X111.156 Y146.454 E124.8113
G1 X111.156 Y147.037 E124.8382
G1 X64.938 Y100.819 E127.8611
G1 X64.938 Y101.402 E127.8880
G1 X111.156 Y147.620 E130.9109
G1 X111.156 Y148.202 E130.9379
G1 X64.938 Y101.984 E133.9608
G1 X64.938 Y102.567 E133.9877
G1 X111.156 Y148.785 E137.0106
G1 X111.156 Y148.948 E137.0181
G1 X110.736 Y148.948 E137.0376
G1 X64.938 Y103.150 E140.0330
G1 X64.938 Y103.732 E140.0599
G1 X110.154 Y148.948 E143.0172
G1 X109.571 Y148.948 E143.0442
G1 X64.938 Y104.315 E145.9634
G1 X64.938 Y104.898 E145.9903
G1 X108.988 Y148.948 E148.8714
G1 X108.406 Y148.948 E148.8984
G1 X64.938 Y105.480 E151.7414
G1 X64.938 Y106.063 E151.7683
G1 X107.823 Y148.948 E154.5732
G1 X107.240 Y148.948 E154.6002
G1 X64.938 Y106.646 E157.3669
G1 X64.938 Y107.228 E157.3939
G1 X106.658 Y148.948 E160.1226
G1 X106.075 Y148.948 E160.1495
G1 X64.938 Y107.811 E162.8401
G1 X64.938 Y108.393 E162.8670
G1 X105.493 Y148.948 E165.5195
G1 X104.910 Y148.948 E165.5464
G1 X64.938 Y108.976 E168.1607
G1 X64.938 Y109.559 E168.1877
G1 X104.327 Y148.948 E170.7639
G1 X103.745 Y148.948 E170.7909
G1 X64.938 Y110.141 E173.3290
G1 X64.938 Y110.724 E173.3559
G1 X103.162 Y148.948 E175.8560
G1 X102.579 Y148.948 E175.8829
G1 X64.938 Y111.307 E178.3448
G1 X64.938 Y111.889 E178.3718
G1 X101.997 Y148.948 E180.7956
G1 X101.414 Y148.948 E180.8225
G1 X64.938 Y112.472 E183.2082
G1 X64.938 Y113.055 E183.2351
G1 X100.831 Y148.948 E185.5827
G1 X100.249 Y148.948 E185.6097
G1 X64.938 Y113.637 E187.9191
G1 X64.938 Y114.220 E187.9461
G1 X99.666 Y148.948 E190.2175
G1 X99.083 Y148.948 E190.2444
G1 X64.938 Y114.803 E192.4777
G1 X64.938 Y115.385 E192.5046
G1 X98.501 Y148.948 E194.6998
G1 X97.918 Y148.948 E194.7267
G1 X64.938 Y115.968 E196.8837
G1 X64.938 Y116.551 E196.9107
G1 X97.335 Y148.948 E199.0296
G1 X96.753 Y148.948 E199.0566
G1 X64.938 Y117.133 E201.1374
G1 X64.938 Y117.716 E201.1643
G1 X96.170 Y148.948 E203.2070
G1 X95.587 Y148.948 E203.2340
G1 X64.938 Y118.299 E205.2386
G1 X64.938 Y118.881 E205.2655
G1 X95.005 Y148.948 E207.2320
G1 X94.422 Y148.948 E207.2590
G1 X64.938 Y119.464 E209.1874
G1 X64.938 Y120.047 E209.2143
G1 X93.839 Y148.948 E211.1046
G1 X93.257 Y148.948 E211.1316
G1 X64.938 Y120.629 E212.9837
G1 X64.938 Y121.212 E213.0107
G1 X92.674 Y148.948 E214.8247
G1 X92.091 Y148.948 E214.8517
G1 X64.938 Y121.795 E216.6276
G1 X64.938 Y122.377 E216.6546
G1 X91.509 Y148.948 E218.3924
G1 X90.926 Y148.948 E218.4194
G1 X64.938 Y122.960 E220.1191
G1 X64.938 Y123.543 E220.1461
G1 X90.343 Y148.948 E221.8077
G1 X89.761 Y148.948 E221.8346
G1 X64.938 Y124.125 E223.4581
G1 X64.938 Y124.708 E223.4851
G1 X89.178 Y148.948 E225.0705
G1 X88.596 Y148.948 E225.0975
G1 X64.938 Y125.291 E226.6448
G1 X64.938 Y125.873 E226.6717
G1 X88.013 Y148.948 E228.1809
G1 X87.430 Y148.948 E228.2078
G1 X64.938 Y126.456 E229.6789
G1 X64.938 Y127.038 E229.7059
G1 X86.848 Y148.948 E231.1389
G1 X86.265 Y148.948 E231.1658
G1 X64.938 Y127.621 E232.5607
G1 X64.938 Y128.204 E232.5876
G1 X85.682 Y148.948 E233.9444
G1 X85.100 Y148.948 E233.9713
G1 X64.938 Y128.786 E235.2900
G1 X64.938 Y129.369 E235.3169
G1 X84.517 Y148.948 E236.5975
G1 X83.934 Y148.948 E236.6244
G1 X64.938 Y129.952 E237.8668
G1 X64.938 Y130.534 E237.8938
G1 X83.352 Y148.948 E239.0981
G1 X82.769 Y148.948 E239.1251
G1 X64.938 Y131.117 E240.2913
G1 X64.938 Y131.700 E240.3182
G1 X82.186 Y148.948 E241.4463
G1 X81.604 Y148.948 E241.4733
G1 X64.938 Y132.282 E242.5633
G1 X64.938 Y132.865 E242.5902
G1 X81.021 Y148.948 E243.6421
G1 X80.438 Y148.948 E243.6691
G1 X64.938 Y133.448 E244.6829
G1 X64.938 Y134.030 E244.7098
G1 X79.856 Y148.948 E245.6855
G1 X79.273 Y148.948 E245.7124
G1 X64.938 Y134.613 E246.6500
G1 X64.938 Y135.196 E246.6769
G1 X78.690 Y148.948 E247.5764
G1 X78.108 Y148.948 E247.6033
G1 X64.938 Y135.778 E248.4647
G1 X64.938 Y136.361 E248.4916
G1 X77.525 Y148.948 E249.3149
G1 X76.942 Y148.948 E249.3418
G1 X64.938 Y136.944 E250.1270
G1 X64.938 Y137.526 E250.1539
G1 X76.360 Y148.948 E250.9009
G1 X75.777 Y148.948 E250.9279
G1 X64.938 Y138.109 E251.6368
G1 X64.938 Y138.692 E251.6637
G1 X75.194 Y148.948 E252.3345
G1 X74.612 Y148.948 E252.3615
G1 X64.938 Y139.274 E252.9942
G1 X64.938 Y139.857 E253.0211
G1 X74.029 Y148.948 E253.6157
G1 X73.446 Y148.948 E253.6427
G1 X64.938 Y140.440 E254.1992
G1 X64.938 Y141.022 E254.2261
G1 X72.864 Y148.948 E254.7445
G1 X72.281 Y148.948 E254.7714
G1 X64.938 Y141.605 E255.2517
G1 X64.938 Y142.188 E255.2786
G1 X71.698 Y148.948 E255.7208
G1 X71.116 Y148.948 E255.7477
G1 X64.938 Y142.770 E256.1518
G1 X64.938 Y143.353 E256.1787
G1 X70.533 Y148.948 E256.5447
G1 X69.951 Y148.948 E256.5716
G1 X64.938 Y143.935 E256.8994
G1 X64.938 Y144.518 E256.9264
G1 X69.368 Y148.948 E257.2161
G1 X68.785 Y148.948 E257.2431
G1 X64.938 Y145.101 E257.4947
G1 X64.938 Y145.683 E257.5216
G1 X68.203 Y148.948 E257.7351
G1 X68.018 Y148.948 E257.7437
G1 X67.576 Y148.904 E257.7642
G1 X64.982 Y146.310 E257.9339
G1 X65.001 Y146.507 E257.9430
G1 X65.173 Y147.074 E257.9705
G1 X65.184 Y147.095 E257.9715
G1 X66.791 Y148.702 E258.0767
G1 X109.919 Y103.266 F4800
G92 E0
G1 X111.156 Y104.503 E0.0809 F1840
G1 X111.156 Y105.086 E0.1079
G1 X109.150 Y103.079 E0.2391
G1 X108.567 Y103.079 E0.2660
G1 X111.156 Y105.668 E0.4354
G1 X111.156 Y106.251 E0.4623
G1 X107.985 Y103.079 E0.6698
G1 X107.402 Y103.079 E0.6967
G1 X111.156 Y106.834 E0.9423
G1 X111.156 Y107.416 E0.9692
G1 X106.819 Y103.079 E1.2529
G1 X106.237 Y103.079 E1.2798
G1 X111.156 Y107.999 E1.6016
G1 X111.156 Y108.582 E1.6285
G1 X105.654 Y103.079 E1.9884
G1 X105.071 Y103.079 E2.0154
G1 X111.156 Y109.164 E2.4134
G1 X111.156 Y109.747 E2.4403
G1 X104.489 Y103.079 E2.8764
G1 X103.906 Y103.079 E2.9033
G1 X111.156 Y110.330 E3.3775
