; G-Code generated by Simplify3D(R) Version 4.0.0
; Mar 21, 2020 at 9:15:10 PM
; Settings Summary
;   processName,Process1
;   applyToModels,USB-SD-MicroSD_Card_Holder_-_v2.0
;   profileName,bar (modified)
;   profileVersion,2019-07-15 16:42:33
;   baseProfile,Default (modified)
;   printMaterial,PLA
;   printQuality,Medium
;   printExtruders,
;   extruderName,Primary Extruder
;   extruderToolheadNumber,0
;   extruderDiameter,0.4
;   extruderAutoWidth,0
;   extruderWidth,0.4
;   extrusionMultiplier,0.9
;   extruderUseRetract,1
;   extruderRetractionDistance,1
;   extruderExtraRestartDistance,0
;   extruderRetractionZLift,0
;   extruderRetractionSpeed,1800
;   extruderUseCoasting,0
;   extruderCoastingDistance,0.2
;   extruderUseWipe,0
;   extruderWipeDistance,5
;   primaryExtruder,0
;   layerHeight,0.3
;   topSolidLayers,3
;   bottomSolidLayers,3
;   perimeterOutlines,2
;   printPerimetersInsideOut,1
;   startPointOption,2
;   startPointOriginX,0
;   startPointOriginY,0
;   sequentialIslands,0
;   spiralVaseMode,0
;   firstLayerHeightPercentage,90
;   firstLayerWidthPercentage,100
;   firstLayerUnderspeed,0.5
;   useRaft,0
;   raftExtruder,0
;   raftTopLayers,3
;   raftBaseLayers,2
;   raftOffset,3
;   raftSeparationDistance,0.14
;   raftTopInfill,100
;   aboveRaftSpeedMultiplier,0.3
;   useSkirt,0
;   skirtExtruder,0
;   skirtLayers,1
;   skirtOutlines,2
;   skirtOffset,4
;   usePrimePillar,0
;   primePillarExtruder,999
;   primePillarWidth,12
;   primePillarLocation,7
;   primePillarSpeedMultiplier,1
;   useOozeShield,0
;   oozeShieldExtruder,999
;   oozeShieldOffset,2
;   oozeShieldOutlines,1
;   oozeShieldSidewallShape,1
;   oozeShieldSidewallAngle,30
;   oozeShieldSpeedMultiplier,1
;   infillExtruder,0
;   internalInfillPattern,Rectilinear
;   externalInfillPattern,Rectilinear
;   infillPercentage,25
;   outlineOverlapPercentage,15
;   infillExtrusionWidthPercentage,100
;   minInfillLength,5
;   infillLayerInterval,1
;   internalInfillAngles,45,-45
;   overlapInternalInfillAngles,0
;   externalInfillAngles,45,-45
;   generateSupport,0
;   supportExtruder,0
;   supportInfillPercentage,30
;   supportExtraInflation,0
;   supportBaseLayers,0
;   denseSupportExtruder,0
;   denseSupportLayers,0
;   denseSupportInfillPercentage,70
;   supportLayerInterval,1
;   supportHorizontalPartOffset,0.3
;   supportUpperSeparationLayers,1
;   supportLowerSeparationLayers,1
;   supportType,0
;   supportGridSpacing,4
;   maxOverhangAngle,45
;   supportAngles,0
;   temperatureName,Primary Extruder,Hot Bed
;   temperatureNumber,0,1
;   temperatureSetpointCount,1,1
;   temperatureSetpointLayers,1,1
;   temperatureSetpointTemperatures,210,60
;   temperatureStabilizeAtStartup,1,1
;   temperatureHeatedBed,0,1
;   temperatureRelayBetweenLayers,0,0
;   temperatureRelayBetweenLoops,0,0
;   fanLayers,1,2
;   fanSpeeds,0,100
;   blipFanToFullPower,0
;   adjustSpeedForCooling,1
;   minSpeedLayerTime,15
;   minCoolingSpeedSlowdown,20
;   increaseFanForCooling,0
;   minFanLayerTime,45
;   maxCoolingFanSpeed,100
;   increaseFanForBridging,0
;   bridgingFanSpeed,100
;   use5D,1
;   relativeEdistances,0
;   allowEaxisZeroing,1
;   independentExtruderAxes,0
;   includeM10123,0
;   stickySupport,1
;   applyToolheadOffsets,0
;   gcodeXoffset,0
;   gcodeYoffset,0
;   gcodeZoffset,0
;   overrideMachineDefinition,0
;   machineTypeOverride,0
;   strokeXoverride,200
;   strokeYoverride,200
;   strokeZoverride,200
;   originOffsetXoverride,0
;   originOffsetYoverride,0
;   originOffsetZoverride,0
;   homeXdirOverride,-1
;   homeYdirOverride,-1
;   homeZdirOverride,-1
;   flipXoverride,1
;   flipYoverride,-1
;   flipZoverride,1
;   toolheadOffsets,0,0|0,0|0,0|0,0|0,0|0,0
;   overrideFirmwareConfiguration,0
;   firmwareTypeOverride,RepRap (Marlin/Repetier/Sprinter)
;   GPXconfigOverride,r2
;   baudRateOverride,115200
;   overridePrinterModels,0
;   printerModelsOverride
;   startingGcode,G28 ; home all axes,G1 X10 Y10 Z0.2 F3000 ; get ready to prime,G92 E0 ; reset extrusion distance,G1 Y110 E20 F600 ; prime nozzle
;   layerChangeGcode,
;   retractionGcode,
;   toolChangeGcode,
;   endingGcode,M104 S0 ; turn off extruder,M140 S0 ; turn off bed,G1 X0 Y0 ; home x,y axes,M84 ; disable motors
;   exportFileFormat,gcode
;   celebration,0
;   celebrationSong,Random Song
;   postProcessing,
;   defaultSpeed,4000
;   outlineUnderspeed,0.5
;   solidInfillUnderspeed,0.8
;   supportUnderspeed,0.8
;   rapidXYspeed,4200
;   rapidZspeed,1000
;   minBridgingArea,50
;   bridgingExtraInflation,0
;   bridgingExtrusionMultiplier,1
;   bridgingSpeedMultiplier,1
;   useFixedBridgingAngle,0
;   fixedBridgingAngle,0
;   applyBridgingToPerimeters,0
;   filamentDiameters,1.75|1.75|1.75|1.75|1.75|1.75
;   filamentPricesPerKg,46|46|46|46|46|46
;   filamentDensities,1.25|1.25|1.25|1.25|1.25|1.25
;   useMinPrintHeight,0
;   minPrintHeight,0
;   useMaxPrintHeight,0
;   maxPrintHeight,0
;   useDiaphragm,0
;   diaphragmLayerInterval,20
;   robustSlicing,1
;   mergeAllIntoSolid,0
;   onlyRetractWhenCrossingOutline,1
;   retractBetweenLayers,1
;   useRetractionMinTravel,0
;   retractionMinTravel,3
;   retractWhileWiping,0
;   onlyWipeOutlines,1
;   avoidCrossingOutline,0
;   maxMovementDetourFactor,3
;   toolChangeRetractionDistance,12
;   toolChangeExtraRestartDistance,-0.5
;   toolChangeRetractionSpeed,600
;   externalThinWallType,1
;   internalThinWallType,1
;   thinWallAllowedOverlapPercentage,10
;   singleExtrusionMinLength,1
;   singleExtrusionMinPrintingWidthPercentage,50
;   singleExtrusionMaxPrintingWidthPercentage,200
;   singleExtrusionEndpointExtension,0.2
;   horizontalSizeCompensation,0
G90
M82
M106 S0
M140 S60
M190 S60
M104 S210 T0
M109 S210 T0
G28 ; home all axes
G1 X10 Y10 Z0.2 F3000 ; get ready to prime
G92 E0 ; reset extrusion distance
G1 Y110 E20 F600 ; prime nozzle
G92 E0
G1 E-1.0000 F1800
G1 Z0.270 F1000
; process Process1
; layer 1, Z = 0.270
T0
; tool H0.300 W0.400
; inner perimeter
G1 X40.462 Y34.543 F4200
G1 E0.0000 F540
G92 E0
G1 X198.748 Y161.507 E9.1111 F1500
G1 X179.538 Y185.457 E10.4897
G1 X21.252 Y58.493 E19.6008
G1 X40.462 Y34.543 E20.9793
; outer perimeter
G1 X40.400 Y33.981 F4200
G92 E0
G1 X199.311 Y161.445 E9.1470 F1000
G1 X179.599 Y186.019 E10.5615
G1 X20.689 Y58.555 E19.7085
G1 X40.400 Y33.981 E21.1230
; inner perimeter
G1 X36.633 Y40.809 F4200
G92 E0
G1 X26.601 Y53.316 E0.7199 F1500
G1 X29.558 Y55.688 E0.8901
G1 X39.590 Y43.181 E1.6101
G1 X36.633 Y40.809 E1.7803
; outer perimeter
G1 X36.695 Y41.371 F4200
G92 E0
G1 X27.163 Y53.254 E0.6840 F1000
G1 X29.496 Y55.126 E0.8183
G1 X39.028 Y43.243 E1.5023
G1 X36.695 Y41.371 E1.6366
; inner perimeter
G1 X40.279 Y43.733 F4200
G92 E0
G1 X30.247 Y56.240 E0.7199 F1500
G1 X33.204 Y58.612 E0.8901
G1 X43.236 Y46.105 E1.6101
G1 X40.279 Y43.733 E1.7803
; outer perimeter
G1 X40.341 Y44.296 F4200
G92 E0
G1 X30.809 Y56.179 E0.6840 F1000
G1 X33.142 Y58.050 E0.8183
G1 X42.674 Y46.167 E1.5023
G1 X40.341 Y44.296 E1.6366
; inner perimeter
G1 X43.845 Y46.594 F4200
G92 E0
G1 X33.813 Y59.101 E0.7199 F1500
G1 X36.849 Y61.537 E0.8947
G1 X46.882 Y49.029 E1.6146
G1 X43.845 Y46.594 E1.7894
; outer perimeter
G1 X43.907 Y47.156 F4200
G92 E0
G1 X34.375 Y59.039 E0.6840 F1000
G1 X36.788 Y60.974 E0.8229
G1 X46.319 Y49.091 E1.5069
G1 X43.907 Y47.156 E1.6457
; inner perimeter
G1 X47.491 Y49.518 F4200
G92 E0
G1 X37.459 Y62.025 E0.7199 F1500
G1 X40.416 Y64.397 E0.8901
G1 X50.448 Y51.890 E1.6101
G1 X47.491 Y49.518 E1.7803
; outer perimeter
G1 X47.553 Y50.081 F4200
G92 E0
G1 X38.021 Y61.964 E0.6840 F1000
G1 X40.354 Y63.835 E0.8183
G1 X49.886 Y51.952 E1.5023
G1 X47.553 Y50.081 E1.6366
; inner perimeter
G1 X51.137 Y52.443 F4200
G92 E0
G1 X41.104 Y64.950 E0.7199 F1500
G1 X44.062 Y67.322 E0.8901
G1 X54.094 Y54.814 E1.6101
G1 X51.137 Y52.443 E1.7803
; outer perimeter
G1 X51.198 Y53.005 F4200
G92 E0
G1 X41.667 Y64.888 E0.6840 F1000
G1 X44.000 Y66.759 E0.8183
G1 X53.531 Y54.876 E1.5023
G1 X51.198 Y53.005 E1.6366
; inner perimeter
G1 X54.743 Y55.335 F4200
G92 E0
G1 X44.711 Y67.842 E0.7199 F1500
G1 X47.707 Y70.246 E0.8924
G1 X57.739 Y57.739 E1.6123
G1 X54.743 Y55.335 E1.7848
; outer perimeter
G1 X54.805 Y55.897 F4200
G92 E0
G1 X45.273 Y67.781 E0.6840 F1000
G1 X47.645 Y69.684 E0.8206
G1 X57.177 Y57.800 E1.5046
G1 X54.805 Y55.897 E1.6412
; inner perimeter
G1 X58.309 Y58.196 F4200
G92 E0
G1 X48.277 Y70.703 E0.7199 F1500
G1 X51.313 Y73.138 E0.8947
G1 X61.346 Y60.631 E1.6146
G1 X58.309 Y58.196 E1.7894
; outer perimeter
G1 X58.371 Y58.758 F4200
G92 E0
G1 X48.839 Y70.641 E0.6840 F1000
G1 X51.252 Y72.576 E0.8229
G1 X60.783 Y60.693 E1.5069
G1 X58.371 Y58.758 E1.6457
; inner perimeter
G1 X61.955 Y61.120 F4200
G92 E0
G1 X51.923 Y73.627 E0.7199 F1500
G1 X54.959 Y76.063 E0.8947
G1 X64.991 Y63.556 E1.6146
G1 X61.955 Y61.120 E1.7894
; outer perimeter
G1 X62.017 Y61.682 F4200
G92 E0
G1 X52.485 Y73.566 E0.6840 F1000
G1 X54.897 Y75.500 E0.8229
G1 X64.429 Y63.617 E1.5069
G1 X62.017 Y61.682 E1.6457
G92 E0
G1 E-1.0000 F1800
; inner perimeter
G1 X63.500 Y73.234 F4200
G1 E0.0000 F1800
G92 E0
G1 X63.156 Y73.321 E0.0159 F1500
G1 X62.358 Y73.688 E0.0554
G1 X62.200 Y73.886 E0.0668
G1 X61.993 Y73.981 E0.0770
G1 X56.698 Y80.582 E0.4569
G1 X56.651 Y80.804 E0.4671
G1 X56.523 Y80.963 E0.4763
G1 X56.338 Y81.821 E0.5157
G1 X56.330 Y82.074 E0.5271
G1 X56.252 Y82.439 E0.5438
G1 X56.389 Y82.739 E0.5586
G1 X56.428 Y83.093 E0.5746
G1 X56.616 Y83.339 E0.5885
G1 X56.932 Y84.027 E0.6225
G1 X57.938 Y84.834 E0.6804
G1 X58.717 Y85.028 E0.7165
G1 X59.107 Y85.207 E0.7357
G1 X59.382 Y85.081 E0.7493
G1 X59.504 Y85.107 E0.7549
G1 X59.983 Y85.054 E0.7766
G1 X61.026 Y84.575 E0.8281
G1 X61.153 Y84.416 E0.8372
G1 X61.359 Y84.321 E0.8474
G1 X66.654 Y77.720 E1.2274
G1 X66.702 Y77.498 E1.2376
G1 X66.861 Y77.300 E1.2490
G1 X67.125 Y76.078 E1.3051
G1 X66.987 Y75.778 E1.3199
G1 X66.940 Y75.349 E1.3393
G1 X66.699 Y74.826 E1.3652
G1 X66.564 Y74.587 E1.3775
G1 X66.420 Y74.275 E1.3929
G1 X65.407 Y73.462 E1.4513
G1 X64.063 Y73.172 E1.5130
G1 X63.500 Y73.234 E1.5384
; outer perimeter
G1 X63.572 Y73.628 F4200
G92 E0
G1 X63.290 Y73.700 E0.0130 F1000
G1 X62.611 Y74.012 E0.0466
G1 X62.453 Y74.210 E0.0580
G1 X62.246 Y74.305 E0.0682
G1 X57.070 Y80.759 E0.4397
G1 X57.022 Y80.981 E0.4499
G1 X56.895 Y81.140 E0.4590
G1 X56.737 Y81.870 E0.4925
G1 X56.729 Y82.123 E0.5039
G1 X56.671 Y82.393 E0.5163
G1 X56.780 Y82.631 E0.5281
G1 X56.814 Y82.939 E0.5420
G1 X56.961 Y83.132 E0.5529
G1 X57.256 Y83.775 E0.5846
G1 X58.120 Y84.467 E0.6343
G1 X58.850 Y84.649 E0.6681
G1 X59.107 Y84.767 E0.6808
G1 X59.336 Y84.661 E0.6922
G1 X59.525 Y84.702 E0.7008
G1 X59.875 Y84.664 E0.7166
G1 X60.773 Y84.251 E0.7610
G1 X60.900 Y84.092 E0.7701
G1 X61.107 Y83.997 E0.7803
G1 X66.283 Y77.543 E1.1518
G1 X66.331 Y77.321 E1.1620
G1 X66.490 Y77.123 E1.1734
G1 X66.705 Y76.124 E1.2193
G1 X66.596 Y75.886 E1.2311
G1 X66.549 Y75.458 E1.2504
G1 X66.342 Y75.008 E1.2727
G1 X66.208 Y74.770 E1.2850
G1 X66.097 Y74.528 E1.2969
G1 X65.230 Y73.833 E1.3468
G1 X64.042 Y73.577 E1.4013
G1 X63.572 Y73.628 E1.4226
G92 E0
G1 E-1.0000 F1800
; inner perimeter
G1 X73.041 Y82.616 F4200
G1 E0.0000 F1800
G92 E0
G1 X67.508 Y89.514 E0.3970 F1500
G1 X67.219 Y90.858 E0.4588
G1 X67.326 Y91.834 E0.5029
G1 X67.513 Y92.081 E0.5168
G1 X67.640 Y92.354 E0.5303
G1 X67.512 Y92.514 E0.5395
G1 X68.883 Y93.613 E0.6184
G1 X69.623 Y93.773 E0.6524
G1 X69.905 Y93.902 E0.6663
G1 X70.826 Y93.801 E0.7080
G1 X71.166 Y93.714 E0.7237
G1 X71.963 Y93.347 E0.7631
G1 X72.090 Y93.189 E0.7722
G1 X72.297 Y93.094 E0.7824
G1 X77.591 Y86.493 E1.1624
G1 X77.639 Y86.271 E1.1726
G1 X77.798 Y86.073 E1.1840
G1 X77.983 Y85.215 E1.2234
G1 X77.998 Y84.766 E1.2436
G1 X77.927 Y84.612 E1.2511
G1 X77.975 Y84.390 E1.2613
G1 X77.358 Y83.048 E1.3277
G1 X76.364 Y82.251 E1.3849
G1 X75.968 Y82.131 E1.4035
G1 X74.860 Y81.892 E1.4544
G1 X74.654 Y81.987 E1.4646
G1 X74.432 Y81.939 E1.4748
G1 X73.402 Y82.412 E1.5257
G1 X73.041 Y82.616 E1.5443
; outer perimeter
G1 X73.305 Y82.926 F4200
G92 E0
G1 X67.880 Y89.690 E0.3893 F1000
G1 X67.623 Y90.879 E0.4439
G1 X67.711 Y91.680 E0.4801
G1 X67.858 Y91.874 E0.4910
G1 X68.107 Y92.411 E0.5176
G1 X68.074 Y92.452 E0.5200
G1 X69.059 Y93.242 E0.5767
G1 X69.750 Y93.391 E0.6084
G1 X69.971 Y93.493 E0.6193
G1 X70.754 Y93.407 E0.6547
G1 X71.032 Y93.335 E0.6676
G1 X71.710 Y93.023 E0.7011
G1 X71.837 Y92.865 E0.7102
G1 X72.044 Y92.770 E0.7204
G1 X77.220 Y86.316 E1.0919
G1 X77.268 Y86.094 E1.1021
G1 X77.427 Y85.896 E1.1135
G1 X77.584 Y85.166 E1.1470
G1 X77.595 Y84.847 E1.1614
G1 X77.508 Y84.658 E1.1707
G1 X77.556 Y84.436 E1.1809
G1 X77.034 Y83.301 E1.2370
G1 X76.174 Y82.611 E1.2865
G1 X75.868 Y82.518 E1.3009
G1 X74.906 Y82.311 E1.3450
G1 X74.700 Y82.406 E1.3552
G1 X74.478 Y82.358 E1.3654
G1 X73.584 Y82.769 E1.4096
G1 X73.305 Y82.926 E1.4240
G92 E0
G1 E-1.0000 F1800
; inner perimeter
G1 X83.828 Y91.495 F4200
G1 E0.0000 F1800
G92 E0
G1 X78.533 Y98.096 E0.3800 F1500
G1 X78.485 Y98.318 E0.3902
G1 X78.358 Y98.477 E0.3993
G1 X78.173 Y99.334 E0.4387
G1 X78.162 Y99.685 E0.4544
G1 X78.263 Y100.607 E0.4961
G1 X78.450 Y100.853 E0.5100
G1 X78.553 Y101.076 E0.5210
G1 X78.409 Y101.255 E0.5312
G1 X79.760 Y102.338 E0.6090
G1 X80.156 Y102.459 E0.6276
G1 X80.560 Y102.546 E0.6462
G1 X80.842 Y102.675 E0.6601
G1 X81.818 Y102.568 E0.7042
G1 X83.067 Y101.993 E0.7659
G1 X88.600 Y95.096 E1.1629
G1 X88.720 Y94.700 E1.1815
G1 X88.959 Y93.591 E1.2324
G1 X88.864 Y93.385 E1.2426
G1 X88.912 Y93.163 E1.2528
G1 X88.438 Y92.133 E1.3037
G1 X88.235 Y91.773 E1.3223
G1 X87.242 Y90.976 E1.3795
G1 X85.797 Y90.664 E1.4458
G1 X85.591 Y90.759 E1.4560
G1 X85.426 Y90.724 E1.4636
G1 X84.990 Y90.836 E1.4838
G1 X84.193 Y91.202 E1.5232
G1 X84.034 Y91.400 E1.5346
G1 X83.828 Y91.495 E1.5448
; outer perimeter
G1 X84.081 Y91.819 F4200
G92 E0
G1 X78.904 Y98.273 E0.3715 F1000
G1 X78.856 Y98.495 E0.3817
G1 X78.729 Y98.653 E0.3908
G1 X78.572 Y99.384 E0.4243
G1 X78.562 Y99.670 E0.4372
G1 X78.648 Y100.453 E0.4726
G1 X78.795 Y100.646 E0.4835
G1 X79.019 Y101.133 E0.5075
G1 X78.972 Y101.193 E0.5110
G1 X79.950 Y101.978 E0.5673
G1 X80.257 Y102.071 E0.5817
G1 X80.687 Y102.164 E0.6015
G1 X80.908 Y102.265 E0.6124
G1 X81.710 Y102.177 E0.6486
G1 X82.814 Y101.669 E0.7032
G1 X88.239 Y94.906 E1.0925
G1 X88.333 Y94.599 E1.1069
G1 X88.540 Y93.637 E1.1511
G1 X88.445 Y93.431 E1.1613
G1 X88.493 Y93.209 E1.1715
G1 X88.082 Y92.315 E1.2156
G1 X87.924 Y92.036 E1.2300
G1 X87.065 Y91.347 E1.2795
G1 X85.843 Y91.084 E1.3356
G1 X85.637 Y91.178 E1.3458
G1 X85.434 Y91.135 E1.3551
G1 X85.124 Y91.214 E1.3695
G1 X84.446 Y91.526 E1.4030
G1 X84.287 Y91.724 E1.4144
G1 X84.081 Y91.819 E1.4246
G92 E0
G1 E-1.0000 F1800
; inner perimeter
G1 X94.876 Y100.129 F4200
G1 E0.0000 F1800
G92 E0
G1 X89.343 Y107.028 E0.3971 F1500
G1 X89.053 Y108.372 E0.4588
G1 X89.106 Y108.851 E0.4804
G1 X89.158 Y108.964 E0.4860
G1 X89.094 Y109.260 E0.4996
G1 X89.348 Y109.594 E0.5185
G1 X89.474 Y109.868 E0.5320
G1 X89.346 Y110.027 E0.5412
G1 X90.717 Y111.127 E0.6201
G1 X91.458 Y111.287 E0.6541
G1 X91.739 Y111.416 E0.6680
G1 X92.093 Y111.377 E0.6840
G1 X92.416 Y111.447 E0.6988
G1 X92.755 Y111.291 E0.7156
G1 X93.001 Y111.228 E0.7270
G1 X93.798 Y110.861 E0.7664
G1 X93.925 Y110.703 E0.7755
G1 X94.131 Y110.608 E0.7857
G1 X99.426 Y104.007 E1.1657
G1 X99.474 Y103.785 E1.1759
G1 X99.633 Y103.587 E1.1873
G1 X99.818 Y102.729 E1.2267
G1 X99.829 Y102.378 E1.2424
G1 X99.767 Y101.811 E1.2680
G1 X99.192 Y100.562 E1.3298
G1 X98.147 Y99.724 E1.3899
G1 X97.864 Y99.699 E1.4027
G1 X97.598 Y99.600 E1.4154
G1 X97.017 Y99.475 E1.4421
G1 X96.589 Y99.522 E1.4615
G1 X96.266 Y99.453 E1.4763
G1 X95.243 Y99.923 E1.5268
G1 X94.876 Y100.129 E1.5457
; outer perimeter
G1 X95.140 Y100.440 F4200
G92 E0
G1 X89.714 Y107.204 E0.3893 F1000
G1 X89.458 Y108.393 E0.4439
G1 X89.496 Y108.743 E0.4597
G1 X89.577 Y108.918 E0.4684
G1 X89.524 Y109.165 E0.4797
G1 X89.693 Y109.387 E0.4923
G1 X89.784 Y109.586 E0.5021
G1 X89.975 Y109.883 E0.5180
G1 X89.909 Y109.966 E0.5227
G1 X90.894 Y110.756 E0.5794
G1 X91.585 Y110.905 E0.6112
G1 X91.806 Y111.007 E0.6221
G1 X92.114 Y110.973 E0.6360
G1 X92.370 Y111.028 E0.6477
G1 X92.620 Y110.912 E0.6601
G1 X92.866 Y110.849 E0.6715
