; G-Code generated by Simplify3D(R) Version 4.0.0
; Feb 3, 2020 at 6:18:22 PM
; Settings Summary
;   processName,Process1
;   applyToModels,USB_Cable_Holder_Screws
;   profileName,bar (modified)
;   profileVersion,2019-07-15 16:42:33
;   baseProfile,Default (modified)
;   printMaterial,PLA
;   printQuality,Medium
;   printExtruders,
;   extruderName,Primary Extruder
;   extruderToolheadNumber,0
;   extruderDiameter,0.4
;   extruderAutoWidth,0
;   extruderWidth,0.4
;   extrusionMultiplier,0.9
;   extruderUseRetract,1
;   extruderRetractionDistance,1
;   extruderExtraRestartDistance,0
;   extruderRetractionZLift,0
;   extruderRetractionSpeed,1800
;   extruderUseCoasting,0
;   extruderCoastingDistance,0.2
;   extruderUseWipe,0
;   extruderWipeDistance,5
;   primaryExtruder,0
;   layerHeight,0.3
;   topSolidLayers,3
;   bottomSolidLayers,3
;   perimeterOutlines,2
;   printPerimetersInsideOut,1
;   startPointOption,2
;   startPointOriginX,0
;   startPointOriginY,0
;   sequentialIslands,0
;   spiralVaseMode,0
;   firstLayerHeightPercentage,85
;   firstLayerWidthPercentage,100
;   firstLayerUnderspeed,0.5
;   useRaft,0
;   raftExtruder,0
;   raftTopLayers,3
;   raftBaseLayers,2
;   raftOffset,3
;   raftSeparationDistance,0.14
;   raftTopInfill,100
;   aboveRaftSpeedMultiplier,0.3
;   useSkirt,0
;   skirtExtruder,0
;   skirtLayers,1
;   skirtOutlines,2
;   skirtOffset,4
;   usePrimePillar,0
;   primePillarExtruder,999
;   primePillarWidth,12
;   primePillarLocation,7
;   primePillarSpeedMultiplier,1
;   useOozeShield,0
;   oozeShieldExtruder,999
;   oozeShieldOffset,2
;   oozeShieldOutlines,1
;   oozeShieldSidewallShape,1
;   oozeShieldSidewallAngle,30
;   oozeShieldSpeedMultiplier,1
;   infillExtruder,0
;   internalInfillPattern,Rectilinear
;   externalInfillPattern,Rectilinear
;   infillPercentage,12
;   outlineOverlapPercentage,15
;   infillExtrusionWidthPercentage,100
;   minInfillLength,5
;   infillLayerInterval,1
;   internalInfillAngles,45,-45
;   overlapInternalInfillAngles,0
;   externalInfillAngles,45,-45
;   generateSupport,0
;   supportExtruder,0
;   supportInfillPercentage,30
;   supportExtraInflation,0
;   supportBaseLayers,0
;   denseSupportExtruder,0
;   denseSupportLayers,0
;   denseSupportInfillPercentage,70
;   supportLayerInterval,1
;   supportHorizontalPartOffset,0.3
;   supportUpperSeparationLayers,1
;   supportLowerSeparationLayers,1
;   supportType,0
;   supportGridSpacing,4
;   maxOverhangAngle,45
;   supportAngles,0
;   temperatureName,Primary Extruder,Hot Bed
;   temperatureNumber,0,1
;   temperatureSetpointCount,1,1
;   temperatureSetpointLayers,1,1
;   temperatureSetpointTemperatures,210,60
;   temperatureStabilizeAtStartup,1,1
;   temperatureHeatedBed,0,1
;   temperatureRelayBetweenLayers,0,0
;   temperatureRelayBetweenLoops,0,0
;   fanLayers,1,2
;   fanSpeeds,0,100
;   blipFanToFullPower,0
;   adjustSpeedForCooling,1
;   minSpeedLayerTime,15
;   minCoolingSpeedSlowdown,20
;   increaseFanForCooling,0
;   minFanLayerTime,45
;   maxCoolingFanSpeed,100
;   increaseFanForBridging,0
;   bridgingFanSpeed,100
;   use5D,1
;   relativeEdistances,0
;   allowEaxisZeroing,1
;   independentExtruderAxes,0
;   includeM10123,0
;   stickySupport,1
;   applyToolheadOffsets,0
;   gcodeXoffset,0
;   gcodeYoffset,0
;   gcodeZoffset,0
;   overrideMachineDefinition,0
;   machineTypeOverride,0
;   strokeXoverride,200
;   strokeYoverride,200
;   strokeZoverride,200
;   originOffsetXoverride,0
;   originOffsetYoverride,0
;   originOffsetZoverride,0
;   homeXdirOverride,-1
;   homeYdirOverride,-1
;   homeZdirOverride,-1
;   flipXoverride,1
;   flipYoverride,-1
;   flipZoverride,1
;   toolheadOffsets,0,0|0,0|0,0|0,0|0,0|0,0
;   overrideFirmwareConfiguration,0
;   firmwareTypeOverride,RepRap (Marlin/Repetier/Sprinter)
;   GPXconfigOverride,r2
;   baudRateOverride,115200
;   overridePrinterModels,0
;   printerModelsOverride
;   startingGcode,G28 ; home all axes,G1 X10 Y10 Z0.2 F3000 ; get ready to prime,G92 E0 ; reset extrusion distance,G1 Y110 E20 F600 ; prime nozzle
;   layerChangeGcode,
;   retractionGcode,
;   toolChangeGcode,
;   endingGcode,M104 S0 ; turn off extruder,M140 S0 ; turn off bed,G1 X0 Y0 ; home x,y axes,M84 ; disable motors
;   exportFileFormat,gcode
;   celebration,0
;   celebrationSong,Random Song
;   postProcessing,
;   defaultSpeed,4200
;   outlineUnderspeed,0.5
;   solidInfillUnderspeed,0.8
;   supportUnderspeed,0.8
;   rapidXYspeed,4800
;   rapidZspeed,1000
;   minBridgingArea,50
;   bridgingExtraInflation,0
;   bridgingExtrusionMultiplier,1
;   bridgingSpeedMultiplier,1
;   useFixedBridgingAngle,0
;   fixedBridgingAngle,0
;   applyBridgingToPerimeters,0
;   filamentDiameters,1.75|1.75|1.75|1.75|1.75|1.75
;   filamentPricesPerKg,46|46|46|46|46|46
;   filamentDensities,1.25|1.25|1.25|1.25|1.25|1.25
;   useMinPrintHeight,0
;   minPrintHeight,0
;   useMaxPrintHeight,0
;   maxPrintHeight,0
;   useDiaphragm,0
;   diaphragmLayerInterval,20
;   robustSlicing,1
;   mergeAllIntoSolid,0
;   onlyRetractWhenCrossingOutline,1
;   retractBetweenLayers,1
;   useRetractionMinTravel,0
;   retractionMinTravel,3
;   retractWhileWiping,0
;   onlyWipeOutlines,1
;   avoidCrossingOutline,0
;   maxMovementDetourFactor,3
;   toolChangeRetractionDistance,12
;   toolChangeExtraRestartDistance,-0.5
;   toolChangeRetractionSpeed,600
;   externalThinWallType,1
;   internalThinWallType,1
;   thinWallAllowedOverlapPercentage,10
;   singleExtrusionMinLength,1
;   singleExtrusionMinPrintingWidthPercentage,50
;   singleExtrusionMaxPrintingWidthPercentage,200
;   singleExtrusionEndpointExtension,0.2
;   horizontalSizeCompensation,0
G90
M82
M106 S0
M140 S60
M190 S60
M104 S210 T0
M109 S210 T0
G28 ; home all axes
G1 X10 Y10 Z0.2 F3000 ; get ready to prime
G92 E0 ; reset extrusion distance
G1 Y110 E20 F600 ; prime nozzle
G92 E0
G1 E-1.0000 F1800
G1 Z0.255 F1000
; process Process1
; layer 1, Z = 0.255
T0
; tool H0.300 W0.400
; inner perimeter
G1 X39.154 Y100.928 F4800
G1 E0.0000 F540
G92 E0
G1 X40.063 Y100.684 E0.0422 F1575
G1 X41.026 Y100.600 E0.0857
G1 X178.974 Y100.600 E6.2797
G1 X179.937 Y100.684 E6.3231
G1 X180.846 Y100.928 E6.3654
G1 X181.699 Y101.325 E6.4076
G1 X182.470 Y101.865 E6.4499
G1 X183.135 Y102.530 E6.4921
G1 X183.675 Y103.301 E6.5343
G1 X184.072 Y104.154 E6.5766
G1 X184.316 Y105.063 E6.6188
G1 X184.400 Y106.026 E6.6623
G1 X184.400 Y119.400 E7.2628
G1 X35.600 Y119.400 E13.9441
G1 X35.600 Y106.026 E14.5446
G1 X35.684 Y105.063 E14.5880
G1 X35.928 Y104.154 E14.6302
G1 X36.325 Y103.301 E14.6725
G1 X36.865 Y102.530 E14.7147
G1 X37.530 Y101.865 E14.7570
G1 X38.301 Y101.325 E14.7992
G1 X39.154 Y100.928 E14.8415
; outer perimeter
G1 X39.017 Y100.550 F4800
G92 E0
G1 X39.993 Y100.289 E0.0454 F1050
G1 X41.009 Y100.200 E0.0912
G1 X178.991 Y100.200 E6.2868
G1 X180.007 Y100.289 E6.3325
G1 X180.983 Y100.550 E6.3779
G1 X181.900 Y100.978 E6.4233
G1 X182.728 Y101.558 E6.4687
G1 X183.442 Y102.272 E6.5141
G1 X184.022 Y103.100 E6.5595
G1 X184.450 Y104.017 E6.6049
G1 X184.711 Y104.993 E6.6503
G1 X184.800 Y106.009 E6.6960
G1 X184.800 Y119.800 E7.3153
G1 X35.200 Y119.800 E14.0325
G1 X35.200 Y106.009 E14.6517
G1 X35.289 Y104.993 E14.6975
G1 X35.550 Y104.017 E14.7429
G1 X35.978 Y103.100 E14.7883
G1 X36.558 Y102.272 E14.8337
G1 X37.272 Y101.558 E14.8791
G1 X38.100 Y100.978 E14.9245
G1 X39.017 Y100.550 E14.9699
; inner perimeter
G1 X57.788 Y109.192 F4800
G92 E0
G1 X57.682 Y109.587 E0.0184 F1575
G1 X57.645 Y109.999 E0.0370
G1 X57.681 Y110.408 E0.0554
G1 X57.786 Y110.800 E0.0736
G1 X57.958 Y111.172 E0.0920
G1 X58.195 Y111.512 E0.1106
G1 X58.482 Y111.799 E0.1289
G1 X58.817 Y112.034 E0.1472
G1 X59.188 Y112.208 E0.1657
G1 X59.588 Y112.317 E0.1843
G1 X59.993 Y112.352 E0.2025
G1 X60.401 Y112.317 E0.2209
G1 X60.801 Y112.211 E0.2395
G1 X61.169 Y112.039 E0.2577
G1 X61.505 Y111.805 E0.2761
G1 X61.796 Y111.516 E0.2945
G1 X62.034 Y111.177 E0.3131
G1 X62.206 Y110.808 E0.3314
G1 X62.312 Y110.413 E0.3497
G1 X62.349 Y110.001 E0.3683
G1 X62.314 Y109.592 E0.3868
G1 X62.209 Y109.200 E0.4050
G1 X62.036 Y108.828 E0.4234
G1 X61.800 Y108.488 E0.4420
G1 X61.512 Y108.201 E0.4602
G1 X61.177 Y107.966 E0.4786
G1 X60.806 Y107.792 E0.4970
G1 X60.406 Y107.683 E0.5156
G1 X60.001 Y107.648 E0.5339
G1 X59.593 Y107.683 E0.5522
G1 X59.193 Y107.789 E0.5708
G1 X58.825 Y107.961 E0.5891
G1 X58.489 Y108.195 E0.6075
G1 X58.199 Y108.484 E0.6259
G1 X57.960 Y108.823 E0.6445
G1 X57.788 Y109.192 E0.6627
; outer perimeter
G1 X58.166 Y109.329 F4800
G92 E0
G1 X58.077 Y109.657 E0.0153 F1050
G1 X58.046 Y110.000 E0.0307
G1 X58.076 Y110.339 E0.0460
G1 X58.163 Y110.663 E0.0611
G1 X58.306 Y110.972 E0.0763
G1 X58.503 Y111.254 E0.0918
G1 X58.740 Y111.492 E0.1069
G1 X59.018 Y111.687 E0.1221
G1 X59.326 Y111.831 E0.1374
G1 X59.658 Y111.921 E0.1528
G1 X59.993 Y111.950 E0.1679
G1 X60.332 Y111.922 E0.1832
G1 X60.664 Y111.833 E0.1986
G1 X60.969 Y111.691 E0.2137
G1 X61.248 Y111.497 E0.2290
G1 X61.489 Y111.257 E0.2443
G1 X61.686 Y110.976 E0.2597
G1 X61.829 Y110.671 E0.2748
G1 X61.917 Y110.343 E0.2901
G1 X61.948 Y110.000 E0.3055
G1 X61.918 Y109.661 E0.3208
G1 X61.831 Y109.337 E0.3359
G1 X61.688 Y109.028 E0.3511
G1 X61.492 Y108.746 E0.3666
G1 X61.254 Y108.508 E0.3817
G1 X60.976 Y108.313 E0.3969
G1 X60.668 Y108.169 E0.4122
G1 X60.336 Y108.079 E0.4276
G1 X60.001 Y108.050 E0.4427
G1 X59.662 Y108.078 E0.4580
G1 X59.330 Y108.167 E0.4734
G1 X59.025 Y108.309 E0.4885
G1 X58.746 Y108.503 E0.5038
G1 X58.506 Y108.743 E0.5191
G1 X58.308 Y109.024 E0.5345
G1 X58.166 Y109.329 E0.5496
G92 E0
G1 E-1.0000 F1800
; inner perimeter
G1 X157.645 Y109.999 F4800
G1 E0.0000 F1800
G92 E0
G1 X157.681 Y110.408 E0.0184 F1575
G1 X157.786 Y110.800 E0.0367
G1 X157.958 Y111.172 E0.0550
G1 X158.195 Y111.512 E0.0736
G1 X158.482 Y111.799 E0.0919
G1 X158.817 Y112.034 E0.1103
G1 X159.188 Y112.208 E0.1287
G1 X159.588 Y112.317 E0.1473
G1 X159.993 Y112.352 E0.1655
G1 X160.401 Y112.317 E0.1839
G1 X160.801 Y112.211 E0.2025
G1 X161.169 Y112.039 E0.2207
G1 X161.505 Y111.805 E0.2391
G1 X161.796 Y111.516 E0.2575
G1 X162.034 Y111.177 E0.2761
G1 X162.206 Y110.808 E0.2944
G1 X162.312 Y110.413 E0.3128
G1 X162.349 Y110.001 E0.3314
G1 X162.314 Y109.591 E0.3498
G1 X162.209 Y109.200 E0.3680
G1 X162.036 Y108.828 E0.3864
G1 X161.799 Y108.488 E0.4050
G1 X161.512 Y108.201 E0.4233
G1 X161.177 Y107.966 E0.4416
G1 X160.806 Y107.792 E0.4600
G1 X160.406 Y107.683 E0.4786
G1 X160.001 Y107.648 E0.4969
G1 X159.593 Y107.683 E0.5153
G1 X159.193 Y107.789 E0.5339
G1 X158.825 Y107.961 E0.5521
G1 X158.489 Y108.195 E0.5705
G1 X158.199 Y108.484 E0.5889
G1 X157.960 Y108.823 E0.6075
G1 X157.788 Y109.192 E0.6258
G1 X157.682 Y109.587 E0.6441
G1 X157.645 Y109.999 E0.6627
; outer perimeter
G1 X158.046 Y110.000 F4800
G92 E0
G1 X158.076 Y110.339 E0.0153 F1050
G1 X158.163 Y110.663 E0.0304
G1 X158.306 Y110.972 E0.0456
G1 X158.503 Y111.254 E0.0611
G1 X158.740 Y111.492 E0.0762
G1 X159.018 Y111.687 E0.0914
G1 X159.326 Y111.831 E0.1067
G1 X159.658 Y111.921 E0.1221
G1 X159.993 Y111.950 E0.1372
G1 X160.332 Y111.922 E0.1525
G1 X160.664 Y111.833 E0.1679
G1 X160.969 Y111.691 E0.1830
G1 X161.248 Y111.497 E0.1983
G1 X161.489 Y111.257 E0.2136
G1 X161.686 Y110.976 E0.2290
G1 X161.829 Y110.671 E0.2441
G1 X161.917 Y110.343 E0.2594
G1 X161.948 Y110.000 E0.2748
G1 X161.918 Y109.661 E0.2901
G1 X161.831 Y109.337 E0.3052
G1 X161.688 Y109.028 E0.3204
G1 X161.492 Y108.746 E0.3359
G1 X161.254 Y108.508 E0.3510
G1 X160.976 Y108.313 E0.3662
G1 X160.668 Y108.169 E0.3815
G1 X160.336 Y108.079 E0.3969
G1 X160.001 Y108.050 E0.4120
G1 X159.662 Y108.078 E0.4273
G1 X159.330 Y108.167 E0.4427
G1 X159.025 Y108.309 E0.4578
G1 X158.746 Y108.503 E0.4731
G1 X158.506 Y108.743 E0.4884
G1 X158.308 Y109.024 E0.5038
G1 X158.166 Y109.329 E0.5189
G1 X158.077 Y109.657 E0.5342
G1 X158.046 Y110.000 E0.5496
; solid layer
G1 X158.778 Y112.392 F4800
G92 E0
G1 X165.446 Y119.060 E0.4234 F1680
G1 X166.012 Y119.060 E0.4488
G1 X159.612 Y112.660 E0.8552
G1 X159.993 Y112.693 E0.8724
G1 X160.194 Y112.676 E0.8815
G1 X166.578 Y119.060 E1.2869
G1 X167.143 Y119.060 E1.3123
G1 X160.678 Y112.595 E1.7228
G1 X160.917 Y112.532 E1.7339
G1 X161.097 Y112.448 E1.7428
G1 X167.709 Y119.060 E2.1626
G1 X168.275 Y119.060 E2.1880
G1 X161.463 Y112.249 E2.6206
G1 X161.724 Y112.067 E2.6348
G1 X161.786 Y112.005 E2.6387
G1 X168.840 Y119.060 E3.0867
G1 X169.406 Y119.060 E3.1121
G1 X162.067 Y111.721 E3.5781
G1 X162.300 Y111.389 E3.5964
G1 X169.972 Y119.060 E4.0835
G1 X170.537 Y119.060 E4.1089
G1 X162.487 Y111.010 E4.6201
G1 X162.526 Y110.925 E4.6243
G1 X162.620 Y110.577 E4.6405
G1 X171.103 Y119.060 E5.1791
G1 X171.669 Y119.060 E5.2045
G1 X162.684 Y110.075 E5.7750
G1 X162.691 Y110.001 E5.7784
G1 X162.650 Y109.532 E5.7995
G1 X162.629 Y109.455 E5.8031
G1 X172.234 Y119.060 E6.4131
G1 X172.800 Y119.060 E6.4385
G1 X162.180 Y108.440 E7.1128
G1 X181.256 Y101.494 F4800
G92 E0
G1 X183.506 Y103.744 E0.1429 F1680
G1 X183.751 Y104.271 E0.1690
G1 X183.856 Y104.660 E0.1871
G1 X180.340 Y101.144 E0.4103
G1 X179.878 Y101.020 E0.4318
G1 X179.629 Y100.999 E0.4430
G1 X184.001 Y105.371 E0.7207
G1 X184.056 Y105.991 E0.7486
G1 X179.009 Y100.944 E1.0691
G1 X178.959 Y100.940 E1.0713
G1 X178.439 Y100.940 E1.0947
G1 X184.060 Y106.561 E1.4516
G1 X184.060 Y107.127 E1.4770
G1 X177.873 Y100.940 E1.8699
G1 X177.308 Y100.940 E1.8953
G1 X184.060 Y107.692 E2.3241
G1 X184.060 Y108.258 E2.3495
G1 X176.742 Y100.940 E2.8142
G1 X176.176 Y100.940 E2.8396
G1 X184.060 Y108.824 E3.3402
G1 X184.060 Y109.390 E3.3656
G1 X175.610 Y100.940 E3.9021
G1 X175.045 Y100.940 E3.9275
G1 X184.060 Y109.955 E4.5000
G1 X184.060 Y110.521 E4.5254
G1 X174.479 Y100.940 E5.1338
G1 X173.913 Y100.940 E5.1592
G1 X184.060 Y111.087 E5.8035
G1 X184.060 Y111.652 E5.8289
G1 X173.348 Y100.940 E6.5091
G1 X172.782 Y100.940 E6.5345
G1 X184.060 Y112.218 E7.2506
G1 X184.060 Y112.784 E7.2760
G1 X172.216 Y100.940 E8.0281
G1 X171.651 Y100.940 E8.0535
G1 X184.060 Y113.349 E8.8415
G1 X184.060 Y113.915 E8.8669
G1 X171.085 Y100.940 E9.6908
G1 X170.519 Y100.940 E9.7162
G1 X184.060 Y114.481 E10.5760
G1 X184.060 Y115.046 E10.6014
G1 X169.954 Y100.940 E11.4972
G1 X169.388 Y100.940 E11.5226
G1 X184.060 Y115.612 E12.4543
G1 X184.060 Y116.178 E12.4797
G1 X168.822 Y100.940 E13.4473
G1 X168.257 Y100.940 E13.4727
G1 X184.060 Y116.743 E14.4762
G1 X184.060 Y117.309 E14.5016
G1 X167.691 Y100.940 E15.5410
G1 X167.125 Y100.940 E15.5664
G1 X184.060 Y117.875 E16.6418
G1 X184.060 Y118.440 E16.6672
G1 X166.560 Y100.940 E17.7785
G1 X165.994 Y100.940 E17.8039
G1 X184.060 Y119.006 E18.9511
G1 X184.060 Y119.060 E18.9535
G1 X183.548 Y119.060 E18.9765
G1 X165.428 Y100.940 E20.1271
G1 X164.862 Y100.940 E20.1525
G1 X182.982 Y119.060 E21.3031
G1 X182.417 Y119.060 E21.3285
G1 X164.297 Y100.940 E22.4791
G1 X163.731 Y100.940 E22.5045
G1 X181.851 Y119.060 E23.6551
G1 X181.285 Y119.060 E23.6805
G1 X163.165 Y100.940 E24.8311
G1 X162.600 Y100.940 E24.8565
G1 X180.720 Y119.060 E26.0072
G1 X180.154 Y119.060 E26.0326
G1 X162.034 Y100.940 E27.1832
G1 X161.468 Y100.940 E27.2086
G1 X179.588 Y119.060 E28.3592
G1 X179.023 Y119.060 E28.3846
G1 X160.903 Y100.940 E29.5352
G1 X160.337 Y100.940 E29.5606
G1 X178.457 Y119.060 E30.7112
G1 X177.891 Y119.060 E30.7366
G1 X159.771 Y100.940 E31.8872
G1 X159.206 Y100.940 E31.9126
G1 X177.326 Y119.060 E33.0633
G1 X176.760 Y119.060 E33.0887
G1 X158.640 Y100.940 E34.2393
G1 X158.074 Y100.940 E34.2647
G1 X176.194 Y119.060 E35.4153
G1 X175.629 Y119.060 E35.4407
G1 X157.509 Y100.940 E36.5913
G1 X156.943 Y100.940 E36.6167
G1 X175.063 Y119.060 E37.7673
G1 X174.497 Y119.060 E37.7927
G1 X156.377 Y100.940 E38.9433
G1 X155.812 Y100.940 E38.9687
G1 X173.932 Y119.060 E40.1194
G1 X173.366 Y119.060 E40.1448
G1 X155.246 Y100.940 E41.2954
G1 X154.680 Y100.940 E41.3208
G1 X161.557 Y107.817 E41.7575
G1 X161.349 Y107.670 E41.7689
G1 X160.924 Y107.471 E41.7900
G1 X160.543 Y107.368 E41.8077
G1 X154.114 Y100.940 E42.2159
G1 X153.549 Y100.940 E42.2413
G1 X159.922 Y107.314 E42.6460
G1 X159.535 Y107.347 E42.6635
G1 X159.420 Y107.377 E42.6688
G1 X152.983 Y100.940 E43.0776
G1 X152.417 Y100.940 E43.1030
G1 X158.987 Y107.510 E43.5202
G1 X158.654 Y107.665 E43.5367
