; G-Code generated by Simplify3D(R) Version 4.0.0
; Mar 28, 2020 at 5:06:13 PM
; Settings Summary
;   processName,Process1
;   applyToModels,v2
;   profileName,bar (modified)
;   profileVersion,2019-07-15 16:42:33
;   baseProfile,Default (modified)
;   printMaterial,PLA
;   printQuality,Medium
;   printExtruders,
;   extruderName,Primary Extruder
;   extruderToolheadNumber,0
;   extruderDiameter,0.4
;   extruderAutoWidth,0
;   extruderWidth,0.4
;   extrusionMultiplier,0.9
;   extruderUseRetract,1
;   extruderRetractionDistance,1
;   extruderExtraRestartDistance,0
;   extruderRetractionZLift,0
;   extruderRetractionSpeed,1800
;   extruderUseCoasting,0
;   extruderCoastingDistance,0.2
;   extruderUseWipe,0
;   extruderWipeDistance,5
;   primaryExtruder,0
;   layerHeight,0.3
;   topSolidLayers,3
;   bottomSolidLayers,3
;   perimeterOutlines,2
;   printPerimetersInsideOut,1
;   startPointOption,2
;   startPointOriginX,0
;   startPointOriginY,0
;   sequentialIslands,0
;   spiralVaseMode,0
;   firstLayerHeightPercentage,90
;   firstLayerWidthPercentage,100
;   firstLayerUnderspeed,0.5
;   useRaft,0
;   raftExtruder,0
;   raftTopLayers,3
;   raftBaseLayers,2
;   raftOffset,3
;   raftSeparationDistance,0.14
;   raftTopInfill,100
;   aboveRaftSpeedMultiplier,0.3
;   useSkirt,0
;   skirtExtruder,0
;   skirtLayers,1
;   skirtOutlines,2
;   skirtOffset,4
;   usePrimePillar,0
;   primePillarExtruder,999
;   primePillarWidth,12
;   primePillarLocation,7
;   primePillarSpeedMultiplier,1
;   useOozeShield,0
;   oozeShieldExtruder,999
;   oozeShieldOffset,2
;   oozeShieldOutlines,1
;   oozeShieldSidewallShape,1
;   oozeShieldSidewallAngle,30
;   oozeShieldSpeedMultiplier,1
;   infillExtruder,0
;   internalInfillPattern,Rectilinear
;   externalInfillPattern,Rectilinear
;   infillPercentage,15
;   outlineOverlapPercentage,15
;   infillExtrusionWidthPercentage,100
;   minInfillLength,5
;   infillLayerInterval,1
;   internalInfillAngles,45,-45
;   overlapInternalInfillAngles,0
;   externalInfillAngles,45,-45
;   generateSupport,0
;   supportExtruder,0
;   supportInfillPercentage,30
;   supportExtraInflation,0
;   supportBaseLayers,0
;   denseSupportExtruder,0
;   denseSupportLayers,0
;   denseSupportInfillPercentage,70
;   supportLayerInterval,1
;   supportHorizontalPartOffset,0.3
;   supportUpperSeparationLayers,1
;   supportLowerSeparationLayers,1
;   supportType,0
;   supportGridSpacing,4
;   maxOverhangAngle,45
;   supportAngles,0
;   temperatureName,Primary Extruder,Hot Bed
;   temperatureNumber,0,1
;   temperatureSetpointCount,1,1
;   temperatureSetpointLayers,1,1
;   temperatureSetpointTemperatures,210,60
;   temperatureStabilizeAtStartup,1,1
;   temperatureHeatedBed,0,1
;   temperatureRelayBetweenLayers,0,0
;   temperatureRelayBetweenLoops,0,0
;   fanLayers,1,2
;   fanSpeeds,0,100
;   blipFanToFullPower,0
;   adjustSpeedForCooling,1
;   minSpeedLayerTime,15
;   minCoolingSpeedSlowdown,20
;   increaseFanForCooling,0
;   minFanLayerTime,45
;   maxCoolingFanSpeed,100
;   increaseFanForBridging,0
;   bridgingFanSpeed,100
;   use5D,1
;   relativeEdistances,0
;   allowEaxisZeroing,1
;   independentExtruderAxes,0
;   includeM10123,0
;   stickySupport,1
;   applyToolheadOffsets,0
;   gcodeXoffset,0
;   gcodeYoffset,0
;   gcodeZoffset,0
;   overrideMachineDefinition,0
;   machineTypeOverride,0
;   strokeXoverride,200
;   strokeYoverride,200
;   strokeZoverride,200
;   originOffsetXoverride,0
;   originOffsetYoverride,0
;   originOffsetZoverride,0
;   homeXdirOverride,-1
;   homeYdirOverride,-1
;   homeZdirOverride,-1
;   flipXoverride,1
;   flipYoverride,-1
;   flipZoverride,1
;   toolheadOffsets,0,0|0,0|0,0|0,0|0,0|0,0
;   overrideFirmwareConfiguration,0
;   firmwareTypeOverride,RepRap (Marlin/Repetier/Sprinter)
;   GPXconfigOverride,r2
;   baudRateOverride,115200
;   overridePrinterModels,0
;   printerModelsOverride
;   startingGcode,G28 ; home all axes,G1 X10 Y10 Z0.2 F3000 ; get ready to prime,G92 E0 ; reset extrusion distance,G1 Y110 E20 F600 ; prime nozzle
;   layerChangeGcode,
;   retractionGcode,
;   toolChangeGcode,
;   endingGcode,M104 S0 ; turn off extruder,M140 S0 ; turn off bed,G1 X0 Y0 ; home x,y axes,M84 ; disable motors
;   exportFileFormat,gcode
;   celebration,0
;   celebrationSong,Random Song
;   postProcessing,
;   defaultSpeed,4000
;   outlineUnderspeed,0.5
;   solidInfillUnderspeed,0.8
;   supportUnderspeed,0.8
;   rapidXYspeed,4200
;   rapidZspeed,1000
;   minBridgingArea,50
;   bridgingExtraInflation,0
;   bridgingExtrusionMultiplier,1
;   bridgingSpeedMultiplier,1
;   useFixedBridgingAngle,0
;   fixedBridgingAngle,0
;   applyBridgingToPerimeters,0
;   filamentDiameters,1.75|1.75|1.75|1.75|1.75|1.75
;   filamentPricesPerKg,46|46|46|46|46|46
;   filamentDensities,1.25|1.25|1.25|1.25|1.25|1.25
;   useMinPrintHeight,0
;   minPrintHeight,0
;   useMaxPrintHeight,0
;   maxPrintHeight,0
;   useDiaphragm,0
;   diaphragmLayerInterval,20
;   robustSlicing,1
;   mergeAllIntoSolid,0
;   onlyRetractWhenCrossingOutline,1
;   retractBetweenLayers,1
;   useRetractionMinTravel,0
;   retractionMinTravel,3
;   retractWhileWiping,0
;   onlyWipeOutlines,1
;   avoidCrossingOutline,0
;   maxMovementDetourFactor,3
;   toolChangeRetractionDistance,12
;   toolChangeExtraRestartDistance,-0.5
;   toolChangeRetractionSpeed,600
;   externalThinWallType,1
;   internalThinWallType,1
;   thinWallAllowedOverlapPercentage,10
;   singleExtrusionMinLength,1
;   singleExtrusionMinPrintingWidthPercentage,50
;   singleExtrusionMaxPrintingWidthPercentage,200
;   singleExtrusionEndpointExtension,0.2
;   horizontalSizeCompensation,0
G90
M82
M106 S0
M140 S60
M190 S60
M104 S210 T0
M109 S210 T0
G28 ; home all axes
G1 X10 Y10 Z0.2 F3000 ; get ready to prime
G92 E0 ; reset extrusion distance
G1 Y110 E20 F600 ; prime nozzle
G92 E0
G1 E-1.0000 F1800
G1 Z0.270 F1000
; process Process1
; layer 1, Z = 0.270
T0
; tool H0.300 W0.400
; inner perimeter
G1 X10.600 Y70.600 F4200
G1 E0.0000 F540
G92 E0
G1 X209.400 Y70.600 E8.9264 F1500
G1 X209.400 Y149.400 E12.4646
G1 X10.600 Y149.400 E21.3909
G1 X10.600 Y70.600 E24.9291
; outer perimeter
G1 X10.200 Y70.200 F4200
G92 E0
G1 X209.800 Y70.200 E8.9623 F1000
G1 X209.800 Y149.800 E12.5364
G1 X10.200 Y149.800 E21.4987
G1 X10.200 Y70.200 E25.0728
; inner perimeter
G1 X29.864 Y76.095 F4200
G92 E0
G1 X29.864 Y143.905 E3.0448 F1500
G1 X190.136 Y143.905 E10.2412
G1 X190.136 Y76.095 E13.2859
G1 X29.864 Y76.095 E20.4823
; outer perimeter
G1 X30.264 Y76.495 F4200
G92 E0
G1 X30.264 Y143.505 E3.0088 F1000
G1 X189.736 Y143.505 E10.1693
G1 X189.736 Y76.495 E13.1781
G1 X30.264 Y76.495 E20.3386
G92 E0
G1 E-1.0000 F1800
; solid layer
G1 X30.542 Y144.245 F4200
G1 E0.0000 F1800
G92 E0
G1 X35.357 Y149.060 E0.3057 F1600
G1 X35.923 Y149.060 E0.3311
G1 X31.108 Y144.245 E0.6369
G1 X31.674 Y144.245 E0.6623
G1 X36.489 Y149.060 E0.9680
G1 X37.054 Y149.060 E0.9934
G1 X32.239 Y144.245 E1.2992
G1 X32.805 Y144.245 E1.3246
G1 X37.620 Y149.060 E1.6303
G1 X38.186 Y149.060 E1.6557
G1 X33.371 Y144.245 E1.9615
G1 X33.936 Y144.245 E1.9869
G1 X38.751 Y149.060 E2.2926
G1 X39.317 Y149.060 E2.3180
G1 X34.502 Y144.245 E2.6238
G1 X35.068 Y144.245 E2.6492
G1 X39.883 Y149.060 E2.9549
G1 X40.448 Y149.060 E2.9803
G1 X35.633 Y144.245 E3.2861
G1 X36.199 Y144.245 E3.3115
G1 X41.014 Y149.060 E3.6172
G1 X41.580 Y149.060 E3.6426
G1 X36.765 Y144.245 E3.9484
G1 X37.331 Y144.245 E3.9738
G1 X42.145 Y149.060 E4.2795
G1 X42.711 Y149.060 E4.3049
G1 X37.896 Y144.245 E4.6107
G1 X38.462 Y144.245 E4.6361
G1 X43.277 Y149.060 E4.9418
G1 X43.843 Y149.060 E4.9672
G1 X39.028 Y144.245 E5.2730
G1 X39.593 Y144.245 E5.2984
G1 X44.408 Y149.060 E5.6041
G1 X44.974 Y149.060 E5.6295
G1 X40.159 Y144.245 E5.9353
G1 X40.725 Y144.245 E5.9607
G1 X45.540 Y149.060 E6.2664
G1 X46.105 Y149.060 E6.2918
G1 X41.290 Y144.245 E6.5976
G1 X41.856 Y144.245 E6.6230
G1 X46.671 Y149.060 E6.9287
G1 X47.237 Y149.060 E6.9541
G1 X42.422 Y144.245 E7.2599
G1 X42.987 Y144.245 E7.2853
G1 X47.802 Y149.060 E7.5910
G1 X48.368 Y149.060 E7.6164
G1 X43.553 Y144.245 E7.9222
G1 X44.119 Y144.245 E7.9476
G1 X48.934 Y149.060 E8.2533
G1 X49.499 Y149.060 E8.2787
G1 X44.684 Y144.245 E8.5845
G1 X45.250 Y144.245 E8.6099
G1 X50.065 Y149.060 E8.9156
G1 X50.631 Y149.060 E8.9410
G1 X45.816 Y144.245 E9.2468
G1 X46.381 Y144.245 E9.2722
G1 X51.196 Y149.060 E9.5779
G1 X51.762 Y149.060 E9.6033
G1 X46.947 Y144.245 E9.9091
G1 X47.513 Y144.245 E9.9345
G1 X52.328 Y149.060 E10.2402
G1 X52.893 Y149.060 E10.2656
G1 X48.079 Y144.245 E10.5714
G1 X48.644 Y144.245 E10.5968
G1 X53.459 Y149.060 E10.9025
G1 X54.025 Y149.060 E10.9279
G1 X49.210 Y144.245 E11.2337
G1 X49.776 Y144.245 E11.2591
G1 X54.591 Y149.060 E11.5648
G1 X55.156 Y149.060 E11.5902
G1 X50.341 Y144.245 E11.8959
G1 X50.907 Y144.245 E11.9213
G1 X55.722 Y149.060 E12.2271
G1 X56.288 Y149.060 E12.2525
G1 X51.473 Y144.245 E12.5582
G1 X52.038 Y144.245 E12.5836
G1 X56.853 Y149.060 E12.8894
G1 X57.419 Y149.060 E12.9148
G1 X52.604 Y144.245 E13.2205
G1 X53.170 Y144.245 E13.2459
G1 X57.985 Y149.060 E13.5517
G1 X58.550 Y149.060 E13.5771
G1 X53.735 Y144.245 E13.8828
G1 X54.301 Y144.245 E13.9082
G1 X59.116 Y149.060 E14.2140
G1 X59.682 Y149.060 E14.2394
G1 X54.867 Y144.245 E14.5451
G1 X55.432 Y144.245 E14.5705
G1 X60.247 Y149.060 E14.8763
G1 X60.813 Y149.060 E14.9017
G1 X55.998 Y144.245 E15.2074
G1 X56.564 Y144.245 E15.2328
G1 X61.379 Y149.060 E15.5386
G1 X61.944 Y149.060 E15.5640
G1 X57.130 Y144.245 E15.8697
G1 X57.695 Y144.245 E15.8951
G1 X62.510 Y149.060 E16.2009
G1 X63.076 Y149.060 E16.2263
G1 X58.261 Y144.245 E16.5320
G1 X58.827 Y144.245 E16.5574
G1 X63.642 Y149.060 E16.8632
G1 X64.207 Y149.060 E16.8886
G1 X59.392 Y144.245 E17.1943
G1 X59.958 Y144.245 E17.2197
G1 X64.773 Y149.060 E17.5255
G1 X65.339 Y149.060 E17.5509
G1 X60.524 Y144.245 E17.8566
G1 X61.089 Y144.245 E17.8820
G1 X65.904 Y149.060 E18.1878
G1 X66.470 Y149.060 E18.2132
G1 X61.655 Y144.245 E18.5189
G1 X62.221 Y144.245 E18.5443
G1 X67.036 Y149.060 E18.8501
G1 X67.601 Y149.060 E18.8755
G1 X62.786 Y144.245 E19.1812
G1 X63.352 Y144.245 E19.2066
G1 X68.167 Y149.060 E19.5124
G1 X68.733 Y149.060 E19.5378
G1 X63.918 Y144.245 E19.8435
G1 X64.483 Y144.245 E19.8689
G1 X69.298 Y149.060 E20.1747
G1 X69.864 Y149.060 E20.2001
G1 X65.049 Y144.245 E20.5058
G1 X65.615 Y144.245 E20.5312
G1 X70.430 Y149.060 E20.8370
G1 X70.995 Y149.060 E20.8624
G1 X66.180 Y144.245 E21.1681
G1 X66.746 Y144.245 E21.1935
G1 X71.561 Y149.060 E21.4993
G1 X72.127 Y149.060 E21.5247
G1 X67.312 Y144.245 E21.8304
G1 X67.878 Y144.245 E21.8558
G1 X72.692 Y149.060 E22.1616
G1 X73.258 Y149.060 E22.1870
G1 X68.443 Y144.245 E22.4927
G1 X69.009 Y144.245 E22.5181
G1 X73.824 Y149.060 E22.8239
G1 X74.390 Y149.060 E22.8493
G1 X69.575 Y144.245 E23.1550
G1 X70.140 Y144.245 E23.1804
G1 X74.955 Y149.060 E23.4862
G1 X75.521 Y149.060 E23.5116
G1 X70.706 Y144.245 E23.8173
G1 X71.272 Y144.245 E23.8427
G1 X76.087 Y149.060 E24.1484
G1 X76.652 Y149.060 E24.1738
G1 X71.837 Y144.245 E24.4796
G1 X72.403 Y144.245 E24.5050
G1 X77.218 Y149.060 E24.8107
G1 X77.784 Y149.060 E24.8361
G1 X72.969 Y144.245 E25.1419
G1 X73.534 Y144.245 E25.1673
G1 X78.349 Y149.060 E25.4730
G1 X78.915 Y149.060 E25.4984
G1 X74.100 Y144.245 E25.8042
G1 X74.666 Y144.245 E25.8296
G1 X79.481 Y149.060 E26.1353
G1 X80.046 Y149.060 E26.1607
G1 X75.231 Y144.245 E26.4665
G1 X75.797 Y144.245 E26.4919
G1 X80.612 Y149.060 E26.7976
G1 X81.178 Y149.060 E26.8230
G1 X76.363 Y144.245 E27.1288
G1 X76.928 Y144.245 E27.1542
G1 X81.743 Y149.060 E27.4599
G1 X82.309 Y149.060 E27.4853
G1 X77.494 Y144.245 E27.7911
G1 X78.060 Y144.245 E27.8165
G1 X82.875 Y149.060 E28.1222
G1 X83.441 Y149.060 E28.1476
G1 X78.626 Y144.245 E28.4534
G1 X79.191 Y144.245 E28.4788
G1 X84.006 Y149.060 E28.7845
G1 X84.572 Y149.060 E28.8099
G1 X79.757 Y144.245 E29.1157
G1 X80.323 Y144.245 E29.1411
G1 X85.138 Y149.060 E29.4468
G1 X85.703 Y149.060 E29.4722
G1 X80.888 Y144.245 E29.7780
G1 X81.454 Y144.245 E29.8034
G1 X86.269 Y149.060 E30.1091
G1 X86.835 Y149.060 E30.1345
G1 X82.020 Y144.245 E30.4403
G1 X82.585 Y144.245 E30.4657
G1 X87.400 Y149.060 E30.7714
G1 X87.966 Y149.060 E30.7968
G1 X83.151 Y144.245 E31.1026
G1 X83.717 Y144.245 E31.1280
G1 X88.532 Y149.060 E31.4337
G1 X89.097 Y149.060 E31.4591
G1 X84.282 Y144.245 E31.7649
G1 X84.848 Y144.245 E31.7903
G1 X89.663 Y149.060 E32.0960
G1 X90.229 Y149.060 E32.1214
G1 X85.414 Y144.245 E32.4272
G1 X85.979 Y144.245 E32.4526
G1 X90.794 Y149.060 E32.7583
G1 X91.360 Y149.060 E32.7837
G1 X86.545 Y144.245 E33.0895
G1 X87.111 Y144.245 E33.1149
G1 X91.926 Y149.060 E33.4206
G1 X92.491 Y149.060 E33.4460
G1 X87.677 Y144.245 E33.7518
G1 X88.242 Y144.245 E33.7772
G1 X93.057 Y149.060 E34.0829
G1 X93.623 Y149.060 E34.1083
G1 X88.808 Y144.245 E34.4141
G1 X89.374 Y144.245 E34.4395
G1 X94.189 Y149.060 E34.7452
G1 X94.754 Y149.060 E34.7706
G1 X89.939 Y144.245 E35.0764
G1 X90.505 Y144.245 E35.1018
G1 X95.320 Y149.060 E35.4075
G1 X95.886 Y149.060 E35.4329
G1 X91.071 Y144.245 E35.7386
G1 X91.636 Y144.245 E35.7640
G1 X96.451 Y149.060 E36.0698
G1 X97.017 Y149.060 E36.0952
G1 X92.202 Y144.245 E36.4009
G1 X92.768 Y144.245 E36.4263
G1 X97.583 Y149.060 E36.7321
G1 X98.148 Y149.060 E36.7575
G1 X93.333 Y144.245 E37.0632
G1 X93.899 Y144.245 E37.0886
G1 X98.714 Y149.060 E37.3944
G1 X99.280 Y149.060 E37.4198
G1 X94.465 Y144.245 E37.7255
G1 X95.030 Y144.245 E37.7509
G1 X99.845 Y149.060 E38.0567
G1 X100.411 Y149.060 E38.0821
G1 X95.596 Y144.245 E38.3878
G1 X96.162 Y144.245 E38.4132
G1 X100.977 Y149.060 E38.7190
G1 X101.542 Y149.060 E38.7444
G1 X96.727 Y144.245 E39.0501
G1 X97.293 Y144.245 E39.0755
G1 X102.108 Y149.060 E39.3813
G1 X102.674 Y149.060 E39.4067
G1 X97.859 Y144.245 E39.7124
G1 X98.425 Y144.245 E39.7378
G1 X103.239 Y149.060 E40.0436
G1 X103.805 Y149.060 E40.0690
G1 X98.990 Y144.245 E40.3747
G1 X99.556 Y144.245 E40.4001
G1 X104.371 Y149.060 E40.7059
G1 X104.937 Y149.060 E40.7313
G1 X100.122 Y144.245 E41.0370
G1 X100.687 Y144.245 E41.0624
G1 X105.502 Y149.060 E41.3682
G1 X106.068 Y149.060 E41.3936
G1 X101.253 Y144.245 E41.6993
G1 X101.819 Y144.245 E41.7247
G1 X106.634 Y149.060 E42.0305
G1 X107.199 Y149.060 E42.0559
G1 X102.384 Y144.245 E42.3616
G1 X102.950 Y144.245 E42.3870
G1 X107.765 Y149.060 E42.6928
G1 X108.331 Y149.060 E42.7182
G1 X103.516 Y144.245 E43.0239
G1 X104.081 Y144.245 E43.0493
G1 X108.896 Y149.060 E43.3551
G1 X109.462 Y149.060 E43.3805
G1 X104.647 Y144.245 E43.6862
G1 X105.213 Y144.245 E43.7116
G1 X110.028 Y149.060 E44.0174
G1 X110.593 Y149.060 E44.0428
G1 X105.778 Y144.245 E44.3485
G1 X106.344 Y144.245 E44.3739
G1 X111.159 Y149.060 E44.6797
G1 X111.725 Y149.060 E44.7051
G1 X106.910 Y144.245 E45.0108
G1 X107.476 Y144.245 E45.0362
G1 X112.290 Y149.060 E45.3420
G1 X112.856 Y149.060 E45.3674
G1 X108.041 Y144.245 E45.6731
G1 X108.607 Y144.245 E45.6985
G1 X113.422 Y149.060 E46.0043
G1 X113.988 Y149.060 E46.0297
G1 X109.173 Y144.245 E46.3354
G1 X109.738 Y144.245 E46.3608
G1 X114.553 Y149.060 E46.6666
G1 X115.119 Y149.060 E46.6920
G1 X110.304 Y144.245 E46.9977
G1 X110.870 Y144.245 E47.0231
G1 X115.685 Y149.060 E47.3288
G1 X116.250 Y149.060 E47.3542
G1 X111.435 Y144.245 E47.6600
G1 X112.001 Y144.245 E47.6854
G1 X116.816 Y149.060 E47.9911
G1 X117.382 Y149.060 E48.0165
G1 X112.567 Y144.245 E48.3223
G1 X113.132 Y144.245 E48.3477
G1 X117.947 Y149.060 E48.6534
G1 X118.513 Y149.060 E48.6788
G1 X113.698 Y144.245 E48.9846
G1 X114.264 Y144.245 E49.0100
G1 X119.079 Y149.060 E49.3157
G1 X119.644 Y149.060 E49.3411
G1 X114.829 Y144.245 E49.6469
G1 X115.395 Y144.245 E49.6723
G1 X120.210 Y149.060 E49.9780
G1 X120.776 Y149.060 E50.0034
G1 X115.961 Y144.245 E50.3092
G1 X116.526 Y144.245 E50.3346
G1 X121.341 Y149.060 E50.6403
G1 X121.907 Y149.060 E50.6657
G1 X117.092 Y144.245 E50.9715
G1 X117.658 Y144.245 E50.9969
G1 X122.473 Y149.060 E51.3026
G1 X123.038 Y149.060 E51.3280
G1 X118.224 Y144.245 E51.6338
G1 X118.789 Y144.245 E51.6592
G1 X123.604 Y149.060 E51.9649
G1 X124.170 Y149.060 E51.9903
G1 X119.355 Y144.245 E52.2961
G1 X119.921 Y144.245 E52.3215
G1 X124.736 Y149.060 E52.6272
G1 X125.301 Y149.060 E52.6526
G1 X120.486 Y144.245 E52.9584
G1 X121.052 Y144.245 E52.9838
