; G-Code generated by Simplify3D(R) Version 4.0.0
; Feb 6, 2020 at 6:37:31 PM
; Settings Summary
;   processName,Process1
;   applyToModels,xbox_controller_stand_for-2
;   profileName,bar (modified)
;   profileVersion,2019-07-15 16:42:33
;   baseProfile,Default (modified)
;   printMaterial,PLA
;   printQuality,Medium
;   printExtruders,
;   extruderName,Primary Extruder
;   extruderToolheadNumber,0
;   extruderDiameter,0.4
;   extruderAutoWidth,0
;   extruderWidth,0.4
;   extrusionMultiplier,0.9
;   extruderUseRetract,1
;   extruderRetractionDistance,1
;   extruderExtraRestartDistance,0
;   extruderRetractionZLift,0
;   extruderRetractionSpeed,1800
;   extruderUseCoasting,0
;   extruderCoastingDistance,0.2
;   extruderUseWipe,0
;   extruderWipeDistance,5
;   primaryExtruder,0
;   layerHeight,0.3
;   topSolidLayers,3
;   bottomSolidLayers,3
;   perimeterOutlines,2
;   printPerimetersInsideOut,1
;   startPointOption,2
;   startPointOriginX,0
;   startPointOriginY,0
;   sequentialIslands,0
;   spiralVaseMode,0
;   firstLayerHeightPercentage,85
;   firstLayerWidthPercentage,100
;   firstLayerUnderspeed,0.5
;   useRaft,0
;   raftExtruder,0
;   raftTopLayers,3
;   raftBaseLayers,2
;   raftOffset,3
;   raftSeparationDistance,0.14
;   raftTopInfill,100
;   aboveRaftSpeedMultiplier,0.3
;   useSkirt,0
;   skirtExtruder,0
;   skirtLayers,1
;   skirtOutlines,2
;   skirtOffset,4
;   usePrimePillar,0
;   primePillarExtruder,999
;   primePillarWidth,12
;   primePillarLocation,7
;   primePillarSpeedMultiplier,1
;   useOozeShield,0
;   oozeShieldExtruder,999
;   oozeShieldOffset,2
;   oozeShieldOutlines,1
;   oozeShieldSidewallShape,1
;   oozeShieldSidewallAngle,30
;   oozeShieldSpeedMultiplier,1
;   infillExtruder,0
;   internalInfillPattern,Rectilinear
;   externalInfillPattern,Rectilinear
;   infillPercentage,20
;   outlineOverlapPercentage,15
;   infillExtrusionWidthPercentage,100
;   minInfillLength,5
;   infillLayerInterval,1
;   internalInfillAngles,45,-45
;   overlapInternalInfillAngles,0
;   externalInfillAngles,45,-45
;   generateSupport,0
;   supportExtruder,0
;   supportInfillPercentage,30
;   supportExtraInflation,0
;   supportBaseLayers,0
;   denseSupportExtruder,0
;   denseSupportLayers,0
;   denseSupportInfillPercentage,70
;   supportLayerInterval,1
;   supportHorizontalPartOffset,0.3
;   supportUpperSeparationLayers,1
;   supportLowerSeparationLayers,1
;   supportType,0
;   supportGridSpacing,4
;   maxOverhangAngle,45
;   supportAngles,0
;   temperatureName,Primary Extruder,Hot Bed
;   temperatureNumber,0,1
;   temperatureSetpointCount,1,1
;   temperatureSetpointLayers,1,1
;   temperatureSetpointTemperatures,210,60
;   temperatureStabilizeAtStartup,1,1
;   temperatureHeatedBed,0,1
;   temperatureRelayBetweenLayers,0,0
;   temperatureRelayBetweenLoops,0,0
;   fanLayers,1,2
;   fanSpeeds,0,100
;   blipFanToFullPower,0
;   adjustSpeedForCooling,1
;   minSpeedLayerTime,15
;   minCoolingSpeedSlowdown,20
;   increaseFanForCooling,0
;   minFanLayerTime,45
;   maxCoolingFanSpeed,100
;   increaseFanForBridging,0
;   bridgingFanSpeed,100
;   use5D,1
;   relativeEdistances,0
;   allowEaxisZeroing,1
;   independentExtruderAxes,0
;   includeM10123,0
;   stickySupport,1
;   applyToolheadOffsets,0
;   gcodeXoffset,0
;   gcodeYoffset,0
;   gcodeZoffset,0
;   overrideMachineDefinition,0
;   machineTypeOverride,0
;   strokeXoverride,200
;   strokeYoverride,200
;   strokeZoverride,200
;   originOffsetXoverride,0
;   originOffsetYoverride,0
;   originOffsetZoverride,0
;   homeXdirOverride,-1
;   homeYdirOverride,-1
;   homeZdirOverride,-1
;   flipXoverride,1
;   flipYoverride,-1
;   flipZoverride,1
;   toolheadOffsets,0,0|0,0|0,0|0,0|0,0|0,0
;   overrideFirmwareConfiguration,0
;   firmwareTypeOverride,RepRap (Marlin/Repetier/Sprinter)
;   GPXconfigOverride,r2
;   baudRateOverride,115200
;   overridePrinterModels,0
;   printerModelsOverride
;   startingGcode,G28 ; home all axes,G1 X10 Y10 Z0.2 F3000 ; get ready to prime,G92 E0 ; reset extrusion distance,G1 Y110 E20 F600 ; prime nozzle
;   layerChangeGcode,
;   retractionGcode,
;   toolChangeGcode,
;   endingGcode,M104 S0 ; turn off extruder,M140 S0 ; turn off bed,G1 X0 Y0 ; home x,y axes,M84 ; disable motors
;   exportFileFormat,gcode
;   celebration,0
;   celebrationSong,Random Song
;   postProcessing,
;   defaultSpeed,4200
;   outlineUnderspeed,0.5
;   solidInfillUnderspeed,0.8
;   supportUnderspeed,0.8
;   rapidXYspeed,4800
;   rapidZspeed,1000
;   minBridgingArea,50
;   bridgingExtraInflation,0
;   bridgingExtrusionMultiplier,1
;   bridgingSpeedMultiplier,1
;   useFixedBridgingAngle,0
;   fixedBridgingAngle,0
;   applyBridgingToPerimeters,0
;   filamentDiameters,1.75|1.75|1.75|1.75|1.75|1.75
;   filamentPricesPerKg,46|46|46|46|46|46
;   filamentDensities,1.25|1.25|1.25|1.25|1.25|1.25
;   useMinPrintHeight,0
;   minPrintHeight,0
;   useMaxPrintHeight,0
;   maxPrintHeight,0
;   useDiaphragm,0
;   diaphragmLayerInterval,20
;   robustSlicing,1
;   mergeAllIntoSolid,0
;   onlyRetractWhenCrossingOutline,1
;   retractBetweenLayers,1
;   useRetractionMinTravel,0
;   retractionMinTravel,3
;   retractWhileWiping,0
;   onlyWipeOutlines,1
;   avoidCrossingOutline,0
;   maxMovementDetourFactor,3
;   toolChangeRetractionDistance,12
;   toolChangeExtraRestartDistance,-0.5
;   toolChangeRetractionSpeed,600
;   externalThinWallType,1
;   internalThinWallType,1
;   thinWallAllowedOverlapPercentage,10
;   singleExtrusionMinLength,1
;   singleExtrusionMinPrintingWidthPercentage,50
;   singleExtrusionMaxPrintingWidthPercentage,200
;   singleExtrusionEndpointExtension,0.2
;   horizontalSizeCompensation,0
G90
M82
M106 S0
M140 S60
M190 S60
M104 S210 T0
M109 S210 T0
G28 ; home all axes
G1 X10 Y10 Z0.2 F3000 ; get ready to prime
G92 E0 ; reset extrusion distance
G1 Y110 E20 F600 ; prime nozzle
G92 E0
G1 E-1.0000 F1800
G1 Z0.255 F1000
; process Process1
; layer 1, Z = 0.255
T0
; tool H0.300 W0.400
; inner perimeter
G1 X35.674 Y48.100 F4800
G1 E0.0000 F540
G92 E0
G1 X169.474 Y48.100 E6.0078 F1575
G1 X169.474 Y96.900 E8.1990
G1 X35.674 Y96.900 E14.2067
G1 X35.674 Y48.100 E16.3979
; outer perimeter
G1 X35.274 Y47.700 F4800
G92 E0
G1 X169.874 Y47.700 E6.0437 F1050
G1 X169.874 Y97.300 E8.2708
G1 X35.274 Y97.300 E14.3145
G1 X35.274 Y47.700 E16.5416
; solid layer
G1 X36.014 Y96.125 F4800
G92 E0
G1 X36.449 Y96.560 E0.0276 F1680
G1 X37.014 Y96.560 E0.0530
G1 X36.014 Y95.559 E0.1166
G1 X36.014 Y94.993 E0.1420
G1 X37.580 Y96.560 E0.2415
G1 X38.146 Y96.560 E0.2669
G1 X36.014 Y94.428 E0.4023
G1 X36.014 Y93.862 E0.4277
G1 X38.712 Y96.560 E0.5990
G1 X39.277 Y96.560 E0.6244
G1 X36.014 Y93.296 E0.8316
G1 X36.014 Y92.731 E0.8570
G1 X39.843 Y96.560 E1.1002
G1 X40.409 Y96.560 E1.1256
G1 X36.014 Y92.165 E1.4046
G1 X36.014 Y91.599 E1.4300
G1 X40.974 Y96.560 E1.7450
G1 X41.540 Y96.560 E1.7704
G1 X36.014 Y91.034 E2.1214
G1 X36.014 Y90.468 E2.1468
G1 X42.106 Y96.560 E2.5336
G1 X42.671 Y96.560 E2.5590
G1 X36.014 Y89.902 E2.9818
G1 X36.014 Y89.337 E3.0072
G1 X43.237 Y96.560 E3.4659
G1 X43.803 Y96.560 E3.4913
G1 X36.014 Y88.771 E3.9859
G1 X36.014 Y88.205 E4.0113
G1 X44.368 Y96.560 E4.5418
G1 X44.934 Y96.560 E4.5672
G1 X36.014 Y87.640 E5.1336
G1 X36.014 Y87.074 E5.1590
G1 X45.500 Y96.560 E5.7614
G1 X46.065 Y96.560 E5.7868
G1 X36.014 Y86.508 E6.4251
G1 X36.014 Y85.943 E6.4505
G1 X46.631 Y96.560 E7.1247
G1 X47.197 Y96.560 E7.1501
G1 X36.014 Y85.377 E7.8602
G1 X36.014 Y84.811 E7.8856
G1 X47.762 Y96.560 E8.6317
G1 X48.328 Y96.560 E8.6571
G1 X36.014 Y84.245 E9.4391
G1 X36.014 Y83.680 E9.4645
G1 X48.894 Y96.560 E10.2823
G1 X49.460 Y96.560 E10.3077
G1 X36.014 Y83.114 E11.1616
G1 X36.014 Y82.548 E11.1870
G1 X50.025 Y96.560 E12.0767
G1 X50.591 Y96.560 E12.1021
G1 X36.014 Y81.983 E13.0278
G1 X36.014 Y81.417 E13.0532
G1 X51.157 Y96.560 E14.0147
G1 X51.722 Y96.560 E14.0401
G1 X36.014 Y80.851 E15.0376
G1 X36.014 Y80.286 E15.0630
G1 X52.288 Y96.560 E16.0964
G1 X52.854 Y96.560 E16.1218
G1 X36.014 Y79.720 E17.1912
G1 X36.014 Y79.154 E17.2166
G1 X53.419 Y96.560 E18.3218
G1 X53.985 Y96.560 E18.3472
G1 X36.014 Y78.589 E19.4884
G1 X36.014 Y78.023 E19.5138
G1 X54.551 Y96.560 E20.6909
G1 X55.116 Y96.560 E20.7163
G1 X36.014 Y77.457 E21.9294
G1 X36.014 Y76.892 E21.9548
G1 X55.682 Y96.560 E23.2037
G1 X56.248 Y96.560 E23.2291
G1 X36.014 Y76.326 E24.5140
G1 X36.014 Y75.760 E24.5394
G1 X56.813 Y96.560 E25.8602
G1 X57.379 Y96.560 E25.8856
G1 X36.014 Y75.194 E27.2423
G1 X36.014 Y74.629 E27.2677
G1 X57.945 Y96.560 E28.6603
G1 X58.511 Y96.560 E28.6857
G1 X36.014 Y74.063 E30.1142
G1 X36.014 Y73.497 E30.1396
G1 X59.076 Y96.560 E31.6041
G1 X59.642 Y96.560 E31.6295
G1 X36.014 Y72.932 E33.1299
G1 X36.014 Y72.366 E33.1553
G1 X60.208 Y96.560 E34.6916
G1 X60.773 Y96.560 E34.7170
G1 X36.014 Y71.800 E36.2892
G1 X36.014 Y71.235 E36.3146
G1 X61.339 Y96.560 E37.9228
G1 X61.905 Y96.560 E37.9482
G1 X36.014 Y70.669 E39.5923
G1 X36.014 Y70.103 E39.6177
G1 X62.470 Y96.560 E41.2977
G1 X63.036 Y96.560 E41.3231
G1 X36.014 Y69.538 E43.0390
G1 X36.014 Y68.972 E43.0644
G1 X63.602 Y96.560 E44.8162
G1 X64.167 Y96.560 E44.8416
G1 X36.014 Y68.406 E46.6294
G1 X36.014 Y67.841 E46.6548
G1 X64.733 Y96.560 E48.4785
G1 X65.299 Y96.560 E48.5039
G1 X36.014 Y67.275 E50.3635
G1 X36.014 Y66.709 E50.3889
G1 X65.864 Y96.560 E52.2844
G1 X66.430 Y96.560 E52.3098
G1 X36.014 Y66.144 E54.2412
G1 X36.014 Y65.578 E54.2666
G1 X66.996 Y96.560 E56.2340
G1 X67.561 Y96.560 E56.2594
G1 X36.014 Y65.012 E58.2627
G1 X36.014 Y64.446 E58.2881
G1 X68.127 Y96.560 E60.3273
G1 X68.693 Y96.560 E60.3527
G1 X36.014 Y63.881 E62.4278
G1 X36.014 Y63.315 E62.4532
G1 X69.259 Y96.560 E64.5643
G1 X69.824 Y96.560 E64.5897
G1 X36.014 Y62.749 E66.7366
G1 X36.014 Y62.184 E66.7620
G1 X70.390 Y96.560 E68.9449
G1 X70.956 Y96.560 E68.9703
G1 X36.014 Y61.618 E71.1891
G1 X36.014 Y61.052 E71.2145
G1 X71.521 Y96.560 E73.4693
G1 X72.087 Y96.560 E73.4947
G1 X36.014 Y60.487 E75.7853
G1 X36.014 Y59.921 E75.8107
G1 X72.653 Y96.560 E78.1373
G1 X73.218 Y96.560 E78.1627
G1 X36.014 Y59.355 E80.5252
G1 X36.014 Y58.790 E80.5506
G1 X73.784 Y96.560 E82.9490
G1 X74.350 Y96.560 E82.9744
G1 X36.014 Y58.224 E85.4087
G1 X36.014 Y57.658 E85.4341
G1 X74.915 Y96.560 E87.9044
G1 X75.481 Y96.560 E87.9298
G1 X36.014 Y57.093 E90.4360
G1 X36.014 Y56.527 E90.4614
G1 X76.047 Y96.560 E93.0035
G1 X76.612 Y96.560 E93.0289
G1 X36.014 Y55.961 E95.6069
G1 X36.014 Y55.395 E95.6323
G1 X77.178 Y96.560 E98.2462
G1 X77.744 Y96.560 E98.2716
G1 X36.014 Y54.830 E100.9215
G1 X36.014 Y54.264 E100.9469
G1 X78.309 Y96.560 E103.6327
G1 X78.875 Y96.560 E103.6581
G1 X36.014 Y53.698 E106.3798
G1 X36.014 Y53.133 E106.4052
G1 X79.441 Y96.560 E109.1628
G1 X80.007 Y96.560 E109.1882
G1 X36.014 Y52.567 E111.9817
G1 X36.014 Y52.001 E112.0071
G1 X80.572 Y96.560 E114.8366
G1 X81.138 Y96.560 E114.8620
G1 X36.014 Y51.436 E117.7274
G1 X36.014 Y50.870 E117.7528
G1 X81.704 Y96.560 E120.6541
G1 X82.269 Y96.560 E120.6795
G1 X36.014 Y50.304 E123.6167
G1 X36.014 Y49.739 E123.6421
G1 X82.835 Y96.560 E126.6153
G1 X83.401 Y96.560 E126.6407
G1 X36.014 Y49.173 E129.6498
G1 X36.014 Y48.607 E129.6752
G1 X83.966 Y96.560 E132.7201
G1 X84.532 Y96.560 E132.7455
G1 X36.412 Y48.440 E135.8012
G1 X36.978 Y48.440 E135.8266
G1 X85.098 Y96.560 E138.8822
G1 X85.663 Y96.560 E138.9076
G1 X37.543 Y48.440 E141.9632
G1 X38.109 Y48.440 E141.9886
G1 X86.229 Y96.560 E145.0442
G1 X86.795 Y96.560 E145.0696
G1 X38.675 Y48.440 E148.1252
G1 X39.240 Y48.440 E148.1506
G1 X87.360 Y96.560 E151.2062
G1 X87.926 Y96.560 E151.2316
G1 X39.806 Y48.440 E154.2872
G1 X40.372 Y48.440 E154.3126
G1 X88.492 Y96.560 E157.3683
G1 X89.058 Y96.560 E157.3937
G1 X40.938 Y48.440 E160.4493
G1 X41.503 Y48.440 E160.4747
G1 X89.623 Y96.560 E163.5303
G1 X90.189 Y96.560 E163.5557
G1 X42.069 Y48.440 E166.6113
G1 X42.635 Y48.440 E166.6367
G1 X90.755 Y96.560 E169.6923
G1 X91.320 Y96.560 E169.7177
G1 X43.200 Y48.440 E172.7733
G1 X43.766 Y48.440 E172.7987
G1 X91.886 Y96.560 E175.8543
G1 X92.452 Y96.560 E175.8797
G1 X44.332 Y48.440 E178.9353
G1 X44.897 Y48.440 E178.9607
G1 X93.017 Y96.560 E182.0164
G1 X93.583 Y96.560 E182.0418
G1 X45.463 Y48.440 E185.0974
G1 X46.029 Y48.440 E185.1228
G1 X94.149 Y96.560 E188.1784
G1 X94.714 Y96.560 E188.2038
G1 X46.594 Y48.440 E191.2594
G1 X47.160 Y48.440 E191.2848
G1 X95.280 Y96.560 E194.3404
G1 X95.846 Y96.560 E194.3658
G1 X47.726 Y48.440 E197.4214
G1 X48.291 Y48.440 E197.4468
G1 X96.411 Y96.560 E200.5024
G1 X96.977 Y96.560 E200.5278
G1 X48.857 Y48.440 E203.5834
G1 X49.423 Y48.440 E203.6088
G1 X97.543 Y96.560 E206.6645
G1 X98.108 Y96.560 E206.6899
G1 X49.988 Y48.440 E209.7455
G1 X50.554 Y48.440 E209.7709
G1 X98.674 Y96.560 E212.8265
G1 X99.240 Y96.560 E212.8519
G1 X51.120 Y48.440 E215.9075
G1 X51.686 Y48.440 E215.9329
G1 X99.806 Y96.560 E218.9885
G1 X100.371 Y96.560 E219.0139
G1 X52.251 Y48.440 E222.0695
G1 X52.817 Y48.440 E222.0949
G1 X100.937 Y96.560 E225.1505
G1 X101.503 Y96.560 E225.1759
G1 X53.383 Y48.440 E228.2316
G1 X53.948 Y48.440 E228.2570
G1 X102.068 Y96.560 E231.3126
G1 X102.634 Y96.560 E231.3380
G1 X54.514 Y48.440 E234.3936
G1 X55.080 Y48.440 E234.4190
G1 X103.200 Y96.560 E237.4746
G1 X103.765 Y96.560 E237.5000
G1 X55.645 Y48.440 E240.5556
G1 X56.211 Y48.440 E240.5810
G1 X104.331 Y96.560 E243.6366
G1 X104.897 Y96.560 E243.6620
G1 X56.777 Y48.440 E246.7176
G1 X57.342 Y48.440 E246.7430
G1 X105.462 Y96.560 E249.7986
G1 X106.028 Y96.560 E249.8240
G1 X57.908 Y48.440 E252.8797
G1 X58.474 Y48.440 E252.9051
G1 X106.594 Y96.560 E255.9607
G1 X107.159 Y96.560 E255.9861
G1 X59.039 Y48.440 E259.0417
G1 X59.605 Y48.440 E259.0671
G1 X107.725 Y96.560 E262.1227
G1 X108.291 Y96.560 E262.1481
G1 X60.171 Y48.440 E265.2037
G1 X60.737 Y48.440 E265.2291
G1 X108.857 Y96.560 E268.2847
G1 X109.422 Y96.560 E268.3101
G1 X61.302 Y48.440 E271.3657
G1 X61.868 Y48.440 E271.3911
G1 X109.988 Y96.560 E274.4468
G1 X110.554 Y96.560 E274.4722
G1 X62.434 Y48.440 E277.5278
G1 X62.999 Y48.440 E277.5532
G1 X111.119 Y96.560 E280.6088
G1 X111.685 Y96.560 E280.6342
G1 X63.565 Y48.440 E283.6898
G1 X64.131 Y48.440 E283.7152
G1 X112.251 Y96.560 E286.7708
G1 X112.816 Y96.560 E286.7962
G1 X64.696 Y48.440 E289.8518
G1 X65.262 Y48.440 E289.8772
G1 X113.382 Y96.560 E292.9328
G1 X113.948 Y96.560 E292.9582
G1 X65.828 Y48.440 E296.0138
G1 X66.393 Y48.440 E296.0392
G1 X114.513 Y96.560 E299.0949
G1 X115.079 Y96.560 E299.1203
G1 X66.959 Y48.440 E302.1759
G1 X67.525 Y48.440 E302.2013
G1 X115.645 Y96.560 E305.2569
G1 X116.210 Y96.560 E305.2823
G1 X68.090 Y48.440 E308.3379
G1 X68.656 Y48.440 E308.3633
G1 X116.776 Y96.560 E311.4189
G1 X117.342 Y96.560 E311.4443
G1 X69.222 Y48.440 E314.4999
G1 X69.787 Y48.440 E314.5253
G1 X117.907 Y96.560 E317.5809
G1 X118.473 Y96.560 E317.6063
G1 X70.353 Y48.440 E320.6620
G1 X70.919 Y48.440 E320.6874
G1 X119.039 Y96.560 E323.7430
G1 X119.605 Y96.560 E323.7684
G1 X71.485 Y48.440 E326.8240
G1 X72.050 Y48.440 E326.8494
G1 X120.170 Y96.560 E329.9050
G1 X120.736 Y96.560 E329.9304
G1 X72.616 Y48.440 E332.9860
G1 X73.182 Y48.440 E333.0114
G1 X121.302 Y96.560 E336.0670
G1 X121.867 Y96.560 E336.0924
G1 X73.747 Y48.440 E339.1480
G1 X74.313 Y48.440 E339.1734
G1 X122.433 Y96.560 E342.2290
G1 X122.999 Y96.560 E342.2544
G1 X74.879 Y48.440 E345.3101
G1 X75.444 Y48.440 E345.3355
G1 X123.564 Y96.560 E348.3911
G1 X124.130 Y96.560 E348.4165
G1 X76.010 Y48.440 E351.4721
G1 X76.576 Y48.440 E351.4975
G1 X124.696 Y96.560 E354.5531
G1 X125.261 Y96.560 E354.5785
G1 X77.141 Y48.440 E357.6341
G1 X77.707 Y48.440 E357.6595
G1 X125.827 Y96.560 E360.7151
G1 X126.393 Y96.560 E360.7405
G1 X78.273 Y48.440 E363.7961
G1 X78.838 Y48.440 E363.8215
G1 X126.958 Y96.560 E366.8772
G1 X127.524 Y96.560 E366.9026
G1 X79.404 Y48.440 E369.9582
G1 X79.970 Y48.440 E369.9836
G1 X128.090 Y96.560 E373.0392
G1 X128.655 Y96.560 E373.0646
G1 X80.535 Y48.440 E376.1202
G1 X81.101 Y48.440 E376.1456
G1 X129.221 Y96.560 E379.2012
G1 X129.787 Y96.560 E379.2266
G1 X81.667 Y48.440 E382.2822
G1 X82.233 Y48.440 E382.3076
G1 X130.353 Y96.560 E385.3632
G1 X130.918 Y96.560 E385.3886
G1 X82.798 Y48.440 E388.4442
G1 X83.364 Y48.440 E388.4696
G1 X131.484 Y96.560 E391.5253
G1 X132.050 Y96.560 E391.5507
