; G-Code generated by Simplify3D(R) Version 4.0.0
; Jun 14, 2018 at 6:28:55 PM
; Settings Summary
;   processName,Process1
;   applyToModels,Anti_Holguras-v2-antodelg-0.4
;   profileName,Flyingbear p902 (modified)
;   profileVersion,2017-02-06 00:22:54
;   baseProfile,Default
;   printMaterial,PLA
;   printQuality,Medium
;   printExtruders,
;   extruderName,Extruder 1
;   extruderToolheadNumber,0
;   extruderDiameter,0.4
;   extruderAutoWidth,1
;   extruderWidth,0.48
;   extrusionMultiplier,1
;   extruderUseRetract,1
;   extruderRetractionDistance,1
;   extruderExtraRestartDistance,0
;   extruderRetractionZLift,0
;   extruderRetractionSpeed,3400
;   extruderUseCoasting,0
;   extruderCoastingDistance,0.2
;   extruderUseWipe,0
;   extruderWipeDistance,5
;   primaryExtruder,0
;   layerHeight,0.2
;   topSolidLayers,3
;   bottomSolidLayers,3
;   perimeterOutlines,2
;   printPerimetersInsideOut,0
;   startPointOption,2
;   startPointOriginX,0
;   startPointOriginY,0
;   sequentialIslands,0
;   spiralVaseMode,0
;   firstLayerHeightPercentage,90
;   firstLayerWidthPercentage,100
;   firstLayerUnderspeed,0.5
;   useRaft,0
;   raftExtruder,0
;   raftTopLayers,3
;   raftBaseLayers,1
;   raftOffset,2
;   raftSeparationDistance,0.2
;   raftTopInfill,100
;   aboveRaftSpeedMultiplier,0.3
;   useSkirt,0
;   skirtExtruder,0
;   skirtLayers,1
;   skirtOutlines,2
;   skirtOffset,4
;   usePrimePillar,0
;   primePillarExtruder,999
;   primePillarWidth,12
;   primePillarLocation,7
;   primePillarSpeedMultiplier,1
;   useOozeShield,0
;   oozeShieldExtruder,999
;   oozeShieldOffset,2
;   oozeShieldOutlines,1
;   oozeShieldSidewallShape,1
;   oozeShieldSidewallAngle,30
;   oozeShieldSpeedMultiplier,1
;   infillExtruder,0
;   internalInfillPattern,Rectilinear
;   externalInfillPattern,Rectilinear
;   infillPercentage,12
;   outlineOverlapPercentage,15
;   infillExtrusionWidthPercentage,100
;   minInfillLength,5
;   infillLayerInterval,1
;   internalInfillAngles,45,-45
;   overlapInternalInfillAngles,0
;   externalInfillAngles,45,-45
;   generateSupport,0
;   supportExtruder,0
;   supportInfillPercentage,30
;   supportExtraInflation,0
;   supportBaseLayers,0
;   denseSupportExtruder,0
;   denseSupportLayers,0
;   denseSupportInfillPercentage,70
;   supportLayerInterval,1
;   supportHorizontalPartOffset,0.3
;   supportUpperSeparationLayers,1
;   supportLowerSeparationLayers,1
;   supportType,0
;   supportGridSpacing,4
;   maxOverhangAngle,45
;   supportAngles,0
;   temperatureName,Extruder 1,Heated Bed
;   temperatureNumber,0,0
;   temperatureSetpointCount,1,1
;   temperatureSetpointLayers,1,1
;   temperatureSetpointTemperatures,210,60
;   temperatureStabilizeAtStartup,1,1
;   temperatureHeatedBed,0,1
;   temperatureRelayBetweenLayers,0,0
;   temperatureRelayBetweenLoops,0,0
;   fanLayers,1,2
;   fanSpeeds,0,100
;   blipFanToFullPower,0
;   adjustSpeedForCooling,1
;   minSpeedLayerTime,15
;   minCoolingSpeedSlowdown,20
;   increaseFanForCooling,0
;   minFanLayerTime,45
;   maxCoolingFanSpeed,100
;   increaseFanForBridging,1
;   bridgingFanSpeed,100
;   use5D,1
;   relativeEdistances,0
;   allowEaxisZeroing,1
;   independentExtruderAxes,0
;   includeM10123,0
;   stickySupport,1
;   applyToolheadOffsets,0
;   gcodeXoffset,0
;   gcodeYoffset,0
;   gcodeZoffset,0
;   overrideMachineDefinition,1
;   machineTypeOverride,0
;   strokeXoverride,220
;   strokeYoverride,220
;   strokeZoverride,280
;   originOffsetXoverride,0
;   originOffsetYoverride,0
;   originOffsetZoverride,0
;   homeXdirOverride,-1
;   homeYdirOverride,-1
;   homeZdirOverride,-1
;   flipXoverride,1
;   flipYoverride,-1
;   flipZoverride,1
;   toolheadOffsets,0,0|0,0|0,0|0,0|0,0|0,0
;   overrideFirmwareConfiguration,1
;   firmwareTypeOverride,RepRap (Marlin/Repetier/Sprinter)
;   GPXconfigOverride,r2
;   baudRateOverride,250000
;   overridePrinterModels,0
;   printerModelsOverride
;   startingGcode,G28 ; home all axes,G1 X0 Y0 Z0.2 F3000 ; get ready to prime,G92 E0 ; reset extrusion distance,G1 X200 E20 F600 ; prime nozzle
;   layerChangeGcode,
;   retractionGcode,
;   toolChangeGcode,
;   endingGcode,M104 S0 ; turn off extruder,M140 S0 ; turn off bed,G91 ; use relative coordinates,G1 Z0.6 F5000 ; lift nozzle by 0.6mm,G90 ; use absolute coordinates,G28 X0 ; home X axis,G28 Y0 ; home X axis,M84 ; disable motors,M107 ; turn off fan
;   exportFileFormat,gcode
;   celebration,0
;   celebrationSong,Random Song
;   postProcessing,
;   defaultSpeed,4200
;   outlineUnderspeed,0.9
;   solidInfillUnderspeed,1
;   supportUnderspeed,0.8
;   rapidXYspeed,4200
;   rapidZspeed,1002
;   minBridgingArea,50
;   bridgingExtraInflation,0
;   bridgingExtrusionMultiplier,1
;   bridgingSpeedMultiplier,1
;   useFixedBridgingAngle,0
;   fixedBridgingAngle,0
;   applyBridgingToPerimeters,0
;   filamentDiameters,1.75|1.75|1.75|1.75|1.75|1.75
;   filamentPricesPerKg,46|46|46|46|46|46
;   filamentDensities,1.25|1.25|1.25|1.25|1.25|1.25
;   useMinPrintHeight,0
;   minPrintHeight,0
;   useMaxPrintHeight,0
;   maxPrintHeight,0
;   useDiaphragm,0
;   diaphragmLayerInterval,20
;   robustSlicing,1
;   mergeAllIntoSolid,0
;   onlyRetractWhenCrossingOutline,1
;   retractBetweenLayers,1
;   useRetractionMinTravel,0
;   retractionMinTravel,3
;   retractWhileWiping,0
;   onlyWipeOutlines,1
;   avoidCrossingOutline,0
;   maxMovementDetourFactor,3
;   toolChangeRetractionDistance,12
;   toolChangeExtraRestartDistance,-0.5
;   toolChangeRetractionSpeed,600
;   externalThinWallType,1
;   internalThinWallType,1
;   thinWallAllowedOverlapPercentage,10
;   singleExtrusionMinLength,1
;   singleExtrusionMinPrintingWidthPercentage,50
;   singleExtrusionMaxPrintingWidthPercentage,200
;   singleExtrusionEndpointExtension,0.2
;   horizontalSizeCompensation,0
G90
M82
M106 S0
M140 S60
M190 S60
M104 S210 T0
M109 S210 T0
G28 ; home all axes
G1 X0 Y0 Z0.2 F3000 ; get ready to prime
G92 E0 ; reset extrusion distance
G1 X200 E20 F600 ; prime nozzle
G92 E0
G1 E-1.0000 F3400
G1 Z0.180 F1002
; process Process1
; layer 1, Z = 0.180
T0
; tool H0.200 W0.480
; outer perimeter
G1 X90.957 Y87.945 F4200
G1 E0.0000 F1020
G92 E0
G1 X104.733 Y87.945 E0.5498 F1890
G1 X104.733 Y111.855 E1.5041
G1 X91.486 Y111.855 E2.0329
G1 X91.486 Y131.665 E2.8235
G1 X91.262 Y131.788 E2.8337
G1 X90.965 Y131.599 E2.8478
G1 X90.458 Y131.236 E2.8727
G1 X89.882 Y130.731 E2.9033
G1 X89.372 Y130.181 E2.9332
G1 X88.935 Y129.590 E2.9625
G1 X88.574 Y128.963 E2.9914
G1 X87.728 Y127.163 E3.0708
G1 X86.978 Y125.327 E3.1499
G1 X86.329 Y123.466 E3.2286
G1 X85.782 Y121.582 E3.3069
G1 X85.337 Y119.681 E3.3848
G1 X84.996 Y117.764 E3.4625
G1 X84.759 Y115.836 E3.5400
G1 X84.627 Y113.902 E3.6174
G1 X84.600 Y112.093 E3.6896
G1 X84.600 Y108.889 E3.8175
G1 X84.654 Y107.420 E3.8762
G1 X84.855 Y105.095 E3.9693
G1 X85.170 Y102.783 E4.0625
G1 X85.601 Y100.490 E4.1556
G1 X86.146 Y98.220 E4.2487
G1 X86.803 Y95.981 E4.3419
G1 X87.570 Y93.777 E4.4350
G1 X88.445 Y91.614 E4.5282
G1 X88.771 Y90.924 E4.5586
G1 X88.949 Y90.592 E4.5736
G1 X89.383 Y89.873 E4.6072
G1 X89.818 Y89.250 E4.6375
G1 X90.344 Y88.598 E4.6709
G1 X90.957 Y87.945 E4.7067
; inner perimeter
G1 X91.165 Y88.425 F4200
G92 E0
G1 X104.253 Y88.425 E0.5224 F1995
G1 X104.253 Y111.375 E1.4384
G1 X91.006 Y111.375 E1.9671
G1 X91.006 Y130.740 E2.7400
G1 X90.752 Y130.855 E2.7511
G1 X90.217 Y130.386 E2.7795
G1 X89.742 Y129.874 E2.8074
G1 X89.337 Y129.327 E2.8346
G1 X89.000 Y128.741 E2.8616
G1 X88.168 Y126.970 E2.9397
G1 X87.428 Y125.157 E3.0178
G1 X86.786 Y123.320 E3.0955
G1 X86.247 Y121.461 E3.1727
G1 X85.807 Y119.584 E3.2497
G1 X85.471 Y117.693 E3.3263
G1 X85.237 Y115.790 E3.4028
G1 X85.107 Y113.882 E3.4792
G1 X85.080 Y112.089 E3.5507
G1 X85.080 Y108.898 E3.6781
G1 X85.133 Y107.449 E3.7360
G1 X85.332 Y105.148 E3.8282
G1 X85.644 Y102.860 E3.9203
G1 X86.070 Y100.590 E4.0125
G1 X86.610 Y98.344 E4.1047
G1 X87.260 Y96.127 E4.1969
G1 X88.019 Y93.946 E4.2891
G1 X88.885 Y91.807 E4.3812
G1 X89.200 Y91.140 E4.4106
G1 X89.366 Y90.829 E4.4247
G1 X89.785 Y90.135 E4.4571
G1 X90.202 Y89.538 E4.4861
G1 X90.706 Y88.913 E4.5181
G1 X91.165 Y88.425 E4.5449
; solid layer
G1 X103.767 Y88.833 F4200
G92 E0
G1 X103.845 Y88.911 E0.0044 F2100
G1 X103.845 Y89.590 E0.0315
G1 X103.088 Y88.833 E0.0742
G1 X102.409 Y88.833 E0.1013
G1 X103.845 Y90.269 E0.1823
G1 X103.845 Y90.947 E0.2094
G1 X101.731 Y88.833 E0.3288
G1 X101.052 Y88.833 E0.3559
G1 X103.845 Y91.626 E0.5135
G1 X103.845 Y92.305 E0.5406
G1 X100.373 Y88.833 E0.7366
G1 X99.694 Y88.833 E0.7637
G1 X103.845 Y92.984 E0.9980
G1 X103.845 Y93.663 E1.0251
G1 X99.015 Y88.833 E1.2977
G1 X98.337 Y88.833 E1.3248
G1 X103.845 Y94.341 E1.6357
G1 X103.845 Y95.020 E1.6628
G1 X97.658 Y88.833 E2.0120
G1 X96.979 Y88.833 E2.0391
G1 X103.845 Y95.699 E2.4266
G1 X103.845 Y96.378 E2.4537
G1 X96.300 Y88.833 E2.8796
G1 X95.621 Y88.833 E2.9067
G1 X103.845 Y97.057 E3.3709
G1 X103.845 Y97.736 E3.3980
G1 X94.942 Y88.833 E3.9005
G1 X94.264 Y88.833 E3.9276
G1 X103.845 Y98.414 E4.4684
G1 X103.845 Y99.093 E4.4955
G1 X93.585 Y88.833 E5.0746
G1 X92.906 Y88.833 E5.1017
G1 X103.845 Y99.772 E5.7192
G1 X103.845 Y100.451 E5.7462
G1 X92.227 Y88.833 E6.4020
G1 X91.548 Y88.833 E6.4291
G1 X103.845 Y101.130 E7.1232
G1 X103.845 Y101.809 E7.1503
G1 X91.113 Y89.076 E7.8689
G1 X91.014 Y89.181 E7.8747
G1 X90.802 Y89.444 E7.8882
G1 X103.845 Y102.487 E8.6244
G1 X103.845 Y103.166 E8.6515
G1 X90.501 Y89.823 E9.4046
G1 X90.222 Y90.222 E9.4241
G1 X103.845 Y103.845 E10.1930
G1 X103.845 Y104.524 E10.2201
G1 X89.959 Y90.637 E11.0039
G1 X89.721 Y91.031 E11.0223
G1 X89.704 Y91.062 E11.0237
G1 X103.845 Y105.203 E11.8218
G1 X103.845 Y105.881 E11.8489
G1 X89.476 Y91.512 E12.6600
G1 X89.258 Y91.971 E12.6803
G1 X89.258 Y91.973 E12.6804
G1 X103.845 Y106.560 E13.5037
G1 X103.845 Y107.239 E13.5308
G1 X89.062 Y92.456 E14.3652
G1 X88.866 Y92.939 E14.3860
G1 X103.845 Y107.918 E15.2315
G1 X103.845 Y108.597 E15.2586
G1 X88.671 Y93.423 E16.1151
G1 X88.475 Y93.906 E16.1359
G1 X103.845 Y109.276 E17.0034
G1 X103.845 Y109.954 E17.0305
G1 X88.292 Y94.402 E17.9084
G1 X88.117 Y94.905 E17.9297
G1 X103.845 Y110.633 E18.8174
G1 X103.845 Y110.967 E18.8307
G1 X103.500 Y110.967 E18.8445
G1 X87.942 Y95.409 E19.7227
G1 X87.767 Y95.912 E19.7440
G1 X102.821 Y110.967 E20.5937
G1 X102.142 Y110.967 E20.6208
G1 X87.598 Y96.423 E21.4417
G1 X87.444 Y96.948 E21.4635
G1 X101.464 Y110.967 E22.2548
G1 X100.785 Y110.967 E22.2819
G1 X87.291 Y97.473 E23.0436
G1 X87.137 Y97.998 E23.0654
G1 X100.106 Y110.967 E23.7975
G1 X99.427 Y110.967 E23.8246
G1 X86.986 Y98.526 E24.5268
G1 X86.854 Y99.073 E24.5493
G1 X98.748 Y110.967 E25.2206
G1 X98.069 Y110.967 E25.2477
G1 X86.723 Y99.620 E25.8882
G1 X86.591 Y100.168 E25.9106
G1 X97.391 Y110.967 E26.5202
G1 X96.712 Y110.967 E26.5473
G1 X86.462 Y100.717 E27.1258
G1 X86.354 Y101.288 E27.1490
G1 X96.033 Y110.967 E27.6954
G1 X95.354 Y110.967 E27.7224
G1 X86.247 Y101.860 E28.2365
G1 X86.140 Y102.431 E28.2597
G1 X94.675 Y110.967 E28.7415
G1 X93.996 Y110.967 E28.7686
G1 X86.036 Y103.006 E29.2179
G1 X85.954 Y103.604 E29.2420
G1 X93.318 Y110.967 E29.6576
G1 X92.639 Y110.967 E29.6847
G1 X85.873 Y104.201 E30.0666
G1 X85.791 Y104.798 E30.0907
G1 X91.960 Y110.967 E30.4389
G1 X91.281 Y110.967 E30.4660
G1 X85.719 Y105.405 E30.7799
G1 X85.665 Y106.030 E30.8049
G1 X90.602 Y110.967 E31.0836
G1 X90.598 Y110.967 E31.0838
G1 X90.598 Y111.641 E31.1107
G1 X85.611 Y106.655 E31.3922
G1 X85.557 Y107.279 E31.4172
G1 X90.598 Y112.320 E31.7017
G1 X90.598 Y112.999 E31.7288
G1 X85.524 Y107.925 E32.0152
G1 X85.500 Y108.580 E32.0414
G1 X90.598 Y113.678 E32.3292
G1 X90.598 Y114.357 E32.3563
G1 X85.488 Y109.247 E32.6447
G1 X85.488 Y109.926 E32.6718
G1 X90.598 Y115.036 E32.9602
G1 X90.598 Y115.714 E32.9873
G1 X85.488 Y110.604 E33.2757
G1 X85.488 Y111.283 E33.3028
G1 X90.598 Y116.393 E33.5913
G1 X90.598 Y117.072 E33.6183
G1 X85.488 Y111.962 E33.9068
G1 X85.488 Y112.087 E33.9118
G1 X85.496 Y112.649 E33.9342
G1 X90.598 Y117.751 E34.2222
G1 X90.598 Y118.430 E34.2493
G1 X85.507 Y113.338 E34.5366
G1 X85.514 Y113.865 E34.5577
G1 X85.526 Y114.037 E34.5645
G1 X90.598 Y119.109 E34.8508
G1 X90.598 Y119.787 E34.8779
G1 X85.576 Y114.765 E35.1614
G1 X85.626 Y115.494 E35.1905
G1 X90.598 Y120.466 E35.4712
G1 X90.598 Y121.145 E35.4983
G1 X85.705 Y116.252 E35.7745
G1 X85.800 Y117.026 E35.8056
G1 X90.598 Y121.824 E36.0764
G1 X90.598 Y122.503 E36.1035
G1 X85.907 Y117.811 E36.3683
G1 X86.053 Y118.637 E36.4018
G1 X90.598 Y123.181 E36.6583
G1 X90.598 Y123.860 E36.6854
G1 X86.200 Y119.463 E36.9336
G1 X86.207 Y119.502 E36.9352
G1 X86.405 Y120.346 E36.9698
G1 X90.598 Y124.539 E37.2065
G1 X90.598 Y125.218 E37.2336
G1 X86.612 Y121.232 E37.4585
G1 X86.642 Y121.357 E37.4636
G1 X86.880 Y122.179 E37.4978
G1 X90.598 Y125.897 E37.7076
G1 X90.598 Y126.576 E37.7347
G1 X87.157 Y123.135 E37.9289
G1 X87.175 Y123.196 E37.9315
G1 X87.516 Y124.172 E37.9728
G1 X90.598 Y127.254 E38.1467
G1 X90.598 Y127.933 E38.1738
G1 X87.900 Y125.236 E38.3261
G1 X88.369 Y126.383 E38.3755
G1 X90.598 Y128.612 E38.5014
G1 X90.598 Y129.291 E38.5285
G1 X88.921 Y127.614 E38.6231
G1 X89.362 Y128.552 E38.6645
G1 X89.609 Y128.980 E38.6842
G1 X90.598 Y129.970 E38.7400
G92 E0
G1 E-1.0000 F3400
; outer perimeter
G1 X115.239 Y111.855 F4200
G1 E0.0000 F3400
G92 E0
G1 X115.239 Y87.945 E0.9543 F1890
G1 X128.252 Y87.945 E1.4737
G1 X128.336 Y87.999 E1.4777
G1 X128.753 Y88.285 E1.4978
G1 X129.018 Y88.487 E1.5112
G1 X129.526 Y88.925 E1.5379
G1 X129.938 Y89.348 E1.5615
G1 X130.102 Y89.529 E1.5712
G1 X130.615 Y90.194 E1.6048
G1 X131.055 Y90.906 E1.6382
G1 X131.419 Y91.664 E1.6717
G1 X132.267 Y93.829 E1.7645
G1 X133.017 Y96.033 E1.8575
G1 X133.668 Y98.270 E1.9504
G1 X134.215 Y100.533 E2.0434
G1 X134.661 Y102.819 E2.1363
G1 X135.003 Y105.122 E2.2292
G1 X135.241 Y107.439 E2.3222
G1 X135.373 Y109.763 E2.4151
G1 X135.400 Y111.963 E2.5029
G1 X135.400 Y114.633 E2.6095
G1 X135.347 Y115.853 E2.6582
G1 X135.146 Y117.788 E2.7359
G1 X134.831 Y119.711 E2.8136
G1 X134.401 Y121.619 E2.8917
G1 X133.857 Y123.507 E2.9701
G1 X133.202 Y125.370 E3.0490
G1 X132.436 Y127.205 E3.1283
G1 X131.563 Y129.005 E3.2082
G1 X131.237 Y129.577 E3.2344
G1 X131.061 Y129.852 E3.2474
G1 X130.629 Y130.449 E3.2769
G1 X130.195 Y130.966 E3.3038
G1 X129.669 Y131.507 E3.3339
G1 X128.565 Y131.966 E3.3817
G1 X128.565 Y111.855 E4.1843
G1 X115.239 Y111.855 E4.7162
; inner perimeter
G1 X115.719 Y111.375 F4200
G92 E0
G1 X115.719 Y88.425 E0.9160 F1995
G1 X128.108 Y88.425 E1.4105
G1 X128.471 Y88.674 E1.4280
G1 X128.715 Y88.860 E1.4403
G1 X129.197 Y89.275 E1.4657
G1 X129.588 Y89.676 E1.4880
G1 X129.733 Y89.837 E1.4967
G1 X130.220 Y90.467 E1.5285
G1 X130.633 Y91.137 E1.5599
G1 X130.978 Y91.855 E1.5917
G1 X131.816 Y93.993 E1.6833
G1 X132.559 Y96.178 E1.7754
G1 X133.204 Y98.393 E1.8675
G1 X133.746 Y100.636 E1.9596
G1 X134.188 Y102.900 E2.0517
G1 X134.526 Y105.181 E2.1437
G1 X134.762 Y107.477 E2.2358
G1 X134.893 Y109.780 E2.3279
G1 X134.920 Y111.965 E2.4151
G1 X134.920 Y114.622 E2.5212
G1 X134.868 Y115.818 E2.5689
G1 X134.670 Y117.724 E2.6454
G1 X134.360 Y119.619 E2.7221
G1 X133.936 Y121.500 E2.7990
G1 X133.400 Y123.361 E2.8763
G1 X132.754 Y125.198 E2.9540
G1 X131.998 Y127.008 E3.0323
G1 X131.137 Y128.781 E3.1110
G1 X130.826 Y129.329 E3.1361
G1 X130.665 Y129.582 E3.1481
G1 X130.250 Y130.154 E3.1763
G1 X129.839 Y130.644 E3.2018
G1 X129.394 Y131.101 E3.2273
G1 X129.045 Y131.247 E3.2424
G1 X129.045 Y111.375 E4.0355
G1 X115.719 Y111.375 E4.5674
; solid layer
G1 X116.127 Y110.696 F4200
G92 E0
G1 X116.398 Y110.967 E0.0153 F2100
G1 X117.076 Y110.967 E0.0424
G1 X116.127 Y110.018 E0.0960
G1 X116.127 Y109.339 E0.1230
G1 X117.755 Y110.967 E0.2150
G1 X118.434 Y110.967 E0.2420
G1 X116.127 Y108.660 E0.3723
G1 X116.127 Y107.981 E0.3994
G1 X119.113 Y110.967 E0.5679
G1 X119.792 Y110.967 E0.5950
G1 X116.127 Y107.302 E0.8018
G1 X116.127 Y106.623 E0.8289
G1 X120.471 Y110.967 E1.0741
G1 X121.149 Y110.967 E1.1012
G1 X116.127 Y105.945 E1.3847
G1 X116.127 Y105.266 E1.4118
G1 X121.828 Y110.967 E1.7336
G1 X122.507 Y110.967 E1.7607
G1 X116.127 Y104.587 E2.1208
G1 X116.127 Y103.908 E2.1479
G1 X123.186 Y110.967 E2.5463
G1 X123.865 Y110.967 E2.5734
