; G-Code generated by Simplify3D(R) Version 4.0.0
; Oct 5, 2019 at 11:16:37 AM
; Settings Summary
;   processName,Process2
;   applyToModels,xyzCalibration_cube
;   profileName,Default(2) (modified)
;   profileVersion,2019-07-27 15:21:07
;   baseProfile,
;   printMaterial,PLA
;   printQuality,Medium
;   printExtruders,
;   extruderName,Primary Extruder
;   extruderToolheadNumber,0
;   extruderDiameter,0.4
;   extruderAutoWidth,1
;   extruderWidth,0.48
;   extrusionMultiplier,0.9
;   extruderUseRetract,1
;   extruderRetractionDistance,1
;   extruderExtraRestartDistance,0
;   extruderRetractionZLift,0
;   extruderRetractionSpeed,1800
;   extruderUseCoasting,0
;   extruderCoastingDistance,0.2
;   extruderUseWipe,0
;   extruderWipeDistance,5
;   primaryExtruder,0
;   layerHeight,0.3
;   topSolidLayers,3
;   bottomSolidLayers,2
;   perimeterOutlines,2
;   printPerimetersInsideOut,1
;   startPointOption,2
;   startPointOriginX,0
;   startPointOriginY,0
;   sequentialIslands,0
;   spiralVaseMode,0
;   firstLayerHeightPercentage,90
;   firstLayerWidthPercentage,100
;   firstLayerUnderspeed,0.5
;   useRaft,0
;   raftExtruder,0
;   raftTopLayers,3
;   raftBaseLayers,2
;   raftOffset,3
;   raftSeparationDistance,0.14
;   raftTopInfill,100
;   aboveRaftSpeedMultiplier,0.3
;   useSkirt,0
;   skirtExtruder,0
;   skirtLayers,1
;   skirtOutlines,2
;   skirtOffset,4
;   usePrimePillar,0
;   primePillarExtruder,999
;   primePillarWidth,12
;   primePillarLocation,7
;   primePillarSpeedMultiplier,1
;   useOozeShield,0
;   oozeShieldExtruder,999
;   oozeShieldOffset,2
;   oozeShieldOutlines,1
;   oozeShieldSidewallShape,1
;   oozeShieldSidewallAngle,30
;   oozeShieldSpeedMultiplier,1
;   infillExtruder,0
;   internalInfillPattern,Rectilinear
;   externalInfillPattern,Rectilinear
;   infillPercentage,10
;   outlineOverlapPercentage,15
;   infillExtrusionWidthPercentage,100
;   minInfillLength,5
;   infillLayerInterval,1
;   internalInfillAngles,45,-45
;   overlapInternalInfillAngles,0
;   externalInfillAngles,45,-45
;   generateSupport,0
;   supportExtruder,0
;   supportInfillPercentage,30
;   supportExtraInflation,0
;   supportBaseLayers,0
;   denseSupportExtruder,0
;   denseSupportLayers,0
;   denseSupportInfillPercentage,70
;   supportLayerInterval,1
;   supportHorizontalPartOffset,0.3
;   supportUpperSeparationLayers,1
;   supportLowerSeparationLayers,1
;   supportType,0
;   supportGridSpacing,4
;   maxOverhangAngle,45
;   supportAngles,0
;   temperatureName,Primary Extruder,Hot Bed
;   temperatureNumber,0,1
;   temperatureSetpointCount,1,1
;   temperatureSetpointLayers,1,1
;   temperatureSetpointTemperatures,200,60
;   temperatureStabilizeAtStartup,1,0
;   temperatureHeatedBed,0,1
;   temperatureRelayBetweenLayers,0,0
;   temperatureRelayBetweenLoops,0,0
;   fanLayers,1,2
;   fanSpeeds,0,100
;   blipFanToFullPower,0
;   adjustSpeedForCooling,1
;   minSpeedLayerTime,15
;   minCoolingSpeedSlowdown,20
;   increaseFanForCooling,0
;   minFanLayerTime,45
;   maxCoolingFanSpeed,100
;   increaseFanForBridging,0
;   bridgingFanSpeed,100
;   use5D,1
;   relativeEdistances,0
;   allowEaxisZeroing,1
;   independentExtruderAxes,0
;   includeM10123,0
;   stickySupport,1
;   applyToolheadOffsets,0
;   gcodeXoffset,0
;   gcodeYoffset,0
;   gcodeZoffset,0
;   overrideMachineDefinition,0
;   machineTypeOverride,0
;   strokeXoverride,200
;   strokeYoverride,200
;   strokeZoverride,200
;   originOffsetXoverride,0
;   originOffsetYoverride,0
;   originOffsetZoverride,0
;   homeXdirOverride,-1
;   homeYdirOverride,-1
;   homeZdirOverride,-1
;   flipXoverride,1
;   flipYoverride,-1
;   flipZoverride,1
;   toolheadOffsets,0,0|0,0|0,0|0,0|0,0|0,0
;   overrideFirmwareConfiguration,0
;   firmwareTypeOverride,RepRap (Marlin/Repetier/Sprinter)
;   GPXconfigOverride,r2
;   baudRateOverride,115200
;   overridePrinterModels,0
;   printerModelsOverride
;   startingGcode,G28 ; home all axes,G1 X0 Y200 Z0.2 F3000 ; get ready to prime,G92 E0 ; reset extrusion distance,G1 X150 E20 F600 ; prime nozzle
;   layerChangeGcode,
;   retractionGcode,
;   toolChangeGcode,
;   endingGcode,M104 S0 ; turn off extruder,M140 S0 ; turn off bed,G28 X Y ; home X & Y,M84 ; disable motors
;   exportFileFormat,gcode
;   celebration,0
;   celebrationSong,Random Song
;   postProcessing,
;   defaultSpeed,4600
;   outlineUnderspeed,0.5
;   solidInfillUnderspeed,0.8
;   supportUnderspeed,0.8
;   rapidXYspeed,4800
;   rapidZspeed,1000
;   minBridgingArea,50
;   bridgingExtraInflation,0
;   bridgingExtrusionMultiplier,1
;   bridgingSpeedMultiplier,1
;   useFixedBridgingAngle,0
;   fixedBridgingAngle,0
;   applyBridgingToPerimeters,0
;   filamentDiameters,1.75|1.75|1.75|1.75|1.75|1.75
;   filamentPricesPerKg,46|46|46|46|46|46
;   filamentDensities,1.25|1.25|1.25|1.25|1.25|1.25
;   useMinPrintHeight,0
;   minPrintHeight,0
;   useMaxPrintHeight,0
;   maxPrintHeight,0
;   useDiaphragm,0
;   diaphragmLayerInterval,20
;   robustSlicing,1
;   mergeAllIntoSolid,0
;   onlyRetractWhenCrossingOutline,1
;   retractBetweenLayers,1
;   useRetractionMinTravel,0
;   retractionMinTravel,3
;   retractWhileWiping,0
;   onlyWipeOutlines,1
;   avoidCrossingOutline,0
;   maxMovementDetourFactor,3
;   toolChangeRetractionDistance,12
;   toolChangeExtraRestartDistance,-0.5
;   toolChangeRetractionSpeed,600
;   externalThinWallType,1
;   internalThinWallType,1
;   thinWallAllowedOverlapPercentage,10
;   singleExtrusionMinLength,1
;   singleExtrusionMinPrintingWidthPercentage,50
;   singleExtrusionMaxPrintingWidthPercentage,200
;   singleExtrusionEndpointExtension,0.2
;   horizontalSizeCompensation,0
G90
M82
M106 S0
M140 S60
M104 S200 T0
M109 S200 T0
G28 ; home all axes
G1 X0 Y200 Z0.2 F3000 ; get ready to prime
G92 E0 ; reset extrusion distance
G1 X150 E20 F600 ; prime nozzle
G92 E0
G1 E-1.0000 F1800
G1 Z0.270 F1000
; process Process2
; layer 1, Z = 0.270
T0
; tool H0.300 W0.480
; inner perimeter
G1 X109.720 Y100.720 F4800
G1 E0.0000 F540
G92 E0
G1 X128.280 Y100.720 E1.0000 F1725
G1 X128.280 Y119.280 E2.0001
G1 X109.720 Y119.280 E3.0001
G1 X109.720 Y100.720 E4.0002
; outer perimeter
G1 X109.240 Y100.240 F4800
G92 E0
G1 X128.760 Y100.240 E1.0518 F1150
G1 X128.760 Y119.760 E2.1035
G1 X109.240 Y119.760 E3.1553
G1 X109.240 Y100.240 E4.2071
; solid layer
G1 X127.777 Y101.128 F4800
G92 E0
G1 X127.872 Y101.223 E0.0072 F1840
G1 X127.872 Y101.901 E0.0438
G1 X127.099 Y101.128 E0.1027
G1 X126.420 Y101.128 E0.1393
G1 X127.872 Y102.580 E0.2500
G1 X127.872 Y103.259 E0.2865
G1 X125.741 Y101.128 E0.4489
G1 X125.062 Y101.128 E0.4855
G1 X127.872 Y103.938 E0.6996
G1 X127.872 Y104.617 E0.7362
G1 X124.383 Y101.128 E1.0020
G1 X123.704 Y101.128 E1.0386
G1 X127.872 Y105.296 E1.3562
G1 X127.872 Y105.974 E1.3927
G1 X123.026 Y101.128 E1.7620
G1 X122.347 Y101.128 E1.7986
G1 X127.872 Y106.653 E2.2196
G1 X127.872 Y107.332 E2.2562
G1 X121.668 Y101.128 E2.7289
G1 X120.989 Y101.128 E2.7655
G1 X127.872 Y108.011 E3.2900
G1 X127.872 Y108.690 E3.3266
G1 X120.310 Y101.128 E3.9028
G1 X119.632 Y101.128 E3.9393
G1 X127.872 Y109.368 E4.5673
G1 X127.872 Y110.047 E4.6038
G1 X118.953 Y101.128 E5.2835
G1 X118.274 Y101.128 E5.3201
G1 X127.872 Y110.726 E6.0514
G1 X127.872 Y111.405 E6.0880
G1 X117.595 Y101.128 E6.8711
G1 X116.916 Y101.128 E6.9077
G1 X127.872 Y112.084 E7.7425
G1 X127.872 Y112.763 E7.7791
G1 X116.237 Y101.128 E8.6656
G1 X115.559 Y101.128 E8.7022
G1 X127.872 Y113.441 E9.6405
G1 X127.872 Y114.120 E9.6771
G1 X114.880 Y101.128 E10.6671
G1 X114.201 Y101.128 E10.7037
G1 X127.872 Y114.799 E11.7454
G1 X127.872 Y115.478 E11.7820
G1 X113.522 Y101.128 E12.8754
G1 X112.843 Y101.128 E12.9120
G1 X127.872 Y116.157 E14.0572
G1 X127.872 Y116.836 E14.0938
G1 X112.164 Y101.128 E15.2907
G1 X111.486 Y101.128 E15.3272
G1 X127.872 Y117.514 E16.5759
G1 X127.872 Y118.193 E16.6125
G1 X110.807 Y101.128 E17.9128
G1 X110.128 Y101.128 E17.9494
G1 X127.872 Y118.872 E19.3015
G1 X127.193 Y118.872 E19.3381
G1 X110.128 Y101.807 E20.6384
G1 X110.128 Y102.486 E20.6750
G1 X126.514 Y118.872 E21.9236
G1 X125.836 Y118.872 E21.9602
G1 X110.128 Y103.164 E23.1571
G1 X110.128 Y103.843 E23.1937
G1 X125.157 Y118.872 E24.3389
G1 X124.478 Y118.872 E24.3755
G1 X110.128 Y104.522 E25.4689
G1 X110.128 Y105.201 E25.5055
G1 X123.799 Y118.872 E26.5472
G1 X123.120 Y118.872 E26.5838
G1 X110.128 Y105.880 E27.5738
G1 X110.128 Y106.559 E27.6104
G1 X122.441 Y118.872 E28.5487
G1 X121.763 Y118.872 E28.5853
G1 X110.128 Y107.237 E29.4718
G1 X110.128 Y107.916 E29.5084
G1 X121.084 Y118.872 E30.3432
G1 X120.405 Y118.872 E30.3798
G1 X110.128 Y108.595 E31.1629
G1 X110.128 Y109.274 E31.1995
G1 X119.726 Y118.872 E31.9308
G1 X119.047 Y118.872 E31.9674
G1 X110.128 Y109.953 E32.6471
G1 X110.128 Y110.631 E32.6836
G1 X118.369 Y118.872 E33.3116
G1 X117.690 Y118.872 E33.3481
G1 X110.128 Y111.310 E33.9243
G1 X110.128 Y111.989 E33.9609
G1 X117.011 Y118.872 E34.4854
G1 X116.332 Y118.872 E34.5220
G1 X110.128 Y112.668 E34.9947
G1 X110.128 Y113.347 E35.0313
G1 X115.653 Y118.872 E35.4523
G1 X114.974 Y118.872 E35.4889
G1 X110.128 Y114.026 E35.8582
G1 X110.128 Y114.704 E35.8948
G1 X114.296 Y118.872 E36.2123
G1 X113.617 Y118.872 E36.2489
G1 X110.128 Y115.383 E36.5147
G1 X110.128 Y116.062 E36.5513
G1 X112.938 Y118.872 E36.7654
G1 X112.259 Y118.872 E36.8020
G1 X110.128 Y116.741 E36.9644
G1 X110.128 Y117.420 E37.0010
G1 X111.580 Y118.872 E37.1116
G1 X110.901 Y118.872 E37.1482
G1 X110.128 Y118.099 E37.2072
G1 X110.128 Y118.777 E37.2437
G1 X110.223 Y118.872 E37.2509
G92 E0
G1 E-1.0000 F1800
; layer 2, Z = 0.570
M106 S255
; inner perimeter
G1 X109.720 Y119.280 F4800
G1 Z0.570 F1000
G1 E0.0000 F1800
G92 E0
G1 X109.720 Y100.720 E1.0000 F3358
G1 X128.280 Y100.720 E2.0001
G1 X128.280 Y119.280 E3.0001
G1 X109.720 Y119.280 E4.0002
; outer perimeter
G1 X109.240 Y119.760 F4800
G92 E0
G1 X109.240 Y100.240 E1.0518 F2239
G1 X128.760 Y100.240 E2.1035
G1 X128.760 Y119.760 E3.1553
G1 X109.240 Y119.760 E4.2071
; solid layer
G1 X110.128 Y101.223 F4800
G92 E0
G1 X110.223 Y101.128 E0.0072 F3582
G1 X110.901 Y101.128 E0.0438
G1 X110.128 Y101.901 E0.1027
G1 X110.128 Y102.580 E0.1393
G1 X111.580 Y101.128 E0.2500
G1 X112.259 Y101.128 E0.2865
G1 X110.128 Y103.259 E0.4489
G1 X110.128 Y103.938 E0.4855
G1 X112.938 Y101.128 E0.6996
G1 X113.617 Y101.128 E0.7362
G1 X110.128 Y104.617 E1.0020
G1 X110.128 Y105.296 E1.0386
G1 X114.296 Y101.128 E1.3562
G1 X114.974 Y101.128 E1.3928
G1 X110.128 Y105.974 E1.7621
G1 X110.128 Y106.653 E1.7986
G1 X115.653 Y101.128 E2.2197
G1 X116.332 Y101.128 E2.2562
G1 X110.128 Y107.332 E2.7290
G1 X110.128 Y108.011 E2.7656
G1 X117.011 Y101.128 E3.2900
G1 X117.690 Y101.128 E3.3266
G1 X110.128 Y108.690 E3.9028
G1 X110.128 Y109.369 E3.9394
G1 X118.369 Y101.128 E4.5673
G1 X119.047 Y101.128 E4.6039
G1 X110.128 Y110.047 E5.2835
G1 X110.128 Y110.726 E5.3201
G1 X119.726 Y101.128 E6.0515
G1 X120.405 Y101.128 E6.0881
G1 X110.128 Y111.405 E6.8712
G1 X110.128 Y112.084 E6.9077
G1 X121.084 Y101.128 E7.7426
G1 X121.763 Y101.128 E7.7792
G1 X110.128 Y112.763 E8.6657
G1 X110.128 Y113.441 E8.7023
G1 X122.441 Y101.128 E9.6406
G1 X123.120 Y101.128 E9.6771
G1 X110.128 Y114.120 E10.6672
G1 X110.128 Y114.799 E10.7037
G1 X123.799 Y101.128 E11.7455
G1 X124.478 Y101.128 E11.7820
G1 X110.128 Y115.478 E12.8755
G1 X110.128 Y116.157 E12.9121
G1 X125.157 Y101.128 E14.0573
G1 X125.836 Y101.128 E14.0938
G1 X110.128 Y116.836 E15.2908
G1 X110.128 Y117.514 E15.3273
G1 X126.514 Y101.128 E16.5760
G1 X127.193 Y101.128 E16.6125
G1 X110.128 Y118.193 E17.9129
G1 X110.128 Y118.872 E17.9495
G1 X127.872 Y101.128 E19.3016
G1 X127.872 Y101.807 E19.3381
G1 X110.807 Y118.872 E20.6385
G1 X111.486 Y118.872 E20.6751
G1 X127.872 Y102.486 E21.9237
G1 X127.872 Y103.164 E21.9603
G1 X112.164 Y118.872 E23.1572
G1 X112.843 Y118.872 E23.1938
G1 X127.872 Y103.843 E24.3390
G1 X127.872 Y104.522 E24.3755
G1 X113.522 Y118.872 E25.4690
G1 X114.201 Y118.872 E25.5056
G1 X127.872 Y105.201 E26.5473
G1 X127.872 Y105.880 E26.5839
G1 X114.880 Y118.872 E27.5739
G1 X115.559 Y118.872 E27.6105
G1 X127.872 Y106.559 E28.5487
G1 X127.872 Y107.237 E28.5853
G1 X116.237 Y118.872 E29.4719
G1 X116.916 Y118.872 E29.5084
G1 X127.872 Y107.916 E30.3433
G1 X127.872 Y108.595 E30.3798
G1 X117.595 Y118.872 E31.1629
G1 X118.274 Y118.872 E31.1995
G1 X127.872 Y109.274 E31.9309
G1 X127.872 Y109.953 E31.9675
G1 X118.953 Y118.872 E32.6471
G1 X119.632 Y118.872 E32.6837
G1 X127.872 Y110.632 E33.3116
G1 X127.872 Y111.310 E33.3482
G1 X120.310 Y118.872 E33.9244
G1 X120.989 Y118.872 E33.9610
G1 X127.872 Y111.989 E34.4854
G1 X127.872 Y112.668 E34.5220
G1 X121.668 Y118.872 E34.9947
G1 X122.347 Y118.872 E35.0313
G1 X127.872 Y113.347 E35.4523
G1 X127.872 Y114.026 E35.4889
G1 X123.026 Y118.872 E35.8582
G1 X123.704 Y118.872 E35.8948
G1 X127.872 Y114.704 E36.2123
G1 X127.872 Y115.383 E36.2489
G1 X124.383 Y118.872 E36.5148
G1 X125.062 Y118.872 E36.5513
G1 X127.872 Y116.062 E36.7654
G1 X127.872 Y116.741 E36.8020
G1 X125.741 Y118.872 E36.9644
G1 X126.420 Y118.872 E37.0010
G1 X127.872 Y117.420 E37.1116
G1 X127.872 Y118.099 E37.1482
G1 X127.099 Y118.872 E37.2072
G1 X127.777 Y118.872 E37.2437
G1 X127.872 Y118.777 E37.2509
G92 E0
G1 E-1.0000 F1800
; layer 3, Z = 0.870
; inner perimeter
G1 X128.280 Y119.280 F4800
G1 Z0.870 F1000
G1 E0.0000 F1800
G92 E0
G1 X109.720 Y119.280 E1.0000 F1051
G1 X109.720 Y100.720 E2.0001
G1 X128.280 Y100.720 E3.0001
G1 X128.280 Y119.280 E4.0002
; outer perimeter
G1 X128.760 Y119.760 F4800
G92 E0
G1 X109.240 Y119.760 E1.0518 F700
G1 X109.240 Y100.240 E2.1035
G1 X128.760 Y100.240 E3.1553
G1 X128.760 Y119.760 E4.2071
; infill
G1 X114.296 Y118.872 F4800
G92 E0
G1 X110.128 Y114.704 E0.3176 F1401
G1 X110.128 Y107.916 E0.6833
G1 X121.084 Y118.872 E1.5182
G1 X127.872 Y118.872 E1.8839
G1 X110.128 Y101.128 E3.2360
G1 X116.916 Y101.128 E3.6018
G1 X127.872 Y112.084 E4.4366
G1 X127.872 Y105.296 E4.8023
G1 X123.704 Y101.128 E5.1199
G92 E0
G1 E-1.0000 F1800
; layer 4, Z = 1.170
; inner perimeter
G1 X128.280 Y100.720 F4800
G1 Z1.170 F1000
G1 E0.0000 F1800
G92 E0
G1 X128.280 Y119.280 E1.0000 F1051
G1 X109.720 Y119.280 E2.0001
G1 X109.720 Y100.720 E3.0001
G1 X128.280 Y100.720 E4.0002
; outer perimeter
G1 X128.760 Y100.240 F4800
G92 E0
G1 X128.760 Y119.760 E1.0518 F700
G1 X109.240 Y119.760 E2.1035
G1 X109.240 Y100.240 E3.1553
G1 X128.760 Y100.240 E4.2071
; infill
G1 X127.872 Y114.704 F4800
G92 E0
G1 X123.704 Y118.872 E0.3176 F1401
G1 X116.916 Y118.872 E0.6833
G1 X127.872 Y107.916 E1.5181
G1 X127.872 Y101.128 E1.8839
G1 X110.128 Y118.872 E3.2360
G1 X110.128 Y112.084 E3.6018
G1 X121.084 Y101.128 E4.4366
G1 X114.296 Y101.128 E4.8023
G1 X110.128 Y105.296 E5.1199
G92 E0
G1 E-1.0000 F1800
; layer 5, Z = 1.470
; inner perimeter
G1 X109.720 Y100.720 F4800
G1 Z1.470 F1000
G1 E0.0000 F1800
G92 E0
G1 X128.280 Y100.720 E1.0000 F1051
G1 X128.280 Y119.280 E2.0001
G1 X109.720 Y119.280 E3.0001
G1 X109.720 Y100.720 E4.0002
; outer perimeter
G1 X109.240 Y100.240 F4800
G92 E0
G1 X128.760 Y100.240 E1.0518 F700
G1 X128.760 Y119.760 E2.1035
G1 X109.240 Y119.760 E3.1553
G1 X109.240 Y100.240 E4.2071
; infill
G1 X123.704 Y101.128 F4800
G92 E0
G1 X127.872 Y105.296 E0.3176 F1401
G1 X127.872 Y112.084 E0.6833
G1 X116.916 Y101.128 E1.5182
G1 X110.128 Y101.128 E1.8839
G1 X127.872 Y118.872 E3.2360
G1 X121.084 Y118.872 E3.6018
G1 X110.128 Y107.916 E4.4366
G1 X110.128 Y114.704 E4.8023
G1 X114.296 Y118.872 E5.1199
G92 E0
G1 E-1.0000 F1800
; layer 6, Z = 1.770
; inner perimeter
G1 X109.720 Y119.280 F4800
G1 Z1.770 F1000
G1 E0.0000 F1800
G92 E0
G1 X109.720 Y100.720 E1.0000 F1051
G1 X128.280 Y100.720 E2.0001
G1 X128.280 Y119.280 E3.0001
G1 X109.720 Y119.280 E4.0002
; outer perimeter
G1 X109.240 Y119.760 F4800
G92 E0
G1 X109.240 Y100.240 E1.0518 F700
G1 X128.760 Y100.240 E2.1035
G1 X128.760 Y119.760 E3.1553
G1 X109.240 Y119.760 E4.2071
; infill
G1 X110.128 Y105.296 F4800
G92 E0
G1 X114.296 Y101.128 E0.3176 F1401
G1 X121.084 Y101.128 E0.6833
G1 X110.128 Y112.084 E1.5182
G1 X110.128 Y118.872 E1.8839
G1 X127.872 Y101.128 E3.2360
G1 X127.872 Y107.916 E3.6018
G1 X116.916 Y118.872 E4.4366
G1 X123.704 Y118.872 E4.8023
G1 X127.872 Y114.704 E5.1199
G92 E0
G1 E-1.0000 F1800
