; G-Code generated by Simplify3D(R) Version 4.0.0
; Feb 2, 2020 at 6:42:28 PM
; Settings Summary
;   processName,Process1
;   applyToModels,xyzCalibration_cube
;   profileName,bar (modified)
;   profileVersion,2019-07-15 16:42:33
;   baseProfile,Default (modified)
;   printMaterial,PLA
;   printQuality,Medium
;   printExtruders,
;   extruderName,Primary Extruder
;   extruderToolheadNumber,0
;   extruderDiameter,0.4
;   extruderAutoWidth,0
;   extruderWidth,0.4
;   extrusionMultiplier,0.9
;   extruderUseRetract,1
;   extruderRetractionDistance,1
;   extruderExtraRestartDistance,0
;   extruderRetractionZLift,0
;   extruderRetractionSpeed,1800
;   extruderUseCoasting,0
;   extruderCoastingDistance,0.2
;   extruderUseWipe,0
;   extruderWipeDistance,5
;   primaryExtruder,0
;   layerHeight,0.3
;   topSolidLayers,3
;   bottomSolidLayers,3
;   perimeterOutlines,2
;   printPerimetersInsideOut,1
;   startPointOption,2
;   startPointOriginX,0
;   startPointOriginY,0
;   sequentialIslands,0
;   spiralVaseMode,0
;   firstLayerHeightPercentage,100
;   firstLayerWidthPercentage,100
;   firstLayerUnderspeed,0.5
;   useRaft,0
;   raftExtruder,0
;   raftTopLayers,3
;   raftBaseLayers,2
;   raftOffset,3
;   raftSeparationDistance,0.14
;   raftTopInfill,100
;   aboveRaftSpeedMultiplier,0.3
;   useSkirt,0
;   skirtExtruder,0
;   skirtLayers,1
;   skirtOutlines,2
;   skirtOffset,4
;   usePrimePillar,0
;   primePillarExtruder,999
;   primePillarWidth,12
;   primePillarLocation,7
;   primePillarSpeedMultiplier,1
;   useOozeShield,0
;   oozeShieldExtruder,999
;   oozeShieldOffset,2
;   oozeShieldOutlines,1
;   oozeShieldSidewallShape,1
;   oozeShieldSidewallAngle,30
;   oozeShieldSpeedMultiplier,1
;   infillExtruder,0
;   internalInfillPattern,Rectilinear
;   externalInfillPattern,Rectilinear
;   infillPercentage,20
;   outlineOverlapPercentage,15
;   infillExtrusionWidthPercentage,100
;   minInfillLength,5
;   infillLayerInterval,1
;   internalInfillAngles,45,-45
;   overlapInternalInfillAngles,0
;   externalInfillAngles,45,-45
;   generateSupport,0
;   supportExtruder,0
;   supportInfillPercentage,30
;   supportExtraInflation,0
;   supportBaseLayers,0
;   denseSupportExtruder,0
;   denseSupportLayers,0
;   denseSupportInfillPercentage,70
;   supportLayerInterval,1
;   supportHorizontalPartOffset,0.3
;   supportUpperSeparationLayers,1
;   supportLowerSeparationLayers,1
;   supportType,0
;   supportGridSpacing,4
;   maxOverhangAngle,45
;   supportAngles,0
;   temperatureName,Primary Extruder,Hot Bed
;   temperatureNumber,0,1
;   temperatureSetpointCount,1,1
;   temperatureSetpointLayers,1,1
;   temperatureSetpointTemperatures,210,60
;   temperatureStabilizeAtStartup,1,1
;   temperatureHeatedBed,0,1
;   temperatureRelayBetweenLayers,0,0
;   temperatureRelayBetweenLoops,0,0
;   fanLayers,1,2
;   fanSpeeds,0,100
;   blipFanToFullPower,0
;   adjustSpeedForCooling,1
;   minSpeedLayerTime,15
;   minCoolingSpeedSlowdown,20
;   increaseFanForCooling,0
;   minFanLayerTime,45
;   maxCoolingFanSpeed,100
;   increaseFanForBridging,0
;   bridgingFanSpeed,100
;   use5D,1
;   relativeEdistances,0
;   allowEaxisZeroing,1
;   independentExtruderAxes,0
;   includeM10123,0
;   stickySupport,1
;   applyToolheadOffsets,0
;   gcodeXoffset,0
;   gcodeYoffset,0
;   gcodeZoffset,0
;   overrideMachineDefinition,0
;   machineTypeOverride,0
;   strokeXoverride,200
;   strokeYoverride,200
;   strokeZoverride,200
;   originOffsetXoverride,0
;   originOffsetYoverride,0
;   originOffsetZoverride,0
;   homeXdirOverride,-1
;   homeYdirOverride,-1
;   homeZdirOverride,-1
;   flipXoverride,1
;   flipYoverride,-1
;   flipZoverride,1
;   toolheadOffsets,0,0|0,0|0,0|0,0|0,0|0,0
;   overrideFirmwareConfiguration,0
;   firmwareTypeOverride,RepRap (Marlin/Repetier/Sprinter)
;   GPXconfigOverride,r2
;   baudRateOverride,115200
;   overridePrinterModels,0
;   printerModelsOverride
;   startingGcode,G28 ; home all axes,G1 X0 Y20 Z0.2 F3000 ; get ready to prime,G92 E0 ; reset extrusion distance,G1 X150 E20 F600 ; prime nozzle
;   layerChangeGcode,
;   retractionGcode,
;   toolChangeGcode,
;   endingGcode,M104 S0 ; turn off extruder,M140 S0 ; turn off bed,M84 ; disable motors
;   exportFileFormat,gcode
;   celebration,0
;   celebrationSong,Random Song
;   postProcessing,
;   defaultSpeed,4200
;   outlineUnderspeed,0.5
;   solidInfillUnderspeed,0.8
;   supportUnderspeed,0.8
;   rapidXYspeed,4800
;   rapidZspeed,1000
;   minBridgingArea,50
;   bridgingExtraInflation,0
;   bridgingExtrusionMultiplier,1
;   bridgingSpeedMultiplier,1
;   useFixedBridgingAngle,0
;   fixedBridgingAngle,0
;   applyBridgingToPerimeters,0
;   filamentDiameters,1.75|1.75|1.75|1.75|1.75|1.75
;   filamentPricesPerKg,46|46|46|46|46|46
;   filamentDensities,1.25|1.25|1.25|1.25|1.25|1.25
;   useMinPrintHeight,0
;   minPrintHeight,0
;   useMaxPrintHeight,0
;   maxPrintHeight,0
;   useDiaphragm,0
;   diaphragmLayerInterval,20
;   robustSlicing,1
;   mergeAllIntoSolid,0
;   onlyRetractWhenCrossingOutline,1
;   retractBetweenLayers,1
;   useRetractionMinTravel,0
;   retractionMinTravel,3
;   retractWhileWiping,0
;   onlyWipeOutlines,1
;   avoidCrossingOutline,0
;   maxMovementDetourFactor,3
;   toolChangeRetractionDistance,12
;   toolChangeExtraRestartDistance,-0.5
;   toolChangeRetractionSpeed,600
;   externalThinWallType,1
;   internalThinWallType,1
;   thinWallAllowedOverlapPercentage,10
;   singleExtrusionMinLength,1
;   singleExtrusionMinPrintingWidthPercentage,50
;   singleExtrusionMaxPrintingWidthPercentage,200
;   singleExtrusionEndpointExtension,0.2
;   horizontalSizeCompensation,0
G90
M82
M106 S0
M140 S60
M190 S60
M104 S210 T0
M109 S210 T0
G28 ; home all axes
G1 X0 Y20 Z0.2 F3000 ; get ready to prime
G92 E0 ; reset extrusion distance
G1 X150 E20 F600 ; prime nozzle
G92 E0
G1 E-1.0000 F1800
G1 Z0.300 F1000
; process Process1
; layer 1, Z = 0.300
T0
; tool H0.300 W0.400
; inner perimeter
G1 X100.600 Y100.600 F4800
G1 E0.0000 F540
G92 E0
G1 X119.400 Y100.600 E0.8441 F1575
G1 X119.400 Y119.400 E1.6883
G1 X100.600 Y119.400 E2.5324
G1 X100.600 Y100.600 E3.3766
; outer perimeter
G1 X100.200 Y100.200 F4800
G92 E0
G1 X119.800 Y100.200 E0.8801 F1050
G1 X119.800 Y119.800 E1.7601
G1 X100.200 Y119.800 E2.6402
G1 X100.200 Y100.200 E3.5203
; solid layer
G1 X119.042 Y100.940 F4800
G92 E0
G1 X119.060 Y100.958 E0.0011 F1680
G1 X119.060 Y101.524 E0.0265
G1 X118.476 Y100.940 E0.0636
G1 X117.911 Y100.940 E0.0890
G1 X119.060 Y102.089 E0.1620
G1 X119.060 Y102.655 E0.1874
G1 X117.345 Y100.940 E0.2963
G1 X116.779 Y100.940 E0.3217
G1 X119.060 Y103.221 E0.4665
G1 X119.060 Y103.786 E0.4919
G1 X116.214 Y100.940 E0.6727
G1 X115.648 Y100.940 E0.6981
G1 X119.060 Y104.352 E0.9148
G1 X119.060 Y104.918 E0.9402
G1 X115.082 Y100.940 E1.1928
G1 X114.516 Y100.940 E1.2182
G1 X119.060 Y105.484 E1.5067
G1 X119.060 Y106.049 E1.5321
G1 X113.951 Y100.940 E1.8565
G1 X113.385 Y100.940 E1.8819
G1 X119.060 Y106.615 E2.2423
G1 X119.060 Y107.181 E2.2677
G1 X112.819 Y100.940 E2.6639
G1 X112.254 Y100.940 E2.6893
G1 X119.060 Y107.746 E3.1215
G1 X119.060 Y108.312 E3.1469
G1 X111.688 Y100.940 E3.6151
G1 X111.122 Y100.940 E3.6405
G1 X119.060 Y108.878 E4.1445
G1 X119.060 Y109.443 E4.1699
G1 X110.557 Y100.940 E4.7099
G1 X109.991 Y100.940 E4.7353
G1 X119.060 Y110.009 E5.3111
G1 X119.060 Y110.575 E5.3365
G1 X109.425 Y100.940 E5.9483
G1 X108.860 Y100.940 E5.9737
G1 X119.060 Y111.140 E6.6215
G1 X119.060 Y111.706 E6.6469
G1 X108.294 Y100.940 E7.3305
G1 X107.728 Y100.940 E7.3559
G1 X119.060 Y112.272 E8.0755
G1 X119.060 Y112.837 E8.1009
G1 X107.163 Y100.940 E8.8564
G1 X106.597 Y100.940 E8.8818
G1 X119.060 Y113.403 E9.6732
G1 X119.060 Y113.969 E9.6986
G1 X106.031 Y100.940 E10.5259
G1 X105.465 Y100.940 E10.5513
G1 X119.060 Y114.535 E11.4145
G1 X119.060 Y115.100 E11.4399
G1 X104.900 Y100.940 E12.3391
G1 X104.334 Y100.940 E12.3645
G1 X119.060 Y115.666 E13.2996
G1 X119.060 Y116.232 E13.3250
G1 X103.768 Y100.940 E14.2960
G1 X103.203 Y100.940 E14.3214
G1 X119.060 Y116.797 E15.3283
G1 X119.060 Y117.363 E15.3537
G1 X102.637 Y100.940 E16.3966
G1 X102.071 Y100.940 E16.4220
G1 X119.060 Y117.929 E17.5008
G1 X119.060 Y118.494 E17.5262
G1 X101.506 Y100.940 E18.6409
G1 X100.940 Y100.940 E18.6663
G1 X119.060 Y119.060 E19.8169
G1 X118.494 Y119.060 E19.8423
G1 X100.940 Y101.506 E20.9570
G1 X100.940 Y102.071 E20.9824
G1 X117.929 Y119.060 E22.0612
G1 X117.363 Y119.060 E22.0866
G1 X100.940 Y102.637 E23.1294
G1 X100.940 Y103.203 E23.1548
G1 X116.797 Y119.060 E24.1617
G1 X116.232 Y119.060 E24.1871
G1 X100.940 Y103.768 E25.1582
G1 X100.940 Y104.334 E25.1836
G1 X115.666 Y119.060 E26.1187
G1 X115.100 Y119.060 E26.1441
G1 X100.940 Y104.900 E27.0432
G1 X100.940 Y105.465 E27.0686
G1 X114.535 Y119.060 E27.9319
G1 X113.969 Y119.060 E27.9573
G1 X100.940 Y106.031 E28.7846
G1 X100.940 Y106.597 E28.8100
G1 X113.403 Y119.060 E29.6014
G1 X112.837 Y119.060 E29.6268
G1 X100.940 Y107.163 E30.3823
G1 X100.940 Y107.728 E30.4077
G1 X112.272 Y119.060 E31.1273
G1 X111.706 Y119.060 E31.1527
G1 X100.940 Y108.294 E31.8363
G1 X100.940 Y108.860 E31.8617
G1 X111.140 Y119.060 E32.5094
G1 X110.575 Y119.060 E32.5348
G1 X100.940 Y109.425 E33.1466
G1 X100.940 Y109.991 E33.1720
G1 X110.009 Y119.060 E33.7479
G1 X109.443 Y119.060 E33.7733
G1 X100.940 Y110.557 E34.3133
G1 X100.940 Y111.122 E34.3387
G1 X108.878 Y119.060 E34.8427
G1 X108.312 Y119.060 E34.8681
G1 X100.940 Y111.688 E35.3363
G1 X100.940 Y112.254 E35.3617
G1 X107.746 Y119.060 E35.7939
G1 X107.181 Y119.060 E35.8193
G1 X100.940 Y112.819 E36.2155
G1 X100.940 Y113.385 E36.2409
G1 X106.615 Y119.060 E36.6013
G1 X106.049 Y119.060 E36.6267
G1 X100.940 Y113.951 E36.9511
G1 X100.940 Y114.516 E36.9765
G1 X105.484 Y119.060 E37.2650
G1 X104.918 Y119.060 E37.2904
G1 X100.940 Y115.082 E37.5430
G1 X100.940 Y115.648 E37.5684
G1 X104.352 Y119.060 E37.7851
G1 X103.787 Y119.060 E37.8105
G1 X100.940 Y116.213 E37.9913
G1 X100.940 Y116.779 E38.0167
G1 X103.221 Y119.060 E38.1615
G1 X102.655 Y119.060 E38.1869
G1 X100.940 Y117.345 E38.2958
G1 X100.940 Y117.911 E38.3212
G1 X102.089 Y119.060 E38.3942
G1 X101.524 Y119.060 E38.4196
G1 X100.940 Y118.476 E38.4567
G1 X100.940 Y119.042 E38.4821
G1 X100.958 Y119.060 E38.4832
G92 E0
G1 E-1.0000 F1800
; layer 2, Z = 0.600
M106 S255
; inner perimeter
G1 X100.600 Y119.400 F4800
G1 Z0.600 F1000
G1 E0.0000 F1800
G92 E0
G1 X100.600 Y100.600 E0.8441 F3150
G1 X119.400 Y100.600 E1.6883
G1 X119.400 Y119.400 E2.5324
G1 X100.600 Y119.400 E3.3766
; outer perimeter
G1 X100.200 Y119.800 F4800
G92 E0
G1 X100.200 Y100.200 E0.8801 F2100
G1 X119.800 Y100.200 E1.7601
G1 X119.800 Y119.800 E2.6402
G1 X100.200 Y119.800 E3.5203
; solid layer
G1 X100.940 Y100.958 F4800
G92 E0
G1 X100.958 Y100.940 E0.0011 F3360
G1 X101.524 Y100.940 E0.0265
G1 X100.940 Y101.524 E0.0636
G1 X100.940 Y102.089 E0.0890
G1 X102.089 Y100.940 E0.1620
G1 X102.655 Y100.940 E0.1874
G1 X100.940 Y102.655 E0.2963
G1 X100.940 Y103.221 E0.3217
G1 X103.221 Y100.940 E0.4666
G1 X103.787 Y100.940 E0.4920
G1 X100.940 Y103.787 E0.6727
G1 X100.940 Y104.352 E0.6981
G1 X104.352 Y100.940 E0.9148
G1 X104.918 Y100.940 E0.9402
G1 X100.940 Y104.918 E1.1928
G1 X100.940 Y105.484 E1.2182
G1 X105.484 Y100.940 E1.5067
G1 X106.049 Y100.940 E1.5321
G1 X100.940 Y106.049 E1.8565
G1 X100.940 Y106.615 E1.8819
G1 X106.615 Y100.940 E2.2423
G1 X107.181 Y100.940 E2.2677
G1 X100.940 Y107.181 E2.6640
G1 X100.940 Y107.746 E2.6894
G1 X107.746 Y100.940 E3.1216
G1 X108.312 Y100.940 E3.1470
G1 X100.940 Y108.312 E3.6151
G1 X100.940 Y108.878 E3.6405
G1 X108.878 Y100.940 E4.1445
G1 X109.443 Y100.940 E4.1699
G1 X100.940 Y109.443 E4.7099
G1 X100.940 Y110.009 E4.7353
G1 X110.009 Y100.940 E5.3112
G1 X110.575 Y100.940 E5.3366
G1 X100.940 Y110.575 E5.9484
G1 X100.940 Y111.140 E5.9738
G1 X111.140 Y100.940 E6.6215
G1 X111.706 Y100.940 E6.6469
G1 X100.940 Y111.706 E7.3306
G1 X100.940 Y112.272 E7.3560
G1 X112.272 Y100.940 E8.0755
G1 X112.837 Y100.940 E8.1009
G1 X100.940 Y112.837 E8.8564
G1 X100.940 Y113.403 E8.8818
G1 X113.403 Y100.940 E9.6732
G1 X113.969 Y100.940 E9.6986
G1 X100.940 Y113.969 E10.5260
G1 X100.940 Y114.535 E10.5514
G1 X114.535 Y100.940 E11.4146
G1 X115.100 Y100.940 E11.4400
G1 X100.940 Y115.100 E12.3392
G1 X100.940 Y115.666 E12.3646
G1 X115.666 Y100.940 E13.2997
G1 X116.232 Y100.940 E13.3251
G1 X100.940 Y116.232 E14.2961
G1 X100.940 Y116.797 E14.3215
G1 X116.797 Y100.940 E15.3284
G1 X117.363 Y100.940 E15.3538
G1 X100.940 Y117.363 E16.3967
G1 X100.940 Y117.929 E16.4221
G1 X117.929 Y100.940 E17.5009
G1 X118.494 Y100.940 E17.5263
G1 X100.940 Y118.494 E18.6410
G1 X100.940 Y119.060 E18.6664
G1 X119.060 Y100.940 E19.8170
G1 X119.060 Y101.506 E19.8424
G1 X101.506 Y119.060 E20.9571
G1 X102.071 Y119.060 E20.9825
G1 X119.060 Y102.071 E22.0612
G1 X119.060 Y102.637 E22.0866
G1 X102.637 Y119.060 E23.1295
G1 X103.203 Y119.060 E23.1549
G1 X119.060 Y103.203 E24.1618
G1 X119.060 Y103.768 E24.1872
G1 X103.768 Y119.060 E25.1582
G1 X104.334 Y119.060 E25.1836
G1 X119.060 Y104.334 E26.1187
G1 X119.060 Y104.900 E26.1441
G1 X104.900 Y119.060 E27.0433
G1 X105.466 Y119.060 E27.0687
G1 X119.060 Y105.466 E27.9319
G1 X119.060 Y106.031 E27.9573
G1 X106.031 Y119.060 E28.7847
G1 X106.597 Y119.060 E28.8101
G1 X119.060 Y106.597 E29.6015
G1 X119.060 Y107.163 E29.6269
G1 X107.163 Y119.060 E30.3824
G1 X107.728 Y119.060 E30.4078
G1 X119.060 Y107.728 E31.1273
G1 X119.060 Y108.294 E31.1527
G1 X108.294 Y119.060 E31.8364
G1 X108.860 Y119.060 E31.8618
G1 X119.060 Y108.860 E32.5095
G1 X119.060 Y109.425 E32.5349
G1 X109.425 Y119.060 E33.1467
G1 X109.991 Y119.060 E33.1721
G1 X119.060 Y109.991 E33.7480
G1 X119.060 Y110.557 E33.7734
G1 X110.557 Y119.060 E34.3133
G1 X111.122 Y119.060 E34.3387
G1 X119.060 Y111.122 E34.8428
G1 X119.060 Y111.688 E34.8682
G1 X111.688 Y119.060 E35.3363
G1 X112.254 Y119.060 E35.3617
G1 X119.060 Y112.254 E35.7939
G1 X119.060 Y112.819 E35.8193
G1 X112.819 Y119.060 E36.2156
G1 X113.385 Y119.060 E36.2410
G1 X119.060 Y113.385 E36.6013
G1 X119.060 Y113.951 E36.6267
G1 X113.951 Y119.060 E36.9512
G1 X114.516 Y119.060 E36.9766
G1 X119.060 Y114.516 E37.2651
G1 X119.060 Y115.082 E37.2905
G1 X115.082 Y119.060 E37.5431
G1 X115.648 Y119.060 E37.5685
G1 X119.060 Y115.648 E37.7851
G1 X119.060 Y116.214 E37.8105
G1 X116.214 Y119.060 E37.9913
G1 X116.779 Y119.060 E38.0167
G1 X119.060 Y116.779 E38.1615
G1 X119.060 Y117.345 E38.1869
G1 X117.345 Y119.060 E38.2958
G1 X117.911 Y119.060 E38.3212
G1 X119.060 Y117.911 E38.3942
G1 X119.060 Y118.476 E38.4196
G1 X118.476 Y119.060 E38.4567
G1 X119.042 Y119.060 E38.4821
G1 X119.060 Y119.042 E38.4832
G92 E0
G1 E-1.0000 F1800
; layer 3, Z = 0.900
; inner perimeter
G1 X119.400 Y119.400 F4800
G1 Z0.900 F1000
G1 E0.0000 F1800
G92 E0
G1 X100.600 Y119.400 E0.8441 F3150
G1 X100.600 Y100.600 E1.6883
G1 X119.400 Y100.600 E2.5324
G1 X119.400 Y119.400 E3.3766
; outer perimeter
G1 X119.800 Y119.800 F4800
G92 E0
G1 X100.200 Y119.800 E0.8801 F2100
G1 X100.200 Y100.200 E1.7601
G1 X119.800 Y100.200 E2.6402
G1 X119.800 Y119.800 E3.5203
; solid layer
G1 X100.958 Y119.060 F4800
G92 E0
G1 X100.940 Y119.042 E0.0011 F3360
G1 X100.940 Y118.476 E0.0265
G1 X101.524 Y119.060 E0.0636
G1 X102.089 Y119.060 E0.0890
G1 X100.940 Y117.911 E0.1620
G1 X100.940 Y117.345 E0.1874
G1 X102.655 Y119.060 E0.2963
G1 X103.221 Y119.060 E0.3217
G1 X100.940 Y116.779 E0.4665
G1 X100.940 Y116.213 E0.4919
G1 X103.787 Y119.060 E0.6727
G1 X104.352 Y119.060 E0.6981
G1 X100.940 Y115.648 E0.9148
G1 X100.940 Y115.082 E0.9402
G1 X104.918 Y119.060 E1.1928
G1 X105.484 Y119.060 E1.2182
G1 X100.940 Y114.516 E1.5067
G1 X100.940 Y113.951 E1.5321
G1 X106.049 Y119.060 E1.8565
G1 X106.615 Y119.060 E1.8819
G1 X100.940 Y113.385 E2.2423
G1 X100.940 Y112.819 E2.2677
G1 X107.181 Y119.060 E2.6640
G1 X107.746 Y119.060 E2.6894
G1 X100.940 Y112.254 E3.1216
G1 X100.940 Y111.688 E3.1470
G1 X108.312 Y119.060 E3.6151
G1 X108.878 Y119.060 E3.6405
G1 X100.940 Y111.122 E4.1445
G1 X100.940 Y110.557 E4.1699
G1 X109.443 Y119.060 E4.7099
G1 X110.009 Y119.060 E4.7353
G1 X100.940 Y109.991 E5.3112
G1 X100.940 Y109.425 E5.3366
G1 X110.575 Y119.060 E5.9484
G1 X111.140 Y119.060 E5.9738
G1 X100.940 Y108.860 E6.6215
