; G-Code generated by Simplify3D(R) Version 4.0.0
; Oct 20, 2020 at 8:21:59 PM
; Settings Summary
;   processName,Process1
;   applyToModels,xyzCalibration_cube
;   profileName,new profile (modified)
;   profileVersion,2020-09-07 14:01:24
;   baseProfile,Default (modified)
;   printMaterial,PLA
;   printQuality,Medium
;   printExtruders,
;   extruderName,Primary Extruder
;   extruderToolheadNumber,0
;   extruderDiameter,0.4
;   extruderAutoWidth,0
;   extruderWidth,0.4
;   extrusionMultiplier,0.9
;   extruderUseRetract,1
;   extruderRetractionDistance,1
;   extruderExtraRestartDistance,0
;   extruderRetractionZLift,0
;   extruderRetractionSpeed,1800
;   extruderUseCoasting,0
;   extruderCoastingDistance,0.2
;   extruderUseWipe,0
;   extruderWipeDistance,5
;   primaryExtruder,0
;   layerHeight,0.3
;   topSolidLayers,3
;   bottomSolidLayers,3
;   perimeterOutlines,2
;   printPerimetersInsideOut,1
;   startPointOption,2
;   startPointOriginX,0
;   startPointOriginY,0
;   sequentialIslands,0
;   spiralVaseMode,0
;   firstLayerHeightPercentage,100
;   firstLayerWidthPercentage,100
;   firstLayerUnderspeed,0.5
;   useRaft,0
;   raftExtruder,0
;   raftTopLayers,3
;   raftBaseLayers,2
;   raftOffset,3
;   raftSeparationDistance,0.14
;   raftTopInfill,100
;   aboveRaftSpeedMultiplier,0.3
;   useSkirt,0
;   skirtExtruder,0
;   skirtLayers,1
;   skirtOutlines,2
;   skirtOffset,4
;   usePrimePillar,0
;   primePillarExtruder,999
;   primePillarWidth,12
;   primePillarLocation,7
;   primePillarSpeedMultiplier,1
;   useOozeShield,0
;   oozeShieldExtruder,999
;   oozeShieldOffset,2
;   oozeShieldOutlines,1
;   oozeShieldSidewallShape,1
;   oozeShieldSidewallAngle,30
;   oozeShieldSpeedMultiplier,1
;   infillExtruder,0
;   internalInfillPattern,Rectilinear
;   externalInfillPattern,Rectilinear
;   infillPercentage,15
;   outlineOverlapPercentage,15
;   infillExtrusionWidthPercentage,100
;   minInfillLength,5
;   infillLayerInterval,1
;   internalInfillAngles,45,-45
;   overlapInternalInfillAngles,0
;   externalInfillAngles,45,-45
;   generateSupport,0
;   supportExtruder,0
;   supportInfillPercentage,30
;   supportExtraInflation,0
;   supportBaseLayers,0
;   denseSupportExtruder,0
;   denseSupportLayers,0
;   denseSupportInfillPercentage,70
;   supportLayerInterval,1
;   supportHorizontalPartOffset,0.3
;   supportUpperSeparationLayers,1
;   supportLowerSeparationLayers,1
;   supportType,1
;   supportGridSpacing,4
;   maxOverhangAngle,45
;   supportAngles,0
;   temperatureName,Primary Extruder,Hot Bed
;   temperatureNumber,0,1
;   temperatureSetpointCount,1,1
;   temperatureSetpointLayers,1,1
;   temperatureSetpointTemperatures,210,60
;   temperatureStabilizeAtStartup,1,0
;   temperatureHeatedBed,0,1
;   temperatureRelayBetweenLayers,0,0
;   temperatureRelayBetweenLoops,0,0
;   fanLayers,1,2
;   fanSpeeds,0,100
;   blipFanToFullPower,0
;   adjustSpeedForCooling,1
;   minSpeedLayerTime,15
;   minCoolingSpeedSlowdown,20
;   increaseFanForCooling,0
;   minFanLayerTime,45
;   maxCoolingFanSpeed,100
;   increaseFanForBridging,0
;   bridgingFanSpeed,100
;   use5D,1
;   relativeEdistances,0
;   allowEaxisZeroing,1
;   independentExtruderAxes,0
;   includeM10123,0
;   stickySupport,1
;   applyToolheadOffsets,0
;   gcodeXoffset,0
;   gcodeYoffset,0
;   gcodeZoffset,0
;   overrideMachineDefinition,0
;   machineTypeOverride,0
;   strokeXoverride,200
;   strokeYoverride,200
;   strokeZoverride,200
;   originOffsetXoverride,0
;   originOffsetYoverride,0
;   originOffsetZoverride,0
;   homeXdirOverride,-1
;   homeYdirOverride,-1
;   homeZdirOverride,-1
;   flipXoverride,1
;   flipYoverride,-1
;   flipZoverride,1
;   toolheadOffsets,0,0|0,0|0,0|0,0|0,0|0,0
;   overrideFirmwareConfiguration,0
;   firmwareTypeOverride,RepRap (Marlin/Repetier/Sprinter)
;   GPXconfigOverride,r2
;   baudRateOverride,115200
;   overridePrinterModels,0
;   printerModelsOverride
;   startingGcode,G28 ; home all axes,G1 X0 Y5 Z0.2 F3000 ; get ready to prime,G92 E0 ; reset extrusion distance,G1 Y150 E20 F600 ; prime nozzle
;   layerChangeGcode,
;   retractionGcode,
;   toolChangeGcode,
;   endingGcode,M104 S0 ; turn off extruder,M140 S0 ; turn off bedG1 X0 Y0; home,M84 ; disable motors,M107 ; fan off
;   exportFileFormat,gcode
;   celebration,0
;   celebrationSong,Random Song
;   postProcessing,
;   defaultSpeed,4600
;   outlineUnderspeed,0.5
;   solidInfillUnderspeed,0.8
;   supportUnderspeed,0.8
;   rapidXYspeed,4800
;   rapidZspeed,1000
;   minBridgingArea,50
;   bridgingExtraInflation,0
;   bridgingExtrusionMultiplier,1
;   bridgingSpeedMultiplier,1
;   useFixedBridgingAngle,0
;   fixedBridgingAngle,0
;   applyBridgingToPerimeters,0
;   filamentDiameters,1.75|1.75|1.75|1.75|1.75|1.75
;   filamentPricesPerKg,46|46|46|46|46|46
;   filamentDensities,1.25|1.25|1.25|1.25|1.25|1.25
;   useMinPrintHeight,0
;   minPrintHeight,0
;   useMaxPrintHeight,0
;   maxPrintHeight,0
;   useDiaphragm,0
;   diaphragmLayerInterval,20
;   robustSlicing,1
;   mergeAllIntoSolid,0
;   onlyRetractWhenCrossingOutline,1
;   retractBetweenLayers,1
;   useRetractionMinTravel,0
;   retractionMinTravel,3
;   retractWhileWiping,0
;   onlyWipeOutlines,1
;   avoidCrossingOutline,0
;   maxMovementDetourFactor,3
;   toolChangeRetractionDistance,12
;   toolChangeExtraRestartDistance,-0.5
;   toolChangeRetractionSpeed,600
;   externalThinWallType,1
;   internalThinWallType,1
;   thinWallAllowedOverlapPercentage,10
;   singleExtrusionMinLength,1
;   singleExtrusionMinPrintingWidthPercentage,50
;   singleExtrusionMaxPrintingWidthPercentage,200
;   singleExtrusionEndpointExtension,0.2
;   horizontalSizeCompensation,0
G90
M82
M106 S0
M140 S60
M104 S210 T0
M109 S210 T0
G28 ; home all axes
G1 X0 Y5 Z0.2 F3000 ; get ready to prime
G92 E0 ; reset extrusion distance
G1 Y150 E20 F600 ; prime nozzle
G92 E0
G1 E-1.0000 F1800
G1 Z0.300 F1000
; process Process1
; layer 1, Z = 0.300
T0
; tool H0.300 W0.400
; inner perimeter
G1 X90.600 Y90.600 F4800
G1 E0.0000 F540
G92 E0
G1 X109.400 Y90.600 E0.8441 F1725
G1 X109.400 Y109.400 E1.6883
G1 X90.600 Y109.400 E2.5324
G1 X90.600 Y90.600 E3.3766
; outer perimeter
G1 X90.200 Y90.200 F4800
G92 E0
G1 X109.800 Y90.200 E0.8801 F1150
G1 X109.800 Y109.800 E1.7601
G1 X90.200 Y109.800 E2.6402
G1 X90.200 Y90.200 E3.5203
; solid layer
G1 X109.042 Y90.940 F4800
G92 E0
G1 X109.060 Y90.958 E0.0011 F1840
G1 X109.060 Y91.524 E0.0265
G1 X108.476 Y90.940 E0.0636
G1 X107.911 Y90.940 E0.0890
G1 X109.060 Y92.089 E0.1620
G1 X109.060 Y92.655 E0.1874
G1 X107.345 Y90.940 E0.2963
G1 X106.779 Y90.940 E0.3217
G1 X109.060 Y93.221 E0.4665
G1 X109.060 Y93.786 E0.4919
G1 X106.214 Y90.940 E0.6727
G1 X105.648 Y90.940 E0.6981
G1 X109.060 Y94.352 E0.9148
G1 X109.060 Y94.918 E0.9402
G1 X105.082 Y90.940 E1.1928
G1 X104.516 Y90.940 E1.2182
G1 X109.060 Y95.484 E1.5067
G1 X109.060 Y96.049 E1.5321
G1 X103.951 Y90.940 E1.8565
G1 X103.385 Y90.940 E1.8819
G1 X109.060 Y96.615 E2.2423
G1 X109.060 Y97.181 E2.2677
G1 X102.819 Y90.940 E2.6639
G1 X102.254 Y90.940 E2.6893
G1 X109.060 Y97.746 E3.1215
G1 X109.060 Y98.312 E3.1469
G1 X101.688 Y90.940 E3.6151
G1 X101.122 Y90.940 E3.6405
G1 X109.060 Y98.878 E4.1445
G1 X109.060 Y99.443 E4.1699
G1 X100.557 Y90.940 E4.7099
G1 X99.991 Y90.940 E4.7353
G1 X109.060 Y100.009 E5.3111
G1 X109.060 Y100.575 E5.3365
G1 X99.425 Y90.940 E5.9483
G1 X98.860 Y90.940 E5.9737
G1 X109.060 Y101.140 E6.6215
G1 X109.060 Y101.706 E6.6469
G1 X98.294 Y90.940 E7.3305
G1 X97.728 Y90.940 E7.3559
G1 X109.060 Y102.272 E8.0755
G1 X109.060 Y102.837 E8.1009
G1 X97.163 Y90.940 E8.8564
G1 X96.597 Y90.940 E8.8818
G1 X109.060 Y103.403 E9.6732
G1 X109.060 Y103.969 E9.6986
G1 X96.031 Y90.940 E10.5259
G1 X95.465 Y90.940 E10.5513
G1 X109.060 Y104.535 E11.4145
G1 X109.060 Y105.100 E11.4399
G1 X94.900 Y90.940 E12.3391
G1 X94.334 Y90.940 E12.3645
G1 X109.060 Y105.666 E13.2996
G1 X109.060 Y106.232 E13.3250
G1 X93.768 Y90.940 E14.2960
G1 X93.203 Y90.940 E14.3214
G1 X109.060 Y106.797 E15.3283
G1 X109.060 Y107.363 E15.3537
G1 X92.637 Y90.940 E16.3966
G1 X92.071 Y90.940 E16.4220
G1 X109.060 Y107.929 E17.5008
G1 X109.060 Y108.494 E17.5262
G1 X91.506 Y90.940 E18.6409
G1 X90.940 Y90.940 E18.6663
G1 X109.060 Y109.060 E19.8169
G1 X108.494 Y109.060 E19.8423
G1 X90.940 Y91.506 E20.9570
G1 X90.940 Y92.071 E20.9824
G1 X107.929 Y109.060 E22.0612
G1 X107.363 Y109.060 E22.0866
G1 X90.940 Y92.637 E23.1294
G1 X90.940 Y93.203 E23.1548
G1 X106.797 Y109.060 E24.1617
G1 X106.232 Y109.060 E24.1871
G1 X90.940 Y93.768 E25.1582
G1 X90.940 Y94.334 E25.1836
G1 X105.666 Y109.060 E26.1187
G1 X105.100 Y109.060 E26.1441
G1 X90.940 Y94.900 E27.0432
G1 X90.940 Y95.465 E27.0686
G1 X104.535 Y109.060 E27.9319
G1 X103.969 Y109.060 E27.9573
G1 X90.940 Y96.031 E28.7846
G1 X90.940 Y96.597 E28.8100
G1 X103.403 Y109.060 E29.6014
G1 X102.837 Y109.060 E29.6268
G1 X90.940 Y97.163 E30.3823
G1 X90.940 Y97.728 E30.4077
G1 X102.272 Y109.060 E31.1273
G1 X101.706 Y109.060 E31.1527
G1 X90.940 Y98.294 E31.8363
G1 X90.940 Y98.860 E31.8617
G1 X101.140 Y109.060 E32.5094
G1 X100.575 Y109.060 E32.5348
G1 X90.940 Y99.425 E33.1466
G1 X90.940 Y99.991 E33.1720
G1 X100.009 Y109.060 E33.7479
G1 X99.443 Y109.060 E33.7733
G1 X90.940 Y100.557 E34.3133
G1 X90.940 Y101.122 E34.3387
G1 X98.878 Y109.060 E34.8427
G1 X98.312 Y109.060 E34.8681
G1 X90.940 Y101.688 E35.3363
G1 X90.940 Y102.254 E35.3617
G1 X97.746 Y109.060 E35.7939
G1 X97.181 Y109.060 E35.8193
G1 X90.940 Y102.819 E36.2155
G1 X90.940 Y103.385 E36.2409
G1 X96.615 Y109.060 E36.6013
G1 X96.049 Y109.060 E36.6267
G1 X90.940 Y103.951 E36.9511
G1 X90.940 Y104.516 E36.9765
G1 X95.484 Y109.060 E37.2650
G1 X94.918 Y109.060 E37.2904
G1 X90.940 Y105.082 E37.5430
G1 X90.940 Y105.648 E37.5684
G1 X94.352 Y109.060 E37.7851
G1 X93.787 Y109.060 E37.8105
G1 X90.940 Y106.213 E37.9913
G1 X90.940 Y106.779 E38.0167
G1 X93.221 Y109.060 E38.1615
G1 X92.655 Y109.060 E38.1869
G1 X90.940 Y107.345 E38.2958
G1 X90.940 Y107.911 E38.3212
G1 X92.089 Y109.060 E38.3942
G1 X91.524 Y109.060 E38.4196
G1 X90.940 Y108.476 E38.4567
G1 X90.940 Y109.042 E38.4821
G1 X90.958 Y109.060 E38.4832
G92 E0
G1 E-1.0000 F1800
; layer 2, Z = 0.600
M106 S255
; inner perimeter
G1 X90.600 Y109.400 F4800
G1 Z0.600 F1000
G1 E0.0000 F1800
G92 E0
G1 X90.600 Y90.600 E0.8441 F3450
G1 X109.400 Y90.600 E1.6883
G1 X109.400 Y109.400 E2.5324
G1 X90.600 Y109.400 E3.3766
; outer perimeter
G1 X90.200 Y109.800 F4800
G92 E0
G1 X90.200 Y90.200 E0.8801 F2300
G1 X109.800 Y90.200 E1.7601
G1 X109.800 Y109.800 E2.6402
G1 X90.200 Y109.800 E3.5203
; solid layer
G1 X90.940 Y90.958 F4800
G92 E0
G1 X90.958 Y90.940 E0.0011 F3680
G1 X91.524 Y90.940 E0.0265
G1 X90.940 Y91.524 E0.0636
G1 X90.940 Y92.089 E0.0890
G1 X92.089 Y90.940 E0.1620
G1 X92.655 Y90.940 E0.1874
G1 X90.940 Y92.655 E0.2963
G1 X90.940 Y93.221 E0.3217
G1 X93.221 Y90.940 E0.4666
G1 X93.787 Y90.940 E0.4920
G1 X90.940 Y93.787 E0.6727
G1 X90.940 Y94.352 E0.6981
G1 X94.352 Y90.940 E0.9148
G1 X94.918 Y90.940 E0.9402
G1 X90.940 Y94.918 E1.1928
G1 X90.940 Y95.484 E1.2182
G1 X95.484 Y90.940 E1.5067
G1 X96.049 Y90.940 E1.5321
G1 X90.940 Y96.049 E1.8565
G1 X90.940 Y96.615 E1.8819
G1 X96.615 Y90.940 E2.2423
G1 X97.181 Y90.940 E2.2677
G1 X90.940 Y97.181 E2.6640
G1 X90.940 Y97.746 E2.6894
G1 X97.746 Y90.940 E3.1216
G1 X98.312 Y90.940 E3.1470
G1 X90.940 Y98.312 E3.6151
G1 X90.940 Y98.878 E3.6405
G1 X98.878 Y90.940 E4.1445
G1 X99.443 Y90.940 E4.1699
G1 X90.940 Y99.443 E4.7099
G1 X90.940 Y100.009 E4.7353
G1 X100.009 Y90.940 E5.3112
G1 X100.575 Y90.940 E5.3366
G1 X90.940 Y100.575 E5.9484
G1 X90.940 Y101.140 E5.9738
G1 X101.140 Y90.940 E6.6215
G1 X101.706 Y90.940 E6.6469
G1 X90.940 Y101.706 E7.3306
G1 X90.940 Y102.272 E7.3560
G1 X102.272 Y90.940 E8.0755
G1 X102.837 Y90.940 E8.1009
G1 X90.940 Y102.837 E8.8564
G1 X90.940 Y103.403 E8.8818
G1 X103.403 Y90.940 E9.6732
G1 X103.969 Y90.940 E9.6986
G1 X90.940 Y103.969 E10.5260
G1 X90.940 Y104.535 E10.5514
G1 X104.535 Y90.940 E11.4146
G1 X105.100 Y90.940 E11.4400
G1 X90.940 Y105.100 E12.3392
G1 X90.940 Y105.666 E12.3646
G1 X105.666 Y90.940 E13.2997
G1 X106.232 Y90.940 E13.3251
G1 X90.940 Y106.232 E14.2961
G1 X90.940 Y106.797 E14.3215
G1 X106.797 Y90.940 E15.3284
G1 X107.363 Y90.940 E15.3538
G1 X90.940 Y107.363 E16.3967
G1 X90.940 Y107.929 E16.4221
G1 X107.929 Y90.940 E17.5009
G1 X108.494 Y90.940 E17.5263
G1 X90.940 Y108.494 E18.6410
G1 X90.940 Y109.060 E18.6664
G1 X109.060 Y90.940 E19.8170
G1 X109.060 Y91.506 E19.8424
G1 X91.506 Y109.060 E20.9571
G1 X92.071 Y109.060 E20.9825
G1 X109.060 Y92.071 E22.0612
G1 X109.060 Y92.637 E22.0866
G1 X92.637 Y109.060 E23.1295
G1 X93.203 Y109.060 E23.1549
G1 X109.060 Y93.203 E24.1618
G1 X109.060 Y93.768 E24.1872
G1 X93.768 Y109.060 E25.1582
G1 X94.334 Y109.060 E25.1836
G1 X109.060 Y94.334 E26.1187
G1 X109.060 Y94.900 E26.1441
G1 X94.900 Y109.060 E27.0433
G1 X95.466 Y109.060 E27.0687
G1 X109.060 Y95.466 E27.9319
G1 X109.060 Y96.031 E27.9573
G1 X96.031 Y109.060 E28.7847
G1 X96.597 Y109.060 E28.8101
G1 X109.060 Y96.597 E29.6015
G1 X109.060 Y97.163 E29.6269
G1 X97.163 Y109.060 E30.3824
G1 X97.728 Y109.060 E30.4078
G1 X109.060 Y97.728 E31.1273
G1 X109.060 Y98.294 E31.1527
G1 X98.294 Y109.060 E31.8364
G1 X98.860 Y109.060 E31.8618
G1 X109.060 Y98.860 E32.5095
G1 X109.060 Y99.425 E32.5349
G1 X99.425 Y109.060 E33.1467
G1 X99.991 Y109.060 E33.1721
G1 X109.060 Y99.991 E33.7480
G1 X109.060 Y100.557 E33.7734
G1 X100.557 Y109.060 E34.3133
G1 X101.122 Y109.060 E34.3387
G1 X109.060 Y101.122 E34.8428
G1 X109.060 Y101.688 E34.8682
G1 X101.688 Y109.060 E35.3363
G1 X102.254 Y109.060 E35.3617
G1 X109.060 Y102.254 E35.7939
G1 X109.060 Y102.819 E35.8193
G1 X102.819 Y109.060 E36.2156
G1 X103.385 Y109.060 E36.2410
G1 X109.060 Y103.385 E36.6013
G1 X109.060 Y103.951 E36.6267
G1 X103.951 Y109.060 E36.9512
G1 X104.516 Y109.060 E36.9766
G1 X109.060 Y104.516 E37.2651
G1 X109.060 Y105.082 E37.2905
G1 X105.082 Y109.060 E37.5431
G1 X105.648 Y109.060 E37.5685
G1 X109.060 Y105.648 E37.7851
G1 X109.060 Y106.214 E37.8105
G1 X106.214 Y109.060 E37.9913
G1 X106.779 Y109.060 E38.0167
G1 X109.060 Y106.779 E38.1615
G1 X109.060 Y107.345 E38.1869
G1 X107.345 Y109.060 E38.2958
G1 X107.911 Y109.060 E38.3212
G1 X109.060 Y107.911 E38.3942
G1 X109.060 Y108.476 E38.4196
G1 X108.476 Y109.060 E38.4567
G1 X109.042 Y109.060 E38.4821
G1 X109.060 Y109.042 E38.4832
G92 E0
G1 E-1.0000 F1800
; layer 3, Z = 0.900
; inner perimeter
G1 X109.400 Y109.400 F4800
G1 Z0.900 F1000
G1 E0.0000 F1800
G92 E0
G1 X90.600 Y109.400 E0.8441 F3450
G1 X90.600 Y90.600 E1.6883
G1 X109.400 Y90.600 E2.5324
G1 X109.400 Y109.400 E3.3766
; outer perimeter
G1 X109.800 Y109.800 F4800
G92 E0
G1 X90.200 Y109.800 E0.8801 F2300
G1 X90.200 Y90.200 E1.7601
G1 X109.800 Y90.200 E2.6402
G1 X109.800 Y109.800 E3.5203
; solid layer
G1 X90.958 Y109.060 F4800
G92 E0
G1 X90.940 Y109.042 E0.0011 F3680
G1 X90.940 Y108.476 E0.0265
G1 X91.524 Y109.060 E0.0636
G1 X92.089 Y109.060 E0.0890
G1 X90.940 Y107.911 E0.1620
G1 X90.940 Y107.345 E0.1874
G1 X92.655 Y109.060 E0.2963
G1 X93.221 Y109.060 E0.3217
G1 X90.940 Y106.779 E0.4665
G1 X90.940 Y106.213 E0.4919
G1 X93.787 Y109.060 E0.6727
G1 X94.352 Y109.060 E0.6981
G1 X90.940 Y105.648 E0.9148
G1 X90.940 Y105.082 E0.9402
G1 X94.918 Y109.060 E1.1928
G1 X95.484 Y109.060 E1.2182
G1 X90.940 Y104.516 E1.5067
G1 X90.940 Y103.951 E1.5321
G1 X96.049 Y109.060 E1.8565
G1 X96.615 Y109.060 E1.8819
G1 X90.940 Y103.385 E2.2423
G1 X90.940 Y102.819 E2.2677
G1 X97.181 Y109.060 E2.6640
G1 X97.746 Y109.060 E2.6894
G1 X90.940 Y102.254 E3.1216
G1 X90.940 Y101.688 E3.1470
G1 X98.312 Y109.060 E3.6151
G1 X98.878 Y109.060 E3.6405
G1 X90.940 Y101.122 E4.1445
G1 X90.940 Y100.557 E4.1699
G1 X99.443 Y109.060 E4.7099
G1 X100.009 Y109.060 E4.7353
G1 X90.940 Y99.991 E5.3112
G1 X90.940 Y99.425 E5.3366
G1 X100.575 Y109.060 E5.9484
G1 X101.140 Y109.060 E5.9738
G1 X90.940 Y98.860 E6.6215
G1 X90.940 Y98.294 E6.6469
G1 X101.706 Y109.060 E7.3305
G1 X102.272 Y109.060 E7.3559
G1 X90.940 Y97.728 E8.0755
G1 X90.940 Y97.163 E8.1009
G1 X102.837 Y109.060 E8.8564
G1 X103.403 Y109.060 E8.8818
G1 X90.940 Y96.597 E9.6732
G1 X90.940 Y96.031 E9.6986
G1 X103.969 Y109.060 E10.5259
