; G-Code generated by Simplify3D(R) Version 4.0.0
; Dec 31, 2020 at 2:52:12 PM
; Settings Summary
;   processName,Process1
;   applyToModels,Z-Rod_Stabilizer
;   profileName,new profile (modified)
;   profileVersion,2020-09-07 14:01:24
;   baseProfile,Default (modified)
;   printMaterial,PLA
;   printQuality,Medium
;   printExtruders,
;   extruderName,Primary Extruder
;   extruderToolheadNumber,0
;   extruderDiameter,0.4
;   extruderAutoWidth,0
;   extruderWidth,0.4
;   extrusionMultiplier,0.9
;   extruderUseRetract,1
;   extruderRetractionDistance,1
;   extruderExtraRestartDistance,0
;   extruderRetractionZLift,0
;   extruderRetractionSpeed,1800
;   extruderUseCoasting,0
;   extruderCoastingDistance,0.2
;   extruderUseWipe,0
;   extruderWipeDistance,5
;   primaryExtruder,0
;   layerHeight,0.3
;   topSolidLayers,3
;   bottomSolidLayers,3
;   perimeterOutlines,2
;   printPerimetersInsideOut,1
;   startPointOption,2
;   startPointOriginX,0
;   startPointOriginY,0
;   sequentialIslands,0
;   spiralVaseMode,0
;   firstLayerHeightPercentage,90
;   firstLayerWidthPercentage,103
;   firstLayerUnderspeed,0.5
;   useRaft,0
;   raftExtruder,0
;   raftTopLayers,3
;   raftBaseLayers,2
;   raftOffset,3
;   raftSeparationDistance,0.14
;   raftTopInfill,100
;   aboveRaftSpeedMultiplier,0.3
;   useSkirt,0
;   skirtExtruder,0
;   skirtLayers,1
;   skirtOutlines,2
;   skirtOffset,4
;   usePrimePillar,0
;   primePillarExtruder,999
;   primePillarWidth,12
;   primePillarLocation,7
;   primePillarSpeedMultiplier,1
;   useOozeShield,0
;   oozeShieldExtruder,999
;   oozeShieldOffset,2
;   oozeShieldOutlines,1
;   oozeShieldSidewallShape,1
;   oozeShieldSidewallAngle,30
;   oozeShieldSpeedMultiplier,1
;   infillExtruder,0
;   internalInfillPattern,Rectilinear
;   externalInfillPattern,Rectilinear
;   infillPercentage,20
;   outlineOverlapPercentage,15
;   infillExtrusionWidthPercentage,100
;   minInfillLength,5
;   infillLayerInterval,1
;   internalInfillAngles,45,-45
;   overlapInternalInfillAngles,0
;   externalInfillAngles,45,-45
;   generateSupport,1
;   supportExtruder,0
;   supportInfillPercentage,30
;   supportExtraInflation,0
;   supportBaseLayers,0
;   denseSupportExtruder,0
;   denseSupportLayers,0
;   denseSupportInfillPercentage,70
;   supportLayerInterval,1
;   supportHorizontalPartOffset,0.3
;   supportUpperSeparationLayers,1
;   supportLowerSeparationLayers,1
;   supportType,0
;   supportGridSpacing,4
;   maxOverhangAngle,45
;   supportAngles,0
;   temperatureName,Primary Extruder,Hot Bed
;   temperatureNumber,0,1
;   temperatureSetpointCount,1,1
;   temperatureSetpointLayers,1,1
;   temperatureSetpointTemperatures,210,60
;   temperatureStabilizeAtStartup,1,0
;   temperatureHeatedBed,0,1
;   temperatureRelayBetweenLayers,0,0
;   temperatureRelayBetweenLoops,0,0
;   fanLayers,1,2
;   fanSpeeds,0,100
;   blipFanToFullPower,0
;   adjustSpeedForCooling,1
;   minSpeedLayerTime,15
;   minCoolingSpeedSlowdown,20
;   increaseFanForCooling,0
;   minFanLayerTime,45
;   maxCoolingFanSpeed,100
;   increaseFanForBridging,0
;   bridgingFanSpeed,100
;   use5D,1
;   relativeEdistances,0
;   allowEaxisZeroing,1
;   independentExtruderAxes,0
;   includeM10123,0
;   stickySupport,1
;   applyToolheadOffsets,0
;   gcodeXoffset,-0.03
;   gcodeYoffset,-0.03
;   gcodeZoffset,0
;   overrideMachineDefinition,0
;   machineTypeOverride,0
;   strokeXoverride,200
;   strokeYoverride,200
;   strokeZoverride,200
;   originOffsetXoverride,0
;   originOffsetYoverride,0
;   originOffsetZoverride,0
;   homeXdirOverride,-1
;   homeYdirOverride,-1
;   homeZdirOverride,-1
;   flipXoverride,1
;   flipYoverride,-1
;   flipZoverride,1
;   toolheadOffsets,0,0|0,0|0,0|0,0|0,0|0,0
;   overrideFirmwareConfiguration,0
;   firmwareTypeOverride,RepRap (Marlin/Repetier/Sprinter)
;   GPXconfigOverride,r2
;   baudRateOverride,115200
;   overridePrinterModels,0
;   printerModelsOverride
;   startingGcode,G28 ; home all axes,G1 X3 Y5 Z0.2 F3000 ; get ready to prime,G92 E0 ; reset extrusion distance,G1 Y150 E20 F600 ; prime nozzle
;   layerChangeGcode,
;   retractionGcode,
;   toolChangeGcode,
;   endingGcode,M104 S0 ; turn off extruder,M140 S0 ; turn off bedG1 X0 Y0; home,M84 ; disable motors,M107 ; fan off,G28 X Y; Home,M18; Disable steppers
;   exportFileFormat,gcode
;   celebration,0
;   celebrationSong,Random Song
;   postProcessing,
;   defaultSpeed,4600
;   outlineUnderspeed,0.5
;   solidInfillUnderspeed,0.8
;   supportUnderspeed,0.8
;   rapidXYspeed,4800
;   rapidZspeed,1000
;   minBridgingArea,50
;   bridgingExtraInflation,0
;   bridgingExtrusionMultiplier,1
;   bridgingSpeedMultiplier,1
;   useFixedBridgingAngle,0
;   fixedBridgingAngle,0
;   applyBridgingToPerimeters,0
;   filamentDiameters,1.75|1.75|1.75|1.75|1.75|1.75
;   filamentPricesPerKg,46|46|46|46|46|46
;   filamentDensities,1.25|1.25|1.25|1.25|1.25|1.25
;   useMinPrintHeight,0
;   minPrintHeight,0
;   useMaxPrintHeight,0
;   maxPrintHeight,0
;   useDiaphragm,0
;   diaphragmLayerInterval,20
;   robustSlicing,1
;   mergeAllIntoSolid,0
;   onlyRetractWhenCrossingOutline,1
;   retractBetweenLayers,1
;   useRetractionMinTravel,0
;   retractionMinTravel,3
;   retractWhileWiping,0
;   onlyWipeOutlines,1
;   avoidCrossingOutline,0
;   maxMovementDetourFactor,3
;   toolChangeRetractionDistance,12
;   toolChangeExtraRestartDistance,-0.5
;   toolChangeRetractionSpeed,600
;   externalThinWallType,1
;   internalThinWallType,1
;   thinWallAllowedOverlapPercentage,10
;   singleExtrusionMinLength,1
;   singleExtrusionMinPrintingWidthPercentage,50
;   singleExtrusionMaxPrintingWidthPercentage,200
;   singleExtrusionEndpointExtension,0.2
;   horizontalSizeCompensation,0
G90
M82
M106 S0
M140 S60
M104 S210 T0
M109 S210 T0
G28 ; home all axes
G1 X3 Y5 Z0.2 F3000 ; get ready to prime
G92 E0 ; reset extrusion distance
G1 Y150 E20 F600 ; prime nozzle
G92 E0
G1 E-1.0000 F1800
G1 Z0.270 F1000
; process Process1
; layer 1, Z = 0.270
T0
; tool H0.300 W0.412
; inner perimeter
G1 X101.893 Y74.884 F4800
G1 E0.0000 F540
G92 E0
G1 X126.047 Y74.884 E1.1171 F1725
G1 X126.047 Y121.908 E3.2919
G1 X101.893 Y121.908 E4.4090
G1 X101.893 Y74.884 E6.5838
; outer perimeter
G1 X101.481 Y74.472 F4800
G92 E0
G1 X126.459 Y74.472 E1.1552 F1150
G1 X126.459 Y122.320 E3.3681
G1 X101.481 Y122.320 E4.5233
G1 X101.481 Y74.472 E6.7362
; solid layer
G1 X125.587 Y75.234 F4800
G92 E0
G1 X125.697 Y75.345 E0.0072 F1840
G1 X125.697 Y75.927 E0.0342
G1 X125.004 Y75.234 E0.0795
G1 X124.421 Y75.234 E0.1065
G1 X125.697 Y76.510 E0.1899
G1 X125.697 Y77.093 E0.2169
G1 X123.839 Y75.234 E0.3384
G1 X123.256 Y75.234 E0.3654
G1 X125.697 Y77.675 E0.5250
G1 X125.697 Y78.258 E0.5520
G1 X122.673 Y75.234 E0.7498
G1 X122.091 Y75.234 E0.7767
G1 X125.697 Y78.841 E1.0126
G1 X125.697 Y79.423 E1.0395
G1 X121.508 Y75.234 E1.3135
G1 X120.925 Y75.234 E1.3405
G1 X125.697 Y80.006 E1.6526
G1 X125.697 Y80.589 E1.6795
G1 X120.343 Y75.234 E2.0297
G1 X119.760 Y75.234 E2.0567
G1 X125.697 Y81.171 E2.4450
G1 X125.697 Y81.754 E2.4719
G1 X119.177 Y75.234 E2.8984
G1 X118.595 Y75.234 E2.9253
G1 X125.697 Y82.337 E3.3899
G1 X125.697 Y82.919 E3.4168
G1 X118.012 Y75.234 E3.9194
G1 X117.429 Y75.234 E3.9464
G1 X125.697 Y83.502 E4.4871
G1 X125.697 Y84.085 E4.5141
G1 X116.847 Y75.234 E5.0930
G1 X116.264 Y75.234 E5.1199
G1 X125.697 Y84.667 E5.7369
G1 X125.697 Y85.250 E5.7638
G1 X115.681 Y75.234 E6.4189
G1 X115.099 Y75.234 E6.4458
G1 X125.697 Y85.833 E7.1390
G1 X125.697 Y86.415 E7.1660
G1 X114.516 Y75.234 E7.8973
G1 X113.933 Y75.234 E7.9242
G1 X125.697 Y86.998 E8.6936
G1 X125.697 Y87.581 E8.7206
G1 X113.351 Y75.234 E9.5281
G1 X112.768 Y75.234 E9.5550
G1 X125.697 Y88.163 E10.4007
G1 X125.697 Y88.746 E10.4276
G1 X112.185 Y75.234 E11.3113
G1 X111.603 Y75.234 E11.3383
G1 X125.697 Y89.329 E12.2601
G1 X125.697 Y89.911 E12.2871
G1 X111.020 Y75.234 E13.2470
G1 X110.437 Y75.234 E13.2740
G1 X125.697 Y90.494 E14.2720
G1 X125.697 Y91.077 E14.2990
G1 X109.855 Y75.234 E15.3351
G1 X109.272 Y75.234 E15.3621
G1 X125.697 Y91.659 E16.4363
G1 X125.697 Y92.242 E16.4633
G1 X108.690 Y75.234 E17.5757
G1 X108.107 Y75.234 E17.6026
G1 X125.697 Y92.824 E18.7531
G1 X125.697 Y93.407 E18.7800
G1 X107.524 Y75.234 E19.9686
G1 X106.942 Y75.234 E19.9956
G1 X125.697 Y93.990 E21.2223
G1 X125.697 Y94.572 E21.2492
G1 X106.359 Y75.234 E22.5141
G1 X105.776 Y75.234 E22.5410
G1 X125.697 Y95.155 E23.8439
G1 X125.697 Y95.738 E23.8709
G1 X105.194 Y75.234 E25.2119
G1 X104.611 Y75.234 E25.2389
G1 X125.697 Y96.320 E26.6180
G1 X125.697 Y96.903 E26.6449
G1 X104.028 Y75.234 E28.0622
G1 X103.446 Y75.234 E28.0891
G1 X125.697 Y97.486 E29.5445
G1 X125.697 Y98.068 E29.5714
G1 X102.863 Y75.234 E31.0649
G1 X102.280 Y75.234 E31.0919
G1 X125.697 Y98.651 E32.6234
G1 X125.697 Y99.234 E32.6504
G1 X102.243 Y75.779 E34.1844
G1 X102.243 Y76.362 E34.2113
G1 X125.697 Y99.816 E35.7454
G1 X125.697 Y100.399 E35.7723
G1 X102.243 Y76.945 E37.3063
G1 X102.243 Y77.527 E37.3333
G1 X125.697 Y100.982 E38.8673
G1 X125.697 Y101.564 E38.8942
G1 X102.243 Y78.110 E40.4283
G1 X102.243 Y78.693 E40.4552
G1 X125.697 Y102.147 E41.9892
G1 X125.697 Y102.730 E42.0162
G1 X102.243 Y79.275 E43.5502
G1 X102.243 Y79.858 E43.5772
G1 X125.697 Y103.312 E45.1112
G1 X125.697 Y103.895 E45.1381
G1 X102.243 Y80.441 E46.6721
G1 X102.243 Y81.023 E46.6991
G1 X125.697 Y104.478 E48.2331
G1 X125.697 Y105.060 E48.2601
G1 X102.243 Y81.606 E49.7941
G1 X102.243 Y82.189 E49.8210
G1 X125.697 Y105.643 E51.3550
G1 X125.697 Y106.226 E51.3820
G1 X102.243 Y82.771 E52.9160
G1 X102.243 Y83.354 E52.9430
G1 X125.697 Y106.808 E54.4770
G1 X125.697 Y107.391 E54.5039
G1 X102.243 Y83.937 E56.0379
G1 X102.243 Y84.519 E56.0649
G1 X125.697 Y107.974 E57.5989
G1 X125.697 Y108.556 E57.6259
G1 X102.243 Y85.102 E59.1599
G1 X102.243 Y85.685 E59.1868
G1 X125.697 Y109.139 E60.7209
G1 X125.697 Y109.721 E60.7478
G1 X102.243 Y86.267 E62.2818
G1 X102.243 Y86.850 E62.3088
G1 X125.697 Y110.304 E63.8428
G1 X125.697 Y110.887 E63.8697
G1 X102.243 Y87.433 E65.4038
G1 X102.243 Y88.015 E65.4307
G1 X125.697 Y111.469 E66.9647
G1 X125.697 Y112.052 E66.9917
G1 X102.243 Y88.598 E68.5257
G1 X102.243 Y89.181 E68.5526
G1 X125.697 Y112.635 E70.0867
G1 X125.697 Y113.217 E70.1136
G1 X102.243 Y89.763 E71.6476
G1 X102.243 Y90.346 E71.6746
G1 X125.697 Y113.800 E73.2086
G1 X125.697 Y114.383 E73.2355
G1 X102.243 Y90.929 E74.7696
G1 X102.243 Y91.511 E74.7965
G1 X125.697 Y114.965 E76.3305
G1 X125.697 Y115.548 E76.3575
G1 X102.243 Y92.094 E77.8915
G1 X102.243 Y92.676 E77.9184
G1 X125.697 Y116.131 E79.4525
G1 X125.697 Y116.713 E79.4794
G1 X102.243 Y93.259 E81.0134
G1 X102.243 Y93.842 E81.0404
G1 X125.697 Y117.296 E82.5744
G1 X125.697 Y117.879 E82.6014
G1 X102.243 Y94.424 E84.1354
G1 X102.243 Y95.007 E84.1623
G1 X125.697 Y118.461 E85.6963
G1 X125.697 Y119.044 E85.7233
G1 X102.243 Y95.590 E87.2573
G1 X102.243 Y96.172 E87.2843
G1 X125.697 Y119.627 E88.8183
G1 X125.697 Y120.209 E88.8452
G1 X102.243 Y96.755 E90.3792
G1 X102.243 Y97.338 E90.4062
G1 X125.697 Y120.792 E91.9402
G1 X125.697 Y121.375 E91.9672
G1 X102.243 Y97.920 E93.5012
G1 X102.243 Y98.503 E93.5281
G1 X125.298 Y121.558 E95.0360
G1 X124.715 Y121.558 E95.0630
G1 X102.243 Y99.086 E96.5328
G1 X102.243 Y99.668 E96.5597
G1 X124.132 Y121.558 E97.9914
G1 X123.550 Y121.558 E98.0183
G1 X102.243 Y100.251 E99.4119
G1 X102.243 Y100.834 E99.4388
G1 X122.967 Y121.558 E100.7943
G1 X122.384 Y121.558 E100.8212
G1 X102.243 Y101.416 E102.1386
G1 X102.243 Y101.999 E102.1655
G1 X121.802 Y121.558 E103.4448
G1 X121.219 Y121.558 E103.4717
G1 X102.243 Y102.582 E104.7129
G1 X102.243 Y103.164 E104.7398
G1 X120.636 Y121.558 E105.9428
G1 X120.054 Y121.558 E105.9698
G1 X102.243 Y103.747 E107.1347
G1 X102.243 Y104.330 E107.1616
G1 X119.471 Y121.558 E108.2885
G1 X118.888 Y121.558 E108.3154
G1 X102.243 Y104.912 E109.4041
G1 X102.243 Y105.495 E109.4310
G1 X118.306 Y121.558 E110.4816
G1 X117.723 Y121.558 E110.5086
G1 X102.243 Y106.078 E111.5211
G1 X102.243 Y106.660 E111.5480
G1 X117.140 Y121.558 E112.5224
G1 X116.558 Y121.558 E112.5493
G1 X102.243 Y107.243 E113.4856
G1 X102.243 Y107.826 E113.5125
G1 X115.975 Y121.558 E114.4107
G1 X115.392 Y121.558 E114.4376
G1 X102.243 Y108.408 E115.2977
G1 X102.243 Y108.991 E115.3246
G1 X114.810 Y121.558 E116.1466
G1 X114.227 Y121.558 E116.1735
G1 X102.243 Y109.573 E116.9574
G1 X102.243 Y110.156 E116.9843
G1 X113.645 Y121.558 E117.7300
G1 X113.062 Y121.558 E117.7570
G1 X102.243 Y110.739 E118.4646
G1 X102.243 Y111.321 E118.4915
G1 X112.479 Y121.558 E119.1610
G1 X111.897 Y121.558 E119.1880
G1 X102.243 Y111.904 E119.8194
G1 X102.243 Y112.487 E119.8463
G1 X111.314 Y121.558 E120.4396
G1 X110.731 Y121.558 E120.4666
G1 X102.243 Y113.069 E121.0217
G1 X102.243 Y113.652 E121.0487
G1 X110.149 Y121.558 E121.5658
G1 X109.566 Y121.558 E121.5927
G1 X102.243 Y114.235 E122.0717
G1 X102.243 Y114.817 E122.0986
G1 X108.983 Y121.558 E122.5395
G1 X108.401 Y121.558 E122.5664
G1 X102.243 Y115.400 E122.9692
G1 X102.243 Y115.983 E122.9961
G1 X107.818 Y121.558 E123.3608
G1 X107.235 Y121.558 E123.3877
G1 X102.243 Y116.565 E123.7142
G1 X102.243 Y117.148 E123.7412
G1 X106.653 Y121.558 E124.0296
G1 X106.070 Y121.558 E124.0565
G1 X102.243 Y117.731 E124.3069
G1 X102.243 Y118.313 E124.3338
G1 X105.487 Y121.558 E124.5460
G1 X104.905 Y121.558 E124.5730
G1 X102.243 Y118.896 E124.7470
G1 X102.243 Y119.479 E124.7740
G1 X104.322 Y121.558 E124.9100
G1 X103.739 Y121.558 E124.9369
G1 X102.243 Y120.061 E125.0348
G1 X102.243 Y120.644 E125.0618
G1 X103.157 Y121.558 E125.1215
G1 X102.574 Y121.558 E125.1485
G1 X102.243 Y121.227 E125.1701
G92 E0
G1 E-1.0000 F1800
; support
G1 X109.950 Y124.303 F4800
G1 E0.0000 F1800
G92 E0
G1 X117.990 Y124.303 E0.3718 F1840
G1 X117.990 Y125.637 E0.4335
G1 X109.950 Y125.637 E0.8053
G1 X109.950 Y126.970 E0.8670
G1 X117.990 Y126.970 E1.2388
G1 X117.990 Y128.303 E1.3005
G1 X109.950 Y128.303 E1.6723
G1 X109.950 Y129.637 E1.7340
G1 X117.990 Y129.637 E2.1058
G1 X117.990 Y130.970 E2.1675
G1 X109.950 Y130.970 E2.5393
G1 X109.950 Y132.303 E2.6010
G1 X117.990 Y132.303 E2.9728
G1 X117.990 Y133.637 E3.0345
G1 X109.950 Y133.637 E3.4063
G1 X109.950 Y134.970 E3.4680
G1 X117.990 Y134.970 E3.8398
G1 X117.990 Y136.303 E3.9015
G1 X109.950 Y136.303 E4.2733
G1 X109.950 Y137.637 E4.3350
G1 X117.990 Y137.637 E4.7068
G1 X117.990 Y138.970 E4.7685
G1 X109.950 Y138.970 E5.1403
G1 X109.950 Y140.303 E5.2020
G1 X117.990 Y140.303 E5.5738
G1 X117.990 Y141.637 E5.6355
G1 X109.950 Y141.637 E6.0073
G1 X109.950 Y142.970 E6.0690
G1 X117.990 Y142.970 E6.4408
G1 X117.990 Y144.303 E6.5025
G1 X109.950 Y144.303 E6.8743
G1 X109.950 Y145.637 E6.9360
G1 X117.990 Y145.637 E7.3078
G1 X117.990 Y146.970 E7.3695
G1 X109.950 Y146.970 E7.7413
G1 X109.950 Y148.303 E7.8030
G1 X117.990 Y148.303 E8.1748
G1 X117.990 Y149.637 E8.2365
G1 X109.950 Y149.637 E8.6083
G1 X109.950 Y150.970 E8.6700
G1 X117.990 Y150.970 E9.0418
G1 X117.990 Y152.303 E9.1035
G1 X109.950 Y152.303 E9.4753
G1 X109.950 Y153.637 E9.5370
G1 X117.990 Y153.637 E9.9088
G1 X117.990 Y154.970 E9.9705
G1 X109.950 Y154.970 E10.3423
G1 X109.950 Y156.303 E10.4040
G1 X117.990 Y156.303 E10.7758
G1 X117.990 Y157.637 E10.8375
G1 X109.950 Y157.637 E11.2093
G1 X109.950 Y158.970 E11.2710
G1 X117.990 Y158.970 E11.6428
G1 X117.990 Y160.303 E11.7045
G1 X109.950 Y160.303 E12.0763
G1 X109.950 Y161.637 E12.1380
G1 X117.990 Y161.637 E12.5098
G1 X117.990 Y162.970 E12.5715
G1 X109.950 Y162.970 E12.9433
G92 E0
G1 E-1.0000 F1800
; layer 2, Z = 0.570
M106 S255
; tool H0.300 W0.400
; inner perimeter
G1 X101.875 Y121.926 F4800
G1 Z0.570 F1000
G1 E0.0000 F1800
G92 E0
G1 X101.875 Y74.866 E2.1130 F3450
G1 X126.065 Y74.866 E3.1992
G1 X126.065 Y121.926 E5.3123
G1 X101.875 Y121.926 E6.3985
; outer perimeter
G1 X101.475 Y122.326 F4800
G92 E0
G1 X101.475 Y74.466 E2.1490 F2300
G1 X126.465 Y74.466 E3.2711
G1 X126.465 Y122.326 E5.4200
G1 X101.475 Y122.326 E6.5422
; solid layer
G1 X125.496 Y121.586 F4800
G92 E0
G1 X125.725 Y121.357 E0.0146 F3680
G1 X125.725 Y120.791 E0.0400
G1 X124.930 Y121.586 E0.0904
G1 X124.365 Y121.586 E0.1158
G1 X125.725 Y120.225 E0.2022
G1 X125.725 Y119.660 E0.2276
G1 X123.799 Y121.586 E0.3499
G1 X123.233 Y121.586 E0.3753
