; G-Code generated by Simplify3D(R) Version 4.0.0
; Dec 31, 2020 at 5:20:45 PM
; Settings Summary
;   processName,Process1
;   applyToModels,Z_STABLE
;   profileName,new profile (modified)
;   profileVersion,2020-09-07 14:01:24
;   baseProfile,Default (modified)
;   printMaterial,PLA
;   printQuality,Medium
;   printExtruders,
;   extruderName,Primary Extruder
;   extruderToolheadNumber,0
;   extruderDiameter,0.4
;   extruderAutoWidth,0
;   extruderWidth,0.4
;   extrusionMultiplier,0.9
;   extruderUseRetract,1
;   extruderRetractionDistance,1
;   extruderExtraRestartDistance,0
;   extruderRetractionZLift,0
;   extruderRetractionSpeed,1800
;   extruderUseCoasting,0
;   extruderCoastingDistance,0.2
;   extruderUseWipe,0
;   extruderWipeDistance,5
;   primaryExtruder,0
;   layerHeight,0.3
;   topSolidLayers,3
;   bottomSolidLayers,3
;   perimeterOutlines,2
;   printPerimetersInsideOut,1
;   startPointOption,2
;   startPointOriginX,0
;   startPointOriginY,0
;   sequentialIslands,0
;   spiralVaseMode,0
;   firstLayerHeightPercentage,90
;   firstLayerWidthPercentage,103
;   firstLayerUnderspeed,0.5
;   useRaft,0
;   raftExtruder,0
;   raftTopLayers,3
;   raftBaseLayers,2
;   raftOffset,3
;   raftSeparationDistance,0.14
;   raftTopInfill,100
;   aboveRaftSpeedMultiplier,0.3
;   useSkirt,0
;   skirtExtruder,0
;   skirtLayers,1
;   skirtOutlines,2
;   skirtOffset,4
;   usePrimePillar,0
;   primePillarExtruder,999
;   primePillarWidth,12
;   primePillarLocation,7
;   primePillarSpeedMultiplier,1
;   useOozeShield,0
;   oozeShieldExtruder,999
;   oozeShieldOffset,2
;   oozeShieldOutlines,1
;   oozeShieldSidewallShape,1
;   oozeShieldSidewallAngle,30
;   oozeShieldSpeedMultiplier,1
;   infillExtruder,0
;   internalInfillPattern,Rectilinear
;   externalInfillPattern,Rectilinear
;   infillPercentage,20
;   outlineOverlapPercentage,15
;   infillExtrusionWidthPercentage,100
;   minInfillLength,5
;   infillLayerInterval,1
;   internalInfillAngles,45,-45
;   overlapInternalInfillAngles,0
;   externalInfillAngles,45,-45
;   generateSupport,1
;   supportExtruder,0
;   supportInfillPercentage,30
;   supportExtraInflation,0
;   supportBaseLayers,0
;   denseSupportExtruder,0
;   denseSupportLayers,0
;   denseSupportInfillPercentage,70
;   supportLayerInterval,1
;   supportHorizontalPartOffset,0.3
;   supportUpperSeparationLayers,1
;   supportLowerSeparationLayers,1
;   supportType,0
;   supportGridSpacing,4
;   maxOverhangAngle,45
;   supportAngles,0
;   temperatureName,Primary Extruder,Hot Bed
;   temperatureNumber,0,1
;   temperatureSetpointCount,1,1
;   temperatureSetpointLayers,1,1
;   temperatureSetpointTemperatures,210,60
;   temperatureStabilizeAtStartup,1,0
;   temperatureHeatedBed,0,1
;   temperatureRelayBetweenLayers,0,0
;   temperatureRelayBetweenLoops,0,0
;   fanLayers,1,2
;   fanSpeeds,0,100
;   blipFanToFullPower,0
;   adjustSpeedForCooling,1
;   minSpeedLayerTime,15
;   minCoolingSpeedSlowdown,20
;   increaseFanForCooling,0
;   minFanLayerTime,45
;   maxCoolingFanSpeed,100
;   increaseFanForBridging,0
;   bridgingFanSpeed,100
;   use5D,1
;   relativeEdistances,0
;   allowEaxisZeroing,1
;   independentExtruderAxes,0
;   includeM10123,0
;   stickySupport,1
;   applyToolheadOffsets,0
;   gcodeXoffset,-0.03
;   gcodeYoffset,-0.03
;   gcodeZoffset,0
;   overrideMachineDefinition,0
;   machineTypeOverride,0
;   strokeXoverride,200
;   strokeYoverride,200
;   strokeZoverride,200
;   originOffsetXoverride,0
;   originOffsetYoverride,0
;   originOffsetZoverride,0
;   homeXdirOverride,-1
;   homeYdirOverride,-1
;   homeZdirOverride,-1
;   flipXoverride,1
;   flipYoverride,-1
;   flipZoverride,1
;   toolheadOffsets,0,0|0,0|0,0|0,0|0,0|0,0
;   overrideFirmwareConfiguration,0
;   firmwareTypeOverride,RepRap (Marlin/Repetier/Sprinter)
;   GPXconfigOverride,r2
;   baudRateOverride,115200
;   overridePrinterModels,0
;   printerModelsOverride
;   startingGcode,G28 ; home all axes,G1 X3 Y5 Z0.2 F3000 ; get ready to prime,G92 E0 ; reset extrusion distance,G1 Y150 E20 F600 ; prime nozzle
;   layerChangeGcode,
;   retractionGcode,
;   toolChangeGcode,
;   endingGcode,M104 S0 ; turn off extruder,M140 S0 ; turn off bedG1 X0 Y0; home,M84 ; disable motors,M107 ; fan off,G28 X Y; Home,M18; Disable steppers
;   exportFileFormat,gcode
;   celebration,0
;   celebrationSong,Random Song
;   postProcessing,
;   defaultSpeed,4600
;   outlineUnderspeed,0.5
;   solidInfillUnderspeed,0.8
;   supportUnderspeed,0.8
;   rapidXYspeed,4800
;   rapidZspeed,1000
;   minBridgingArea,50
;   bridgingExtraInflation,0
;   bridgingExtrusionMultiplier,1
;   bridgingSpeedMultiplier,1
;   useFixedBridgingAngle,0
;   fixedBridgingAngle,0
;   applyBridgingToPerimeters,0
;   filamentDiameters,1.75|1.75|1.75|1.75|1.75|1.75
;   filamentPricesPerKg,46|46|46|46|46|46
;   filamentDensities,1.25|1.25|1.25|1.25|1.25|1.25
;   useMinPrintHeight,0
;   minPrintHeight,0
;   useMaxPrintHeight,0
;   maxPrintHeight,0
;   useDiaphragm,0
;   diaphragmLayerInterval,20
;   robustSlicing,1
;   mergeAllIntoSolid,0
;   onlyRetractWhenCrossingOutline,1
;   retractBetweenLayers,1
;   useRetractionMinTravel,0
;   retractionMinTravel,3
;   retractWhileWiping,0
;   onlyWipeOutlines,1
;   avoidCrossingOutline,0
;   maxMovementDetourFactor,3
;   toolChangeRetractionDistance,12
;   toolChangeExtraRestartDistance,-0.5
;   toolChangeRetractionSpeed,600
;   externalThinWallType,1
;   internalThinWallType,2
;   thinWallAllowedOverlapPercentage,10
;   singleExtrusionMinLength,1
;   singleExtrusionMinPrintingWidthPercentage,50
;   singleExtrusionMaxPrintingWidthPercentage,200
;   singleExtrusionEndpointExtension,0.2
;   horizontalSizeCompensation,0
G90
M82
M106 S0
M140 S60
M104 S210 T0
M109 S210 T0
G28 ; home all axes
G1 X3 Y5 Z0.2 F3000 ; get ready to prime
G92 E0 ; reset extrusion distance
G1 Y150 E20 F600 ; prime nozzle
G92 E0
G1 E-1.0000 F1800
G1 Z0.270 F1000
; process Process1
; layer 1, Z = 0.270
T0
; tool H0.300 W0.412
; inner perimeter
G1 X106.801 Y105.603 F4800
G1 E0.0000 F540
G92 E0
G1 X121.139 Y105.603 E0.6631 F1725
G1 X121.139 Y132.337 E1.8995
G1 X106.801 Y132.337 E2.5627
G1 X106.801 Y105.603 E3.7991
; outer perimeter
G1 X106.389 Y105.191 F4800
G92 E0
G1 X121.551 Y105.191 E0.7012 F1150
G1 X121.551 Y132.749 E1.9758
G1 X106.389 Y132.749 E2.6770
G1 X106.389 Y105.191 E3.9515
; inner perimeter
G1 X111.220 Y107.740 F4800
G92 E0
G1 X110.981 Y108.184 E0.0233 F1725
G1 X110.879 Y108.660 E0.0458
G1 X110.812 Y109.133 E0.0679
G1 X110.879 Y109.636 E0.0914
G1 X110.982 Y110.113 E0.1139
G1 X111.221 Y110.556 E0.1372
G1 X111.474 Y110.935 E0.1583
G1 X111.819 Y111.315 E0.1820
G1 X112.245 Y111.598 E0.2057
G1 X112.700 Y111.793 E0.2286
G1 X113.166 Y111.926 E0.2510
G1 X113.640 Y111.960 E0.2730
G1 X114.144 Y111.926 E0.2963
G1 X114.621 Y111.790 E0.3193
G1 X115.049 Y111.591 E0.3411
G1 X115.467 Y111.312 E0.3644
G1 X115.800 Y110.945 E0.3873
G1 X116.093 Y110.554 E0.4099
G1 X116.298 Y110.112 E0.4324
G1 X116.434 Y109.635 E0.4554
G1 X116.467 Y109.131 E0.4787
G1 X116.433 Y108.657 E0.5007
G1 X116.298 Y108.183 E0.5235
G1 X116.092 Y107.738 E0.5462
G1 X115.798 Y107.347 E0.5688
G1 X115.465 Y106.981 E0.5917
G1 X115.047 Y106.702 E0.6149
G1 X114.617 Y106.504 E0.6368
G1 X114.140 Y106.368 E0.6597
G1 X113.638 Y106.335 E0.6830
G1 X113.164 Y106.369 E0.7050
G1 X112.699 Y106.502 E0.7274
G1 X112.241 Y106.699 E0.7504
G1 X111.816 Y106.983 E0.7740
G1 X111.471 Y107.362 E0.7977
G1 X111.220 Y107.740 E0.8187
; outer perimeter
G1 X111.573 Y107.953 F4800
G92 E0
G1 X111.372 Y108.327 E0.0197 F1150
G1 X111.285 Y108.732 E0.0388
G1 X111.228 Y109.135 E0.0576
G1 X111.285 Y109.565 E0.0777
G1 X111.372 Y109.969 E0.0968
G1 X111.574 Y110.344 E0.1165
G1 X111.799 Y110.681 E0.1353
G1 X112.089 Y111.000 E0.1552
G1 X112.442 Y111.234 E0.1748
G1 X112.839 Y111.404 E0.1947
G1 X113.238 Y111.518 E0.2139
G1 X113.641 Y111.547 E0.2326
G1 X114.073 Y111.518 E0.2526
G1 X114.477 Y111.402 E0.2721
G1 X114.847 Y111.231 E0.2909
G1 X115.196 Y110.998 E0.3104
G1 X115.482 Y110.683 E0.3301
G1 X115.737 Y110.342 E0.3497
G1 X115.910 Y109.968 E0.3688
G1 X116.026 Y109.564 E0.3882
G1 X116.054 Y109.132 E0.4082
G1 X116.025 Y108.729 E0.4269
G1 X115.910 Y108.327 E0.4463
G1 X115.736 Y107.950 E0.4655
G1 X115.480 Y107.610 E0.4851
G1 X115.194 Y107.295 E0.5048
G1 X114.846 Y107.063 E0.5242
G1 X114.474 Y106.892 E0.5431
G1 X114.070 Y106.777 E0.5626
G1 X113.640 Y106.748 E0.5825
G1 X113.237 Y106.777 E0.6012
G1 X112.837 Y106.891 E0.6204
G1 X112.439 Y107.062 E0.6404
G1 X112.087 Y107.297 E0.6600
G1 X111.797 Y107.616 E0.6799
G1 X111.573 Y107.953 E0.6986
G92 E0
G1 E-1.0000 F1800
; inner perimeter
G1 X112.776 Y114.014 F4800
G1 E0.0000 F1800
G92 E0
G1 X112.364 Y114.102 E0.0195 F1725
G1 X111.939 Y114.223 E0.0399
G1 X111.505 Y114.409 E0.0618
G1 X110.784 Y114.813 E0.1000
G1 X110.395 Y115.104 E0.1225
G1 X109.809 Y115.719 E0.1618
G1 X109.540 Y116.077 E0.1825
G1 X109.304 Y116.431 E0.2021
G1 X109.086 Y116.836 E0.2234
G1 X108.834 Y117.516 E0.2569
G1 X108.764 Y117.515 E0.2601
G1 X108.638 Y118.523 E0.3071
G1 X108.638 Y119.366 E0.3461
G1 X108.709 Y119.899 E0.3710
G1 X108.740 Y119.962 E0.3742
G1 X108.785 Y120.234 E0.3870
G1 X109.125 Y121.256 E0.4368
G1 X109.186 Y121.256 E0.4396
G1 X109.399 Y121.629 E0.4595
G1 X109.399 Y121.636 E0.4598
G1 X109.414 Y121.655 E0.4609
G1 X109.606 Y121.990 E0.4788
G1 X109.672 Y121.990 E0.4819
G1 X109.805 Y122.164 E0.4920
G1 X110.095 Y122.482 E0.5119
G1 X110.391 Y122.779 E0.5313
G1 X110.660 Y122.994 E0.5472
G1 X110.660 Y123.034 E0.5490
G1 X110.854 Y123.135 E0.5591
G1 X111.082 Y123.362 E0.5740
G1 X111.196 Y123.315 E0.5797
G1 X111.460 Y123.453 E0.5935
G1 X111.541 Y123.534 E0.5988
G1 X111.763 Y123.589 E0.6094
G1 X111.935 Y123.662 E0.6180
G1 X112.361 Y123.785 E0.6385
G1 X112.767 Y123.872 E0.6577
G1 X113.183 Y123.932 E0.6771
G1 X113.641 Y123.962 E0.6984
G1 X114.097 Y123.932 E0.7195
G1 X114.535 Y123.873 E0.7400
G1 X114.953 Y123.784 E0.7597
G1 X115.381 Y123.652 E0.7804
G1 X115.486 Y123.594 E0.7860
G1 X115.765 Y123.485 E0.7998
G1 X116.165 Y123.270 E0.8209
G1 X116.859 Y122.807 E0.8594
G1 X117.221 Y122.478 E0.8820
G1 X117.377 Y122.278 E0.8938
G1 X117.475 Y122.213 E0.8992
G1 X117.573 Y122.067 E0.9073
G1 X117.650 Y122.066 E0.9109
G1 X117.800 Y121.765 E0.9265
G1 X117.849 Y121.717 E0.9296
G1 X118.061 Y121.308 E0.9509
G1 X118.330 Y121.308 E0.9634
G1 X118.330 Y120.756 E0.9889
G1 X118.364 Y120.697 E0.9921
G1 X118.446 Y120.411 E1.0058
G1 X118.567 Y120.410 E1.0114
G1 X118.567 Y119.885 E1.0357
G1 X118.620 Y119.620 E1.0482
G1 X118.600 Y119.601 E1.0494
G1 X118.641 Y119.410 E1.0585
G1 X118.673 Y118.934 E1.0805
G1 X118.656 Y118.646 E1.0939
G1 X118.700 Y118.645 E1.0959
G1 X118.567 Y117.982 E1.1272
G1 X118.567 Y117.808 E1.1352
G1 X118.523 Y117.764 E1.1381
G1 X118.345 Y117.118 E1.1691
G1 X118.324 Y117.096 E1.1705
G1 X118.316 Y117.063 E1.1721
G1 X118.237 Y116.932 E1.1791
G1 X118.217 Y116.851 E1.1830
G1 X118.094 Y116.605 E1.1957
G1 X118.094 Y116.564 E1.1976
G1 X117.992 Y116.410 E1.2062
G1 X118.018 Y116.349 E1.2092
G1 X117.988 Y116.316 E1.2113
G1 X117.988 Y115.948 E1.2283
G1 X117.673 Y115.948 E1.2429
G1 X117.499 Y115.716 E1.2563
G1 X117.300 Y115.517 E1.2694
G1 X117.240 Y115.427 E1.2744
G1 X116.726 Y114.959 E1.3065
G1 X116.683 Y114.957 E1.3085
G1 X116.444 Y114.758 E1.3229
G1 X116.324 Y114.717 E1.3288
G1 X116.235 Y114.662 E1.3336
G1 X116.163 Y114.590 E1.3383
G1 X115.826 Y114.420 E1.3558
G1 X115.688 Y114.373 E1.3625
G1 X115.090 Y114.024 E1.3945
G1 X115.030 Y114.119 E1.3998
G1 X114.519 Y114.014 E1.4239
G1 X114.100 Y113.956 E1.4434
G1 X113.642 Y113.925 E1.4647
G1 X113.213 Y113.956 E1.4846
G1 X112.776 Y114.014 E1.5050
; outer perimeter
G1 X112.846 Y114.420 F4800
G92 E0
G1 X112.464 Y114.502 E0.0181 F1150
G1 X112.077 Y114.612 E0.0367
G1 X111.687 Y114.779 E0.0563
G1 X111.009 Y115.159 E0.0923
G1 X110.669 Y115.413 E0.1119
G1 X110.123 Y115.986 E0.1485
G1 X109.876 Y116.315 E0.1675
G1 X109.657 Y116.644 E0.1858
G1 X109.462 Y117.006 E0.2048
G1 X109.189 Y117.743 E0.2412
G1 X109.151 Y117.933 E0.2501
G1 X109.127 Y117.933 E0.2512
G1 X109.050 Y118.549 E0.2799
G1 X109.050 Y119.338 E0.3164
G1 X109.108 Y119.778 E0.3369
G1 X109.136 Y119.835 E0.3399
G1 X109.186 Y120.135 E0.3539
G1 X109.422 Y120.844 E0.3885
G1 X109.425 Y120.844 E0.3886
G1 X109.845 Y121.579 E0.4278
G1 X109.875 Y121.579 E0.4292
G1 X110.121 Y121.899 E0.4479
G1 X110.393 Y122.198 E0.4665
G1 X110.667 Y122.471 E0.4844
G1 X110.820 Y122.594 E0.4935
G1 X110.993 Y122.693 E0.5028
G1 X111.072 Y122.772 E0.5079
G1 X111.072 Y122.785 E0.5085
G1 X111.100 Y122.799 E0.5099
G1 X111.178 Y122.876 E0.5150
G1 X111.217 Y122.860 E0.5170
G1 X111.706 Y123.117 E0.5425
G1 X111.751 Y123.161 E0.5454
G1 X111.895 Y123.197 E0.5523
G1 X112.073 Y123.274 E0.5613
G1 X112.461 Y123.385 E0.5799
G1 X112.840 Y123.466 E0.5978
G1 X113.226 Y123.522 E0.6159
G1 X113.641 Y123.549 E0.6351
G1 X114.056 Y123.522 E0.6543
G1 X114.465 Y123.467 E0.6734
G1 X114.849 Y123.385 E0.6916
G1 X115.219 Y123.271 E0.7095
G1 X115.369 Y123.188 E0.7174
G1 X115.393 Y123.188 E0.7185
G1 X115.592 Y123.110 E0.7284
G1 X115.953 Y122.916 E0.7474
G1 X116.605 Y122.482 E0.7836
G1 X116.918 Y122.197 E0.8032
G1 X117.093 Y121.973 E0.8163
G1 X117.178 Y121.916 E0.8211
G1 X117.351 Y121.657 E0.8355
G1 X117.394 Y121.657 E0.8375
G1 X117.462 Y121.521 E0.8445
G1 X117.513 Y121.470 E0.8478
G1 X117.811 Y120.896 E0.8777
G1 X117.918 Y120.896 E0.8827
G1 X117.918 Y120.647 E0.8942
G1 X117.982 Y120.536 E0.9001
G1 X118.135 Y120.002 E0.9258
G1 X118.155 Y120.001 E0.9268
G1 X118.155 Y119.844 E0.9340
G1 X118.173 Y119.756 E0.9382
G1 X118.151 Y119.734 E0.9396
G1 X118.232 Y119.353 E0.9576
G1 X118.260 Y118.933 E0.9771
G1 X118.232 Y118.451 E0.9994
G1 X118.180 Y118.240 E1.0095
G1 X118.198 Y118.240 E1.0103
G1 X118.155 Y118.023 E1.0206
G1 X118.155 Y117.979 E1.0226
G1 X118.144 Y117.968 E1.0233
G1 X118.123 Y117.864 E1.0282
G1 X117.976 Y117.329 E1.0539
G1 X117.951 Y117.303 E1.0555
G1 X117.931 Y117.222 E1.0594
G1 X117.853 Y117.092 E1.0665
G1 X117.828 Y116.995 E1.0710
G1 X117.682 Y116.702 E1.0862
G1 X117.682 Y116.689 E1.0868
G1 X117.576 Y116.530 E1.0957
G1 X117.576 Y116.360 E1.1035
G1 X117.477 Y116.360 E1.1081
G1 X117.410 Y116.285 E1.1127
G1 X117.187 Y115.986 E1.1300
G1 X116.980 Y115.779 E1.1435
G1 X116.925 Y115.697 E1.1481
G1 X116.561 Y115.365 E1.1709
G1 X116.528 Y115.364 E1.1724
G1 X116.239 Y115.124 E1.1898
G1 X116.147 Y115.092 E1.1943
G1 X115.977 Y114.986 E1.2036
G1 X115.918 Y114.928 E1.2074
G1 X115.666 Y114.801 E1.2205
G1 X115.515 Y114.749 E1.2278
G1 X115.227 Y114.581 E1.2432
G1 X115.211 Y114.607 E1.2446
G1 X114.848 Y114.502 E1.2621
G1 X114.450 Y114.420 E1.2809
G1 X114.058 Y114.366 E1.2992
G1 X113.643 Y114.338 E1.3185
G1 X113.254 Y114.366 E1.3365
G1 X112.846 Y114.420 E1.3555
G92 E0
G1 E-1.0000 F1800
; inner perimeter
G1 X113.639 Y125.923 F4800
G1 E0.0000 F1800
G92 E0
G1 X113.165 Y125.991 E0.0221 F1725
G1 X112.700 Y126.090 E0.0441
G1 X112.228 Y126.327 E0.0686
G1 X111.829 Y126.593 E0.0907
G1 X111.481 Y126.941 E0.1135
G1 X111.220 Y127.331 E0.1352
G1 X110.979 Y127.780 E0.1587
G1 X110.879 Y128.281 E0.1824
G1 X110.812 Y128.750 E0.2043
G1 X110.879 Y129.253 E0.2278
G1 X110.981 Y129.730 E0.2503
G1 X111.220 Y130.173 E0.2736
G1 X111.480 Y130.565 E0.2954
G1 X111.816 Y130.901 E0.3173
G1 X112.227 Y131.209 E0.3411
G1 X112.699 Y131.411 E0.3648
G1 X113.164 Y131.544 E0.3872
G1 X113.640 Y131.579 E0.4093
G1 X114.142 Y131.545 E0.4326
G1 X114.617 Y131.410 E0.4554
G1 X115.063 Y131.204 E0.4781
G1 X115.466 Y130.902 E0.5014
G1 X115.789 Y130.578 E0.5226
G1 X116.093 Y130.175 E0.5459
G1 X116.298 Y129.730 E0.5685
G1 X116.434 Y129.254 E0.5915
G1 X116.467 Y128.752 E0.6147
G1 X116.434 Y128.283 E0.6365
G1 X116.300 Y127.781 E0.6605
G1 X116.093 Y127.332 E0.6834
G1 X115.791 Y126.929 E0.7067
G1 X115.455 Y126.593 E0.7286
G1 X115.065 Y126.333 E0.7503
G1 X114.619 Y126.092 E0.7737
G1 X114.141 Y125.990 E0.7963
G1 X113.639 Y125.923 E0.8198
; outer perimeter
G1 X113.641 Y126.339 F4800
G92 E0
G1 X113.238 Y126.397 E0.0188 F1150
G1 X112.838 Y126.482 E0.0378
G1 X112.435 Y126.684 E0.0586
G1 X112.091 Y126.913 E0.0777
G1 X111.801 Y127.204 E0.0967
G1 X111.574 Y127.544 E0.1156
G1 X111.371 Y127.921 E0.1354
G1 X111.285 Y128.351 E0.1557
