; G-Code generated by Simplify3D(R) Version 4.0.0
; May 1, 2018 at 4:56:54 PM
; Settings Summary
;   processName,nozzle 0.4
;   applyToModels,maslul
;   profileName,Flying Bear 902 Update 7-2017 (modified)
;   profileVersion,2017-07-10 09:45:20
;   baseProfile,Default
;   printMaterial,PLA
;   printQuality,Medium
;   printExtruders,
;   extruderName,Extruder 1
;   extruderToolheadNumber,0
;   extruderDiameter,0.4
;   extruderAutoWidth,1
;   extruderWidth,0.48
;   extrusionMultiplier,0.9
;   extruderUseRetract,1
;   extruderRetractionDistance,2
;   extruderExtraRestartDistance,0
;   extruderRetractionZLift,0
;   extruderRetractionSpeed,3000
;   extruderUseCoasting,0
;   extruderCoastingDistance,0.2
;   extruderUseWipe,1
;   extruderWipeDistance,5
;   primaryExtruder,0
;   layerHeight,0.3
;   topSolidLayers,4
;   bottomSolidLayers,4
;   perimeterOutlines,3
;   printPerimetersInsideOut,0
;   startPointOption,2
;   startPointOriginX,0
;   startPointOriginY,0
;   sequentialIslands,0
;   spiralVaseMode,0
;   firstLayerHeightPercentage,20
;   firstLayerWidthPercentage,100
;   firstLayerUnderspeed,0.5
;   useRaft,0
;   raftExtruder,0
;   raftTopLayers,2
;   raftBaseLayers,2
;   raftOffset,2
;   raftSeparationDistance,0.55
;   raftTopInfill,100
;   aboveRaftSpeedMultiplier,0.3
;   useSkirt,0
;   skirtExtruder,0
;   skirtLayers,1
;   skirtOutlines,2
;   skirtOffset,4
;   usePrimePillar,0
;   primePillarExtruder,999
;   primePillarWidth,12
;   primePillarLocation,7
;   primePillarSpeedMultiplier,1
;   useOozeShield,0
;   oozeShieldExtruder,999
;   oozeShieldOffset,2
;   oozeShieldOutlines,1
;   oozeShieldSidewallShape,1
;   oozeShieldSidewallAngle,30
;   oozeShieldSpeedMultiplier,1
;   infillExtruder,0
;   internalInfillPattern,Rectilinear
;   externalInfillPattern,Rectilinear
;   infillPercentage,12
;   outlineOverlapPercentage,60
;   infillExtrusionWidthPercentage,100
;   minInfillLength,5
;   infillLayerInterval,1
;   internalInfillAngles,45,-45
;   overlapInternalInfillAngles,0
;   externalInfillAngles,45,-45
;   generateSupport,1
;   supportExtruder,0
;   supportInfillPercentage,30
;   supportExtraInflation,0
;   supportBaseLayers,0
;   denseSupportExtruder,0
;   denseSupportLayers,0
;   denseSupportInfillPercentage,50
;   supportLayerInterval,1
;   supportHorizontalPartOffset,0.3
;   supportUpperSeparationLayers,1
;   supportLowerSeparationLayers,1
;   supportType,0
;   supportGridSpacing,4
;   maxOverhangAngle,70
;   supportAngles,0
;   temperatureName,Extruder 1,Heated Bed
;   temperatureNumber,0,0
;   temperatureSetpointCount,1,1
;   temperatureSetpointLayers,1,1
;   temperatureSetpointTemperatures,210,60
;   temperatureStabilizeAtStartup,1,0
;   temperatureHeatedBed,0,1
;   temperatureRelayBetweenLayers,0,0
;   temperatureRelayBetweenLoops,0,0
;   fanLayers,1
;   fanSpeeds,255
;   blipFanToFullPower,0
;   adjustSpeedForCooling,1
;   minSpeedLayerTime,15
;   minCoolingSpeedSlowdown,20
;   increaseFanForCooling,0
;   minFanLayerTime,45
;   maxCoolingFanSpeed,100
;   increaseFanForBridging,0
;   bridgingFanSpeed,100
;   use5D,1
;   relativeEdistances,0
;   allowEaxisZeroing,1
;   independentExtruderAxes,0
;   includeM10123,0
;   stickySupport,1
;   applyToolheadOffsets,0
;   gcodeXoffset,0
;   gcodeYoffset,0
;   gcodeZoffset,0
;   overrideMachineDefinition,1
;   machineTypeOverride,0
;   strokeXoverride,220
;   strokeYoverride,220
;   strokeZoverride,280
;   originOffsetXoverride,0
;   originOffsetYoverride,0
;   originOffsetZoverride,0
;   homeXdirOverride,-1
;   homeYdirOverride,-1
;   homeZdirOverride,-1
;   flipXoverride,1
;   flipYoverride,-1
;   flipZoverride,1
;   toolheadOffsets,0,0|0,0|0,0|0,0|0,0|0,0
;   overrideFirmwareConfiguration,1
;   firmwareTypeOverride,RepRap (Marlin/Repetier/Sprinter)
;   GPXconfigOverride,r2
;   baudRateOverride,250000
;   overridePrinterModels,0
;   printerModelsOverride
;   startingGcode,G28 ; home all axes,G1 X0 Y20 Z0.2 F3000 ; get ready to prime,G92 E0 ; reset extrusion distance,G1 X200 E20 F600 ; prime nozzle
;   layerChangeGcode,
;   retractionGcode,
;   toolChangeGcode,
;   endingGcode,M104 S0 ; turn off extruder,M140 S0 ; turn off bed,G28 X Y ; home x and y axes,M84 ; disable motors
;   exportFileFormat,gcode
;   celebration,0
;   celebrationSong,Random Song
;   postProcessing,
;   defaultSpeed,5000
;   outlineUnderspeed,0.6
;   solidInfillUnderspeed,0.85
;   supportUnderspeed,0.8
;   rapidXYspeed,5200
;   rapidZspeed,1002
;   minBridgingArea,50
;   bridgingExtraInflation,0
;   bridgingExtrusionMultiplier,1
;   bridgingSpeedMultiplier,1
;   useFixedBridgingAngle,0
;   fixedBridgingAngle,0
;   applyBridgingToPerimeters,0
;   filamentDiameters,1.75|1.75|1.75|1.75|1.75|1.75
;   filamentPricesPerKg,46|46|46|46|46|46
;   filamentDensities,1.25|1.25|1.25|1.25|1.25|1.25
;   useMinPrintHeight,0
;   minPrintHeight,0
;   useMaxPrintHeight,0
;   maxPrintHeight,2.3
;   useDiaphragm,0
;   diaphragmLayerInterval,20
;   robustSlicing,1
;   mergeAllIntoSolid,0
;   onlyRetractWhenCrossingOutline,1
;   retractBetweenLayers,1
;   useRetractionMinTravel,0
;   retractionMinTravel,3
;   retractWhileWiping,0
;   onlyWipeOutlines,1
;   avoidCrossingOutline,0
;   maxMovementDetourFactor,3
;   toolChangeRetractionDistance,12
;   toolChangeExtraRestartDistance,-0.5
;   toolChangeRetractionSpeed,600
;   externalThinWallType,1
;   internalThinWallType,0
;   thinWallAllowedOverlapPercentage,15
;   singleExtrusionMinLength,1
;   singleExtrusionMinPrintingWidthPercentage,50
;   singleExtrusionMaxPrintingWidthPercentage,200
;   singleExtrusionEndpointExtension,0.2
;   horizontalSizeCompensation,0
G90
M82
M106 S650
M140 S60
M104 S210 T0
M109 S210 T0
G28 ; home all axes
G1 X0 Y20 Z0.2 F3000 ; get ready to prime
G92 E0 ; reset extrusion distance
G1 X200 E20 F600 ; prime nozzle
G92 E0
G1 E-2.0000 F3000
G1 Z0.060 F1002
; process nozzle 0.4
; layer 1, Z = 0.060
T0
; tool H0.300 W0.480
; outer perimeter
G1 X98.256 Y103.257 F5200
G1 E0.0000 F900
G92 E0
G1 X98.465 Y103.077 E0.0149 F1500
G1 X98.701 Y102.933 E0.0297
G1 X98.956 Y102.827 E0.0446
G1 X99.224 Y102.763 E0.0595
G1 X99.508 Y102.740 E0.0749
G1 X103.760 Y102.740 E0.3039
G1 X103.760 Y117.260 E1.0863
G1 X99.509 Y117.260 E1.3153
G1 X99.226 Y117.238 E1.3307
G1 X98.957 Y117.173 E1.3455
G1 X98.702 Y117.068 E1.3604
G1 X98.467 Y116.924 E1.3753
G1 X98.257 Y116.744 E1.3902
G1 X98.077 Y116.535 E1.4050
G1 X97.933 Y116.299 E1.4199
G1 X97.827 Y116.044 E1.4348
G1 X97.763 Y115.776 E1.4497
G1 X97.740 Y115.491 E1.4650
G1 X97.740 Y104.509 E2.0568
G1 X97.762 Y104.225 E2.0722
G1 X97.827 Y103.957 E2.0870
G1 X97.932 Y103.702 E2.1019
G1 X98.076 Y103.467 E2.1167
G1 X98.256 Y103.257 E2.1316
G1 X98.465 Y103.077 F5000
G1 X98.701 Y102.933 F5000
G1 X98.956 Y102.827 F5000
G1 X99.224 Y102.763 F5000
G1 X99.508 Y102.740 F5000
G1 X103.119 Y102.740 F5000
; inner perimeter
G1 X103.280 Y103.220 F5200
G92 E0
G1 X103.280 Y116.780 E0.7306 F2000
G1 X99.528 Y116.780 E0.9328
G1 X99.301 Y116.762 E0.9451
G1 X99.106 Y116.715 E0.9559
G1 X98.920 Y116.639 E0.9667
G1 X98.749 Y116.534 E0.9775
G1 X98.597 Y116.404 E0.9883
G1 X98.467 Y116.251 E0.9991
G1 X98.362 Y116.081 E1.0099
G1 X98.285 Y115.895 E1.0207
G1 X98.238 Y115.701 E1.0315
G1 X98.220 Y115.472 E1.0438
G1 X98.220 Y104.528 E1.6335
G1 X98.238 Y104.300 E1.6458
G1 X98.285 Y104.106 E1.6566
G1 X98.361 Y103.920 E1.6674
G1 X98.466 Y103.749 E1.6782
G1 X98.596 Y103.597 E1.6890
G1 X98.749 Y103.467 E1.6998
G1 X98.919 Y103.362 E1.7106
G1 X99.105 Y103.285 E1.7214
G1 X99.300 Y103.238 E1.7322
G1 X99.527 Y103.220 E1.7446
G1 X103.280 Y103.220 E1.9468
G1 X102.800 Y103.700 F5200
G92 E0
G1 X102.800 Y116.300 E0.6789 F2000
G1 X99.547 Y116.300 E0.8542
G1 X99.376 Y116.287 E0.8634
G1 X99.254 Y116.257 E0.8702
G1 X99.139 Y116.210 E0.8769
G1 X99.032 Y116.144 E0.8836
G1 X98.937 Y116.063 E0.8904
G1 X98.856 Y115.968 E0.8971
G1 X98.791 Y115.862 E0.9038
G1 X98.743 Y115.746 E0.9106
G1 X98.714 Y115.625 E0.9173
G1 X98.700 Y115.454 E0.9266
G1 X98.700 Y111.059 E1.1633
G1 X98.785 Y111.185 E1.1715
G1 X99.044 Y111.455 E1.1916
G1 X99.344 Y111.677 E1.2118
G1 X99.678 Y111.845 E1.2319
G1 X100.036 Y111.955 E1.2521
G1 X100.406 Y112.002 E1.2722
G1 X100.780 Y111.986 E1.2924
G1 X101.146 Y111.908 E1.3125
G1 X101.492 Y111.768 E1.3327
G1 X101.811 Y111.572 E1.3528
G1 X102.091 Y111.325 E1.3730
G1 X102.326 Y111.034 E1.3931
G1 X102.509 Y110.708 E1.4132
G1 X102.633 Y110.355 E1.4334
G1 X102.696 Y109.987 E1.4535
G1 X102.696 Y109.613 E1.4737
G1 X102.633 Y109.245 E1.4938
G1 X102.509 Y108.892 E1.5140
G1 X102.326 Y108.566 E1.5341
G1 X102.091 Y108.275 E1.5543
G1 X101.811 Y108.028 E1.5744
G1 X101.492 Y107.832 E1.5946
G1 X101.146 Y107.692 E1.6147
G1 X100.780 Y107.614 E1.6348
G1 X100.406 Y107.598 E1.6550
G1 X100.036 Y107.645 E1.6751
G1 X99.678 Y107.755 E1.6953
G1 X99.344 Y107.923 E1.7154
G1 X99.044 Y108.145 E1.7356
G1 X98.785 Y108.415 E1.7557
G1 X98.700 Y108.541 E1.7639
G1 X98.700 Y104.547 E1.9791
G1 X98.714 Y104.375 E1.9884
G1 X98.743 Y104.255 E1.9951
G1 X98.790 Y104.139 E2.0018
G1 X98.856 Y104.032 E2.0085
G1 X98.937 Y103.937 E2.0153
G1 X99.032 Y103.856 E2.0220
G1 X99.138 Y103.791 E2.0287
G1 X99.254 Y103.743 E2.0355
G1 X99.375 Y103.714 E2.0422
G1 X99.547 Y103.700 E2.0515
G1 X102.800 Y103.700 E2.2268
; outer perimeter
G1 X100.863 Y108.614 F5200
G92 E0
G1 X100.658 Y108.569 E0.0113 F1500
G1 X100.447 Y108.560 E0.0227
G1 X100.239 Y108.587 E0.0340
G1 X100.037 Y108.649 E0.0454
G1 X99.849 Y108.743 E0.0567
G1 X99.680 Y108.868 E0.0680
G1 X99.535 Y109.020 E0.0794
G1 X99.417 Y109.195 E0.0907
G1 X99.330 Y109.387 E0.1021
G1 X99.277 Y109.590 E0.1134
G1 X99.259 Y109.801 E0.1248
G1 X99.277 Y110.010 E0.1361
G1 X99.330 Y110.213 E0.1474
G1 X99.417 Y110.405 E0.1588
G1 X99.535 Y110.580 E0.1701
G1 X99.680 Y110.731 E0.1814
G1 X99.849 Y110.857 E0.1928
G1 X100.037 Y110.951 E0.2041
G1 X100.239 Y111.013 E0.2155
G1 X100.447 Y111.040 E0.2268
G1 X100.658 Y111.031 E0.2381
G1 X100.863 Y110.986 E0.2495
G1 X101.059 Y110.908 E0.2608
G1 X101.238 Y110.798 E0.2722
G1 X101.396 Y110.659 E0.2835
G1 X101.528 Y110.495 E0.2948
G1 X101.631 Y110.311 E0.3062
G1 X101.701 Y110.113 E0.3175
G1 X101.736 Y109.905 E0.3289
G1 X101.736 Y109.695 E0.3402
G1 X101.701 Y109.487 E0.3515
G1 X101.631 Y109.289 E0.3629
G1 X101.528 Y109.105 E0.3742
G1 X101.396 Y108.941 E0.3856
G1 X101.238 Y108.802 E0.3969
G1 X101.059 Y108.692 E0.4082
G1 X100.863 Y108.614 E0.4196
G1 X100.658 Y108.569 F5000
G1 X100.447 Y108.560 F5000
G1 X100.239 Y108.587 F5000
G1 X100.037 Y108.649 F5000
G1 X99.849 Y108.743 F5000
G1 X99.680 Y108.868 F5000
G1 X99.535 Y109.020 F5000
G1 X99.417 Y109.195 F5000
G1 X99.330 Y109.387 F5000
G1 X99.277 Y109.590 F5000
G1 X99.259 Y109.801 F5000
G1 X99.277 Y110.010 F5000
G1 X99.330 Y110.213 F5000
G1 X99.417 Y110.405 F5000
G1 X99.535 Y110.580 F5000
G1 X99.680 Y110.731 F5000
G1 X99.849 Y110.857 F5000
G1 X100.037 Y110.951 F5000
G1 X100.239 Y111.013 F5000
G1 X100.447 Y111.040 F5000
G1 X100.658 Y111.031 F5000
G1 X100.863 Y110.986 F5000
G1 X101.059 Y110.908 F5000
G1 X101.194 Y110.824 F5000
; inner perimeter
G1 X101.524 Y111.185 F5200
G92 E0
G1 X101.744 Y110.992 E0.0157 F2000
G1 X101.927 Y110.765 E0.0315
G1 X102.070 Y110.510 E0.0472
G1 X102.167 Y110.234 E0.0630
G1 X102.216 Y109.946 E0.0787
G1 X102.216 Y109.654 E0.0945
G1 X102.167 Y109.366 E0.1102
G1 X102.070 Y109.090 E0.1259
G1 X101.927 Y108.835 E0.1417
G1 X101.744 Y108.608 E0.1574
G1 X101.524 Y108.415 E0.1732
G1 X101.276 Y108.262 E0.1889
G1 X101.004 Y108.153 E0.2047
G1 X100.719 Y108.091 E0.2204
G1 X100.427 Y108.079 E0.2361
G1 X100.137 Y108.116 E0.2519
G1 X99.858 Y108.202 E0.2676
G1 X99.597 Y108.333 E0.2834
G1 X99.362 Y108.507 E0.2991
G1 X99.160 Y108.718 E0.3149
G1 X98.996 Y108.960 E0.3306
G1 X98.876 Y109.226 E0.3463
G1 X98.802 Y109.509 E0.3621
G1 X98.778 Y109.801 E0.3779
G1 X98.802 Y110.091 E0.3936
G1 X98.876 Y110.374 E0.4093
G1 X98.996 Y110.640 E0.4251
G1 X99.160 Y110.882 E0.4408
G1 X99.362 Y111.093 E0.4565
G1 X99.597 Y111.267 E0.4723
G1 X99.858 Y111.398 E0.4880
G1 X100.137 Y111.484 E0.5038
G1 X100.427 Y111.521 E0.5195
G1 X100.719 Y111.509 E0.5353
G1 X101.004 Y111.447 E0.5510
G1 X101.276 Y111.338 E0.5667
G1 X101.524 Y111.185 E0.5825
; solid layer
G1 X102.411 Y111.235 F5200
G92 E0
G1 X102.608 Y111.433 E0.0150 F2125
G1 X102.608 Y112.111 E0.0516
G1 X102.084 Y111.588 E0.0915
G1 X101.925 Y111.727 E0.1029
G1 X101.690 Y111.872 E0.1178
G1 X102.608 Y112.790 E0.1878
G1 X102.608 Y113.469 E0.2244
G1 X101.223 Y112.084 E0.3299
G1 X101.202 Y112.092 E0.3311
G1 X100.805 Y112.178 E0.3530
G1 X100.644 Y112.184 E0.3617
G1 X102.608 Y114.148 E0.5113
G1 X102.608 Y114.827 E0.5479
G1 X99.893 Y112.112 E0.7547
G1 X99.606 Y112.024 E0.7709
G1 X99.243 Y111.841 E0.7928
G1 X98.916 Y111.599 E0.8147
G1 X98.892 Y111.574 E0.8166
G1 X98.892 Y111.790 E0.8282
G1 X102.608 Y115.506 E1.1114
G1 X102.608 Y116.108 E1.1438
G1 X102.532 Y116.108 E1.1480
G1 X98.892 Y112.468 E1.4253
G1 X98.892 Y113.147 E1.4619
G1 X101.853 Y116.108 E1.6875
G1 X101.174 Y116.108 E1.7240
G1 X98.892 Y113.826 E1.8979
G1 X98.892 Y114.505 E1.9345
G1 X100.495 Y116.108 E2.0566
G1 X99.816 Y116.108 E2.0932
G1 X98.892 Y115.184 E2.1636
G1 X98.892 Y107.717 F5200
G92 E0
G1 X99.066 Y107.890 E0.0132 F2125
G1 X99.243 Y107.759 E0.0251
G1 X99.489 Y107.635 E0.0400
G1 X98.892 Y107.038 E0.0855
G1 X98.892 Y106.359 E0.1220
G1 X99.991 Y107.458 E0.2058
G1 X99.995 Y107.457 E0.2060
G1 X100.398 Y107.405 E0.2279
G1 X100.627 Y107.415 E0.2402
G1 X98.892 Y105.680 E0.3724
G1 X98.892 Y105.001 E0.4090
G1 X101.531 Y107.640 E0.6100
G1 X101.579 Y107.660 E0.6129
G1 X101.925 Y107.873 E0.6348
G1 X102.231 Y108.141 E0.6567
G1 X102.486 Y108.458 E0.6786
G1 X102.608 Y108.676 E0.6921
G1 X102.608 Y108.039 E0.7264
G1 X98.918 Y104.348 E1.0076
G1 X98.926 Y104.314 E1.0095
G1 X98.962 Y104.226 E1.0146
G1 X99.011 Y104.145 E1.0197
G1 X99.073 Y104.073 E1.0248
G1 X99.145 Y104.012 E1.0299
G1 X99.216 Y103.968 E1.0345
G1 X102.608 Y107.360 E1.2929
G1 X102.608 Y106.681 E1.3295
G1 X99.819 Y103.892 E1.5420
G1 X100.498 Y103.892 E1.5786
G1 X102.608 Y106.002 E1.7393
G1 X102.608 Y105.323 E1.7759
G1 X101.177 Y103.892 E1.8850
G1 X101.856 Y103.892 E1.9216
G1 X102.608 Y104.644 E1.9789
G1 X102.608 Y103.966 E2.0155
G1 X102.534 Y103.892 E2.0211
G92 E0
G1 E-2.0000 F3000
; outer perimeter
G1 X116.240 Y102.740 F5200
G1 E0.0000 F3000
G92 E0
G1 X120.491 Y102.740 E0.2290 F1500
G1 X120.775 Y102.762 E0.2444
G1 X121.044 Y102.827 E0.2593
G1 X121.299 Y102.932 E0.2742
G1 X121.534 Y103.077 E0.2890
G1 X121.744 Y103.256 E0.3039
G1 X121.923 Y103.466 E0.3188
G1 X122.068 Y103.701 E0.3337
G1 X122.173 Y103.956 E0.3485
G1 X122.238 Y104.225 E0.3634
G1 X122.260 Y104.509 E0.3788
G1 X122.260 Y115.491 E0.9705
G1 X122.238 Y115.775 E0.9859
G1 X122.173 Y116.044 E1.0007
G1 X122.068 Y116.299 E1.0156
G1 X121.923 Y116.534 E1.0305
G1 X121.744 Y116.744 E1.0454
G1 X121.534 Y116.923 E1.0602
G1 X121.299 Y117.068 E1.0751
G1 X121.044 Y117.173 E1.0900
G1 X120.775 Y117.238 E1.1048
G1 X120.491 Y117.260 E1.1202
G1 X116.240 Y117.260 E1.3493
G1 X116.240 Y102.740 E2.1316
G1 X120.491 Y102.740 F5000
G1 X120.775 Y102.762 F5000
G1 X121.044 Y102.827 F5000
G1 X121.217 Y102.899 F5000
; inner perimeter
G1 X121.080 Y103.361 F5200
G92 E0
G1 X121.251 Y103.466 E0.0108 F2000
G1 X121.404 Y103.596 E0.0216
G1 X121.534 Y103.749 E0.0324
G1 X121.639 Y103.920 E0.0432
G1 X121.715 Y104.105 E0.0540
G1 X121.762 Y104.300 E0.0648
G1 X121.780 Y104.528 E0.0772
G1 X121.780 Y115.472 E0.6668
G1 X121.762 Y115.700 E0.6791
G1 X121.715 Y115.895 E0.6899
G1 X121.639 Y116.080 E0.7007
G1 X121.534 Y116.251 E0.7115
G1 X121.404 Y116.404 E0.7223
G1 X121.251 Y116.534 E0.7332
G1 X121.080 Y116.639 E0.7440
G1 X120.895 Y116.715 E0.7548
G1 X120.700 Y116.762 E0.7656
G1 X120.472 Y116.780 E0.7779
G1 X116.720 Y116.780 E0.9800
G1 X116.720 Y103.220 E1.7107
G1 X120.472 Y103.220 E1.9128
G1 X120.700 Y103.238 E1.9252
G1 X120.895 Y103.285 E1.9360
G1 X121.080 Y103.361 E1.9468
G1 X120.862 Y103.790 F5200
G92 E0
G1 X120.968 Y103.856 E0.0067 F2000
G1 X121.063 Y103.937 E0.0135
G1 X121.144 Y104.032 E0.0202
G1 X121.210 Y104.138 E0.0269
G1 X121.257 Y104.254 E0.0337
G1 X121.286 Y104.375 E0.0404
G1 X121.300 Y104.547 E0.0497
G1 X121.300 Y108.496 E0.2624
