; G-Code generated by Simplify3D(R) Version 4.0.0
; May 1, 2018 at 4:55:51 PM
; Settings Summary
;   processName,nozzle 0.4
;   applyToModels,mesila
;   profileName,Flying Bear 902 Update 7-2017 (modified)
;   profileVersion,2017-07-10 09:45:20
;   baseProfile,Default
;   printMaterial,PLA
;   printQuality,Medium
;   printExtruders,
;   extruderName,Extruder 1
;   extruderToolheadNumber,0
;   extruderDiameter,0.4
;   extruderAutoWidth,1
;   extruderWidth,0.48
;   extrusionMultiplier,0.9
;   extruderUseRetract,1
;   extruderRetractionDistance,2
;   extruderExtraRestartDistance,0
;   extruderRetractionZLift,0
;   extruderRetractionSpeed,3000
;   extruderUseCoasting,0
;   extruderCoastingDistance,0.2
;   extruderUseWipe,1
;   extruderWipeDistance,5
;   primaryExtruder,0
;   layerHeight,0.3
;   topSolidLayers,4
;   bottomSolidLayers,4
;   perimeterOutlines,3
;   printPerimetersInsideOut,0
;   startPointOption,2
;   startPointOriginX,0
;   startPointOriginY,0
;   sequentialIslands,0
;   spiralVaseMode,0
;   firstLayerHeightPercentage,20
;   firstLayerWidthPercentage,100
;   firstLayerUnderspeed,0.5
;   useRaft,0
;   raftExtruder,0
;   raftTopLayers,2
;   raftBaseLayers,2
;   raftOffset,2
;   raftSeparationDistance,0.55
;   raftTopInfill,100
;   aboveRaftSpeedMultiplier,0.3
;   useSkirt,0
;   skirtExtruder,0
;   skirtLayers,1
;   skirtOutlines,2
;   skirtOffset,4
;   usePrimePillar,0
;   primePillarExtruder,999
;   primePillarWidth,12
;   primePillarLocation,7
;   primePillarSpeedMultiplier,1
;   useOozeShield,0
;   oozeShieldExtruder,999
;   oozeShieldOffset,2
;   oozeShieldOutlines,1
;   oozeShieldSidewallShape,1
;   oozeShieldSidewallAngle,30
;   oozeShieldSpeedMultiplier,1
;   infillExtruder,0
;   internalInfillPattern,Rectilinear
;   externalInfillPattern,Rectilinear
;   infillPercentage,12
;   outlineOverlapPercentage,60
;   infillExtrusionWidthPercentage,100
;   minInfillLength,5
;   infillLayerInterval,1
;   internalInfillAngles,45,-45
;   overlapInternalInfillAngles,0
;   externalInfillAngles,45,-45
;   generateSupport,1
;   supportExtruder,0
;   supportInfillPercentage,30
;   supportExtraInflation,0
;   supportBaseLayers,0
;   denseSupportExtruder,0
;   denseSupportLayers,0
;   denseSupportInfillPercentage,50
;   supportLayerInterval,1
;   supportHorizontalPartOffset,0.3
;   supportUpperSeparationLayers,1
;   supportLowerSeparationLayers,1
;   supportType,0
;   supportGridSpacing,4
;   maxOverhangAngle,70
;   supportAngles,0
;   temperatureName,Extruder 1,Heated Bed
;   temperatureNumber,0,0
;   temperatureSetpointCount,1,1
;   temperatureSetpointLayers,1,1
;   temperatureSetpointTemperatures,210,60
;   temperatureStabilizeAtStartup,1,0
;   temperatureHeatedBed,0,1
;   temperatureRelayBetweenLayers,0,0
;   temperatureRelayBetweenLoops,0,0
;   fanLayers,1
;   fanSpeeds,255
;   blipFanToFullPower,0
;   adjustSpeedForCooling,1
;   minSpeedLayerTime,15
;   minCoolingSpeedSlowdown,20
;   increaseFanForCooling,0
;   minFanLayerTime,45
;   maxCoolingFanSpeed,100
;   increaseFanForBridging,0
;   bridgingFanSpeed,100
;   use5D,1
;   relativeEdistances,0
;   allowEaxisZeroing,1
;   independentExtruderAxes,0
;   includeM10123,0
;   stickySupport,1
;   applyToolheadOffsets,0
;   gcodeXoffset,0
;   gcodeYoffset,0
;   gcodeZoffset,0
;   overrideMachineDefinition,1
;   machineTypeOverride,0
;   strokeXoverride,220
;   strokeYoverride,220
;   strokeZoverride,280
;   originOffsetXoverride,0
;   originOffsetYoverride,0
;   originOffsetZoverride,0
;   homeXdirOverride,-1
;   homeYdirOverride,-1
;   homeZdirOverride,-1
;   flipXoverride,1
;   flipYoverride,-1
;   flipZoverride,1
;   toolheadOffsets,0,0|0,0|0,0|0,0|0,0|0,0
;   overrideFirmwareConfiguration,1
;   firmwareTypeOverride,RepRap (Marlin/Repetier/Sprinter)
;   GPXconfigOverride,r2
;   baudRateOverride,250000
;   overridePrinterModels,0
;   printerModelsOverride
;   startingGcode,G28 ; home all axes,G1 X0 Y20 Z0.2 F3000 ; get ready to prime,G92 E0 ; reset extrusion distance,G1 X200 E20 F600 ; prime nozzle
;   layerChangeGcode,
;   retractionGcode,
;   toolChangeGcode,
;   endingGcode,M104 S0 ; turn off extruder,M140 S0 ; turn off bed,G28 X Y ; home x and y axes,M84 ; disable motors
;   exportFileFormat,gcode
;   celebration,0
;   celebrationSong,Random Song
;   postProcessing,
;   defaultSpeed,5000
;   outlineUnderspeed,0.6
;   solidInfillUnderspeed,0.85
;   supportUnderspeed,0.8
;   rapidXYspeed,5200
;   rapidZspeed,1002
;   minBridgingArea,50
;   bridgingExtraInflation,0
;   bridgingExtrusionMultiplier,1
;   bridgingSpeedMultiplier,1
;   useFixedBridgingAngle,0
;   fixedBridgingAngle,0
;   applyBridgingToPerimeters,0
;   filamentDiameters,1.75|1.75|1.75|1.75|1.75|1.75
;   filamentPricesPerKg,46|46|46|46|46|46
;   filamentDensities,1.25|1.25|1.25|1.25|1.25|1.25
;   useMinPrintHeight,0
;   minPrintHeight,0
;   useMaxPrintHeight,0
;   maxPrintHeight,2.3
;   useDiaphragm,0
;   diaphragmLayerInterval,20
;   robustSlicing,1
;   mergeAllIntoSolid,0
;   onlyRetractWhenCrossingOutline,1
;   retractBetweenLayers,1
;   useRetractionMinTravel,0
;   retractionMinTravel,3
;   retractWhileWiping,0
;   onlyWipeOutlines,1
;   avoidCrossingOutline,0
;   maxMovementDetourFactor,3
;   toolChangeRetractionDistance,12
;   toolChangeExtraRestartDistance,-0.5
;   toolChangeRetractionSpeed,600
;   externalThinWallType,1
;   internalThinWallType,0
;   thinWallAllowedOverlapPercentage,15
;   singleExtrusionMinLength,1
;   singleExtrusionMinPrintingWidthPercentage,50
;   singleExtrusionMaxPrintingWidthPercentage,200
;   singleExtrusionEndpointExtension,0.2
;   horizontalSizeCompensation,0
G90
M82
M106 S650
M140 S60
M104 S210 T0
M109 S210 T0
G28 ; home all axes
G1 X0 Y20 Z0.2 F3000 ; get ready to prime
G92 E0 ; reset extrusion distance
G1 X200 E20 F600 ; prime nozzle
G92 E0
G1 E-2.0000 F3000
G1 Z0.060 F1002
; process nozzle 0.4
; layer 1, Z = 0.060
T0
; tool H0.300 W0.480
; outer perimeter
G1 X107.440 Y98.440 F5200
G1 E0.0000 F900
G92 E0
G1 X112.560 Y98.440 E0.2759 F940
G1 X112.560 Y121.560 E1.5216
G1 X107.440 Y121.560 E1.7975
G1 X107.440 Y98.440 E3.0432
G1 X112.440 Y98.440 F5000
; inner perimeter
G1 X112.080 Y98.920 F5200
G92 E0
G1 X112.080 Y121.080 E1.1940 F1254
G1 X107.920 Y121.080 E1.4182
G1 X107.920 Y98.920 E2.6122
G1 X112.080 Y98.920 E2.8363
G1 X111.600 Y99.400 F5200
G92 E0
G1 X111.600 Y120.600 E1.1423 F1254
G1 X108.400 Y120.600 E1.3147
G1 X108.400 Y99.400 E2.4570
G1 X111.600 Y99.400 E2.6294
; solid layer
G1 X111.132 Y99.592 F5200
G92 E0
G1 X111.408 Y99.868 E0.0210 F1332
G1 X111.408 Y100.547 E0.0576
G1 X110.453 Y99.592 E0.1304
G1 X109.774 Y99.592 E0.1669
G1 X111.408 Y101.226 E0.2914
G1 X111.408 Y101.904 E0.3280
G1 X109.096 Y99.592 E0.5042
G1 X108.592 Y99.592 E0.5313
G1 X108.592 Y99.767 E0.5408
G1 X111.408 Y102.583 E0.7554
G1 X111.408 Y103.262 E0.7919
G1 X108.592 Y100.446 E1.0065
G1 X108.592 Y101.125 E1.0431
G1 X111.408 Y103.941 E1.2577
G1 X111.408 Y104.620 E1.2942
G1 X108.592 Y101.804 E1.5088
G1 X108.592 Y102.483 E1.5454
G1 X111.408 Y105.299 E1.7600
G1 X111.408 Y105.977 E1.7966
G1 X108.592 Y103.161 E2.0111
G1 X108.592 Y103.840 E2.0477
G1 X111.408 Y106.656 E2.2623
G1 X111.408 Y107.335 E2.2989
G1 X108.592 Y104.519 E2.5134
G1 X108.592 Y105.198 E2.5500
G1 X111.408 Y108.014 E2.7646
G1 X111.408 Y108.693 E2.8012
G1 X108.592 Y105.877 E3.0158
G1 X108.592 Y106.556 E3.0523
G1 X111.408 Y109.372 E3.2669
G1 X111.408 Y110.050 E3.3035
G1 X108.592 Y107.234 E3.5181
G1 X108.592 Y107.913 E3.5546
G1 X111.408 Y110.729 E3.7692
G1 X111.408 Y111.408 E3.8058
G1 X108.592 Y108.592 E4.0204
G1 X108.592 Y109.271 E4.0569
G1 X111.408 Y112.087 E4.2715
G1 X111.408 Y112.766 E4.3081
G1 X108.592 Y109.950 E4.5227
G1 X108.592 Y110.628 E4.5593
G1 X111.408 Y113.444 E4.7738
G1 X111.408 Y114.123 E4.8104
G1 X108.592 Y111.307 E5.0250
G1 X108.592 Y111.986 E5.0616
G1 X111.408 Y114.802 E5.2761
G1 X111.408 Y115.481 E5.3127
G1 X108.592 Y112.665 E5.5273
G1 X108.592 Y113.344 E5.5639
G1 X111.408 Y116.160 E5.7785
G1 X111.408 Y116.839 E5.8150
G1 X108.592 Y114.023 E6.0296
G1 X108.592 Y114.701 E6.0662
G1 X111.408 Y117.517 E6.2808
G1 X111.408 Y118.196 E6.3173
G1 X108.592 Y115.380 E6.5319
G1 X108.592 Y116.059 E6.5685
G1 X111.408 Y118.875 E6.7831
G1 X111.408 Y119.554 E6.8197
G1 X108.592 Y116.738 E7.0342
G1 X108.592 Y117.417 E7.0708
G1 X111.408 Y120.233 E7.2854
G1 X111.408 Y120.408 E7.2948
G1 X110.904 Y120.408 E7.3220
G1 X108.592 Y118.095 E7.4982
G1 X108.592 Y118.774 E7.5347
G1 X110.226 Y120.408 E7.6592
G1 X109.547 Y120.408 E7.6958
G1 X108.592 Y119.453 E7.7686
G1 X108.592 Y120.132 E7.8051
G1 X108.868 Y120.408 E7.8262
G92 E0
G1 E-2.0000 F3000
; layer 2, Z = 0.360
; outer perimeter
G1 X107.440 Y121.560 F5200
G1 Z0.360 F1002
G1 E0.0000 F3000
G92 E0
G1 X107.440 Y98.440 E1.2457 F940
G1 X112.560 Y98.440 E1.5216
G1 X112.560 Y121.560 E2.7673
G1 X107.440 Y121.560 E3.0432
G1 X107.440 Y116.560 F5000
; inner perimeter
G1 X107.920 Y121.080 F5200
G92 E0
G1 X107.920 Y98.920 E1.1940 F1254
G1 X112.080 Y98.920 E1.4182
G1 X112.080 Y121.080 E2.6122
G1 X107.920 Y121.080 E2.8363
G1 X108.400 Y120.600 F5200
G92 E0
G1 X108.400 Y99.400 E1.1423 F1254
G1 X111.600 Y99.400 E1.3147
G1 X111.600 Y120.600 E2.4570
G1 X108.400 Y120.600 E2.6294
; solid layer
G1 X111.408 Y120.132 F5200
G92 E0
G1 X111.132 Y120.408 E0.0210 F1332
G1 X110.453 Y120.408 E0.0576
G1 X111.408 Y119.453 E0.1304
G1 X111.408 Y118.774 E0.1669
G1 X109.774 Y120.408 E0.2914
G1 X109.096 Y120.408 E0.3280
G1 X111.408 Y118.096 E0.5042
G1 X111.408 Y117.417 E0.5408
G1 X108.592 Y120.233 E0.7554
G1 X108.592 Y119.554 E0.7919
G1 X111.408 Y116.738 E1.0065
G1 X111.408 Y116.059 E1.0431
G1 X108.592 Y118.875 E1.2577
G1 X108.592 Y118.196 E1.2942
G1 X111.408 Y115.380 E1.5088
G1 X111.408 Y114.701 E1.5454
G1 X108.592 Y117.517 E1.7600
G1 X108.592 Y116.839 E1.7965
G1 X111.408 Y114.023 E2.0111
G1 X111.408 Y113.344 E2.0477
G1 X108.592 Y116.160 E2.2623
G1 X108.592 Y115.481 E2.2989
G1 X111.408 Y112.665 E2.5134
G1 X111.408 Y111.986 E2.5500
G1 X108.592 Y114.802 E2.7646
G1 X108.592 Y114.123 E2.8012
G1 X111.408 Y111.307 E3.0157
G1 X111.408 Y110.629 E3.0523
G1 X108.592 Y113.445 E3.2669
G1 X108.592 Y112.766 E3.3035
G1 X111.408 Y109.950 E3.5181
G1 X111.408 Y109.271 E3.5546
G1 X108.592 Y112.087 E3.7692
G1 X108.592 Y111.408 E3.8058
G1 X111.408 Y108.592 E4.0204
G1 X111.408 Y107.913 E4.0569
G1 X108.592 Y110.729 E4.2715
G1 X108.592 Y110.050 E4.3081
G1 X111.408 Y107.234 E4.5227
G1 X111.408 Y106.556 E4.5593
G1 X108.592 Y109.372 E4.7738
G1 X108.592 Y108.693 E4.8104
G1 X111.408 Y105.877 E5.0250
G1 X111.408 Y105.198 E5.0616
G1 X108.592 Y108.014 E5.2761
G1 X108.592 Y107.335 E5.3127
G1 X111.408 Y104.519 E5.5273
G1 X111.408 Y103.840 E5.5639
G1 X108.592 Y106.656 E5.7784
G1 X108.592 Y105.977 E5.8150
G1 X111.408 Y103.161 E6.0296
G1 X111.408 Y102.483 E6.0662
G1 X108.592 Y105.299 E6.2808
G1 X108.592 Y104.620 E6.3173
G1 X111.408 Y101.804 E6.5319
G1 X111.408 Y101.125 E6.5685
G1 X108.592 Y103.941 E6.7831
G1 X108.592 Y103.262 E6.8196
G1 X111.408 Y100.446 E7.0342
G1 X111.408 Y99.767 E7.0708
G1 X108.592 Y102.583 E7.2854
G1 X108.592 Y101.905 E7.3220
G1 X110.905 Y99.592 E7.4982
G1 X110.226 Y99.592 E7.5347
G1 X108.592 Y101.226 E7.6592
G1 X108.592 Y100.547 E7.6958
G1 X109.547 Y99.592 E7.7686
G1 X108.868 Y99.592 E7.8051
G1 X108.592 Y99.868 E7.8262
G92 E0
G1 E-2.0000 F3000
; layer 3, Z = 0.660
; outer perimeter
G1 X107.440 Y98.440 F5200
G1 Z0.660 F1002
G1 E0.0000 F3000
G92 E0
G1 X112.560 Y98.440 E0.2759 F940
G1 X112.560 Y121.560 E1.5216
G1 X107.440 Y121.560 E1.7975
G1 X107.440 Y98.440 E3.0432
G1 X112.440 Y98.440 F5000
; inner perimeter
G1 X112.080 Y98.920 F5200
G92 E0
G1 X112.080 Y121.080 E1.1940 F1254
G1 X107.920 Y121.080 E1.4182
G1 X107.920 Y98.920 E2.6122
G1 X112.080 Y98.920 E2.8363
G1 X111.600 Y99.400 F5200
G92 E0
G1 X111.600 Y120.600 E1.1423 F1254
G1 X108.400 Y120.600 E1.3147
G1 X108.400 Y99.400 E2.4570
G1 X111.600 Y99.400 E2.6294
; solid layer
G1 X111.132 Y99.592 F5200
G92 E0
G1 X111.408 Y99.868 E0.0210 F1332
G1 X111.408 Y100.547 E0.0576
G1 X110.453 Y99.592 E0.1304
G1 X109.774 Y99.592 E0.1669
G1 X111.408 Y101.226 E0.2914
G1 X111.408 Y101.904 E0.3280
G1 X109.096 Y99.592 E0.5042
G1 X108.592 Y99.592 E0.5313
G1 X108.592 Y99.767 E0.5408
G1 X111.408 Y102.583 E0.7554
G1 X111.408 Y103.262 E0.7919
G1 X108.592 Y100.446 E1.0065
G1 X108.592 Y101.125 E1.0431
G1 X111.408 Y103.941 E1.2577
G1 X111.408 Y104.620 E1.2942
G1 X108.592 Y101.804 E1.5088
G1 X108.592 Y102.483 E1.5454
G1 X111.408 Y105.299 E1.7600
G1 X111.408 Y105.977 E1.7966
G1 X108.592 Y103.161 E2.0111
G1 X108.592 Y103.840 E2.0477
G1 X111.408 Y106.656 E2.2623
G1 X111.408 Y107.335 E2.2989
G1 X108.592 Y104.519 E2.5134
G1 X108.592 Y105.198 E2.5500
G1 X111.408 Y108.014 E2.7646
G1 X111.408 Y108.693 E2.8012
G1 X108.592 Y105.877 E3.0158
G1 X108.592 Y106.556 E3.0523
G1 X111.408 Y109.372 E3.2669
G1 X111.408 Y110.050 E3.3035
G1 X108.592 Y107.234 E3.5181
G1 X108.592 Y107.913 E3.5546
G1 X111.408 Y110.729 E3.7692
G1 X111.408 Y111.408 E3.8058
G1 X108.592 Y108.592 E4.0204
G1 X108.592 Y109.271 E4.0569
G1 X111.408 Y112.087 E4.2715
G1 X111.408 Y112.766 E4.3081
G1 X108.592 Y109.950 E4.5227
G1 X108.592 Y110.628 E4.5593
G1 X111.408 Y113.444 E4.7738
G1 X111.408 Y114.123 E4.8104
G1 X108.592 Y111.307 E5.0250
G1 X108.592 Y111.986 E5.0616
G1 X111.408 Y114.802 E5.2761
G1 X111.408 Y115.481 E5.3127
G1 X108.592 Y112.665 E5.5273
G1 X108.592 Y113.344 E5.5639
G1 X111.408 Y116.160 E5.7785
G1 X111.408 Y116.839 E5.8150
G1 X108.592 Y114.023 E6.0296
G1 X108.592 Y114.701 E6.0662
G1 X111.408 Y117.517 E6.2808
G1 X111.408 Y118.196 E6.3173
G1 X108.592 Y115.380 E6.5319
G1 X108.592 Y116.059 E6.5685
G1 X111.408 Y118.875 E6.7831
G1 X111.408 Y119.554 E6.8197
G1 X108.592 Y116.738 E7.0342
G1 X108.592 Y117.417 E7.0708
G1 X111.408 Y120.233 E7.2854
G1 X111.408 Y120.408 E7.2948
G1 X110.904 Y120.408 E7.3220
G1 X108.592 Y118.095 E7.4982
G1 X108.592 Y118.774 E7.5347
G1 X110.226 Y120.408 E7.6592
G1 X109.547 Y120.408 E7.6958
G1 X108.592 Y119.453 E7.7686
G1 X108.592 Y120.132 E7.8051
G1 X108.868 Y120.408 E7.8262
G92 E0
G1 E-2.0000 F3000
; layer 4, Z = 0.960
; outer perimeter
G1 X107.440 Y121.560 F5200
G1 Z0.960 F1002
G1 E0.0000 F3000
G92 E0
G1 X107.440 Y98.440 E1.2457 F940
G1 X112.560 Y98.440 E1.5216
G1 X112.560 Y121.560 E2.7673
G1 X107.440 Y121.560 E3.0432
G1 X107.440 Y116.560 F5000
; inner perimeter
G1 X107.920 Y121.080 F5200
G92 E0
G1 X107.920 Y98.920 E1.1940 F1254
G1 X112.080 Y98.920 E1.4182
G1 X112.080 Y121.080 E2.6122
G1 X107.920 Y121.080 E2.8363
G1 X108.400 Y120.600 F5200
G92 E0
G1 X108.400 Y99.400 E1.1423 F1254
G1 X111.600 Y99.400 E1.3147
G1 X111.600 Y120.600 E2.4570
G1 X108.400 Y120.600 E2.6294
; solid layer
G1 X111.408 Y120.132 F5200
G92 E0
G1 X111.132 Y120.408 E0.0210 F1332
G1 X110.453 Y120.408 E0.0576
G1 X111.408 Y119.453 E0.1304
G1 X111.408 Y118.774 E0.1669
G1 X109.774 Y120.408 E0.2914
G1 X109.096 Y120.408 E0.3280
G1 X111.408 Y118.096 E0.5042
G1 X111.408 Y117.417 E0.5408
G1 X108.592 Y120.233 E0.7554
G1 X108.592 Y119.554 E0.7919
G1 X111.408 Y116.738 E1.0065
G1 X111.408 Y116.059 E1.0431
G1 X108.592 Y118.875 E1.2577
G1 X108.592 Y118.196 E1.2942
G1 X111.408 Y115.380 E1.5088
G1 X111.408 Y114.701 E1.5454
G1 X108.592 Y117.517 E1.7600
G1 X108.592 Y116.839 E1.7965
G1 X111.408 Y114.023 E2.0111
G1 X111.408 Y113.344 E2.0477
G1 X108.592 Y116.160 E2.2623
G1 X108.592 Y115.481 E2.2989
G1 X111.408 Y112.665 E2.5134
G1 X111.408 Y111.986 E2.5500
G1 X108.592 Y114.802 E2.7646
G1 X108.592 Y114.123 E2.8012
G1 X111.408 Y111.307 E3.0157
G1 X111.408 Y110.629 E3.0523
G1 X108.592 Y113.445 E3.2669
G1 X108.592 Y112.766 E3.3035
G1 X111.408 Y109.950 E3.5181
G1 X111.408 Y109.271 E3.5546
G1 X108.592 Y112.087 E3.7692
G1 X108.592 Y111.408 E3.8058
G1 X111.408 Y108.592 E4.0204
G1 X111.408 Y107.913 E4.0569
G1 X108.592 Y110.729 E4.2715
G1 X108.592 Y110.050 E4.3081
G1 X111.408 Y107.234 E4.5227
G1 X111.408 Y106.556 E4.5593
G1 X108.592 Y109.372 E4.7738
G1 X108.592 Y108.693 E4.8104
G1 X111.408 Y105.877 E5.0250
G1 X111.408 Y105.198 E5.0616
G1 X108.592 Y108.014 E5.2761
G1 X108.592 Y107.335 E5.3127
G1 X111.408 Y104.519 E5.5273
G1 X111.408 Y103.840 E5.5639
G1 X108.592 Y106.656 E5.7784
