; G-Code generated by Simplify3D(R) Version 4.0.0
; May 1, 2018 at 4:35:40 PM
; Settings Summary
;   processName,nozzle 0.4
;   applyToModels,belly1,maslul,mesila
;   profileName,Flying Bear 902 Update 7-2017 (modified)
;   profileVersion,2017-07-10 09:45:20
;   baseProfile,Default
;   printMaterial,PLA
;   printQuality,Medium
;   printExtruders,
;   extruderName,Extruder 1
;   extruderToolheadNumber,0
;   extruderDiameter,0.4
;   extruderAutoWidth,1
;   extruderWidth,0.48
;   extrusionMultiplier,0.9
;   extruderUseRetract,1
;   extruderRetractionDistance,2
;   extruderExtraRestartDistance,0
;   extruderRetractionZLift,0
;   extruderRetractionSpeed,3000
;   extruderUseCoasting,0
;   extruderCoastingDistance,0.2
;   extruderUseWipe,1
;   extruderWipeDistance,5
;   primaryExtruder,0
;   layerHeight,0.3
;   topSolidLayers,4
;   bottomSolidLayers,4
;   perimeterOutlines,3
;   printPerimetersInsideOut,0
;   startPointOption,2
;   startPointOriginX,0
;   startPointOriginY,0
;   sequentialIslands,0
;   spiralVaseMode,0
;   firstLayerHeightPercentage,20
;   firstLayerWidthPercentage,100
;   firstLayerUnderspeed,0.5
;   useRaft,0
;   raftExtruder,0
;   raftTopLayers,2
;   raftBaseLayers,2
;   raftOffset,2
;   raftSeparationDistance,0.55
;   raftTopInfill,100
;   aboveRaftSpeedMultiplier,0.3
;   useSkirt,0
;   skirtExtruder,0
;   skirtLayers,1
;   skirtOutlines,2
;   skirtOffset,4
;   usePrimePillar,0
;   primePillarExtruder,999
;   primePillarWidth,12
;   primePillarLocation,7
;   primePillarSpeedMultiplier,1
;   useOozeShield,0
;   oozeShieldExtruder,999
;   oozeShieldOffset,2
;   oozeShieldOutlines,1
;   oozeShieldSidewallShape,1
;   oozeShieldSidewallAngle,30
;   oozeShieldSpeedMultiplier,1
;   infillExtruder,0
;   internalInfillPattern,Rectilinear
;   externalInfillPattern,Rectilinear
;   infillPercentage,12
;   outlineOverlapPercentage,60
;   infillExtrusionWidthPercentage,100
;   minInfillLength,5
;   infillLayerInterval,1
;   internalInfillAngles,45,-45
;   overlapInternalInfillAngles,0
;   externalInfillAngles,45,-45
;   generateSupport,1
;   supportExtruder,0
;   supportInfillPercentage,30
;   supportExtraInflation,0
;   supportBaseLayers,0
;   denseSupportExtruder,0
;   denseSupportLayers,0
;   denseSupportInfillPercentage,50
;   supportLayerInterval,1
;   supportHorizontalPartOffset,0.3
;   supportUpperSeparationLayers,1
;   supportLowerSeparationLayers,1
;   supportType,0
;   supportGridSpacing,4
;   maxOverhangAngle,70
;   supportAngles,0
;   temperatureName,Extruder 1,Heated Bed
;   temperatureNumber,0,0
;   temperatureSetpointCount,1,1
;   temperatureSetpointLayers,1,1
;   temperatureSetpointTemperatures,210,60
;   temperatureStabilizeAtStartup,1,0
;   temperatureHeatedBed,0,1
;   temperatureRelayBetweenLayers,0,0
;   temperatureRelayBetweenLoops,0,0
;   fanLayers,1
;   fanSpeeds,255
;   blipFanToFullPower,0
;   adjustSpeedForCooling,1
;   minSpeedLayerTime,15
;   minCoolingSpeedSlowdown,20
;   increaseFanForCooling,0
;   minFanLayerTime,45
;   maxCoolingFanSpeed,100
;   increaseFanForBridging,0
;   bridgingFanSpeed,100
;   use5D,1
;   relativeEdistances,0
;   allowEaxisZeroing,1
;   independentExtruderAxes,0
;   includeM10123,0
;   stickySupport,1
;   applyToolheadOffsets,0
;   gcodeXoffset,0
;   gcodeYoffset,0
;   gcodeZoffset,0
;   overrideMachineDefinition,1
;   machineTypeOverride,0
;   strokeXoverride,220
;   strokeYoverride,220
;   strokeZoverride,280
;   originOffsetXoverride,0
;   originOffsetYoverride,0
;   originOffsetZoverride,0
;   homeXdirOverride,-1
;   homeYdirOverride,-1
;   homeZdirOverride,-1
;   flipXoverride,1
;   flipYoverride,-1
;   flipZoverride,1
;   toolheadOffsets,0,0|0,0|0,0|0,0|0,0|0,0
;   overrideFirmwareConfiguration,1
;   firmwareTypeOverride,RepRap (Marlin/Repetier/Sprinter)
;   GPXconfigOverride,r2
;   baudRateOverride,250000
;   overridePrinterModels,0
;   printerModelsOverride
;   startingGcode,G28 ; home all axes,G1 X0 Y20 Z0.2 F3000 ; get ready to prime,G92 E0 ; reset extrusion distance,G1 X200 E20 F600 ; prime nozzle
;   layerChangeGcode,
;   retractionGcode,
;   toolChangeGcode,
;   endingGcode,M104 S0 ; turn off extruder,M140 S0 ; turn off bed,G28 X Y ; home x and y axes,M84 ; disable motors
;   exportFileFormat,gcode
;   celebration,0
;   celebrationSong,Random Song
;   postProcessing,
;   defaultSpeed,5000
;   outlineUnderspeed,0.6
;   solidInfillUnderspeed,0.85
;   supportUnderspeed,0.8
;   rapidXYspeed,5200
;   rapidZspeed,1002
;   minBridgingArea,50
;   bridgingExtraInflation,0
;   bridgingExtrusionMultiplier,1
;   bridgingSpeedMultiplier,1
;   useFixedBridgingAngle,0
;   fixedBridgingAngle,0
;   applyBridgingToPerimeters,0
;   filamentDiameters,1.75|1.75|1.75|1.75|1.75|1.75
;   filamentPricesPerKg,46|46|46|46|46|46
;   filamentDensities,1.25|1.25|1.25|1.25|1.25|1.25
;   useMinPrintHeight,0
;   minPrintHeight,0
;   useMaxPrintHeight,0
;   maxPrintHeight,2.3
;   useDiaphragm,0
;   diaphragmLayerInterval,20
;   robustSlicing,1
;   mergeAllIntoSolid,0
;   onlyRetractWhenCrossingOutline,1
;   retractBetweenLayers,1
;   useRetractionMinTravel,0
;   retractionMinTravel,3
;   retractWhileWiping,0
;   onlyWipeOutlines,1
;   avoidCrossingOutline,0
;   maxMovementDetourFactor,3
;   toolChangeRetractionDistance,12
;   toolChangeExtraRestartDistance,-0.5
;   toolChangeRetractionSpeed,600
;   externalThinWallType,1
;   internalThinWallType,0
;   thinWallAllowedOverlapPercentage,15
;   singleExtrusionMinLength,1
;   singleExtrusionMinPrintingWidthPercentage,50
;   singleExtrusionMaxPrintingWidthPercentage,200
;   singleExtrusionEndpointExtension,0.2
;   horizontalSizeCompensation,0
G90
M82
M106 S650
M140 S60
M104 S210 T0
M109 S210 T0
G28 ; home all axes
G1 X0 Y20 Z0.2 F3000 ; get ready to prime
G92 E0 ; reset extrusion distance
G1 X200 E20 F600 ; prime nozzle
G92 E0
G1 E-2.0000 F3000
G1 Z0.060 F1002
; process nozzle 0.4
; layer 1, Z = 0.060
T0
; tool H0.300 W0.480
; outer perimeter
G1 X94.940 Y88.440 F5200
G1 E0.0000 F900
G92 E0
G1 X100.060 Y88.440 E0.2759 F1500
G1 X100.060 Y111.560 E1.5216
G1 X94.940 Y111.560 E1.7975
G1 X94.940 Y88.440 E3.0432
G1 X99.940 Y88.440 F5000
; inner perimeter
G1 X99.580 Y88.920 F5200
G92 E0
G1 X99.580 Y111.080 E1.1940 F2000
G1 X95.420 Y111.080 E1.4182
G1 X95.420 Y88.920 E2.6122
G1 X99.580 Y88.920 E2.8363
G1 X99.100 Y89.400 F5200
G92 E0
G1 X99.100 Y110.600 E1.1423 F2000
G1 X95.900 Y110.600 E1.3147
G1 X95.900 Y89.400 E2.4570
G1 X99.100 Y89.400 E2.6294
; solid layer
G1 X98.417 Y89.592 F5200
G92 E0
G1 X98.908 Y90.083 E0.0374 F2125
G1 X98.908 Y90.762 E0.0740
G1 X97.738 Y89.592 E0.1632
G1 X97.059 Y89.592 E0.1997
G1 X98.908 Y91.441 E0.3406
G1 X98.908 Y92.120 E0.3772
G1 X96.380 Y89.592 E0.5698
G1 X96.092 Y89.592 E0.5854
G1 X96.092 Y89.983 E0.6064
G1 X98.908 Y92.799 E0.8210
G1 X98.908 Y93.477 E0.8576
G1 X96.092 Y90.661 E1.0721
G1 X96.092 Y91.340 E1.1087
G1 X98.908 Y94.156 E1.3233
G1 X98.908 Y94.835 E1.3599
G1 X96.092 Y92.019 E1.5744
G1 X96.092 Y92.698 E1.6110
G1 X98.908 Y95.514 E1.8256
G1 X98.908 Y96.193 E1.8622
G1 X96.092 Y93.377 E2.0768
G1 X96.092 Y94.056 E2.1133
G1 X98.908 Y96.872 E2.3279
G1 X98.908 Y97.550 E2.3645
G1 X96.092 Y94.734 E2.5791
G1 X96.092 Y95.413 E2.6156
G1 X98.908 Y98.229 E2.8302
G1 X98.908 Y98.908 E2.8668
G1 X96.092 Y96.092 E3.0814
G1 X96.092 Y96.771 E3.1179
G1 X98.908 Y99.587 E3.3325
G1 X98.908 Y100.266 E3.3691
G1 X96.092 Y97.450 E3.5837
G1 X96.092 Y98.128 E3.6203
G1 X98.908 Y100.944 E3.8348
G1 X98.908 Y101.623 E3.8714
G1 X96.092 Y98.807 E4.0860
G1 X96.092 Y99.486 E4.1226
G1 X98.908 Y102.302 E4.3371
G1 X98.908 Y102.981 E4.3737
G1 X96.092 Y100.165 E4.5883
G1 X96.092 Y100.844 E4.6249
G1 X98.908 Y103.660 E4.8395
G1 X98.908 Y104.339 E4.8760
G1 X96.092 Y101.523 E5.0906
G1 X96.092 Y102.201 E5.1272
G1 X98.908 Y105.017 E5.3418
G1 X98.908 Y105.696 E5.3783
G1 X96.092 Y102.880 E5.5929
G1 X96.092 Y103.559 E5.6295
G1 X98.908 Y106.375 E5.8441
G1 X98.908 Y107.054 E5.8806
G1 X96.092 Y104.238 E6.0952
G1 X96.092 Y104.917 E6.1318
G1 X98.908 Y107.733 E6.3464
G1 X98.908 Y108.411 E6.3830
G1 X96.092 Y105.595 E6.5975
G1 X96.092 Y106.274 E6.6341
G1 X98.908 Y109.090 E6.8487
G1 X98.908 Y109.769 E6.8853
G1 X96.092 Y106.953 E7.0998
G1 X96.092 Y107.632 E7.1364
G1 X98.868 Y110.408 E7.3480
G1 X98.189 Y110.408 E7.3845
G1 X96.092 Y108.311 E7.5443
G1 X96.092 Y108.990 E7.5809
G1 X97.510 Y110.408 E7.6890
G1 X96.832 Y110.408 E7.7256
G1 X96.092 Y109.668 E7.7819
G1 X96.092 Y110.347 E7.8185
G1 X96.153 Y110.408 E7.8231
G92 E0
G1 E-2.0000 F3000
; outer perimeter
G1 X96.709 Y117.040 F5200
G1 E0.0000 F3000
G92 E0
G1 X100.960 Y117.040 E0.2291 F1500
G1 X100.960 Y131.560 E1.0114
G1 X96.709 Y131.560 E1.2405
G1 X96.426 Y131.538 E1.2558
G1 X96.157 Y131.473 E1.2707
G1 X95.902 Y131.368 E1.2855
G1 X95.667 Y131.224 E1.3004
G1 X95.457 Y131.044 E1.3153
G1 X95.277 Y130.835 E1.3302
G1 X95.133 Y130.599 E1.3450
G1 X95.027 Y130.344 E1.3599
G1 X94.963 Y130.076 E1.3748
G1 X94.940 Y129.791 E1.3902
G1 X94.940 Y118.809 E1.9819
G1 X94.962 Y118.526 E1.9972
G1 X95.027 Y118.257 E2.0121
G1 X95.132 Y118.002 E2.0270
G1 X95.276 Y117.767 E2.0419
G1 X95.455 Y117.557 E2.0567
G1 X95.665 Y117.377 E2.0716
G1 X95.901 Y117.233 E2.0865
G1 X96.156 Y117.127 E2.1013
G1 X96.424 Y117.063 E2.1162
G1 X96.709 Y117.040 E2.1316
G1 X100.960 Y117.040 F5000
G1 X100.960 Y117.789 F5000
; inner perimeter
G1 X100.480 Y117.520 F5200
G92 E0
G1 X100.480 Y131.080 E0.7306 F2000
G1 X96.728 Y131.080 E0.9328
G1 X96.501 Y131.062 E0.9451
G1 X96.306 Y131.015 E0.9559
G1 X96.120 Y130.939 E0.9667
G1 X95.949 Y130.834 E0.9775
G1 X95.797 Y130.704 E0.9883
G1 X95.667 Y130.552 E0.9991
G1 X95.562 Y130.381 E1.0099
G1 X95.485 Y130.195 E1.0207
G1 X95.438 Y130.000 E1.0315
G1 X95.420 Y129.772 E1.0438
G1 X95.420 Y118.828 E1.6335
G1 X95.438 Y118.601 E1.6458
G1 X95.485 Y118.406 E1.6566
G1 X95.561 Y118.221 E1.6674
G1 X95.666 Y118.049 E1.6782
G1 X95.796 Y117.897 E1.6890
G1 X95.948 Y117.767 E1.6998
G1 X96.119 Y117.662 E1.7106
G1 X96.305 Y117.585 E1.7214
G1 X96.499 Y117.538 E1.7322
G1 X96.728 Y117.520 E1.7446
G1 X100.480 Y117.520 E1.9467
G1 X100.000 Y118.000 F5200
G92 E0
G1 X100.000 Y130.600 E0.6789 F2000
G1 X96.747 Y130.600 E0.8542
G1 X96.576 Y130.587 E0.8634
G1 X96.454 Y130.557 E0.8702
G1 X96.339 Y130.510 E0.8769
G1 X96.232 Y130.444 E0.8836
G1 X96.137 Y130.363 E0.8904
G1 X96.056 Y130.268 E0.8971
G1 X95.991 Y130.162 E0.9038
G1 X95.943 Y130.046 E0.9106
G1 X95.914 Y129.925 E0.9173
G1 X95.900 Y129.753 E0.9266
G1 X95.900 Y125.359 E1.1633
G1 X95.985 Y125.485 E1.1715
G1 X96.244 Y125.755 E1.1916
G1 X96.544 Y125.977 E1.2118
G1 X96.878 Y126.145 E1.2319
G1 X97.236 Y126.255 E1.2521
G1 X97.606 Y126.302 E1.2722
G1 X97.980 Y126.286 E1.2924
G1 X98.346 Y126.208 E1.3125
G1 X98.692 Y126.068 E1.3327
G1 X99.011 Y125.872 E1.3528
G1 X99.291 Y125.625 E1.3730
G1 X99.526 Y125.334 E1.3931
G1 X99.709 Y125.008 E1.4132
G1 X99.833 Y124.655 E1.4334
G1 X99.896 Y124.287 E1.4535
G1 X99.896 Y123.913 E1.4737
G1 X99.833 Y123.545 E1.4938
G1 X99.709 Y123.192 E1.5140
G1 X99.526 Y122.866 E1.5341
G1 X99.291 Y122.575 E1.5543
G1 X99.011 Y122.328 E1.5744
G1 X98.692 Y122.132 E1.5946
G1 X98.345 Y121.992 E1.6147
G1 X97.980 Y121.914 E1.6348
G1 X97.606 Y121.898 E1.6550
G1 X97.236 Y121.945 E1.6751
G1 X96.878 Y122.055 E1.6953
G1 X96.544 Y122.223 E1.7154
G1 X96.244 Y122.445 E1.7356
G1 X95.985 Y122.715 E1.7557
G1 X95.900 Y122.841 E1.7639
G1 X95.900 Y118.847 E1.9791
G1 X95.913 Y118.676 E1.9883
G1 X95.943 Y118.554 E1.9951
G1 X95.990 Y118.439 E2.0018
G1 X96.056 Y118.332 E2.0085
G1 X96.137 Y118.237 E2.0153
G1 X96.232 Y118.156 E2.0220
G1 X96.338 Y118.091 E2.0287
G1 X96.454 Y118.043 E2.0355
G1 X96.575 Y118.014 E2.0422
G1 X96.746 Y118.000 E2.0515
G1 X100.000 Y118.000 E2.2268
; outer perimeter
G1 X98.063 Y122.913 F5200
G92 E0
G1 X97.858 Y122.869 E0.0113 F1500
G1 X97.647 Y122.860 E0.0227
G1 X97.439 Y122.887 E0.0340
G1 X97.237 Y122.949 E0.0454
G1 X97.049 Y123.043 E0.0567
G1 X96.880 Y123.168 E0.0680
G1 X96.735 Y123.320 E0.0794
G1 X96.617 Y123.495 E0.0907
G1 X96.530 Y123.687 E0.1021
G1 X96.477 Y123.890 E0.1134
G1 X96.459 Y124.101 E0.1248
G1 X96.477 Y124.310 E0.1361
G1 X96.530 Y124.513 E0.1474
G1 X96.617 Y124.705 E0.1588
G1 X96.735 Y124.880 E0.1701
G1 X96.880 Y125.031 E0.1814
G1 X97.049 Y125.157 E0.1928
G1 X97.237 Y125.251 E0.2041
G1 X97.439 Y125.313 E0.2155
G1 X97.647 Y125.340 E0.2268
G1 X97.858 Y125.331 E0.2381
G1 X98.063 Y125.286 E0.2495
G1 X98.259 Y125.208 E0.2608
G1 X98.438 Y125.098 E0.2722
G1 X98.596 Y124.959 E0.2835
G1 X98.728 Y124.795 E0.2948
G1 X98.831 Y124.611 E0.3062
G1 X98.901 Y124.413 E0.3175
G1 X98.936 Y124.205 E0.3289
G1 X98.936 Y123.995 E0.3402
G1 X98.901 Y123.787 E0.3515
G1 X98.831 Y123.589 E0.3629
G1 X98.728 Y123.405 E0.3742
G1 X98.596 Y123.241 E0.3856
G1 X98.438 Y123.102 E0.3969
G1 X98.259 Y122.992 E0.4082
G1 X98.063 Y122.913 E0.4196
G1 X97.858 Y122.869 F5000
G1 X97.647 Y122.860 F5000
G1 X97.439 Y122.887 F5000
G1 X97.237 Y122.949 F5000
G1 X97.049 Y123.043 F5000
G1 X96.880 Y123.168 F5000
G1 X96.735 Y123.320 F5000
G1 X96.617 Y123.495 F5000
G1 X96.530 Y123.687 F5000
G1 X96.477 Y123.890 F5000
G1 X96.459 Y124.101 F5000
G1 X96.477 Y124.310 F5000
G1 X96.530 Y124.513 F5000
G1 X96.617 Y124.705 F5000
G1 X96.735 Y124.880 F5000
G1 X96.880 Y125.031 F5000
G1 X97.049 Y125.157 F5000
G1 X97.237 Y125.251 F5000
G1 X97.439 Y125.313 F5000
G1 X97.647 Y125.340 F5000
G1 X97.858 Y125.331 F5000
G1 X98.063 Y125.286 F5000
G1 X98.259 Y125.208 F5000
G1 X98.394 Y125.124 F5000
; inner perimeter
G1 X98.724 Y125.485 F5200
G92 E0
G1 X98.944 Y125.292 E0.0157 F2000
G1 X99.127 Y125.065 E0.0315
G1 X99.270 Y124.810 E0.0472
G1 X99.367 Y124.534 E0.0630
G1 X99.416 Y124.246 E0.0787
G1 X99.416 Y123.954 E0.0945
G1 X99.367 Y123.666 E0.1102
G1 X99.270 Y123.390 E0.1259
G1 X99.127 Y123.135 E0.1417
G1 X98.944 Y122.908 E0.1574
G1 X98.724 Y122.715 E0.1732
G1 X98.476 Y122.562 E0.1889
G1 X98.204 Y122.453 E0.2047
G1 X97.919 Y122.391 E0.2204
G1 X97.627 Y122.379 E0.2361
G1 X97.337 Y122.416 E0.2519
G1 X97.058 Y122.502 E0.2676
G1 X96.797 Y122.633 E0.2834
G1 X96.562 Y122.807 E0.2991
G1 X96.360 Y123.018 E0.3149
G1 X96.196 Y123.260 E0.3306
G1 X96.076 Y123.526 E0.3463
G1 X96.002 Y123.809 E0.3621
G1 X95.977 Y124.101 E0.3779
G1 X96.002 Y124.391 E0.3936
G1 X96.076 Y124.674 E0.4093
G1 X96.196 Y124.940 E0.4251
G1 X96.360 Y125.182 E0.4408
G1 X96.562 Y125.393 E0.4565
G1 X96.797 Y125.567 E0.4723
G1 X97.058 Y125.698 E0.4880
G1 X97.337 Y125.784 E0.5038
G1 X97.627 Y125.821 E0.5195
G1 X97.919 Y125.809 E0.5353
G1 X98.204 Y125.747 E0.5510
G1 X98.476 Y125.638 E0.5667
G1 X98.724 Y125.485 E0.5825
; solid layer
G1 X99.669 Y125.464 F5200
G92 E0
G1 X99.808 Y125.603 E0.0106 F2125
G1 X99.808 Y126.282 E0.0472
G1 X99.353 Y125.827 E0.0819
G1 X99.125 Y126.027 E0.0982
G1 X98.970 Y126.123 E0.1080
G1 X99.808 Y126.961 E0.1719
G1 X99.808 Y127.640 E0.2085
G1 X98.515 Y126.347 E0.3070
G1 X98.402 Y126.392 E0.3136
G1 X98.004 Y126.478 E0.3355
G1 X97.969 Y126.479 E0.3374
G1 X99.808 Y128.319 E0.4776
G1 X99.808 Y128.997 E0.5141
G1 X97.263 Y126.452 E0.7081
G1 X97.195 Y126.443 E0.7118
G1 X96.806 Y126.324 E0.7337
G1 X96.443 Y126.141 E0.7556
G1 X96.116 Y125.899 E0.7775
G1 X96.092 Y125.874 E0.7794
G1 X96.092 Y125.960 E0.7840
G1 X99.808 Y129.676 E1.0672
G1 X99.808 Y130.355 E1.1038
G1 X96.092 Y126.639 E1.3869
G1 X96.092 Y127.318 E1.4235
G1 X99.182 Y130.408 E1.6590
G1 X98.503 Y130.408 E1.6955
G1 X96.092 Y127.997 E1.8793
G1 X96.092 Y128.676 E1.9158
G1 X97.825 Y130.408 E2.0479
G1 X97.146 Y130.408 E2.0844
G1 X96.092 Y129.354 E2.1647
G1 X96.092 Y129.746 E2.1858
G1 X96.104 Y129.895 E2.1939
G1 X96.126 Y129.987 E2.1990
G1 X96.162 Y130.074 E2.2041
G1 X96.208 Y130.150 E2.2088
G1 X96.350 Y130.292 E2.2196
G1 X96.340 Y122.135 F5200
G92 E0
G1 X96.092 Y121.887 E0.0189 F2125
G1 X96.092 Y121.208 E0.0555
G1 X96.775 Y121.892 E0.1075
G1 X96.806 Y121.876 E0.1094
G1 X97.195 Y121.757 E0.1313
G1 X97.305 Y121.743 E0.1373
G1 X96.092 Y120.530 E0.2297
G1 X96.092 Y119.851 E0.2663
G1 X97.962 Y121.721 E0.4088
G1 X98.004 Y121.722 E0.4111
G1 X98.402 Y121.808 E0.4330
G1 X98.779 Y121.960 E0.4549
G1 X99.041 Y122.121 E0.4714
G1 X96.092 Y119.172 E0.6961
G1 X96.092 Y118.855 E0.7132
G1 X96.104 Y118.706 E0.7213
G1 X96.126 Y118.614 E0.7264
