; G-Code generated by Simplify3D(R) Version 4.0.0
; Sep 5, 2020 at 3:52:12 PM
; Settings Summary
;   processName,Process2
;   applyToModels,beak_with_hole,foot_l,foot_r
;   profileName,bar (modified)
;   profileVersion,2019-07-15 16:42:33
;   baseProfile,Default (modified)
;   printMaterial,PLA
;   printQuality,Medium
;   printExtruders,
;   extruderName,Primary Extruder
;   extruderToolheadNumber,0
;   extruderDiameter,0.4
;   extruderAutoWidth,0
;   extruderWidth,0.4
;   extrusionMultiplier,0.9
;   extruderUseRetract,1
;   extruderRetractionDistance,1
;   extruderExtraRestartDistance,0
;   extruderRetractionZLift,0
;   extruderRetractionSpeed,1800
;   extruderUseCoasting,0
;   extruderCoastingDistance,0.2
;   extruderUseWipe,0
;   extruderWipeDistance,5
;   primaryExtruder,0
;   layerHeight,0.3
;   topSolidLayers,3
;   bottomSolidLayers,3
;   perimeterOutlines,2
;   printPerimetersInsideOut,1
;   startPointOption,2
;   startPointOriginX,0
;   startPointOriginY,0
;   sequentialIslands,0
;   spiralVaseMode,0
;   firstLayerHeightPercentage,100
;   firstLayerWidthPercentage,100
;   firstLayerUnderspeed,0.5
;   useRaft,0
;   raftExtruder,0
;   raftTopLayers,3
;   raftBaseLayers,2
;   raftOffset,3
;   raftSeparationDistance,0.14
;   raftTopInfill,100
;   aboveRaftSpeedMultiplier,0.3
;   useSkirt,0
;   skirtExtruder,0
;   skirtLayers,1
;   skirtOutlines,2
;   skirtOffset,4
;   usePrimePillar,0
;   primePillarExtruder,999
;   primePillarWidth,12
;   primePillarLocation,7
;   primePillarSpeedMultiplier,1
;   useOozeShield,0
;   oozeShieldExtruder,999
;   oozeShieldOffset,2
;   oozeShieldOutlines,1
;   oozeShieldSidewallShape,1
;   oozeShieldSidewallAngle,30
;   oozeShieldSpeedMultiplier,1
;   infillExtruder,0
;   internalInfillPattern,Rectilinear
;   externalInfillPattern,Rectilinear
;   infillPercentage,10
;   outlineOverlapPercentage,15
;   infillExtrusionWidthPercentage,100
;   minInfillLength,5
;   infillLayerInterval,1
;   internalInfillAngles,45,-45
;   overlapInternalInfillAngles,0
;   externalInfillAngles,45,-45
;   generateSupport,1
;   supportExtruder,0
;   supportInfillPercentage,30
;   supportExtraInflation,0
;   supportBaseLayers,0
;   denseSupportExtruder,0
;   denseSupportLayers,0
;   denseSupportInfillPercentage,70
;   supportLayerInterval,1
;   supportHorizontalPartOffset,0.3
;   supportUpperSeparationLayers,1
;   supportLowerSeparationLayers,1
;   supportType,1
;   supportGridSpacing,4
;   maxOverhangAngle,45
;   supportAngles,0
;   temperatureName,Primary Extruder,Hot Bed
;   temperatureNumber,0,1
;   temperatureSetpointCount,1,1
;   temperatureSetpointLayers,1,1
;   temperatureSetpointTemperatures,210,60
;   temperatureStabilizeAtStartup,1,1
;   temperatureHeatedBed,0,1
;   temperatureRelayBetweenLayers,0,0
;   temperatureRelayBetweenLoops,0,0
;   fanLayers,1,2
;   fanSpeeds,0,100
;   blipFanToFullPower,0
;   adjustSpeedForCooling,1
;   minSpeedLayerTime,15
;   minCoolingSpeedSlowdown,20
;   increaseFanForCooling,0
;   minFanLayerTime,45
;   maxCoolingFanSpeed,100
;   increaseFanForBridging,0
;   bridgingFanSpeed,100
;   use5D,1
;   relativeEdistances,0
;   allowEaxisZeroing,1
;   independentExtruderAxes,0
;   includeM10123,0
;   stickySupport,1
;   applyToolheadOffsets,0
;   gcodeXoffset,0
;   gcodeYoffset,0
;   gcodeZoffset,0
;   overrideMachineDefinition,0
;   machineTypeOverride,0
;   strokeXoverride,200
;   strokeYoverride,200
;   strokeZoverride,200
;   originOffsetXoverride,0
;   originOffsetYoverride,0
;   originOffsetZoverride,0
;   homeXdirOverride,-1
;   homeYdirOverride,-1
;   homeZdirOverride,-1
;   flipXoverride,1
;   flipYoverride,-1
;   flipZoverride,1
;   toolheadOffsets,0,0|0,0|0,0|0,0|0,0|0,0
;   overrideFirmwareConfiguration,0
;   firmwareTypeOverride,RepRap (Marlin/Repetier/Sprinter)
;   GPXconfigOverride,r2
;   baudRateOverride,115200
;   overridePrinterModels,0
;   printerModelsOverride
;   startingGcode,G28 ; home all axes,G1 X0 Y20 Z0.2 F3000 ; get ready to prime,G92 E0 ; reset extrusion distance,G1 X150 E20 F600 ; prime nozzle
;   layerChangeGcode,
;   retractionGcode,
;   toolChangeGcode,
;   endingGcode,M104 S0 ; turn off extruder,M140 S0 ; turn off bed,M84 ; disable motors,G1 X0 Y0; home
;   exportFileFormat,gcode
;   celebration,0
;   celebrationSong,Random Song
;   postProcessing,
;   defaultSpeed,4000
;   outlineUnderspeed,0.5
;   solidInfillUnderspeed,0.8
;   supportUnderspeed,0.8
;   rapidXYspeed,4800
;   rapidZspeed,1000
;   minBridgingArea,50
;   bridgingExtraInflation,0
;   bridgingExtrusionMultiplier,1
;   bridgingSpeedMultiplier,1
;   useFixedBridgingAngle,0
;   fixedBridgingAngle,0
;   applyBridgingToPerimeters,0
;   filamentDiameters,1.75|1.75|1.75|1.75|1.75|1.75
;   filamentPricesPerKg,46|46|46|46|46|46
;   filamentDensities,1.25|1.25|1.25|1.25|1.25|1.25
;   useMinPrintHeight,0
;   minPrintHeight,0
;   useMaxPrintHeight,0
;   maxPrintHeight,0
;   useDiaphragm,0
;   diaphragmLayerInterval,20
;   robustSlicing,1
;   mergeAllIntoSolid,0
;   onlyRetractWhenCrossingOutline,1
;   retractBetweenLayers,1
;   useRetractionMinTravel,0
;   retractionMinTravel,3
;   retractWhileWiping,0
;   onlyWipeOutlines,1
;   avoidCrossingOutline,0
;   maxMovementDetourFactor,3
;   toolChangeRetractionDistance,12
;   toolChangeExtraRestartDistance,-0.5
;   toolChangeRetractionSpeed,600
;   externalThinWallType,1
;   internalThinWallType,1
;   thinWallAllowedOverlapPercentage,10
;   singleExtrusionMinLength,1
;   singleExtrusionMinPrintingWidthPercentage,50
;   singleExtrusionMaxPrintingWidthPercentage,200
;   singleExtrusionEndpointExtension,0.2
;   horizontalSizeCompensation,0
G90
M82
M106 S0
M140 S60
M190 S60
M104 S210 T0
M109 S210 T0
G28 ; home all axes
G1 X0 Y20 Z0.2 F3000 ; get ready to prime
G92 E0 ; reset extrusion distance
G1 X150 E20 F600 ; prime nozzle
G92 E0
G1 E-1.0000 F1800
G1 Z0.300 F1000
; process Process2
; layer 1, Z = 0.300
T0
; tool H0.300 W0.400
; inner perimeter
G1 X82.832 Y72.766 F4800
G1 E0.0000 F540
G92 E0
G1 X83.187 Y72.971 E0.0184 F1500
G1 X83.461 Y73.206 E0.0346
G1 X83.680 Y73.432 E0.0487
G1 X84.066 Y73.870 E0.0750
G1 X85.080 Y75.082 E0.1459
G1 X85.588 Y75.571 E0.1776
G1 X85.820 Y75.740 E0.1904
G1 X86.264 Y75.969 E0.2129
G1 X86.638 Y76.061 E0.2302
G1 X87.100 Y76.091 E0.2510
G1 X87.658 Y75.955 E0.2768
G1 X87.946 Y75.840 E0.2907
G1 X88.223 Y75.704 E0.3045
G1 X88.756 Y75.385 E0.3324
G1 X89.688 Y74.709 E0.3841
G1 X91.134 Y73.568 E0.4668
G1 X91.851 Y73.076 E0.5059
G1 X92.035 Y72.973 E0.5153
G1 X92.396 Y72.823 E0.5329
G1 X92.561 Y72.792 E0.5404
G1 X92.678 Y72.803 E0.5457
G1 X92.781 Y72.844 E0.5507
G1 X92.902 Y72.939 E0.5576
G1 X93.134 Y73.226 E0.5742
G1 X93.238 Y73.394 E0.5830
G1 X93.608 Y74.144 E0.6206
G1 X94.344 Y75.942 E0.7078
G1 X94.743 Y76.804 E0.7505
G1 X95.037 Y77.318 E0.7771
G1 X95.206 Y77.561 E0.7903
G1 X95.397 Y77.793 E0.8038
G1 X95.816 Y78.158 E0.8288
G1 X96.313 Y78.349 E0.8527
G1 X96.624 Y78.384 E0.8667
G1 X97.091 Y78.335 E0.8878
G1 X97.345 Y78.265 E0.8996
G1 X97.576 Y78.180 E0.9107
G1 X97.997 Y77.983 E0.9316
G1 X99.181 Y77.309 E0.9927
G1 X99.684 Y77.041 E1.0184
G1 X100.094 Y76.858 E1.0385
G1 X100.373 Y76.782 E1.0515
G1 X100.530 Y76.786 E1.0585
G1 X100.895 Y77.141 E1.0814
G1 X100.954 Y77.246 E1.0868
G1 X100.889 Y77.560 E1.1012
G1 X100.821 Y77.755 E1.1105
G1 X100.539 Y78.376 E1.1411
G1 X100.333 Y78.766 E1.1609
G1 X99.922 Y79.485 E1.1981
G1 X99.206 Y80.658 E1.2598
G1 X98.117 Y82.374 E1.3510
G1 X92.538 Y90.938 E1.8100
G1 X90.782 Y93.561 E1.9517
G1 X90.194 Y94.393 E1.9974
G1 X89.575 Y95.198 E2.0430
G1 X88.817 Y96.084 E2.0954
G1 X88.287 Y96.630 E2.1296
G1 X87.839 Y97.009 E2.1559
G1 X87.608 Y96.561 E2.1786
G1 X87.344 Y95.923 E2.2095
G1 X86.964 Y94.812 E2.2623
G1 X86.782 Y94.227 E2.2898
G1 X86.474 Y93.032 E2.3452
G1 X85.978 Y90.916 E2.4428
G1 X85.386 Y88.076 E2.5731
G1 X84.069 Y81.206 E2.8871
G1 X83.282 Y76.856 E3.0856
G1 X83.166 Y76.153 E3.1176
G1 X82.913 Y74.374 E3.1983
G1 X82.867 Y73.933 E3.2182
G1 X82.827 Y73.243 E3.2492
G1 X82.832 Y72.766 E3.2707
; outer perimeter
G1 X82.818 Y72.418 F4800
G92 E0
G1 X83.034 Y72.451 E0.0098 F1000
G1 X83.157 Y72.492 E0.0156
G1 X83.419 Y72.643 E0.0292
G1 X83.736 Y72.915 E0.0479
G1 X83.974 Y73.161 E0.0633
G1 X84.369 Y73.610 E0.0902
G1 X85.372 Y74.809 E0.1604
G1 X85.846 Y75.264 E0.1899
G1 X86.030 Y75.398 E0.2001
G1 X86.406 Y75.592 E0.2191
G1 X86.699 Y75.664 E0.2326
G1 X87.065 Y75.688 E0.2491
G1 X87.536 Y75.573 E0.2709
G1 X87.783 Y75.474 E0.2828
G1 X88.032 Y75.352 E0.2953
G1 X88.536 Y75.051 E0.3216
G1 X89.447 Y74.390 E0.3722
G1 X90.897 Y73.245 E0.4551
G1 X91.640 Y72.736 E0.4956
G1 X91.860 Y72.613 E0.5069
G1 X92.281 Y72.438 E0.5274
G1 X92.544 Y72.388 E0.5394
G1 X92.773 Y72.411 E0.5497
G1 X92.983 Y72.494 E0.5599
G1 X93.185 Y72.653 E0.5714
G1 X93.460 Y72.994 E0.5911
G1 X93.588 Y73.199 E0.6019
G1 X93.973 Y73.979 E0.6410
G1 X94.711 Y75.782 E0.7285
G1 X95.099 Y76.621 E0.7699
G1 X95.376 Y77.104 E0.7950
G1 X95.525 Y77.319 E0.8067
G1 X95.685 Y77.513 E0.8180
G1 X96.026 Y77.810 E0.8383
G1 X96.409 Y77.957 E0.8567
G1 X96.626 Y77.981 E0.8665
G1 X97.017 Y77.940 E0.8842
G1 X97.222 Y77.883 E0.8937
G1 X97.422 Y77.810 E0.9033
G1 X97.813 Y77.627 E0.9227
G1 X98.988 Y76.959 E0.9834
G1 X99.509 Y76.681 E1.0099
G1 X99.959 Y76.481 E1.0320
G1 X100.324 Y76.381 E1.0490
G1 X100.590 Y76.387 E1.0609
G1 X100.725 Y76.435 E1.0674
G1 X100.769 Y76.460 E1.0696
G1 X101.216 Y76.895 E1.0977
G1 X101.333 Y77.105 E1.1084
G1 X101.349 Y77.309 E1.1176
G1 X101.276 Y77.666 E1.1340
G1 X101.193 Y77.904 E1.1453
G1 X100.898 Y78.553 E1.1773
G1 X100.684 Y78.959 E1.1979
G1 X100.266 Y79.689 E1.2357
G1 X99.546 Y80.870 E1.2978
G1 X98.454 Y82.590 E1.3893
G1 X92.872 Y91.159 E1.8485
G1 X91.111 Y93.787 E1.9905
G1 X90.516 Y94.630 E2.0368
G1 X89.886 Y95.450 E2.0833
G1 X89.112 Y96.354 E2.1367
G1 X88.561 Y96.923 E2.1723
G1 X88.094 Y97.317 E2.1997
G1 X87.763 Y97.526 E2.2173
G1 X87.489 Y97.204 E2.2363
G1 X87.245 Y96.729 E2.2603
G1 X86.970 Y96.065 E2.2926
G1 X86.583 Y94.936 E2.3461
G1 X86.397 Y94.336 E2.3743
G1 X86.085 Y93.128 E2.4304
G1 X85.587 Y91.003 E2.5284
G1 X84.993 Y88.154 E2.6590
G1 X83.675 Y81.280 E2.9733
G1 X82.888 Y76.924 E3.1721
G1 X82.771 Y76.214 E3.2044
G1 X82.516 Y74.423 E3.2856
G1 X82.468 Y73.965 E3.3063
G1 X82.427 Y73.252 E3.3383
G1 X82.430 Y72.997 E3.3498
G1 X82.473 Y72.642 E3.3659
G1 X82.499 Y72.557 E3.3698
G1 X82.580 Y72.425 E3.3768
G1 X82.818 Y72.418 E3.3875
; solid layer
G1 X83.323 Y74.837 F4800
G92 E0
G1 X95.008 Y86.523 E0.7420 F1600
G1 X94.785 Y86.866 E0.7604
G1 X83.416 Y75.497 E1.4823
G1 X83.502 Y76.102 E1.5098
G1 X83.511 Y76.158 E1.5123
G1 X94.562 Y87.208 E2.2140
G1 X94.339 Y87.551 E2.2324
G1 X83.624 Y76.836 E2.9128
G1 X83.749 Y77.526 E2.9443
G1 X94.116 Y87.893 E3.6026
G1 X93.893 Y88.236 E3.6210
G1 X83.874 Y78.217 E4.2572
G1 X83.998 Y78.907 E4.2887
G1 X93.670 Y88.578 E4.9028
G1 X93.447 Y88.921 E4.9212
G1 X84.123 Y79.598 E5.5132
G1 X84.248 Y80.288 E5.5447
G1 X93.223 Y89.264 E6.1146
G1 X93.000 Y89.606 E6.1330
G1 X84.373 Y80.979 E6.6808
G1 X84.403 Y81.145 E6.6884
G1 X84.505 Y81.676 E6.7127
G1 X92.777 Y89.949 E7.2380
G1 X92.554 Y90.291 E7.2563
G1 X84.639 Y82.376 E7.7589
G1 X84.773 Y83.076 E7.7909
G1 X92.331 Y90.634 E8.2708
G1 X92.255 Y90.751 E8.2771
G1 X92.105 Y90.974 E8.2892
G1 X84.907 Y83.776 E8.7462
G1 X85.042 Y84.476 E8.7782
G1 X91.878 Y91.313 E9.2123
G1 X91.651 Y91.651 E9.2306
G1 X85.176 Y85.176 E9.6418
G1 X85.310 Y85.876 E9.6738
G1 X91.424 Y91.990 E10.0621
G1 X91.198 Y92.329 E10.0804
G1 X85.444 Y86.576 E10.4458
G1 X85.578 Y87.275 E10.4778
G1 X90.971 Y92.668 E10.8202
G1 X90.744 Y93.006 E10.8385
G1 X85.713 Y87.975 E11.1579
G1 X85.719 Y88.009 E11.1595
G1 X85.861 Y88.689 E11.1907
G1 X90.517 Y93.345 E11.4863
G1 X90.501 Y93.368 E11.4876
G1 X90.283 Y93.677 E11.5046
G1 X86.010 Y89.404 E11.7759
G1 X86.158 Y90.118 E11.8087
G1 X90.049 Y94.009 E12.0558
G1 X89.920 Y94.191 E12.0658
G1 X89.810 Y94.335 E12.0739
G1 X86.307 Y90.833 E12.2963
G1 X86.309 Y90.843 E12.2968
G1 X86.480 Y91.572 E12.3304
G1 X89.564 Y94.655 E12.5262
G1 X89.318 Y94.975 E12.5443
G1 X86.654 Y92.311 E12.7135
G1 X86.804 Y92.951 E12.7430
G1 X86.830 Y93.053 E12.7477
G1 X89.057 Y95.280 E12.8892
G1 X88.797 Y95.585 E12.9072
G1 X87.027 Y93.815 E13.0195
G1 X87.109 Y94.134 E13.0343
G1 X87.257 Y94.611 E13.0568
G1 X88.534 Y95.888 E13.1378
G1 X88.255 Y96.175 E13.1558
G1 X87.547 Y95.467 E13.2007
G1 X87.663 Y95.803 E13.2167
G1 X87.906 Y96.391 E13.2453
G1 X87.969 Y96.454 E13.2493
G1 X84.316 Y74.699 F4800
G92 E0
G1 X83.187 Y73.570 E0.0717 F1600
G1 X83.206 Y73.905 E0.0868
G1 X83.235 Y74.184 E0.0994
G1 X95.232 Y86.181 E0.8611
G1 X95.455 Y85.838 E0.8795
G1 X85.653 Y76.036 E1.5019
G1 X86.144 Y76.289 E1.5267
G1 X86.579 Y76.397 E1.5468
G1 X95.678 Y85.495 E2.1246
G1 X95.901 Y85.153 E2.1430
G1 X87.172 Y76.424 E2.6973
G1 X87.626 Y76.313 E2.7183
G1 X96.124 Y84.810 E3.2579
G1 X96.347 Y84.468 E3.2762
G1 X88.046 Y76.166 E3.8034
G1 X88.084 Y76.151 E3.8053
G1 X88.386 Y76.003 E3.8203
G1 X88.425 Y75.979 E3.8224
G1 X96.570 Y84.125 E4.3396
G1 X96.793 Y83.783 E4.3580
G1 X88.779 Y75.768 E4.8669
G1 X88.944 Y75.669 E4.8755
G1 X89.119 Y75.542 E4.8853
G1 X97.017 Y83.440 E5.3868
G1 X97.240 Y83.098 E5.4051
G1 X89.446 Y75.304 E5.9000
G1 X89.774 Y75.066 E5.9182
G1 X97.463 Y82.755 E6.4064
G1 X97.686 Y82.412 E6.4248
G1 X90.095 Y74.821 E6.9068
G1 X90.411 Y74.572 E6.9249
G1 X97.908 Y82.069 E7.4010
G1 X98.128 Y81.723 E7.4194
G1 X90.727 Y74.322 E7.8893
G1 X92.416 Y73.183 F4800
G92 E0
G1 X93.085 Y73.852 E0.0425 F1600
G1 X93.298 Y74.283 E0.0641
G1 X93.539 Y74.871 E0.0926
G1 X92.032 Y73.364 E0.1883
G1 X92.030 Y73.365 E0.1884
G1 X91.696 Y73.594 E0.2066
G1 X93.931 Y75.829 E0.3485
G1 X94.033 Y76.078 E0.3605
G1 X94.392 Y76.856 E0.3990
G1 X91.361 Y73.824 E0.5915
G1 X91.335 Y73.842 E0.5929
G1 X91.043 Y74.073 E0.6096
G1 X98.347 Y81.377 E1.0734
G1 X98.567 Y81.031 E1.0918
G1 X96.209 Y78.673 E1.2416
G1 X96.232 Y78.682 E1.2427
G1 X96.623 Y78.726 E1.2603
G1 X96.808 Y78.706 E1.2687
G1 X98.787 Y80.685 E1.3943
G1 X98.918 Y80.478 E1.4053
G1 X99.004 Y80.336 E1.4128
G1 X97.298 Y78.630 E1.5211
G1 X97.449 Y78.588 E1.5281
G1 X97.707 Y78.494 E1.5405
G1 X97.721 Y78.487 E1.5411
G1 X99.218 Y79.985 E1.6363
G1 X99.433 Y79.634 E1.6547
G1 X98.106 Y78.307 E1.7390
G1 X98.154 Y78.285 E1.7414
G1 X98.470 Y78.105 E1.7577
G1 X99.647 Y79.282 E1.8324
G1 X99.852 Y78.922 E1.8510
G1 X98.830 Y77.900 E1.9159
G1 X99.191 Y77.695 E1.9346
G1 X100.057 Y78.561 E1.9895
G1 X100.233 Y78.227 E2.0065
G1 X100.250 Y78.189 E2.0084
G1 X99.556 Y77.495 E2.0525
G1 X99.834 Y77.347 E2.0666
G1 X99.931 Y77.303 E2.0714
G1 X100.427 Y77.800 E2.1029
G1 X100.505 Y77.628 E2.1113
G1 X100.561 Y77.469 E2.1189
G1 X100.578 Y77.385 E2.1228
G1 X100.337 Y77.144 E2.1380
G92 E0
G1 E-1.0000 F1800
; inner perimeter
G1 X110.151 Y76.504 F4800
G1 E0.0000 F1800
G92 E0
G1 X110.241 Y75.881 E0.0283 F1500
G1 X110.334 Y75.369 E0.0517
G1 X110.461 Y74.887 E0.0740
G1 X110.603 Y74.430 E0.0955
G1 X110.760 Y74.012 E0.1155
G1 X110.858 Y73.797 E0.1262
G1 X110.924 Y73.668 E0.1327
G1 X111.144 Y73.337 E0.1505
G1 X111.344 Y73.102 E0.1644
G1 X111.622 Y72.933 E0.1790
G1 X112.038 Y72.815 E0.1984
G1 X113.018 Y72.833 E0.2424
G1 X114.504 Y73.110 E0.3103
G1 X115.044 Y73.416 E0.3382
G1 X115.414 Y73.868 E0.3644
G1 X115.488 Y73.971 E0.3701
G1 X115.741 Y74.558 E0.3988
G1 X115.947 Y75.310 E0.4338
G1 X116.080 Y76.270 E0.4773
G1 X116.092 Y76.542 E0.4895
G1 X115.849 Y76.634 E0.5012
G1 X115.574 Y76.297 E0.5208
G1 X114.591 Y75.649 E0.5736
G1 X113.447 Y75.354 E0.6267
G1 X112.388 Y75.425 E0.6744
G1 X112.224 Y75.464 E0.6819
G1 X111.245 Y75.869 E0.7295
G1 X110.370 Y76.624 E0.7814
G1 X110.151 Y76.504 E0.7926
G1 X109.969 Y80.600 F4800
G92 E0
G1 X110.160 Y80.994 E0.0197 F1500
G1 X110.979 Y81.844 E0.0727
G1 X112.034 Y82.385 E0.1259
G1 X113.207 Y82.553 E0.1791
G1 X114.372 Y82.332 E0.2324
G1 X115.324 Y81.789 E0.2816
G1 X115.509 Y81.913 E0.2915
G1 X115.439 Y82.460 E0.3163
G1 X115.444 Y83.788 E0.3760
G1 X115.532 Y84.271 E0.3980
G1 X108.690 Y83.348 E0.7080
G1 X108.956 Y82.782 E0.7361
G1 X109.074 Y82.580 E0.7466
G1 X109.550 Y81.341 E0.8062
G1 X109.716 Y80.628 E0.8391
G1 X109.969 Y80.600 E0.8505
; outer perimeter
G1 X110.493 Y80.763 F4800
G92 E0
G1 X111.221 Y81.519 E0.0471 F1000
