; G-Code generated by Simplify3D(R) Version 4.0.0
; Sep 5, 2020 at 3:48:57 PM
; Settings Summary
;   processName,Process2
;   applyToModels,body
;   profileName,bar (modified)
;   profileVersion,2019-07-15 16:42:33
;   baseProfile,Default (modified)
;   printMaterial,PLA
;   printQuality,Medium
;   printExtruders,
;   extruderName,Primary Extruder
;   extruderToolheadNumber,0
;   extruderDiameter,0.4
;   extruderAutoWidth,0
;   extruderWidth,0.4
;   extrusionMultiplier,0.9
;   extruderUseRetract,1
;   extruderRetractionDistance,1
;   extruderExtraRestartDistance,0
;   extruderRetractionZLift,0
;   extruderRetractionSpeed,1800
;   extruderUseCoasting,0
;   extruderCoastingDistance,0.2
;   extruderUseWipe,0
;   extruderWipeDistance,5
;   primaryExtruder,0
;   layerHeight,0.3
;   topSolidLayers,3
;   bottomSolidLayers,3
;   perimeterOutlines,2
;   printPerimetersInsideOut,1
;   startPointOption,2
;   startPointOriginX,0
;   startPointOriginY,0
;   sequentialIslands,0
;   spiralVaseMode,0
;   firstLayerHeightPercentage,100
;   firstLayerWidthPercentage,100
;   firstLayerUnderspeed,0.5
;   useRaft,0
;   raftExtruder,0
;   raftTopLayers,3
;   raftBaseLayers,2
;   raftOffset,3
;   raftSeparationDistance,0.14
;   raftTopInfill,100
;   aboveRaftSpeedMultiplier,0.3
;   useSkirt,0
;   skirtExtruder,0
;   skirtLayers,1
;   skirtOutlines,2
;   skirtOffset,4
;   usePrimePillar,0
;   primePillarExtruder,999
;   primePillarWidth,12
;   primePillarLocation,7
;   primePillarSpeedMultiplier,1
;   useOozeShield,0
;   oozeShieldExtruder,999
;   oozeShieldOffset,2
;   oozeShieldOutlines,1
;   oozeShieldSidewallShape,1
;   oozeShieldSidewallAngle,30
;   oozeShieldSpeedMultiplier,1
;   infillExtruder,0
;   internalInfillPattern,Rectilinear
;   externalInfillPattern,Rectilinear
;   infillPercentage,10
;   outlineOverlapPercentage,15
;   infillExtrusionWidthPercentage,100
;   minInfillLength,5
;   infillLayerInterval,1
;   internalInfillAngles,45,-45
;   overlapInternalInfillAngles,0
;   externalInfillAngles,45,-45
;   generateSupport,1
;   supportExtruder,0
;   supportInfillPercentage,30
;   supportExtraInflation,0
;   supportBaseLayers,0
;   denseSupportExtruder,0
;   denseSupportLayers,0
;   denseSupportInfillPercentage,70
;   supportLayerInterval,1
;   supportHorizontalPartOffset,0.3
;   supportUpperSeparationLayers,1
;   supportLowerSeparationLayers,1
;   supportType,1
;   supportGridSpacing,4
;   maxOverhangAngle,45
;   supportAngles,0
;   temperatureName,Primary Extruder,Hot Bed
;   temperatureNumber,0,1
;   temperatureSetpointCount,1,1
;   temperatureSetpointLayers,1,1
;   temperatureSetpointTemperatures,210,60
;   temperatureStabilizeAtStartup,1,1
;   temperatureHeatedBed,0,1
;   temperatureRelayBetweenLayers,0,0
;   temperatureRelayBetweenLoops,0,0
;   fanLayers,1,2
;   fanSpeeds,0,100
;   blipFanToFullPower,0
;   adjustSpeedForCooling,1
;   minSpeedLayerTime,15
;   minCoolingSpeedSlowdown,20
;   increaseFanForCooling,0
;   minFanLayerTime,45
;   maxCoolingFanSpeed,100
;   increaseFanForBridging,0
;   bridgingFanSpeed,100
;   use5D,1
;   relativeEdistances,0
;   allowEaxisZeroing,1
;   independentExtruderAxes,0
;   includeM10123,0
;   stickySupport,1
;   applyToolheadOffsets,0
;   gcodeXoffset,0
;   gcodeYoffset,0
;   gcodeZoffset,0
;   overrideMachineDefinition,0
;   machineTypeOverride,0
;   strokeXoverride,200
;   strokeYoverride,200
;   strokeZoverride,200
;   originOffsetXoverride,0
;   originOffsetYoverride,0
;   originOffsetZoverride,0
;   homeXdirOverride,-1
;   homeYdirOverride,-1
;   homeZdirOverride,-1
;   flipXoverride,1
;   flipYoverride,-1
;   flipZoverride,1
;   toolheadOffsets,0,0|0,0|0,0|0,0|0,0|0,0
;   overrideFirmwareConfiguration,0
;   firmwareTypeOverride,RepRap (Marlin/Repetier/Sprinter)
;   GPXconfigOverride,r2
;   baudRateOverride,115200
;   overridePrinterModels,0
;   printerModelsOverride
;   startingGcode,G28 ; home all axes,G1 X0 Y20 Z0.2 F3000 ; get ready to prime,G92 E0 ; reset extrusion distance,G1 X150 E20 F600 ; prime nozzle
;   layerChangeGcode,
;   retractionGcode,
;   toolChangeGcode,
;   endingGcode,M104 S0 ; turn off extruder,M140 S0 ; turn off bed,M84 ; disable motors,G1 X0 Y0; home
;   exportFileFormat,gcode
;   celebration,0
;   celebrationSong,Random Song
;   postProcessing,
;   defaultSpeed,4000
;   outlineUnderspeed,0.5
;   solidInfillUnderspeed,0.8
;   supportUnderspeed,0.8
;   rapidXYspeed,4800
;   rapidZspeed,1000
;   minBridgingArea,50
;   bridgingExtraInflation,0
;   bridgingExtrusionMultiplier,1
;   bridgingSpeedMultiplier,1
;   useFixedBridgingAngle,0
;   fixedBridgingAngle,0
;   applyBridgingToPerimeters,0
;   filamentDiameters,1.75|1.75|1.75|1.75|1.75|1.75
;   filamentPricesPerKg,46|46|46|46|46|46
;   filamentDensities,1.25|1.25|1.25|1.25|1.25|1.25
;   useMinPrintHeight,0
;   minPrintHeight,0
;   useMaxPrintHeight,0
;   maxPrintHeight,0
;   useDiaphragm,0
;   diaphragmLayerInterval,20
;   robustSlicing,1
;   mergeAllIntoSolid,0
;   onlyRetractWhenCrossingOutline,1
;   retractBetweenLayers,1
;   useRetractionMinTravel,0
;   retractionMinTravel,3
;   retractWhileWiping,0
;   onlyWipeOutlines,1
;   avoidCrossingOutline,0
;   maxMovementDetourFactor,3
;   toolChangeRetractionDistance,12
;   toolChangeExtraRestartDistance,-0.5
;   toolChangeRetractionSpeed,600
;   externalThinWallType,1
;   internalThinWallType,1
;   thinWallAllowedOverlapPercentage,10
;   singleExtrusionMinLength,1
;   singleExtrusionMinPrintingWidthPercentage,50
;   singleExtrusionMaxPrintingWidthPercentage,200
;   singleExtrusionEndpointExtension,0.2
;   horizontalSizeCompensation,0
G90
M82
M106 S0
M140 S60
M190 S60
M104 S210 T0
M109 S210 T0
G28 ; home all axes
G1 X0 Y20 Z0.2 F3000 ; get ready to prime
G92 E0 ; reset extrusion distance
G1 X150 E20 F600 ; prime nozzle
G92 E0
G1 E-1.0000 F1800
G1 Z0.300 F1000
; process Process2
; layer 1, Z = 0.300
T0
; tool H0.300 W0.400
; inner perimeter
G1 X81.378 Y72.764 F4800
G1 E0.0000 F540
G92 E0
G1 X82.740 Y72.733 E0.0612 F1500
G1 X82.841 Y72.939 E0.0715
G1 X82.609 Y73.227 E0.0881
G1 X82.523 Y73.349 E0.0948
G1 X82.368 Y73.414 E0.1024
G1 X82.129 Y73.397 E0.1131
G1 X82.013 Y73.376 E0.1184
G1 X81.519 Y73.149 E0.1428
G1 X81.310 Y73.029 E0.1536
G1 X81.378 Y72.764 E0.1659
; outer perimeter
G1 X81.118 Y73.379 F4800
G92 E0
G1 X80.463 Y72.946 E0.0353 F1000
G1 X80.041 Y72.639 E0.0587
G1 X80.041 Y72.638 E0.0588
G1 X79.833 Y72.466 E0.0709
G1 X79.455 Y72.113 E0.0941
G1 X79.366 Y72.017 E0.1000
G1 X79.103 Y71.677 E0.1193
G1 X78.862 Y71.194 E0.1435
G1 X78.844 Y71.132 E0.1464
G1 X78.738 Y70.430 E0.1783
G1 X79.198 Y70.395 E0.1990
G1 X80.318 Y72.388 E0.3017
G1 X82.478 Y72.339 E0.3987
G1 X83.477 Y70.259 E0.5023
G1 X83.871 Y70.233 E0.5201
G1 X83.931 Y71.043 E0.5566
G1 X83.846 Y71.567 E0.5804
G1 X83.777 Y71.872 E0.5944
G1 X83.648 Y72.244 E0.6121
G1 X83.413 Y72.731 E0.6364
G1 X83.319 Y72.984 E0.6485
G1 X82.929 Y73.468 E0.6764
G1 X82.784 Y73.674 E0.6877
G1 X82.434 Y73.820 E0.7048
G1 X82.079 Y73.794 E0.7208
G1 X81.892 Y73.760 E0.7293
G1 X81.335 Y73.505 E0.7568
G1 X81.118 Y73.379 E0.7680
; internal single extrusion
G1 X80.028 Y72.334 F4800
G92 E0
; tool H0.300 W0.200
G1 X80.004 Y72.306 E0.0008 F1000
G1 X79.955 Y72.244 E0.0026
G1 X79.907 Y72.183 E0.0043
G1 X79.811 Y72.060 E0.0078
G1 X79.714 Y71.937 E0.0113
; tool H0.300 W0.214
G1 X79.666 Y71.875 E0.0132
; tool H0.300 W0.234
G1 X79.620 Y71.812 E0.0153
; tool H0.300 W0.250
G1 X79.577 Y71.748 E0.0174
; tool H0.300 W0.272
G1 X79.449 Y71.554 E0.0245
; tool H0.300 W0.295
G1 X79.406 Y71.490 E0.0271
; tool H0.300 W0.299
G1 X79.370 Y71.422 E0.0297
; tool H0.300 W0.288
G1 X79.189 Y71.080 E0.0422
; tool H0.300 W0.267
G1 X79.161 Y71.008 E0.0445
; tool H0.300 W0.228
G1 X79.110 Y70.859 E0.0485
; tool H0.300 W0.200
G1 X79.059 Y70.711 E0.0521
G92 E0
G1 E-1.0000 F1800
G1 X82.690 Y72.481 F4800
G1 E0.0000 F1800
; tool H0.300 W0.400
G92 E0
; tool H0.300 W0.200
G1 X82.768 Y72.431 E0.0021 F1000
; tool H0.300 W0.244
G1 X82.847 Y72.380 E0.0046
; tool H0.300 W0.350
G1 X82.933 Y72.334 E0.0085
; tool H0.300 W0.493
G1 X83.044 Y72.299 E0.0150
; tool H0.300 W0.592
G1 X83.091 Y72.233 E0.0203
; tool H0.300 W0.606
G1 X83.160 Y72.090 E0.0311
; tool H0.300 W0.604
G1 X83.192 Y72.018 E0.0365
; tool H0.300 W0.588
G1 X83.283 Y71.797 E0.0523
; tool H0.300 W0.569
G1 X83.313 Y71.723 E0.0574
; tool H0.300 W0.554
G1 X83.339 Y71.647 E0.0623
; tool H0.300 W0.527
G1 X83.391 Y71.496 E0.0718
; tool H0.300 W0.498
G1 X83.416 Y71.420 E0.0763
; tool H0.300 W0.476
G1 X83.440 Y71.343 E0.0806
; tool H0.300 W0.442
G1 X83.488 Y71.190 E0.0885
; tool H0.300 W0.396
G1 X83.537 Y71.037 E0.0957
; tool H0.300 W0.354
G1 X83.553 Y70.957 E0.0989
; tool H0.300 W0.313
G1 X83.568 Y70.876 E0.1018
; tool H0.300 W0.270
G1 X83.584 Y70.795 E0.1043
; tool H0.300 W0.228
G1 X83.599 Y70.714 E0.1064
; tool H0.300 W0.200
G1 X83.614 Y70.634 E0.1083
G1 X83.629 Y70.553 E0.1101
G1 X83.634 Y70.527 E0.1107
G92 E0
G1 E-1.0000 F1800
; tool H0.300 W0.400
; inner perimeter
G1 X97.550 Y92.852 F4800
G1 E0.0000 F1800
G92 E0
G1 X97.604 Y92.828 E0.0026 F1500
G1 X97.950 Y92.740 E0.0187
G1 X98.580 Y92.555 E0.0482
G1 X99.641 Y92.708 E0.0963
G1 X99.729 Y92.734 E0.1004
G1 X100.566 Y93.164 E0.1427
G1 X100.886 Y93.397 E0.1604
G1 X101.499 Y93.938 E0.1971
G1 X102.343 Y94.877 E0.2538
G1 X102.786 Y95.552 E0.2901
G1 X102.913 Y95.722 E0.2996
G1 X103.350 Y96.619 E0.3444
G1 X103.422 Y96.817 E0.3539
G1 X103.722 Y97.980 E0.4078
G1 X103.788 Y98.526 E0.4325
G1 X103.815 Y99.601 E0.4808
G1 X103.682 Y100.988 E0.5434
G1 X103.550 Y101.841 E0.5821
G1 X103.258 Y103.149 E0.6423
G1 X102.801 Y105.075 E0.7311
G1 X102.373 Y106.635 E0.8038
G1 X101.407 Y109.846 E0.9544
G1 X100.797 Y111.722 E1.0429
G1 X100.577 Y112.269 E1.0694
G1 X100.424 Y112.597 E1.0856
G1 X100.105 Y112.294 E1.1054
G1 X99.662 Y111.758 E1.1366
G1 X99.197 Y111.071 E1.1739
G1 X98.800 Y110.418 E1.2082
G1 X97.661 Y108.301 E1.3161
G1 X96.850 Y106.649 E1.3988
G1 X96.132 Y105.055 E1.4773
G1 X95.283 Y102.967 E1.5784
G1 X94.973 Y102.141 E1.6181
G1 X94.821 Y101.638 E1.6417
G1 X94.634 Y100.938 E1.6742
G1 X94.473 Y100.052 E1.7147
G1 X94.430 Y99.671 E1.7319
G1 X94.452 Y99.337 E1.7469
G1 X94.461 Y98.402 E1.7889
G1 X94.505 Y97.917 E1.8107
G1 X94.680 Y96.965 E1.8542
G1 X94.778 Y96.608 E1.8708
G1 X95.122 Y95.804 E1.9101
G1 X95.628 Y94.883 E1.9573
G1 X95.755 Y94.694 E1.9675
G1 X96.553 Y93.643 E2.0268
G1 X97.149 Y93.156 E2.0613
G1 X97.550 Y92.852 E2.0839
; outer perimeter
G1 X97.345 Y92.506 F4800
G92 E0
G1 X97.472 Y92.449 E0.0062 F1000
G1 X97.845 Y92.354 E0.0235
G1 X98.551 Y92.146 E0.0566
G1 X99.728 Y92.316 E0.1100
G1 X99.879 Y92.362 E0.1171
G1 X100.776 Y92.823 E0.1623
G1 X101.136 Y93.085 E0.1823
G1 X101.781 Y93.653 E0.2209
G1 X102.661 Y94.632 E0.2800
G1 X103.113 Y95.322 E0.3171
G1 X103.256 Y95.513 E0.3278
G1 X103.718 Y96.462 E0.3752
G1 X103.804 Y96.698 E0.3865
G1 X104.116 Y97.906 E0.4425
G1 X104.188 Y98.497 E0.4692
G1 X104.216 Y99.615 E0.5194
G1 X104.079 Y101.038 E0.5836
G1 X103.943 Y101.915 E0.6234
G1 X103.647 Y103.239 E0.6844
G1 X103.189 Y105.174 E0.7736
G1 X102.758 Y106.745 E0.8468
G1 X101.789 Y109.966 E0.9978
G1 X101.173 Y111.858 E1.0872
G1 X100.944 Y112.428 E1.1148
G1 X100.764 Y112.816 E1.1340
G1 X100.520 Y113.137 E1.1521
G1 X100.284 Y112.952 E1.1656
G1 X100.124 Y112.863 E1.1738
G1 X99.812 Y112.568 E1.1931
G1 X99.342 Y111.998 E1.2262
G1 X98.861 Y111.287 E1.2648
G1 X98.453 Y110.617 E1.3000
G1 X97.305 Y108.484 E1.4088
G1 X96.488 Y106.819 E1.4920
G1 X95.764 Y105.213 E1.5711
G1 X94.911 Y103.113 E1.6729
G1 X94.594 Y102.269 E1.7134
G1 X94.436 Y101.748 E1.7378
G1 X94.243 Y101.025 E1.7714
G1 X94.077 Y100.110 E1.8132
G1 X94.028 Y99.680 E1.8326
G1 X94.052 Y99.322 E1.8487
G1 X94.061 Y98.382 E1.8910
G1 X94.108 Y97.863 E1.9144
G1 X94.289 Y96.876 E1.9594
G1 X94.399 Y96.476 E1.9780
G1 X94.762 Y95.628 E2.0194
G1 X95.286 Y94.674 E2.0683
G1 X95.430 Y94.461 E2.0799
G1 X96.263 Y93.363 E2.1418
G1 X96.902 Y92.841 E2.1788
G1 X97.345 Y92.506 E2.2037
; solid layer
G1 X100.091 Y93.303 F4800
G92 E0
G1 X102.453 Y95.665 E0.1500 F1600
G1 X102.507 Y95.747 E0.1544
G1 X102.621 Y95.900 E0.1630
G1 X103.036 Y96.752 E0.2055
G1 X103.072 Y96.849 E0.2102
G1 X99.212 Y92.989 E0.4553
G1 X98.605 Y92.902 E0.4828
G1 X98.569 Y92.912 E0.4845
G1 X103.278 Y97.621 E0.7835
G1 X103.387 Y98.044 E0.8031
G1 X103.422 Y98.331 E0.8161
G1 X98.132 Y93.041 E1.1520
G1 X98.040 Y93.068 E1.1563
G1 X97.721 Y93.149 E1.1711
G1 X97.695 Y93.169 E1.1726
G1 X103.458 Y98.933 E1.5386
G1 X103.473 Y99.513 E1.5646
G1 X97.373 Y93.413 E1.9520
G1 X97.359 Y93.423 E1.9527
G1 X97.061 Y93.667 E1.9700
G1 X103.432 Y100.038 E2.3746
G1 X103.382 Y100.554 E2.3979
G1 X96.761 Y93.932 E2.8183
G1 X96.516 Y94.254 E2.8364
G1 X103.326 Y101.063 E3.2689
G1 X103.250 Y101.553 E3.2911
G1 X96.272 Y94.575 E3.7342
G1 X96.032 Y94.892 E3.7521
G1 X96.028 Y94.897 E3.7524
G1 X103.160 Y102.028 E4.2052
G1 X103.056 Y102.491 E4.2265
G1 X95.815 Y95.249 E4.6863
G1 X95.614 Y95.614 E4.7050
G1 X102.953 Y102.953 E5.1711
G1 X102.926 Y103.073 E5.1766
G1 X102.846 Y103.412 E5.1922
G1 X95.416 Y95.981 E5.6640
G1 X95.246 Y96.378 E5.6834
G1 X102.738 Y103.869 E6.1591
G1 X102.629 Y104.326 E6.1802
G1 X95.083 Y96.780 E6.6594
G1 X95.012 Y97.041 E6.6715
G1 X94.975 Y97.238 E6.6805
G1 X102.521 Y104.783 E7.1596
G1 X102.472 Y104.990 E7.1692
G1 X102.405 Y105.233 E7.1805
G1 X94.887 Y97.716 E7.6579
G1 X94.842 Y97.964 E7.6692
G1 X94.819 Y98.213 E7.6804
G1 X102.283 Y105.677 E8.1544
G1 X102.161 Y106.121 E8.1751
G1 X94.797 Y98.757 E8.6427
G1 X94.792 Y99.318 E8.6679
G1 X102.039 Y106.565 E9.1280
G1 X101.908 Y107.000 E9.1484
G1 X94.796 Y99.887 E9.6000
G1 X94.809 Y100.002 E9.6052
G1 X94.913 Y100.569 E9.6311
G1 X101.778 Y107.434 E10.0670
G1 X101.647 Y107.869 E10.0874
G1 X95.085 Y101.307 E10.5041
G1 X95.148 Y101.545 E10.5152
G1 X95.295 Y102.032 E10.5380
G1 X95.326 Y102.115 E10.5420
G1 X101.516 Y108.304 E10.9350
G1 X101.385 Y108.739 E10.9554
G1 X95.676 Y103.030 E11.3180
G1 X96.063 Y103.983 E11.3642
G1 X101.254 Y109.174 E11.6938
G1 X101.123 Y109.609 E11.7142
G1 X96.452 Y104.937 E12.0108
G1 X96.916 Y105.967 E12.0615
G1 X100.987 Y110.038 E12.3201
G1 X100.848 Y110.465 E12.3402
G1 X97.418 Y107.035 E12.5580
G1 X97.963 Y108.145 E12.6136
G1 X100.709 Y110.892 E12.7880
G1 X100.571 Y111.319 E12.8081
G1 X98.622 Y109.370 E12.9319
G1 X99.095 Y110.249 E12.9767
G1 X99.344 Y110.657 E12.9982
G1 X100.424 Y111.738 E13.0668
G92 E0
G1 E-1.0000 F1800
; inner perimeter
G1 X114.950 Y72.474 F4800
G1 E0.0000 F1800
G92 E0
G1 X114.844 Y72.364 E0.0069 F1500
G1 X114.558 Y71.849 E0.0333
G1 X115.931 Y71.809 E0.0949
G1 X116.012 Y72.070 E0.1072
G1 X115.880 Y72.155 E0.1143
G1 X115.324 Y72.417 E0.1419
G1 X114.950 Y72.474 E0.1588
; outer perimeter
G1 X114.710 Y72.801 F4800
G92 E0
G1 X114.520 Y72.604 E0.0123 F1000
G1 X114.335 Y72.270 E0.0294
G1 X113.934 Y71.293 E0.0769
G1 X113.628 Y70.596 E0.1110
G1 X113.464 Y70.145 E0.1326
G1 X113.335 Y69.700 E0.1534
G1 X113.303 Y69.379 E0.1679
G1 X113.743 Y69.391 E0.1877
G1 X114.909 Y71.439 E0.2935
G1 X117.096 Y71.375 E0.3917
G1 X118.085 Y69.287 E0.4954
G1 X118.516 Y69.285 E0.5148
G1 X118.482 Y69.859 E0.5406
G1 X118.449 Y70.046 E0.5491
G1 X118.198 Y70.611 E0.5769
G1 X117.768 Y71.177 E0.6088
G1 X117.531 Y71.417 E0.6239
G1 X117.296 Y71.630 E0.6382
G1 X117.207 Y71.710 E0.6436
G1 X116.577 Y72.182 E0.6789
G1 X116.074 Y72.506 E0.7058
G1 X115.442 Y72.803 E0.7371
G1 X114.930 Y72.882 E0.7604
G1 X114.710 Y72.801 E0.7709
; internal single extrusion
G1 X114.717 Y71.599 F4800
G92 E0
; tool H0.300 W0.200
G1 X114.708 Y71.594 E0.0002 F1000
G1 X114.628 Y71.549 E0.0023
; tool H0.300 W0.236
G1 X114.548 Y71.504 E0.0047
; tool H0.300 W0.330
G1 X114.468 Y71.459 E0.0081
; tool H0.300 W0.392
G1 X114.417 Y71.398 E0.0116
G1 X114.313 Y71.186 E0.0220
; tool H0.300 W0.372
G1 X114.279 Y71.115 E0.0253
; tool H0.300 W0.351
G1 X114.138 Y70.834 E0.0377
; tool H0.300 W0.314
G1 X113.961 Y70.483 E0.0515
; tool H0.300 W0.288
G1 X113.928 Y70.412 E0.0541
; tool H0.300 W0.268
G1 X113.862 Y70.269 E0.0588
; tool H0.300 W0.235
G1 X113.762 Y70.054 E0.0650
; tool H0.300 W0.206
G1 X113.732 Y69.982 E0.0669
; tool H0.300 W0.200
G1 X113.701 Y69.909 E0.0686
G1 X113.531 Y69.506 E0.0785
G92 E0
