; G-Code generated by Simplify3D(R) Version 4.0.0
; Sep 5, 2020 at 3:53:09 PM
; Settings Summary
;   processName,Process2
;   applyToModels,eyes
;   profileName,bar (modified)
;   profileVersion,2019-07-15 16:42:33
;   baseProfile,Default (modified)
;   printMaterial,PLA
;   printQuality,Medium
;   printExtruders,
;   extruderName,Primary Extruder
;   extruderToolheadNumber,0
;   extruderDiameter,0.4
;   extruderAutoWidth,0
;   extruderWidth,0.4
;   extrusionMultiplier,0.9
;   extruderUseRetract,1
;   extruderRetractionDistance,1
;   extruderExtraRestartDistance,0
;   extruderRetractionZLift,0
;   extruderRetractionSpeed,1800
;   extruderUseCoasting,0
;   extruderCoastingDistance,0.2
;   extruderUseWipe,0
;   extruderWipeDistance,5
;   primaryExtruder,0
;   layerHeight,0.15
;   topSolidLayers,3
;   bottomSolidLayers,3
;   perimeterOutlines,2
;   printPerimetersInsideOut,1
;   startPointOption,2
;   startPointOriginX,0
;   startPointOriginY,0
;   sequentialIslands,0
;   spiralVaseMode,0
;   firstLayerHeightPercentage,100
;   firstLayerWidthPercentage,100
;   firstLayerUnderspeed,0.5
;   useRaft,0
;   raftExtruder,0
;   raftTopLayers,3
;   raftBaseLayers,2
;   raftOffset,3
;   raftSeparationDistance,0.14
;   raftTopInfill,100
;   aboveRaftSpeedMultiplier,0.3
;   useSkirt,0
;   skirtExtruder,0
;   skirtLayers,1
;   skirtOutlines,2
;   skirtOffset,4
;   usePrimePillar,0
;   primePillarExtruder,999
;   primePillarWidth,12
;   primePillarLocation,7
;   primePillarSpeedMultiplier,1
;   useOozeShield,0
;   oozeShieldExtruder,999
;   oozeShieldOffset,2
;   oozeShieldOutlines,1
;   oozeShieldSidewallShape,1
;   oozeShieldSidewallAngle,30
;   oozeShieldSpeedMultiplier,1
;   infillExtruder,0
;   internalInfillPattern,Rectilinear
;   externalInfillPattern,Rectilinear
;   infillPercentage,10
;   outlineOverlapPercentage,15
;   infillExtrusionWidthPercentage,100
;   minInfillLength,5
;   infillLayerInterval,1
;   internalInfillAngles,45,-45
;   overlapInternalInfillAngles,0
;   externalInfillAngles,45,-45
;   generateSupport,1
;   supportExtruder,0
;   supportInfillPercentage,30
;   supportExtraInflation,0
;   supportBaseLayers,0
;   denseSupportExtruder,0
;   denseSupportLayers,0
;   denseSupportInfillPercentage,70
;   supportLayerInterval,1
;   supportHorizontalPartOffset,0.3
;   supportUpperSeparationLayers,1
;   supportLowerSeparationLayers,1
;   supportType,1
;   supportGridSpacing,4
;   maxOverhangAngle,45
;   supportAngles,0
;   temperatureName,Primary Extruder,Hot Bed
;   temperatureNumber,0,1
;   temperatureSetpointCount,1,1
;   temperatureSetpointLayers,1,1
;   temperatureSetpointTemperatures,210,60
;   temperatureStabilizeAtStartup,1,1
;   temperatureHeatedBed,0,1
;   temperatureRelayBetweenLayers,0,0
;   temperatureRelayBetweenLoops,0,0
;   fanLayers,1,2
;   fanSpeeds,0,100
;   blipFanToFullPower,0
;   adjustSpeedForCooling,1
;   minSpeedLayerTime,15
;   minCoolingSpeedSlowdown,20
;   increaseFanForCooling,0
;   minFanLayerTime,45
;   maxCoolingFanSpeed,100
;   increaseFanForBridging,0
;   bridgingFanSpeed,100
;   use5D,1
;   relativeEdistances,0
;   allowEaxisZeroing,1
;   independentExtruderAxes,0
;   includeM10123,0
;   stickySupport,1
;   applyToolheadOffsets,0
;   gcodeXoffset,0
;   gcodeYoffset,0
;   gcodeZoffset,0
;   overrideMachineDefinition,0
;   machineTypeOverride,0
;   strokeXoverride,200
;   strokeYoverride,200
;   strokeZoverride,200
;   originOffsetXoverride,0
;   originOffsetYoverride,0
;   originOffsetZoverride,0
;   homeXdirOverride,-1
;   homeYdirOverride,-1
;   homeZdirOverride,-1
;   flipXoverride,1
;   flipYoverride,-1
;   flipZoverride,1
;   toolheadOffsets,0,0|0,0|0,0|0,0|0,0|0,0
;   overrideFirmwareConfiguration,0
;   firmwareTypeOverride,RepRap (Marlin/Repetier/Sprinter)
;   GPXconfigOverride,r2
;   baudRateOverride,115200
;   overridePrinterModels,0
;   printerModelsOverride
;   startingGcode,G28 ; home all axes,G1 X0 Y20 Z0.2 F3000 ; get ready to prime,G92 E0 ; reset extrusion distance,G1 X150 E20 F600 ; prime nozzle
;   layerChangeGcode,
;   retractionGcode,
;   toolChangeGcode,
;   endingGcode,M104 S0 ; turn off extruder,M140 S0 ; turn off bed,M84 ; disable motors,G1 X0 Y0; home
;   exportFileFormat,gcode
;   celebration,0
;   celebrationSong,Random Song
;   postProcessing,
;   defaultSpeed,4000
;   outlineUnderspeed,0.5
;   solidInfillUnderspeed,0.8
;   supportUnderspeed,0.8
;   rapidXYspeed,4800
;   rapidZspeed,1000
;   minBridgingArea,50
;   bridgingExtraInflation,0
;   bridgingExtrusionMultiplier,1
;   bridgingSpeedMultiplier,1
;   useFixedBridgingAngle,0
;   fixedBridgingAngle,0
;   applyBridgingToPerimeters,0
;   filamentDiameters,1.75|1.75|1.75|1.75|1.75|1.75
;   filamentPricesPerKg,46|46|46|46|46|46
;   filamentDensities,1.25|1.25|1.25|1.25|1.25|1.25
;   useMinPrintHeight,0
;   minPrintHeight,0
;   useMaxPrintHeight,0
;   maxPrintHeight,0
;   useDiaphragm,0
;   diaphragmLayerInterval,20
;   robustSlicing,1
;   mergeAllIntoSolid,0
;   onlyRetractWhenCrossingOutline,1
;   retractBetweenLayers,1
;   useRetractionMinTravel,0
;   retractionMinTravel,3
;   retractWhileWiping,0
;   onlyWipeOutlines,1
;   avoidCrossingOutline,0
;   maxMovementDetourFactor,3
;   toolChangeRetractionDistance,12
;   toolChangeExtraRestartDistance,-0.5
;   toolChangeRetractionSpeed,600
;   externalThinWallType,1
;   internalThinWallType,1
;   thinWallAllowedOverlapPercentage,10
;   singleExtrusionMinLength,1
;   singleExtrusionMinPrintingWidthPercentage,50
;   singleExtrusionMaxPrintingWidthPercentage,200
;   singleExtrusionEndpointExtension,0.2
;   horizontalSizeCompensation,0
G90
M82
M106 S0
M140 S60
M190 S60
M104 S210 T0
M109 S210 T0
G28 ; home all axes
G1 X0 Y20 Z0.2 F3000 ; get ready to prime
G92 E0 ; reset extrusion distance
G1 X150 E20 F600 ; prime nozzle
G92 E0
G1 E-1.0000 F1800
G1 Z0.150 F1000
; process Process2
; layer 1, Z = 0.150
T0
; tool H0.150 W0.400
; inner perimeter
G1 X96.518 Y99.622 F4800
G1 E0.0000 F540
G92 E0
G1 X96.744 Y99.442 E0.0065 F600
G1 X97.029 Y99.400 E0.0130
G1 X97.297 Y99.506 E0.0194
G1 X97.477 Y99.732 E0.0259
G1 X97.519 Y100.017 E0.0324
G1 X97.413 Y100.286 E0.0389
G1 X97.187 Y100.465 E0.0454
G1 X96.902 Y100.508 E0.0518
G1 X96.633 Y100.402 E0.0583
G1 X96.454 Y100.176 E0.0648
G1 X96.412 Y99.890 E0.0713
G1 X96.518 Y99.622 E0.0777
; outer perimeter
G1 X96.185 Y99.375 F4800
G92 E0
G1 X96.579 Y99.062 E0.0113 F400
G1 X97.076 Y98.989 E0.0226
G1 X97.544 Y99.173 E0.0339
G1 X97.857 Y99.567 E0.0452
G1 X97.931 Y100.065 E0.0565
G1 X97.746 Y100.532 E0.0677
G1 X97.352 Y100.845 E0.0790
G1 X96.855 Y100.919 E0.0903
G1 X96.387 Y100.734 E0.1016
G1 X96.074 Y100.340 E0.1129
G1 X96.000 Y99.843 E0.1242
G1 X96.185 Y99.375 E0.1355
; solid layer
G1 X96.930 Y99.758 F4800
G92 E0
G1 X97.164 Y99.992 E0.0074 F640
G92 E0
G1 E-1.0000 F1800
; inner perimeter
G1 X102.482 Y99.983 F4800
G1 E0.0000 F1800
G92 E0
G1 X102.588 Y99.714 E0.0065 F600
G1 X102.814 Y99.535 E0.0130
G1 X103.099 Y99.492 E0.0194
G1 X103.368 Y99.598 E0.0259
G1 X103.547 Y99.824 E0.0324
G1 X103.590 Y100.110 E0.0389
G1 X103.484 Y100.378 E0.0454
G1 X103.258 Y100.558 E0.0518
G1 X102.972 Y100.600 E0.0583
G1 X102.704 Y100.494 E0.0648
G1 X102.524 Y100.268 E0.0713
G1 X102.482 Y99.983 E0.0777
; outer perimeter
G1 X102.071 Y99.935 F4800
G92 E0
G1 X102.255 Y99.468 E0.0113 F400
G1 X102.649 Y99.155 E0.0226
G1 X103.147 Y99.081 E0.0339
G1 X103.614 Y99.266 E0.0452
G1 X103.927 Y99.660 E0.0565
G1 X104.001 Y100.157 E0.0677
G1 X103.816 Y100.625 E0.0790
G1 X103.422 Y100.938 E0.0903
G1 X102.925 Y101.011 E0.1016
G1 X102.457 Y100.827 E0.1129
G1 X102.144 Y100.433 E0.1242
G1 X102.071 Y99.935 E0.1355
; solid layer
G1 X102.837 Y100.009 F4800
G92 E0
G1 X103.070 Y100.242 E0.0074 F640
G92 E0
G1 E-1.0000 F1800
; layer 2, Z = 0.300
M106 S255
; inner perimeter
G1 X103.264 Y100.571 F4800
G1 Z0.300 F1000
G1 E0.0000 F1800
G92 E0
G1 X102.971 Y100.615 E0.0067 F600
G1 X102.695 Y100.506 E0.0133
G1 X102.511 Y100.274 E0.0200
G1 X102.467 Y99.981 E0.0266
G1 X102.576 Y99.705 E0.0333
G1 X102.808 Y99.521 E0.0399
G1 X103.101 Y99.477 E0.0466
G1 X103.377 Y99.586 E0.0532
G1 X103.561 Y99.818 E0.0599
G1 X103.605 Y100.112 E0.0665
G1 X103.496 Y100.387 E0.0732
G1 X103.264 Y100.571 E0.0798
; outer perimeter
G1 X103.428 Y100.951 F4800
G92 E0
G1 X102.923 Y101.026 E0.0115 F400
G1 X102.448 Y100.839 E0.0229
G1 X102.131 Y100.439 E0.0344
G1 X102.056 Y99.934 E0.0459
G1 X102.243 Y99.459 E0.0573
G1 X102.643 Y99.141 E0.0688
G1 X103.148 Y99.066 E0.0803
G1 X103.623 Y99.254 E0.0917
G1 X103.941 Y99.654 E0.1032
G1 X104.016 Y100.159 E0.1147
G1 X103.828 Y100.634 E0.1261
G1 X103.428 Y100.951 E0.1376
; solid layer
G1 X102.823 Y100.006 F4800
G92 E0
G1 X102.991 Y99.838 E0.0053 F640
G92 E0
G1 E-1.0000 F1800
; inner perimeter
G1 X97.534 Y100.019 F4800
G1 E0.0000 F1800
G92 E0
G1 X97.425 Y100.295 E0.0067 F600
G1 X97.193 Y100.479 E0.0133
G1 X96.900 Y100.523 E0.0200
G1 X96.624 Y100.414 E0.0266
G1 X96.440 Y100.182 E0.0333
G1 X96.397 Y99.888 E0.0399
G1 X96.505 Y99.613 E0.0466
G1 X96.738 Y99.429 E0.0532
G1 X97.031 Y99.385 E0.0599
G1 X97.306 Y99.494 E0.0665
G1 X97.491 Y99.726 E0.0732
G1 X97.534 Y100.019 E0.0798
; outer perimeter
G1 X97.946 Y100.066 F4800
G92 E0
G1 X97.758 Y100.541 E0.0115 F400
G1 X97.358 Y100.859 E0.0229
G1 X96.853 Y100.934 E0.0344
G1 X96.378 Y100.746 E0.0459
G1 X96.060 Y100.346 E0.0573
G1 X95.985 Y99.841 E0.0688
G1 X96.173 Y99.366 E0.0803
G1 X96.573 Y99.049 E0.0917
G1 X97.078 Y98.974 E0.1032
G1 X97.553 Y99.161 E0.1147
G1 X97.871 Y99.561 E0.1261
G1 X97.946 Y100.066 E0.1376
; solid layer
G1 X97.179 Y99.993 F4800
G92 E0
G1 X97.009 Y100.163 E0.0054 F640
G92 E0
G1 E-1.0000 F1800
; layer 3, Z = 0.450
; inner perimeter
G1 X97.199 Y100.493 F4800
G1 Z0.450 F1000
G1 E0.0000 F1800
G92 E0
G1 X96.898 Y100.537 E0.0068 F600
G1 X96.616 Y100.426 E0.0137
G1 X96.426 Y100.188 E0.0205
G1 X96.382 Y99.887 E0.0273
G1 X96.493 Y99.604 E0.0341
G1 X96.732 Y99.415 E0.0410
G1 X97.032 Y99.370 E0.0478
G1 X97.315 Y99.482 E0.0546
G1 X97.504 Y99.720 E0.0614
G1 X97.549 Y100.021 E0.0683
G1 X97.437 Y100.304 E0.0751
G1 X97.199 Y100.493 E0.0819
; outer perimeter
G1 X97.364 Y100.873 F4800
G92 E0
G1 X96.851 Y100.949 E0.0116 F400
G1 X96.369 Y100.758 E0.0233
G1 X96.047 Y100.352 E0.0349
G1 X95.970 Y99.839 E0.0466
G1 X96.161 Y99.357 E0.0582
G1 X96.567 Y99.035 E0.0698
G1 X97.080 Y98.959 E0.0815
G1 X97.562 Y99.149 E0.0931
G1 X97.884 Y99.555 E0.1048
G1 X97.960 Y100.068 E0.1164
G1 X97.770 Y100.550 E0.1280
G1 X97.364 Y100.873 E0.1397
; solid layer
G1 X97.186 Y100.014 F4800
G92 E0
G1 X96.904 Y99.733 E0.0089 F640
G92 E0
G1 E-1.0000 F1800
; inner perimeter
G1 X102.452 Y99.979 F4800
G1 E0.0000 F1800
G92 E0
G1 X102.564 Y99.696 E0.0068 F600
G1 X102.802 Y99.507 E0.0137
G1 X103.103 Y99.463 E0.0205
G1 X103.386 Y99.574 E0.0273
G1 X103.575 Y99.812 E0.0341
G1 X103.619 Y100.113 E0.0410
G1 X103.508 Y100.396 E0.0478
G1 X103.270 Y100.585 E0.0546
G1 X102.969 Y100.630 E0.0614
G1 X102.686 Y100.518 E0.0683
G1 X102.497 Y100.280 E0.0751
G1 X102.452 Y99.979 E0.0819
; outer perimeter
G1 X102.041 Y99.932 F4800
G92 E0
G1 X102.231 Y99.450 E0.0116 F400
G1 X102.637 Y99.127 E0.0233
G1 X103.150 Y99.051 E0.0349
G1 X103.632 Y99.242 E0.0466
G1 X103.955 Y99.648 E0.0582
G1 X104.031 Y100.160 E0.0698
G1 X103.840 Y100.643 E0.0815
G1 X103.434 Y100.965 E0.0931
G1 X102.922 Y101.041 E0.1048
G1 X102.439 Y100.851 E0.1164
G1 X102.117 Y100.445 E0.1280
G1 X102.041 Y99.932 E0.1397
; solid layer
G1 X102.815 Y99.986 F4800
G92 E0
G1 X103.096 Y100.267 E0.0089 F640
G92 E0
G1 E-1.0000 F1800
; layer 4, Z = 0.600
; inner perimeter
G1 X103.276 Y100.599 F4800
G1 Z0.600 F1000
G1 E0.0000 F1800
G92 E0
G1 X102.967 Y100.645 E0.0070 F600
G1 X102.677 Y100.530 E0.0140
G1 X102.483 Y100.286 E0.0210
G1 X102.437 Y99.977 E0.0280
G1 X102.552 Y99.687 E0.0350
G1 X102.796 Y99.493 E0.0420
G1 X103.105 Y99.448 E0.0490
G1 X103.395 Y99.562 E0.0560
G1 X103.589 Y99.806 E0.0630
G1 X103.634 Y100.115 E0.0700
G1 X103.520 Y100.405 E0.0770
G1 X103.276 Y100.599 E0.0840
; outer perimeter
G1 X103.440 Y100.979 F4800
G92 E0
G1 X102.920 Y101.056 E0.0118 F400
G1 X102.430 Y100.863 E0.0236
G1 X102.103 Y100.451 E0.0354
G1 X102.026 Y99.930 E0.0473
G1 X102.219 Y99.441 E0.0591
G1 X102.631 Y99.114 E0.0709
G1 X103.152 Y99.036 E0.0827
G1 X103.641 Y99.230 E0.0945
G1 X103.968 Y99.642 E0.1063
G1 X104.046 Y100.162 E0.1181
G1 X103.853 Y100.652 E0.1300
G1 X103.440 Y100.979 E0.1418
G92 E0
G1 E-1.0000 F1800
; inner perimeter
G1 X97.564 Y100.023 F4800
G1 E0.0000 F1800
G92 E0
G1 X97.449 Y100.313 E0.0070 F600
G1 X97.205 Y100.507 E0.0140
G1 X96.897 Y100.552 E0.0210
G1 X96.607 Y100.438 E0.0280
G1 X96.413 Y100.194 E0.0350
G1 X96.367 Y99.885 E0.0420
G1 X96.481 Y99.595 E0.0490
G1 X96.726 Y99.401 E0.0560
G1 X97.034 Y99.355 E0.0630
G1 X97.324 Y99.470 E0.0700
G1 X97.518 Y99.714 E0.0770
G1 X97.564 Y100.023 E0.0840
; outer perimeter
G1 X97.975 Y100.070 F4800
G92 E0
G1 X97.782 Y100.559 E0.0118 F400
G1 X97.370 Y100.886 E0.0236
G1 X96.849 Y100.964 E0.0354
G1 X96.360 Y100.770 E0.0473
G1 X96.033 Y100.358 E0.0591
G1 X95.955 Y99.838 E0.0709
G1 X96.149 Y99.348 E0.0827
G1 X96.561 Y99.021 E0.0945
G1 X97.081 Y98.944 E0.1063
G1 X97.571 Y99.137 E0.1181
G1 X97.898 Y99.549 E0.1300
G1 X97.975 Y100.070 E0.1418
G92 E0
G1 E-1.0000 F1800
; layer 5, Z = 0.750
; inner perimeter
G1 X97.579 Y100.024 F4800
G1 Z0.750 F1000
G1 E0.0000 F1800
G92 E0
G1 X97.461 Y100.322 E0.0072 F600
G1 X97.211 Y100.520 E0.0144
G1 X96.895 Y100.567 E0.0215
G1 X96.598 Y100.450 E0.0287
G1 X96.399 Y100.199 E0.0359
G1 X96.352 Y99.883 E0.0431
G1 X96.469 Y99.586 E0.0502
G1 X96.720 Y99.387 E0.0574
G1 X97.036 Y99.340 E0.0646
G1 X97.333 Y99.458 E0.0718
G1 X97.532 Y99.708 E0.0789
G1 X97.579 Y100.024 E0.0861
; outer perimeter
G1 X97.990 Y100.071 F4800
G92 E0
G1 X97.794 Y100.568 E0.0120 F400
G1 X97.376 Y100.900 E0.0240
G1 X96.848 Y100.979 E0.0360
G1 X96.351 Y100.782 E0.0480
G1 X96.019 Y100.364 E0.0599
G1 X95.941 Y99.836 E0.0719
G1 X96.137 Y99.339 E0.0839
G1 X96.555 Y99.007 E0.0959
G1 X97.083 Y98.929 E0.1079
G1 X97.580 Y99.125 E0.1199
G1 X97.912 Y99.543 E0.1319
G1 X97.990 Y100.071 E0.1439
G92 E0
G1 E-1.0000 F1800
; inner perimeter
G1 X102.422 Y99.976 F4800
G1 E0.0000 F1800
G92 E0
G1 X102.540 Y99.678 E0.0072 F600
G1 X102.790 Y99.480 E0.0144
G1 X103.106 Y99.433 E0.0215
G1 X103.404 Y99.550 E0.0287
G1 X103.602 Y99.800 E0.0359
G1 X103.649 Y100.117 E0.0431
G1 X103.532 Y100.414 E0.0502
G1 X103.282 Y100.613 E0.0574
G1 X102.965 Y100.660 E0.0646
G1 X102.668 Y100.542 E0.0718
G1 X102.469 Y100.292 E0.0789
G1 X102.422 Y99.976 E0.0861
; outer perimeter
G1 X102.011 Y99.928 F4800
G92 E0
G1 X102.207 Y99.432 E0.0120 F400
G1 X102.625 Y99.100 E0.0240
G1 X103.154 Y99.021 E0.0360
G1 X103.650 Y99.218 E0.0480
G1 X103.982 Y99.636 E0.0599
G1 X104.061 Y100.164 E0.0719
G1 X103.865 Y100.661 E0.0839
G1 X103.446 Y100.993 E0.0959
G1 X102.918 Y101.071 E0.1079
G1 X102.421 Y100.875 E0.1199
G1 X102.089 Y100.457 E0.1319
G1 X102.011 Y99.928 E0.1439
G92 E0
G1 E-1.0000 F1800
; layer 6, Z = 0.900
; inner perimeter
G1 X102.407 Y99.974 F4800
G1 Z0.900 F1000
G1 E0.0000 F1800
G92 E0
G1 X102.528 Y99.670 E0.0074 F600
G1 X102.784 Y99.466 E0.0147
G1 X103.108 Y99.418 E0.0221
G1 X103.413 Y99.538 E0.0294
G1 X103.616 Y99.795 E0.0368
G1 X103.664 Y100.118 E0.0441
G1 X103.544 Y100.423 E0.0515
G1 X103.288 Y100.626 E0.0588
G1 X102.964 Y100.675 E0.0662
G1 X102.659 Y100.554 E0.0735
G1 X102.456 Y100.298 E0.0809
G1 X102.407 Y99.974 E0.0882
; outer perimeter
G1 X101.996 Y99.927 F4800
G92 E0
G1 X102.195 Y99.423 E0.0122 F400
G1 X102.619 Y99.086 E0.0243
G1 X103.155 Y99.006 E0.0365
G1 X103.659 Y99.205 E0.0487
G1 X103.996 Y99.630 E0.0608
G1 X104.076 Y100.166 E0.0730
G1 X103.877 Y100.670 E0.0851
G1 X103.452 Y101.006 E0.0973
G1 X102.916 Y101.086 E0.1095
G1 X102.413 Y100.887 E0.1216
G1 X102.076 Y100.463 E0.1338
G1 X101.996 Y99.927 E0.1460
G92 E0
G1 E-1.0000 F1800
; inner perimeter
G1 X97.594 Y100.026 F4800
G1 E0.0000 F1800
G92 E0
G1 X97.473 Y100.330 E0.0074 F600
G1 X97.217 Y100.534 E0.0147
G1 X96.893 Y100.582 E0.0221
G1 X96.589 Y100.462 E0.0294
G1 X96.385 Y100.205 E0.0368
G1 X96.337 Y99.882 E0.0441
G1 X96.457 Y99.577 E0.0515
G1 X96.714 Y99.374 E0.0588
G1 X97.038 Y99.325 E0.0662
