; G-Code generated by Simplify3D(R) Version 4.0.0
; Jan 16, 2021 at 1:54:12 PM
; Settings Summary
;   processName,Process1
;   applyToModels,20mm_Beam_V3_final
;   profileName,def (modified)
;   profileVersion,2020-09-07 14:01:24
;   baseProfile,Default (modified)
;   printMaterial,PLA
;   printQuality,Medium
;   printExtruders,
;   extruderName,Primary Extruder
;   extruderToolheadNumber,0
;   extruderDiameter,0.4
;   extruderAutoWidth,0
;   extruderWidth,0.4
;   extrusionMultiplier,0.9
;   extruderUseRetract,1
;   extruderRetractionDistance,1
;   extruderExtraRestartDistance,0
;   extruderRetractionZLift,0
;   extruderRetractionSpeed,1800
;   extruderUseCoasting,0
;   extruderCoastingDistance,0.2
;   extruderUseWipe,0
;   extruderWipeDistance,5
;   primaryExtruder,0
;   layerHeight,0.3
;   topSolidLayers,3
;   bottomSolidLayers,2
;   perimeterOutlines,2
;   printPerimetersInsideOut,1
;   startPointOption,2
;   startPointOriginX,0
;   startPointOriginY,0
;   sequentialIslands,0
;   spiralVaseMode,0
;   firstLayerHeightPercentage,90
;   firstLayerWidthPercentage,103
;   firstLayerUnderspeed,0.3
;   useRaft,0
;   raftExtruder,0
;   raftTopLayers,2
;   raftBaseLayers,2
;   raftOffset,1.4
;   raftSeparationDistance,0.14
;   raftTopInfill,100
;   aboveRaftSpeedMultiplier,0.3
;   useSkirt,0
;   skirtExtruder,0
;   skirtLayers,1
;   skirtOutlines,2
;   skirtOffset,4
;   usePrimePillar,0
;   primePillarExtruder,999
;   primePillarWidth,12
;   primePillarLocation,7
;   primePillarSpeedMultiplier,1
;   useOozeShield,0
;   oozeShieldExtruder,999
;   oozeShieldOffset,2
;   oozeShieldOutlines,1
;   oozeShieldSidewallShape,1
;   oozeShieldSidewallAngle,30
;   oozeShieldSpeedMultiplier,1
;   infillExtruder,0
;   internalInfillPattern,Rectilinear
;   externalInfillPattern,Rectilinear
;   infillPercentage,10
;   outlineOverlapPercentage,15
;   infillExtrusionWidthPercentage,100
;   minInfillLength,5
;   infillLayerInterval,1
;   internalInfillAngles,45,-45
;   overlapInternalInfillAngles,0
;   externalInfillAngles,45,-45
;   generateSupport,1
;   supportExtruder,0
;   supportInfillPercentage,30
;   supportExtraInflation,0
;   supportBaseLayers,0
;   denseSupportExtruder,0
;   denseSupportLayers,0
;   denseSupportInfillPercentage,70
;   supportLayerInterval,1
;   supportHorizontalPartOffset,0.2
;   supportUpperSeparationLayers,1
;   supportLowerSeparationLayers,1
;   supportType,0
;   supportGridSpacing,4
;   maxOverhangAngle,45
;   supportAngles,0
;   temperatureName,Primary Extruder,Hot Bed
;   temperatureNumber,0,1
;   temperatureSetpointCount,1,1
;   temperatureSetpointLayers,1,1
;   temperatureSetpointTemperatures,210,60
;   temperatureStabilizeAtStartup,1,0
;   temperatureHeatedBed,0,1
;   temperatureRelayBetweenLayers,0,0
;   temperatureRelayBetweenLoops,0,0
;   fanLayers,1,2
;   fanSpeeds,0,100
;   blipFanToFullPower,0
;   adjustSpeedForCooling,1
;   minSpeedLayerTime,15
;   minCoolingSpeedSlowdown,20
;   increaseFanForCooling,0
;   minFanLayerTime,45
;   maxCoolingFanSpeed,100
;   increaseFanForBridging,0
;   bridgingFanSpeed,100
;   use5D,1
;   relativeEdistances,0
;   allowEaxisZeroing,1
;   independentExtruderAxes,0
;   includeM10123,0
;   stickySupport,1
;   applyToolheadOffsets,0
;   gcodeXoffset,-0.09
;   gcodeYoffset,-0.03
;   gcodeZoffset,0
;   overrideMachineDefinition,0
;   machineTypeOverride,0
;   strokeXoverride,200
;   strokeYoverride,200
;   strokeZoverride,200
;   originOffsetXoverride,0
;   originOffsetYoverride,0
;   originOffsetZoverride,0
;   homeXdirOverride,-1
;   homeYdirOverride,-1
;   homeZdirOverride,-1
;   flipXoverride,1
;   flipYoverride,-1
;   flipZoverride,1
;   toolheadOffsets,0,0|0,0|0,0|0,0|0,0|0,0
;   overrideFirmwareConfiguration,0
;   firmwareTypeOverride,RepRap (Marlin/Repetier/Sprinter)
;   GPXconfigOverride,r2
;   baudRateOverride,115200
;   overridePrinterModels,0
;   printerModelsOverride
;   startingGcode,G28 ; home all axes,G1 X1 Y1 Z0.2 F3000 ; get ready to prime,G92 E0 ; reset extrusion distance,G1 Y150 E20 F600 ; prime nozzle
;   layerChangeGcode,
;   retractionGcode,
;   toolChangeGcode,
;   endingGcode,M104 S0 ; turn off extruder,M140 S0 ; turn off bedG1 X0 Y0; home,M84 ; disable motors,M107 ; fan off,G28 X Y; Home,M18; Disable steppers
;   exportFileFormat,gcode
;   celebration,0
;   celebrationSong,Random Song
;   postProcessing,
;   defaultSpeed,4600
;   outlineUnderspeed,0.5
;   solidInfillUnderspeed,0.8
;   supportUnderspeed,0.8
;   rapidXYspeed,4600
;   rapidZspeed,1000
;   minBridgingArea,50
;   bridgingExtraInflation,0
;   bridgingExtrusionMultiplier,1
;   bridgingSpeedMultiplier,1
;   useFixedBridgingAngle,0
;   fixedBridgingAngle,0
;   applyBridgingToPerimeters,0
;   filamentDiameters,1.75|1.75|1.75|1.75|1.75|1.75
;   filamentPricesPerKg,46|46|46|46|46|46
;   filamentDensities,1.25|1.25|1.25|1.25|1.25|1.25
;   useMinPrintHeight,0
;   minPrintHeight,0
;   useMaxPrintHeight,0
;   maxPrintHeight,0.6
;   useDiaphragm,0
;   diaphragmLayerInterval,20
;   robustSlicing,1
;   mergeAllIntoSolid,0
;   onlyRetractWhenCrossingOutline,1
;   retractBetweenLayers,1
;   useRetractionMinTravel,0
;   retractionMinTravel,3
;   retractWhileWiping,0
;   onlyWipeOutlines,1
;   avoidCrossingOutline,0
;   maxMovementDetourFactor,3
;   toolChangeRetractionDistance,12
;   toolChangeExtraRestartDistance,-0.5
;   toolChangeRetractionSpeed,600
;   externalThinWallType,1
;   internalThinWallType,2
;   thinWallAllowedOverlapPercentage,8
;   singleExtrusionMinLength,1
;   singleExtrusionMinPrintingWidthPercentage,50
;   singleExtrusionMaxPrintingWidthPercentage,200
;   singleExtrusionEndpointExtension,0.2
;   horizontalSizeCompensation,0
G90
M82
M106 S0
M140 S60
M104 S210 T0
M109 S210 T0
G28 ; home all axes
G1 X1 Y1 Z0.2 F3000 ; get ready to prime
G92 E0 ; reset extrusion distance
G1 Y150 E20 F600 ; prime nozzle
G92 E0
G1 E-1.0000 F1800
G1 Z0.270 F1000
; process Process1
; layer 1, Z = 0.270
T0
; tool H0.300 W0.412
; inner perimeter
G1 X105.499 Y99.802 F4600
G1 E0.0000 F540
G92 E0
G1 X112.385 Y99.762 E0.3185 F1035
G1 X112.385 Y100.169 E0.3373
G1 X113.337 Y100.393 E0.3825
G1 X113.695 Y99.678 E0.4195
G1 X113.792 Y99.608 E0.4251
G1 X119.769 Y99.608 E0.7015
G1 X119.769 Y100.046 E0.7217
G1 X117.374 Y100.046 E0.8324
G1 X117.088 Y100.332 E0.8511
G1 X116.940 Y100.431 E0.8594
G1 X116.756 Y100.615 E0.8714
G1 X116.520 Y100.969 E0.8911
G1 X116.520 Y101.228 E0.9031
G1 X116.446 Y101.525 E0.9172
G1 X116.520 Y101.750 E0.9282
G1 X116.521 Y101.985 E0.9390
G1 X116.757 Y102.338 E0.9587
G1 X119.994 Y105.575 E1.1704
G1 X120.141 Y105.673 E1.1786
G1 X120.300 Y105.832 E1.1890
G1 X120.681 Y105.958 E1.2076
G1 X125.213 Y105.958 E1.4172
G1 X125.534 Y105.851 E1.4328
G1 X125.801 Y105.673 E1.4477
G1 X129.137 Y102.337 E1.6658
G1 X129.315 Y102.069 E1.6807
G1 X129.422 Y101.748 E1.6963
G1 X129.422 Y101.203 E1.7215
G1 X129.315 Y100.882 E1.7372
G1 X129.137 Y100.615 E1.7521
G1 X128.567 Y100.046 E1.7893
G1 X126.124 Y100.046 E1.9023
G1 X126.124 Y99.608 E1.9225
G1 X132.102 Y99.609 E2.1990
G1 X132.243 Y99.710 E2.2070
G1 X132.283 Y99.750 E2.2097
G1 X132.321 Y99.825 E2.2135
G1 X132.321 Y105.756 E2.4878
G1 X131.834 Y105.756 E2.5103
G1 X131.834 Y103.312 E2.6234
G1 X131.575 Y103.053 E2.6403
G1 X131.497 Y102.898 E2.6483
G1 X130.997 Y102.565 E2.6761
G1 X130.676 Y102.458 E2.6918
G1 X130.130 Y102.458 E2.7170
G1 X129.810 Y102.565 E2.7326
G1 X129.543 Y102.743 E2.7474
G1 X126.278 Y106.008 E2.9610
G1 X126.228 Y106.107 E2.9661
G1 X126.048 Y106.287 E2.9779
G1 X125.922 Y106.668 E2.9965
G1 X125.922 Y111.201 E3.2061
G1 X126.050 Y111.582 E3.2247
G1 X126.229 Y111.761 E3.2364
G1 X126.278 Y111.860 E3.2415
G1 X129.543 Y115.124 E3.4550
G1 X129.896 Y115.360 E3.4747
G1 X130.132 Y115.360 E3.4855
G1 X130.356 Y115.434 E3.4965
G1 X130.653 Y115.360 E3.5106
G1 X130.913 Y115.359 E3.5226
G1 X131.498 Y114.968 E3.5552
G1 X131.576 Y114.812 E3.5632
G1 X131.834 Y114.554 E3.5801
G1 X131.834 Y112.111 E3.6931
G1 X132.321 Y112.111 E3.7156
G1 X132.321 Y118.013 E3.9885
G1 X132.294 Y118.120 E3.9936
G1 X131.676 Y118.490 E4.0269
G1 X131.927 Y119.396 E4.0704
G1 X132.321 Y119.396 E4.0886
G1 X132.321 Y126.332 E4.4094
G1 X128.831 Y126.332 E4.5708
G1 X128.831 Y121.852 E4.7779
G1 X126.075 Y121.852 E4.9054
G1 X126.075 Y119.396 E5.0190
G1 X126.222 Y119.396 E5.0258
G1 X126.222 Y118.473 E5.0685
G1 X126.124 Y118.375 E5.0749
G1 X126.124 Y117.772 E5.1028
G1 X128.500 Y117.772 E5.2127
G1 X128.854 Y117.535 E5.2324
G1 X129.038 Y117.351 E5.2444
G1 X129.137 Y117.203 E5.2526
G1 X129.313 Y117.027 E5.2641
G1 X129.422 Y116.590 E5.2850
G1 X129.422 Y116.119 E5.3068
G1 X129.315 Y115.797 E5.3224
G1 X129.137 Y115.530 E5.3373
G1 X125.801 Y112.194 E5.5555
G1 X125.534 Y112.016 E5.5703
G1 X125.213 Y111.909 E5.5860
G1 X120.680 Y111.909 E5.7956
G1 X120.299 Y112.036 E5.8142
G1 X120.138 Y112.197 E5.8247
G1 X119.980 Y112.306 E5.8336
G1 X116.756 Y115.531 E6.0445
G1 X116.520 Y115.885 E6.0641
G1 X116.520 Y116.120 E6.0750
G1 X116.438 Y116.367 E6.0871
G1 X116.520 Y116.615 E6.0992
G1 X116.521 Y116.968 E6.1155
G1 X116.757 Y117.204 E6.1309
G1 X116.890 Y117.403 E6.1420
G1 X117.444 Y117.772 E6.1728
G1 X119.769 Y117.772 E6.2803
G1 X119.769 Y118.378 E6.3083
G1 X119.670 Y118.479 E6.3148
G1 X119.670 Y119.396 E6.3573
G1 X119.818 Y119.396 E6.3641
G1 X119.818 Y121.852 E6.4777
G1 X116.569 Y121.852 E6.6279
G1 X116.569 Y126.332 E6.8351
G1 X105.598 Y126.332 E7.3425
G1 X105.598 Y126.233 E7.3470
G1 X105.546 Y126.233 E7.3494
G1 X105.502 Y115.458 E7.8478
G1 X107.701 Y115.458 E7.9495
G1 X109.585 Y115.386 E8.0367
G1 X109.585 Y111.964 E8.1949
G1 X112.435 Y111.965 E8.3268
G1 X112.436 Y112.211 E8.3381
G1 X113.408 Y112.209 E8.3831
G1 X113.505 Y112.111 E8.3895
G1 X114.108 Y112.111 E8.4173
G1 X114.108 Y114.487 E8.5272
G1 X114.345 Y114.841 E8.5469
G1 X114.530 Y115.026 E8.5590
G1 X114.677 Y115.124 E8.5672
G1 X114.854 Y115.301 E8.5787
G1 X115.290 Y115.409 E8.5995
G1 X115.763 Y115.409 E8.6214
G1 X116.084 Y115.302 E8.6370
G1 X116.350 Y115.124 E8.6519
G1 X119.501 Y111.973 E8.8579
G1 X119.773 Y111.791 E8.8731
G1 X119.971 Y111.200 E8.9019
G1 X119.971 Y106.667 E9.1115
G1 X119.773 Y106.076 E9.1404
G1 X119.501 Y105.894 E9.1555
G1 X116.350 Y102.743 E9.3616
G1 X116.083 Y102.565 E9.3765
G1 X115.761 Y102.458 E9.3921
G1 X115.290 Y102.458 E9.4139
G1 X114.853 Y102.567 E9.4348
G1 X114.677 Y102.744 E9.4463
G1 X114.529 Y102.843 E9.4545
G1 X114.343 Y103.028 E9.4667
G1 X114.108 Y103.382 E9.4863
G1 X114.108 Y105.658 E9.5916
G1 X113.358 Y105.658 E9.6263
G1 X113.148 Y105.448 E9.6400
G1 X112.524 Y105.707 E9.6712
G1 X109.585 Y105.707 E9.8071
G1 X109.585 Y103.196 E9.9232
G1 X105.499 Y103.196 E10.1122
G1 X105.499 Y99.802 E10.2692
; outer perimeter
G1 X105.087 Y99.392 F4600
G92 E0
G1 X112.797 Y99.347 E0.3566 F690
G1 X112.797 Y99.843 E0.3795
G1 X113.114 Y99.917 E0.3946
G1 X113.329 Y99.488 E0.4168
G1 X113.400 Y99.382 E0.4227
G1 X113.660 Y99.196 E0.4375
G1 X120.055 Y99.196 E0.7332
G1 X120.181 Y99.322 E0.7414
G1 X120.181 Y100.283 E0.7859
G1 X120.007 Y100.458 E0.7973
G1 X117.545 Y100.458 E0.9112
G1 X117.351 Y100.652 E0.9238
G1 X117.203 Y100.751 E0.9320
G1 X117.076 Y100.878 E0.9404
G1 X116.932 Y101.094 E0.9524
G1 X116.932 Y101.279 E0.9609
G1 X116.874 Y101.509 E0.9719
G1 X116.932 Y101.682 E0.9803
G1 X116.933 Y101.859 E0.9885
G1 X117.077 Y102.075 E1.0005
G1 X120.256 Y105.255 E1.2085
G1 X120.404 Y105.353 E1.2167
G1 X120.522 Y105.471 E1.2244
G1 X120.748 Y105.546 E1.2354
G1 X125.146 Y105.546 E1.4388
G1 X125.351 Y105.477 E1.4488
G1 X125.539 Y105.353 E1.4593
G1 X128.817 Y102.074 E1.6737
G1 X128.942 Y101.887 E1.6841
G1 X129.010 Y101.682 E1.6941
G1 X129.010 Y101.270 E1.7131
G1 X128.941 Y101.065 E1.7231
G1 X128.816 Y100.877 E1.7336
G1 X128.397 Y100.458 E1.7610
G1 X125.886 Y100.458 E1.8771
G1 X125.712 Y100.283 E1.8885
G1 X125.712 Y99.322 E1.9330
G1 X125.837 Y99.196 E1.9412
G1 X132.234 Y99.197 E2.2370
G1 X132.510 Y99.395 E2.2527
G1 X132.622 Y99.506 E2.2600
G1 X132.699 Y99.660 E2.2680
G1 X132.733 Y99.763 E2.2730
G1 X132.733 Y106.043 E2.5634
G1 X132.607 Y106.168 E2.5716
G1 X131.596 Y106.168 E2.6184
G1 X131.422 Y105.993 E2.6298
G1 X131.422 Y103.482 E2.7459
G1 X131.237 Y103.298 E2.7580
G1 X131.178 Y103.180 E2.7641
G1 X130.814 Y102.938 E2.7843
G1 X130.609 Y102.870 E2.7943
G1 X130.198 Y102.870 E2.8133
G1 X129.993 Y102.939 E2.8233
G1 X129.805 Y103.063 E2.8337
G1 X126.616 Y106.252 E3.0423
G1 X126.567 Y106.351 E3.0474
G1 X126.409 Y106.509 E3.0578
G1 X126.334 Y106.735 E3.0687
G1 X126.334 Y111.133 E3.2722
G1 X126.409 Y111.359 E3.2832
G1 X126.567 Y111.517 E3.2935
G1 X126.617 Y111.615 E3.2986
G1 X129.806 Y114.804 E3.5072
G1 X130.022 Y114.948 E3.5192
G1 X130.198 Y114.948 E3.5273
G1 X130.372 Y115.006 E3.5358
G1 X130.602 Y114.948 E3.5468
G1 X130.787 Y114.947 E3.5553
G1 X131.179 Y114.686 E3.5771
G1 X131.238 Y114.568 E3.5832
G1 X131.422 Y114.384 E3.5952
G1 X131.422 Y111.873 E3.7113
G1 X131.597 Y111.699 E3.7227
G1 X132.607 Y111.699 E3.7695
G1 X132.733 Y111.824 E3.7777
G1 X132.733 Y118.064 E4.0663
G1 X132.695 Y118.215 E4.0734
G1 X132.622 Y118.361 E4.0810
G1 X132.516 Y118.467 E4.0879
G1 X132.157 Y118.682 E4.1073
G1 X132.241 Y118.984 E4.1218
G1 X132.733 Y118.984 E4.1445
G1 X132.733 Y126.744 E4.5034
G1 X128.419 Y126.744 E4.7029
G1 X128.419 Y122.264 E4.9100
G1 X125.663 Y122.264 E5.0375
G1 X125.664 Y118.984 E5.1892
G1 X125.810 Y118.984 E5.1960
G1 X125.810 Y118.644 E5.2118
G1 X125.712 Y118.545 E5.2182
G1 X125.712 Y117.596 E5.2621
G1 X125.806 Y117.408 E5.2718
G1 X125.904 Y117.360 E5.2769
G1 X128.375 Y117.360 E5.3911
G1 X128.591 Y117.215 E5.4032
G1 X128.718 Y117.088 E5.4115
G1 X128.816 Y116.941 E5.4197
G1 X128.941 Y116.816 E5.4278
G1 X129.010 Y116.539 E5.4410
G1 X129.010 Y116.185 E5.4574
G1 X128.942 Y115.980 E5.4674
G1 X128.816 Y115.792 E5.4778
G1 X125.539 Y112.515 E5.6922
G1 X125.351 Y112.389 E5.7026
G1 X125.146 Y112.321 E5.7127
G1 X120.747 Y112.321 E5.9161
G1 X120.522 Y112.396 E5.9271
G1 X120.402 Y112.516 E5.9349
G1 X120.245 Y112.624 E5.9437
G1 X117.076 Y115.793 E6.1510
G1 X116.932 Y116.009 E6.1630
G1 X116.932 Y116.186 E6.1712
G1 X116.872 Y116.367 E6.1800
G1 X116.932 Y116.548 E6.1888
G1 X116.933 Y116.797 E6.2003
G1 X117.077 Y116.941 E6.2098
G1 X117.187 Y117.106 E6.2189
G1 X117.568 Y117.360 E6.2401
G1 X120.063 Y117.360 E6.3555
G1 X120.181 Y117.596 E6.3677
G1 X120.181 Y118.546 E6.4116
G1 X120.082 Y118.647 E6.4181
G1 X120.082 Y118.984 E6.4337
G1 X120.230 Y118.984 E6.4406
G1 X120.230 Y122.264 E6.5923
G1 X116.981 Y122.264 E6.7425
G1 X116.981 Y126.744 E6.9497
G1 X105.186 Y126.744 E7.4952
G1 X105.186 Y126.645 E7.4997
G1 X105.135 Y126.645 E7.5021
G1 X105.088 Y115.046 E8.0385
G1 X107.693 Y115.046 E8.1590
G1 X109.173 Y114.990 E8.2274
G1 X109.173 Y111.552 E8.3864
G1 X112.847 Y111.553 E8.5564
G1 X112.847 Y111.798 E8.5677
G1 X113.236 Y111.797 E8.5857
G1 X113.335 Y111.699 E8.5921
G1 X114.283 Y111.699 E8.6360
G1 X114.520 Y111.817 E8.6482
G1 X114.520 Y114.362 E8.7659
G1 X114.665 Y114.579 E8.7779
G1 X114.792 Y114.706 E8.7863
G1 X114.940 Y114.804 E8.7945
G1 X115.064 Y114.928 E8.8026
G1 X115.341 Y114.997 E8.8158
G1 X115.695 Y114.997 E8.8322
G1 X115.901 Y114.928 E8.8422
G1 X116.088 Y114.804 E8.8526
G1 X119.238 Y111.653 E9.0586
G1 X119.427 Y111.527 E9.0692
G1 X119.559 Y111.133 E9.0884
G1 X119.559 Y106.734 E9.2918
G1 X119.427 Y106.340 E9.3110
G1 X119.238 Y106.214 E9.3215
G1 X116.088 Y103.064 E9.5276
G1 X115.900 Y102.938 E9.5380
G1 X115.695 Y102.870 E9.5480
G1 X115.340 Y102.870 E9.5644
G1 X115.064 Y102.939 E9.5776
G1 X114.939 Y103.064 E9.5858
G1 X114.791 Y103.162 E9.5940
G1 X114.664 Y103.290 E9.6023
G1 X114.520 Y103.506 E9.6143
G1 X114.520 Y105.994 E9.7294
G1 X114.394 Y106.119 E9.7376
G1 X113.357 Y106.119 E9.7855
G1 X113.357 Y106.070 E9.7878
G1 X113.187 Y106.070 E9.7957
G1 X113.051 Y105.934 E9.8045
G1 X112.797 Y106.039 E9.8173
G1 X112.797 Y106.119 E9.8209
G1 X109.173 Y106.119 E9.9886
G1 X109.173 Y103.608 E10.1047
G1 X105.087 Y103.608 E10.2936
G1 X105.087 Y99.392 E10.4886
G92 E0
G1 E-1.0000 F1800
; inner perimeter
G1 X112.435 Y117.877 F4600
G1 E0.0000 F1800
G92 E0
G1 X112.434 Y119.396 E0.0703 F1035
G1 X113.984 Y119.396 E0.1420
G1 X114.209 Y118.444 E0.1872
G1 X113.697 Y118.189 E0.2137
G1 X113.312 Y117.612 E0.2458
