; G-Code generated by Simplify3D(R) Version 4.0.0
; Jan 16, 2021 at 7:25:43 PM
; Settings Summary
;   processName,Process1
;   applyToModels,20mm_Beam_V3_final
;   profileName,def (modified)
;   profileVersion,2020-09-07 14:01:24
;   baseProfile,Default (modified)
;   printMaterial,PLA
;   printQuality,Medium
;   printExtruders,
;   extruderName,Primary Extruder
;   extruderToolheadNumber,0
;   extruderDiameter,0.4
;   extruderAutoWidth,0
;   extruderWidth,0.4
;   extrusionMultiplier,0.9
;   extruderUseRetract,1
;   extruderRetractionDistance,1
;   extruderExtraRestartDistance,0
;   extruderRetractionZLift,0
;   extruderRetractionSpeed,1800
;   extruderUseCoasting,0
;   extruderCoastingDistance,0.2
;   extruderUseWipe,0
;   extruderWipeDistance,5
;   primaryExtruder,0
;   layerHeight,0.3
;   topSolidLayers,3
;   bottomSolidLayers,2
;   perimeterOutlines,2
;   printPerimetersInsideOut,1
;   startPointOption,2
;   startPointOriginX,0
;   startPointOriginY,0
;   sequentialIslands,0
;   spiralVaseMode,0
;   firstLayerHeightPercentage,90
;   firstLayerWidthPercentage,103
;   firstLayerUnderspeed,0.3
;   useRaft,0
;   raftExtruder,0
;   raftTopLayers,2
;   raftBaseLayers,2
;   raftOffset,1.4
;   raftSeparationDistance,0.14
;   raftTopInfill,100
;   aboveRaftSpeedMultiplier,0.3
;   useSkirt,0
;   skirtExtruder,0
;   skirtLayers,1
;   skirtOutlines,2
;   skirtOffset,4
;   usePrimePillar,0
;   primePillarExtruder,999
;   primePillarWidth,12
;   primePillarLocation,7
;   primePillarSpeedMultiplier,1
;   useOozeShield,0
;   oozeShieldExtruder,999
;   oozeShieldOffset,2
;   oozeShieldOutlines,1
;   oozeShieldSidewallShape,1
;   oozeShieldSidewallAngle,30
;   oozeShieldSpeedMultiplier,1
;   infillExtruder,0
;   internalInfillPattern,Rectilinear
;   externalInfillPattern,Rectilinear
;   infillPercentage,10
;   outlineOverlapPercentage,15
;   infillExtrusionWidthPercentage,100
;   minInfillLength,5
;   infillLayerInterval,1
;   internalInfillAngles,45,-45
;   overlapInternalInfillAngles,0
;   externalInfillAngles,45,-45
;   generateSupport,1
;   supportExtruder,0
;   supportInfillPercentage,30
;   supportExtraInflation,0
;   supportBaseLayers,0
;   denseSupportExtruder,0
;   denseSupportLayers,0
;   denseSupportInfillPercentage,70
;   supportLayerInterval,1
;   supportHorizontalPartOffset,0.2
;   supportUpperSeparationLayers,1
;   supportLowerSeparationLayers,1
;   supportType,0
;   supportGridSpacing,4
;   maxOverhangAngle,45
;   supportAngles,0
;   temperatureName,Primary Extruder,Hot Bed
;   temperatureNumber,0,1
;   temperatureSetpointCount,1,1
;   temperatureSetpointLayers,1,1
;   temperatureSetpointTemperatures,210,60
;   temperatureStabilizeAtStartup,1,0
;   temperatureHeatedBed,0,1
;   temperatureRelayBetweenLayers,0,0
;   temperatureRelayBetweenLoops,0,0
;   fanLayers,1,2
;   fanSpeeds,0,100
;   blipFanToFullPower,0
;   adjustSpeedForCooling,1
;   minSpeedLayerTime,15
;   minCoolingSpeedSlowdown,20
;   increaseFanForCooling,0
;   minFanLayerTime,45
;   maxCoolingFanSpeed,100
;   increaseFanForBridging,0
;   bridgingFanSpeed,100
;   use5D,1
;   relativeEdistances,0
;   allowEaxisZeroing,1
;   independentExtruderAxes,0
;   includeM10123,0
;   stickySupport,1
;   applyToolheadOffsets,0
;   gcodeXoffset,-0.09
;   gcodeYoffset,-0.03
;   gcodeZoffset,0
;   overrideMachineDefinition,0
;   machineTypeOverride,0
;   strokeXoverride,200
;   strokeYoverride,200
;   strokeZoverride,200
;   originOffsetXoverride,0
;   originOffsetYoverride,0
;   originOffsetZoverride,0
;   homeXdirOverride,-1
;   homeYdirOverride,-1
;   homeZdirOverride,-1
;   flipXoverride,1
;   flipYoverride,-1
;   flipZoverride,1
;   toolheadOffsets,0,0|0,0|0,0|0,0|0,0|0,0
;   overrideFirmwareConfiguration,0
;   firmwareTypeOverride,RepRap (Marlin/Repetier/Sprinter)
;   GPXconfigOverride,r2
;   baudRateOverride,115200
;   overridePrinterModels,0
;   printerModelsOverride
;   startingGcode,G28 ; home all axes,G1 X1 Y1 Z0.2 F3000 ; get ready to prime,G92 E0 ; reset extrusion distance,G1 Y150 E20 F600 ; prime nozzle
;   layerChangeGcode,
;   retractionGcode,
;   toolChangeGcode,
;   endingGcode,M104 S0 ; turn off extruder,M140 S0 ; turn off bedG1 X0 Y0; home,M84 ; disable motors,M107 ; fan off,G28 X Y; Home,M18; Disable steppers
;   exportFileFormat,gcode
;   celebration,0
;   celebrationSong,Random Song
;   postProcessing,
;   defaultSpeed,4600
;   outlineUnderspeed,0.5
;   solidInfillUnderspeed,0.8
;   supportUnderspeed,0.8
;   rapidXYspeed,4600
;   rapidZspeed,1000
;   minBridgingArea,50
;   bridgingExtraInflation,0
;   bridgingExtrusionMultiplier,1
;   bridgingSpeedMultiplier,1
;   useFixedBridgingAngle,0
;   fixedBridgingAngle,0
;   applyBridgingToPerimeters,0
;   filamentDiameters,1.75|1.75|1.75|1.75|1.75|1.75
;   filamentPricesPerKg,46|46|46|46|46|46
;   filamentDensities,1.25|1.25|1.25|1.25|1.25|1.25
;   useMinPrintHeight,0
;   minPrintHeight,0
;   useMaxPrintHeight,0
;   maxPrintHeight,0.6
;   useDiaphragm,0
;   diaphragmLayerInterval,20
;   robustSlicing,1
;   mergeAllIntoSolid,0
;   onlyRetractWhenCrossingOutline,1
;   retractBetweenLayers,1
;   useRetractionMinTravel,0
;   retractionMinTravel,3
;   retractWhileWiping,0
;   onlyWipeOutlines,1
;   avoidCrossingOutline,0
;   maxMovementDetourFactor,3
;   toolChangeRetractionDistance,12
;   toolChangeExtraRestartDistance,-0.5
;   toolChangeRetractionSpeed,600
;   externalThinWallType,1
;   internalThinWallType,2
;   thinWallAllowedOverlapPercentage,8
;   singleExtrusionMinLength,1
;   singleExtrusionMinPrintingWidthPercentage,50
;   singleExtrusionMaxPrintingWidthPercentage,200
;   singleExtrusionEndpointExtension,0.2
;   horizontalSizeCompensation,0
G90
M82
M106 S0
M140 S60
M104 S210 T0
M109 S210 T0
G28 ; home all axes
G1 X1 Y1 Z0.2 F3000 ; get ready to prime
G92 E0 ; reset extrusion distance
G1 Y150 E20 F600 ; prime nozzle
G92 E0
G1 E-1.0000 F1800
G1 Z0.270 F1000
; process Process1
; layer 1, Z = 0.270
T0
; tool H0.300 W0.412
; inner perimeter
G1 X105.598 Y99.608 F4600
G1 E0.0000 F540
G92 E0
G1 X116.569 Y99.608 E0.5074 F1035
G1 X116.569 Y104.088 E0.7146
G1 X128.831 Y104.088 E1.2817
G1 X128.831 Y99.608 E1.4888
G1 X132.321 Y99.609 E1.6502
G1 X132.321 Y106.544 E1.9710
G1 X112.436 Y106.544 E2.8906
G1 X112.387 Y126.180 E3.7988
G1 X105.499 Y126.138 E4.1173
G1 X105.499 Y122.744 E4.2743
G1 X109.585 Y122.744 E4.4633
G1 X109.585 Y110.538 E5.0277
G1 X105.502 Y110.489 E5.2166
G1 X105.546 Y99.707 E5.7153
G1 X105.598 Y99.707 E5.7176
G1 X105.598 Y99.608 E5.7222
; outer perimeter
G1 X105.186 Y99.295 F4600
G92 E0
G1 X105.186 Y99.196 E0.0046 F690
G1 X116.981 Y99.196 E0.5501
G1 X116.981 Y103.676 E0.7572
G1 X128.419 Y103.676 E1.2862
G1 X128.419 Y99.196 E1.4934
G1 X132.733 Y99.197 E1.6929
G1 X132.733 Y106.956 E2.0517
G1 X112.847 Y106.956 E2.9714
G1 X112.798 Y126.595 E3.8797
G1 X105.087 Y126.548 E4.2363
G1 X105.087 Y122.332 E4.4313
G1 X109.173 Y122.332 E4.6202
G1 X109.173 Y110.945 E5.1469
G1 X105.088 Y110.896 E5.3358
G1 X105.136 Y99.295 E5.8723
G1 X105.186 Y99.295 E5.8746
; solid layer
G1 X111.725 Y99.959 F4600
G92 E0
G1 X117.960 Y106.193 E0.4078 F1104
G1 X117.377 Y106.193 E0.4347
G1 X111.142 Y99.959 E0.8425
G1 X110.560 Y99.959 E0.8695
G1 X116.795 Y106.193 E1.2773
G1 X116.212 Y106.193 E1.3042
G1 X109.977 Y99.959 E1.7120
G1 X109.394 Y99.959 E1.7389
G1 X115.629 Y106.193 E2.1467
G1 X115.047 Y106.193 E2.1737
G1 X108.812 Y99.959 E2.5815
G1 X108.229 Y99.959 E2.6084
G1 X114.464 Y106.193 E3.0162
G1 X113.881 Y106.193 E3.0431
G1 X107.647 Y99.959 E3.4509
G1 X107.064 Y99.959 E3.4779
G1 X113.299 Y106.193 E3.8857
G1 X112.716 Y106.193 E3.9126
G1 X106.481 Y99.959 E4.3204
G1 X105.948 Y99.959 E4.3451
G1 X105.948 Y100.008 E4.3473
G1 X112.133 Y106.193 E4.7519
G1 X112.087 Y106.193 E4.7541
G1 X112.085 Y106.728 E4.7788
G1 X105.893 Y100.535 E5.1838
G1 X105.890 Y101.116 E5.2106
G1 X112.084 Y107.309 E5.6157
G1 X112.082 Y107.890 E5.6426
G1 X105.888 Y101.696 E6.0477
G1 X105.886 Y102.276 E6.0746
G1 X112.081 Y108.471 E6.4798
G1 X112.079 Y109.053 E6.5067
G1 X105.883 Y102.856 E6.9119
G1 X105.881 Y103.437 E6.9387
G1 X112.078 Y109.634 E7.3441
G1 X112.076 Y110.215 E7.3710
G1 X105.878 Y104.017 E7.7763
G1 X105.876 Y104.597 E7.8032
G1 X112.075 Y110.796 E8.2086
G1 X112.074 Y111.377 E8.2355
G1 X105.874 Y105.178 E8.6410
G1 X105.871 Y105.758 E8.6678
G1 X112.072 Y111.959 E9.0734
G1 X112.071 Y112.540 E9.1003
G1 X109.935 Y110.404 E9.2400
G1 X109.935 Y110.192 E9.2498
G1 X109.720 Y110.190 E9.2597
G1 X105.869 Y106.338 E9.5116
G1 X105.866 Y106.918 E9.5384
G1 X109.131 Y110.182 E9.7519
G1 X108.541 Y110.175 E9.7792
G1 X105.864 Y107.499 E9.9543
G1 X105.862 Y108.079 E9.9811
G1 X107.951 Y110.168 E10.1177
G1 X107.361 Y110.161 E10.1450
G1 X105.859 Y108.659 E10.2433
G1 X105.857 Y109.239 E10.2701
G1 X106.771 Y110.154 E10.3299
G1 X106.182 Y110.147 E10.3572
G1 X105.855 Y109.820 E10.3786
G1 X109.935 Y110.987 F4600
G92 E0
G1 X112.069 Y113.121 E0.1396 F1104
G1 X112.068 Y113.702 E0.1665
G1 X109.935 Y111.569 E0.3060
G1 X109.935 Y112.152 E0.3329
G1 X112.066 Y114.283 E0.4723
G1 X112.065 Y114.865 E0.4992
G1 X109.935 Y112.735 E0.6385
G1 X109.935 Y113.317 E0.6654
G1 X112.063 Y115.446 E0.8047
G1 X112.062 Y116.027 E0.8315
G1 X109.935 Y113.900 E0.9707
G1 X109.935 Y114.483 E0.9976
G1 X112.060 Y116.608 E1.1366
G1 X112.059 Y117.189 E1.1635
G1 X109.935 Y115.065 E1.3024
G1 X109.935 Y115.648 E1.3294
G1 X112.058 Y117.771 E1.4682
G1 X112.056 Y118.352 E1.4951
G1 X109.935 Y116.231 E1.6338
G1 X109.935 Y116.813 E1.6608
G1 X112.055 Y118.933 E1.7994
G1 X112.053 Y119.514 E1.8263
G1 X109.935 Y117.396 E1.9648
G1 X109.935 Y117.979 E1.9918
G1 X112.052 Y120.095 E2.1302
G1 X112.050 Y120.677 E2.1571
G1 X109.935 Y118.561 E2.2954
G1 X109.935 Y119.144 E2.3224
G1 X112.049 Y121.258 E2.4607
G1 X112.047 Y121.839 E2.4875
G1 X109.935 Y119.727 E2.6257
G1 X109.935 Y120.309 E2.6526
G1 X112.046 Y122.420 E2.7907
G1 X112.044 Y123.001 E2.8176
G1 X109.935 Y120.892 E2.9556
G1 X109.935 Y121.475 E2.9825
G1 X112.043 Y123.583 E3.1204
G1 X112.042 Y124.164 E3.1473
G1 X109.935 Y122.057 E3.2850
G1 X109.935 Y122.640 E3.3120
G1 X112.040 Y124.745 E3.4497
G1 X112.039 Y125.326 E3.4766
G1 X109.806 Y123.094 E3.6226
G1 X109.224 Y123.094 E3.6495
G1 X111.957 Y125.827 E3.8283
G1 X111.371 Y125.824 E3.8554
G1 X108.641 Y123.094 E4.0340
G1 X108.058 Y123.094 E4.0609
G1 X110.785 Y125.820 E4.2392
G1 X110.198 Y125.817 E4.2663
G1 X107.476 Y123.094 E4.4444
G1 X106.893 Y123.094 E4.4714
G1 X109.612 Y125.813 E4.6492
G1 X109.026 Y125.810 E4.6763
G1 X106.310 Y123.094 E4.8540
G1 X105.849 Y123.094 E4.8753
G1 X105.849 Y123.216 E4.8809
G1 X108.440 Y125.806 E5.0504
G1 X107.854 Y125.803 E5.0775
G1 X105.849 Y123.798 E5.2086
G1 X105.849 Y124.381 E5.2355
G1 X107.267 Y125.799 E5.3283
G1 X106.681 Y125.795 E5.3554
G1 X105.849 Y124.964 E5.4098
G1 X105.849 Y125.546 E5.4367
G1 X106.095 Y125.792 E5.4528
G92 E0
G1 E-1.0000 F1800
G1 X115.804 Y99.959 F4600
G1 E0.0000 F1800
G92 E0
G1 X116.219 Y100.374 E0.0272 F1104
G1 X116.219 Y100.957 E0.0541
G1 X115.221 Y99.959 E0.1194
G1 X114.638 Y99.959 E0.1463
G1 X116.219 Y101.539 E0.2497
G1 X116.219 Y102.122 E0.2767
G1 X114.056 Y99.959 E0.4182
G1 X113.473 Y99.959 E0.4451
G1 X116.219 Y102.705 E0.6247
G1 X116.219 Y103.287 E0.6517
G1 X112.890 Y99.959 E0.8694
G1 X112.308 Y99.959 E0.8963
G1 X116.219 Y103.870 E1.1521
G1 X116.219 Y104.438 E1.1784
G1 X116.787 Y104.438 E1.2047
G1 X118.543 Y106.193 E1.3195
G1 X119.125 Y106.193 E1.3464
G1 X117.370 Y104.438 E1.4613
G1 X117.952 Y104.438 E1.4882
G1 X119.708 Y106.193 E1.6030
G1 X120.291 Y106.193 E1.6300
G1 X118.535 Y104.438 E1.7448
G1 X119.118 Y104.438 E1.7717
G1 X120.873 Y106.193 E1.8865
G1 X121.456 Y106.193 E1.9135
G1 X119.700 Y104.438 E2.0283
G1 X120.283 Y104.438 E2.0552
G1 X122.038 Y106.193 E2.1700
G1 X122.621 Y106.193 E2.1970
G1 X120.866 Y104.438 E2.3118
G1 X121.448 Y104.438 E2.3387
G1 X123.204 Y106.193 E2.4536
G1 X123.786 Y106.193 E2.4805
G1 X122.031 Y104.438 E2.5953
G1 X122.614 Y104.438 E2.6223
G1 X124.369 Y106.193 E2.7371
G1 X124.952 Y106.193 E2.7640
G1 X123.196 Y104.438 E2.8788
G1 X123.779 Y104.438 E2.9058
G1 X125.534 Y106.193 E3.0206
G1 X126.117 Y106.193 E3.0475
G1 X124.362 Y104.438 E3.1624
G1 X124.944 Y104.438 E3.1893
G1 X126.700 Y106.193 E3.3041
G1 X127.282 Y106.193 E3.3311
G1 X125.527 Y104.438 E3.4459
G1 X126.110 Y104.438 E3.4728
G1 X127.865 Y106.193 E3.5876
G1 X128.448 Y106.193 E3.6146
G1 X126.692 Y104.438 E3.7294
G1 X127.275 Y104.438 E3.7563
G1 X129.030 Y106.193 E3.8711
G1 X129.613 Y106.193 E3.8981
G1 X127.858 Y104.438 E4.0129
G1 X128.440 Y104.438 E4.0399
G1 X130.196 Y106.193 E4.1547
G1 X130.778 Y106.193 E4.1816
G1 X129.023 Y104.438 E4.2964
G1 X129.182 Y104.438 E4.3038
G1 X129.182 Y104.014 E4.3234
G1 X131.361 Y106.193 E4.4659
G1 X131.944 Y106.193 E4.4929
G1 X129.182 Y103.431 E4.6735
G1 X129.182 Y102.849 E4.7005
G1 X131.971 Y105.638 E4.8829
G1 X131.971 Y105.055 E4.9098
G1 X129.182 Y102.266 E5.0923
G1 X129.182 Y101.683 E5.1192
G1 X131.971 Y104.472 E5.3016
G1 X131.971 Y103.890 E5.3286
G1 X129.182 Y101.101 E5.5110
G1 X129.182 Y100.518 E5.5379
G1 X131.971 Y103.307 E5.7204
G1 X131.971 Y102.724 E5.7473
G1 X129.205 Y99.959 E5.9282
G1 X129.788 Y99.959 E5.9552
G1 X131.971 Y102.142 E6.0979
G1 X131.971 Y101.559 E6.1249
G1 X130.370 Y99.959 E6.2296
G1 X130.953 Y99.959 E6.2565
G1 X131.971 Y100.976 E6.3231
G1 X131.971 Y100.394 E6.3500
G1 X131.536 Y99.959 E6.3785
G92 E0
G1 E-1.0000 F1800
; support
G1 X113.448 Y108.970 F4600
G1 E0.0000 F1800
G92 E0
G1 X132.930 Y108.970 E0.9010 F1104
G1 X132.930 Y110.303 E0.9627
G1 X113.444 Y110.303 E1.8639
G1 X113.441 Y111.637 E1.9255
G1 X132.930 Y111.637 E2.8268
G1 X132.930 Y112.970 E2.8885
G1 X113.438 Y112.970 E3.7900
G1 X113.434 Y114.303 E3.8517
G1 X132.930 Y114.303 E4.7533
G1 X132.930 Y115.637 E4.8150
G1 X113.431 Y115.637 E5.7167
G1 X113.428 Y116.970 E5.7784
G1 X132.930 Y116.970 E6.6804
G1 X132.930 Y118.303 E6.7420
G1 X113.424 Y118.303 E7.6441
G1 X113.421 Y119.637 E7.7058
G1 X132.930 Y119.637 E8.6080
G1 X132.930 Y120.970 E8.6697
G1 X113.418 Y120.970 E9.5721
G1 X113.414 Y122.303 E9.6338
G1 X132.930 Y122.303 E10.5363
G1 X132.930 Y123.637 E10.5980
G1 X113.411 Y123.637 E11.5007
G1 X113.408 Y124.970 E11.5624
G1 X132.930 Y124.970 E12.4653
G92 E0
G1 E-1.0000 F1800
; layer 2, Z = 0.570
M106 S255
; tool H0.300 W0.400
; inner perimeter
G1 X132.339 Y106.562 F4600
G1 Z0.570 F1000
G1 E0.0000 F1800
G92 E0
G1 X112.454 Y106.562 E0.8929 F3450
G1 X112.405 Y126.198 E1.7746
G1 X105.481 Y126.156 E2.0855
G1 X105.481 Y122.726 E2.2395
G1 X109.567 Y122.726 E2.4230
G1 X109.567 Y110.556 E2.9694
G1 X105.484 Y110.507 E3.1527
G1 X105.528 Y99.689 E3.6385
G1 X105.580 Y99.689 E3.6408
G1 X105.580 Y99.590 E3.6452
G1 X116.587 Y99.590 E4.1395
G1 X116.588 Y104.070 E4.3406
G1 X128.813 Y104.070 E4.8895
G1 X128.813 Y99.590 E5.0906
G1 X132.339 Y99.591 E5.2489
G1 X132.339 Y106.562 E5.5619
; outer perimeter
G1 X132.739 Y106.962 F4600
G92 E0
G1 X112.853 Y106.962 E0.8929 F2300
G1 X112.804 Y126.601 E1.7747
G1 X105.081 Y126.554 E2.1215
G1 X105.081 Y122.326 E2.3113
G1 X109.167 Y122.326 E2.4948
G1 X109.167 Y110.951 E3.0055
G1 X105.082 Y110.902 E3.1890
G1 X105.130 Y99.289 E3.7104
G1 X105.180 Y99.289 E3.7126
G1 X105.180 Y99.190 E3.7170
G1 X116.987 Y99.190 E4.2472
G1 X116.988 Y103.670 E4.4483
G1 X128.413 Y103.670 E4.9614
G1 X128.413 Y99.190 E5.1625
G1 X132.739 Y99.191 E5.3567
G1 X132.739 Y106.962 E5.7056
; solid layer
G1 X131.881 Y106.222 F4600
G92 E0
G1 X131.999 Y106.104 E0.0075 F3680
G1 X131.999 Y105.538 E0.0329
G1 X131.315 Y106.222 E0.0763
G1 X130.750 Y106.222 E0.1017
G1 X131.999 Y104.972 E0.1810
G1 X131.999 Y104.407 E0.2064
G1 X130.184 Y106.222 E0.3217
G1 X129.618 Y106.222 E0.3471
G1 X131.999 Y103.841 E0.4982
G1 X131.999 Y103.275 E0.5236
G1 X129.053 Y106.222 E0.7107
G1 X128.487 Y106.222 E0.7361
G1 X131.999 Y102.710 E0.9591
G1 X131.999 Y102.144 E0.9845
G1 X127.921 Y106.222 E1.2435
G1 X127.356 Y106.222 E1.2689
G1 X131.999 Y101.578 E1.5637
G1 X131.999 Y101.013 E1.5891
G1 X129.153 Y103.858 E1.7698
G1 X129.153 Y104.410 E1.7946
G1 X128.602 Y104.410 E1.8193
G1 X126.790 Y106.222 E1.9344
G1 X126.224 Y106.222 E1.9598
G1 X128.036 Y104.410 E2.0748
G1 X127.470 Y104.410 E2.1002
G1 X125.658 Y106.222 E2.2153
