; G-Code generated by Simplify3D(R) Version 4.0.0
; Jan 16, 2021 at 1:48:56 PM
; Settings Summary
;   processName,Process1
;   applyToModels,DefaultPanel_160mm_v1
;   profileName,def (modified)
;   profileVersion,2020-09-07 14:01:24
;   baseProfile,Default (modified)
;   printMaterial,PLA
;   printQuality,Medium
;   printExtruders,
;   extruderName,Primary Extruder
;   extruderToolheadNumber,0
;   extruderDiameter,0.4
;   extruderAutoWidth,0
;   extruderWidth,0.4
;   extrusionMultiplier,0.9
;   extruderUseRetract,1
;   extruderRetractionDistance,1
;   extruderExtraRestartDistance,0
;   extruderRetractionZLift,0
;   extruderRetractionSpeed,1800
;   extruderUseCoasting,0
;   extruderCoastingDistance,0.2
;   extruderUseWipe,0
;   extruderWipeDistance,5
;   primaryExtruder,0
;   layerHeight,0.3
;   topSolidLayers,3
;   bottomSolidLayers,2
;   perimeterOutlines,2
;   printPerimetersInsideOut,1
;   startPointOption,2
;   startPointOriginX,0
;   startPointOriginY,0
;   sequentialIslands,0
;   spiralVaseMode,0
;   firstLayerHeightPercentage,90
;   firstLayerWidthPercentage,103
;   firstLayerUnderspeed,0.3
;   useRaft,0
;   raftExtruder,0
;   raftTopLayers,2
;   raftBaseLayers,2
;   raftOffset,1.4
;   raftSeparationDistance,0.14
;   raftTopInfill,100
;   aboveRaftSpeedMultiplier,0.3
;   useSkirt,0
;   skirtExtruder,0
;   skirtLayers,1
;   skirtOutlines,2
;   skirtOffset,4
;   usePrimePillar,0
;   primePillarExtruder,999
;   primePillarWidth,12
;   primePillarLocation,7
;   primePillarSpeedMultiplier,1
;   useOozeShield,0
;   oozeShieldExtruder,999
;   oozeShieldOffset,2
;   oozeShieldOutlines,1
;   oozeShieldSidewallShape,1
;   oozeShieldSidewallAngle,30
;   oozeShieldSpeedMultiplier,1
;   infillExtruder,0
;   internalInfillPattern,Rectilinear
;   externalInfillPattern,Rectilinear
;   infillPercentage,10
;   outlineOverlapPercentage,15
;   infillExtrusionWidthPercentage,100
;   minInfillLength,5
;   infillLayerInterval,1
;   internalInfillAngles,45,-45
;   overlapInternalInfillAngles,0
;   externalInfillAngles,45,-45
;   generateSupport,1
;   supportExtruder,0
;   supportInfillPercentage,30
;   supportExtraInflation,0
;   supportBaseLayers,0
;   denseSupportExtruder,0
;   denseSupportLayers,0
;   denseSupportInfillPercentage,70
;   supportLayerInterval,1
;   supportHorizontalPartOffset,0.2
;   supportUpperSeparationLayers,1
;   supportLowerSeparationLayers,1
;   supportType,0
;   supportGridSpacing,4
;   maxOverhangAngle,45
;   supportAngles,0
;   temperatureName,Primary Extruder,Hot Bed
;   temperatureNumber,0,1
;   temperatureSetpointCount,1,1
;   temperatureSetpointLayers,1,1
;   temperatureSetpointTemperatures,210,60
;   temperatureStabilizeAtStartup,1,0
;   temperatureHeatedBed,0,1
;   temperatureRelayBetweenLayers,0,0
;   temperatureRelayBetweenLoops,0,0
;   fanLayers,1,2
;   fanSpeeds,0,100
;   blipFanToFullPower,0
;   adjustSpeedForCooling,1
;   minSpeedLayerTime,15
;   minCoolingSpeedSlowdown,20
;   increaseFanForCooling,0
;   minFanLayerTime,45
;   maxCoolingFanSpeed,100
;   increaseFanForBridging,0
;   bridgingFanSpeed,100
;   use5D,1
;   relativeEdistances,0
;   allowEaxisZeroing,1
;   independentExtruderAxes,0
;   includeM10123,0
;   stickySupport,1
;   applyToolheadOffsets,0
;   gcodeXoffset,-0.09
;   gcodeYoffset,-0.03
;   gcodeZoffset,0
;   overrideMachineDefinition,0
;   machineTypeOverride,0
;   strokeXoverride,200
;   strokeYoverride,200
;   strokeZoverride,200
;   originOffsetXoverride,0
;   originOffsetYoverride,0
;   originOffsetZoverride,0
;   homeXdirOverride,-1
;   homeYdirOverride,-1
;   homeZdirOverride,-1
;   flipXoverride,1
;   flipYoverride,-1
;   flipZoverride,1
;   toolheadOffsets,0,0|0,0|0,0|0,0|0,0|0,0
;   overrideFirmwareConfiguration,0
;   firmwareTypeOverride,RepRap (Marlin/Repetier/Sprinter)
;   GPXconfigOverride,r2
;   baudRateOverride,115200
;   overridePrinterModels,0
;   printerModelsOverride
;   startingGcode,G28 ; home all axes,G1 X1 Y1 Z0.2 F3000 ; get ready to prime,G92 E0 ; reset extrusion distance,G1 Y150 E20 F600 ; prime nozzle
;   layerChangeGcode,
;   retractionGcode,
;   toolChangeGcode,
;   endingGcode,M104 S0 ; turn off extruder,M140 S0 ; turn off bedG1 X0 Y0; home,M84 ; disable motors,M107 ; fan off,G28 X Y; Home,M18; Disable steppers
;   exportFileFormat,gcode
;   celebration,0
;   celebrationSong,Random Song
;   postProcessing,
;   defaultSpeed,4600
;   outlineUnderspeed,0.5
;   solidInfillUnderspeed,0.8
;   supportUnderspeed,0.8
;   rapidXYspeed,4600
;   rapidZspeed,1000
;   minBridgingArea,50
;   bridgingExtraInflation,0
;   bridgingExtrusionMultiplier,1
;   bridgingSpeedMultiplier,1
;   useFixedBridgingAngle,0
;   fixedBridgingAngle,0
;   applyBridgingToPerimeters,0
;   filamentDiameters,1.75|1.75|1.75|1.75|1.75|1.75
;   filamentPricesPerKg,46|46|46|46|46|46
;   filamentDensities,1.25|1.25|1.25|1.25|1.25|1.25
;   useMinPrintHeight,0
;   minPrintHeight,0
;   useMaxPrintHeight,0
;   maxPrintHeight,0.6
;   useDiaphragm,0
;   diaphragmLayerInterval,20
;   robustSlicing,1
;   mergeAllIntoSolid,0
;   onlyRetractWhenCrossingOutline,1
;   retractBetweenLayers,1
;   useRetractionMinTravel,0
;   retractionMinTravel,3
;   retractWhileWiping,0
;   onlyWipeOutlines,1
;   avoidCrossingOutline,0
;   maxMovementDetourFactor,3
;   toolChangeRetractionDistance,12
;   toolChangeExtraRestartDistance,-0.5
;   toolChangeRetractionSpeed,600
;   externalThinWallType,1
;   internalThinWallType,2
;   thinWallAllowedOverlapPercentage,8
;   singleExtrusionMinLength,1
;   singleExtrusionMinPrintingWidthPercentage,50
;   singleExtrusionMaxPrintingWidthPercentage,200
;   singleExtrusionEndpointExtension,0.2
;   horizontalSizeCompensation,0
G90
M82
M106 S0
M140 S60
M104 S210 T0
M109 S210 T0
G28 ; home all axes
G1 X1 Y1 Z0.2 F3000 ; get ready to prime
G92 E0 ; reset extrusion distance
G1 Y150 E20 F600 ; prime nozzle
G92 E0
G1 E-1.0000 F1800
G1 Z0.270 F1000
; process Process1
; layer 1, Z = 0.270
T0
; tool H0.300 W0.412
; inner perimeter
G1 X39.543 Y63.626 F4600
G1 E0.0000 F540
G92 E0
G1 X198.277 Y63.626 E7.3411 F1035
G1 X198.277 Y162.365 E11.9076
G1 X39.543 Y162.365 E19.2487
G1 X39.543 Y63.626 E23.8152
; outer perimeter
G1 X39.131 Y63.214 F4600
G92 E0
G1 X198.689 Y63.214 E7.3792 F690
G1 X198.689 Y162.777 E11.9838
G1 X39.131 Y162.777 E19.3631
G1 X39.131 Y63.214 E23.9677
; inner perimeter
G1 X52.224 Y76.557 F4600
G92 E0
G1 X51.984 Y76.957 E0.0216 F1035
G1 X51.843 Y77.309 E0.0392
G1 X51.707 Y77.989 E0.0712
G1 X51.856 Y78.807 E0.1097
G1 X52.077 Y79.102 E0.1267
G1 X52.252 Y79.393 E0.1424
G1 X52.512 Y79.653 E0.1594
G1 X53.177 Y80.052 E0.1953
G1 X53.596 Y80.136 E0.2151
G1 X54.266 Y80.136 E0.2460
G1 X54.720 Y79.985 E0.2682
G1 X55.343 Y79.639 E0.3011
G1 X55.746 Y79.102 E0.3322
G1 X55.969 Y78.728 E0.3523
G1 X56.053 Y78.309 E0.3721
G1 X56.053 Y77.570 E0.4062
G1 X55.776 Y76.876 E0.4408
G1 X55.548 Y76.572 E0.4584
G1 X55.282 Y76.307 E0.4757
G1 X54.979 Y76.079 E0.4933
G1 X54.591 Y75.924 E0.5126
G1 X53.855 Y75.790 E0.5472
G1 X53.126 Y75.936 E0.5816
G1 X52.753 Y76.160 E0.6017
G1 X52.224 Y76.557 E0.6323
; outer perimeter
G1 X52.536 Y76.838 F4600
G92 E0
G1 X52.355 Y77.140 E0.0163 F690
G1 X52.240 Y77.427 E0.0306
G1 X52.127 Y77.992 E0.0573
G1 X52.244 Y78.638 E0.0876
G1 X52.419 Y78.871 E0.1011
G1 X52.579 Y79.138 E0.1155
G1 X52.768 Y79.326 E0.1278
G1 X53.328 Y79.662 E0.1580
G1 X53.637 Y79.724 E0.1726
G1 X54.199 Y79.724 E0.1986
G1 X54.553 Y79.606 E0.2159
G1 X55.066 Y79.321 E0.2430
G1 X55.403 Y78.871 E0.2690
G1 X55.579 Y78.578 E0.2848
G1 X55.641 Y78.269 E0.2994
G1 X55.641 Y77.650 E0.3280
G1 X55.413 Y77.080 E0.3564
G1 X55.236 Y76.843 E0.3701
G1 X55.012 Y76.619 E0.3848
G1 X54.775 Y76.442 E0.3984
G1 X54.477 Y76.322 E0.4133
G1 X53.859 Y76.210 E0.4424
G1 X53.277 Y76.326 E0.4698
G1 X52.983 Y76.502 E0.4856
G1 X52.536 Y76.838 E0.5115
G92 E0
G1 E-1.0000 F1800
; inner perimeter
G1 X68.279 Y76.614 F4600
G1 E0.0000 F1800
G92 E0
G1 X68.279 Y79.933 E0.1535 F1035
G1 X169.541 Y79.933 E4.8366
G1 X169.541 Y76.614 E4.9901
G1 X68.279 Y76.614 E9.6733
; outer perimeter
G1 X68.691 Y77.026 F4600
G92 E0
G1 X68.691 Y79.521 E0.1154 F690
G1 X169.129 Y79.521 E4.7604
G1 X169.129 Y77.026 E4.8758
G1 X68.691 Y77.026 E9.5209
; inner perimeter
G1 X68.279 Y75.869 F4600
G92 E0
G1 X169.541 Y75.869 E4.6832 F1035
G1 X169.541 Y72.550 E4.8366
G1 X68.279 Y72.550 E9.5198
G1 X68.279 Y75.869 E9.6733
; outer perimeter
G1 X68.691 Y75.457 F4600
G92 E0
G1 X169.129 Y75.457 E4.6451 F690
G1 X169.129 Y72.962 E4.7604
G1 X68.691 Y72.962 E9.4055
G1 X68.691 Y75.457 E9.5209
; inner perimeter
G1 X68.865 Y71.754 F4600
G92 E0
G1 X168.982 Y71.754 E4.6302 F1035
G1 X169.166 Y70.739 E4.6779
G1 X168.171 Y70.366 E4.7271
G1 X69.660 Y70.366 E9.2830
G1 X69.214 Y70.516 E9.3048
G1 X68.641 Y70.802 E9.3344
G1 X68.865 Y71.754 E9.3797
; outer perimeter
G1 X69.191 Y71.342 F4600
G92 E0
G1 X168.638 Y71.342 E4.5992 F690
G1 X168.699 Y71.004 E4.6151
G1 X168.096 Y70.778 E4.6449
G1 X69.727 Y70.778 E9.1943
G1 X69.372 Y70.897 E9.2116
G1 X69.117 Y71.025 E9.2248
G1 X69.191 Y71.342 E9.2399
G92 E0
G1 E-1.0000 F1800
; inner perimeter
G1 X68.279 Y80.678 F4600
G1 E0.0000 F1800
G92 E0
G1 X68.279 Y83.997 E0.1535 F1035
G1 X169.541 Y83.997 E4.8366
G1 X169.541 Y80.678 E4.9901
G1 X68.279 Y80.678 E9.6733
; outer perimeter
G1 X68.691 Y81.090 F4600
G92 E0
G1 X68.691 Y83.585 E0.1154 F690
G1 X169.129 Y83.585 E4.7604
G1 X169.129 Y81.090 E4.8758
G1 X68.691 Y81.090 E9.5209
; inner perimeter
G1 X68.279 Y84.793 F4600
G92 E0
G1 X68.279 Y88.112 E0.1535 F1035
G1 X169.541 Y88.112 E4.8366
G1 X169.541 Y84.793 E4.9901
G1 X68.279 Y84.793 E9.6733
; outer perimeter
G1 X68.691 Y85.205 F4600
G92 E0
G1 X68.691 Y87.700 E0.1154 F690
G1 X169.129 Y87.700 E4.7604
G1 X169.129 Y85.205 E4.8758
G1 X68.691 Y85.205 E9.5209
; inner perimeter
G1 X68.279 Y88.857 F4600
G92 E0
G1 X68.279 Y92.176 E0.1535 F1035
G1 X169.541 Y92.176 E4.8366
G1 X169.541 Y88.857 E4.9901
G1 X68.279 Y88.857 E9.6733
; outer perimeter
G1 X68.691 Y89.269 F4600
G92 E0
G1 X68.691 Y91.764 E0.1154 F690
G1 X169.129 Y91.764 E4.7604
G1 X169.129 Y89.269 E4.8758
G1 X68.691 Y89.269 E9.5209
; inner perimeter
G1 X68.279 Y92.972 F4600
G92 E0
G1 X68.279 Y96.291 E0.1535 F1035
G1 X169.541 Y96.291 E4.8366
G1 X169.541 Y92.972 E4.9901
G1 X68.279 Y92.972 E9.6733
; outer perimeter
G1 X68.691 Y93.384 F4600
G92 E0
G1 X68.691 Y95.879 E0.1154 F690
G1 X169.129 Y95.879 E4.7604
G1 X169.129 Y93.384 E4.8758
G1 X68.691 Y93.384 E9.5209
; inner perimeter
G1 X68.279 Y97.036 F4600
G92 E0
G1 X68.279 Y100.355 E0.1535 F1035
G1 X169.541 Y100.355 E4.8366
G1 X169.541 Y97.036 E4.9901
G1 X68.279 Y97.036 E9.6733
; outer perimeter
G1 X68.691 Y97.448 F4600
G92 E0
G1 X68.691 Y99.943 E0.1154 F690
G1 X169.129 Y99.943 E4.7604
G1 X169.129 Y97.448 E4.8758
G1 X68.691 Y97.448 E9.5209
; inner perimeter
G1 X68.279 Y101.100 F4600
G92 E0
G1 X68.279 Y104.419 E0.1535 F1035
G1 X169.541 Y104.419 E4.8366
G1 X169.541 Y101.100 E4.9901
G1 X68.279 Y101.100 E9.6733
; outer perimeter
G1 X68.691 Y101.512 F4600
G92 E0
G1 X68.691 Y104.007 E0.1154 F690
G1 X169.129 Y104.007 E4.7604
G1 X169.129 Y101.512 E4.8758
G1 X68.691 Y101.512 E9.5209
; inner perimeter
G1 X68.279 Y105.215 F4600
G92 E0
G1 X68.279 Y108.533 E0.1535 F1035
G1 X169.541 Y108.533 E4.8366
G1 X169.541 Y105.215 E4.9901
G1 X68.279 Y105.215 E9.6733
; outer perimeter
G1 X68.691 Y105.627 F4600
G92 E0
G1 X68.691 Y108.121 E0.1154 F690
G1 X169.129 Y108.121 E4.7604
G1 X169.129 Y105.627 E4.8758
G1 X68.691 Y105.627 E9.5209
; inner perimeter
G1 X68.279 Y109.279 F4600
G92 E0
G1 X68.279 Y112.597 E0.1535 F1035
G1 X169.541 Y112.597 E4.8366
G1 X169.541 Y109.279 E4.9901
G1 X68.279 Y109.279 E9.6733
; outer perimeter
G1 X68.691 Y109.691 F4600
G92 E0
G1 X68.691 Y112.185 E0.1154 F690
G1 X169.129 Y112.185 E4.7604
G1 X169.129 Y109.691 E4.8758
G1 X68.691 Y109.691 E9.5209
; inner perimeter
G1 X68.279 Y113.343 F4600
G92 E0
G1 X68.279 Y116.662 E0.1535 F1035
G1 X169.541 Y116.662 E4.8366
G1 X169.541 Y113.343 E4.9901
G1 X68.279 Y113.343 E9.6733
; outer perimeter
G1 X68.691 Y113.755 F4600
G92 E0
G1 X68.691 Y116.249 E0.1154 F690
G1 X169.129 Y116.249 E4.7604
G1 X169.129 Y113.755 E4.8758
G1 X68.691 Y113.755 E9.5209
; inner perimeter
G1 X68.279 Y117.457 F4600
G92 E0
G1 X68.279 Y120.776 E0.1535 F1035
G1 X169.541 Y120.776 E4.8366
G1 X169.541 Y117.457 E4.9901
G1 X68.279 Y117.457 E9.6733
; outer perimeter
G1 X68.691 Y117.869 F4600
G92 E0
G1 X68.691 Y120.364 E0.1154 F690
G1 X169.129 Y120.364 E4.7604
G1 X169.129 Y117.869 E4.8758
G1 X68.691 Y117.869 E9.5209
; inner perimeter
G1 X68.279 Y121.521 F4600
G92 E0
G1 X68.279 Y124.840 E0.1535 F1035
G1 X169.541 Y124.840 E4.8366
G1 X169.541 Y121.521 E4.9901
G1 X68.279 Y121.521 E9.6733
; outer perimeter
G1 X68.691 Y121.933 F4600
G92 E0
G1 X68.691 Y124.428 E0.1154 F690
G1 X169.129 Y124.428 E4.7604
G1 X169.129 Y121.933 E4.8758
G1 X68.691 Y121.933 E9.5209
; inner perimeter
G1 X68.279 Y125.636 F4600
G92 E0
G1 X68.279 Y128.955 E0.1535 F1035
G1 X169.541 Y128.955 E4.8366
G1 X169.541 Y125.636 E4.9901
G1 X68.279 Y125.636 E9.6733
; outer perimeter
G1 X68.691 Y126.048 F4600
G92 E0
G1 X68.691 Y128.543 E0.1154 F690
G1 X169.129 Y128.543 E4.7604
G1 X169.129 Y126.048 E4.8758
G1 X68.691 Y126.048 E9.5209
; inner perimeter
G1 X68.279 Y129.700 F4600
G92 E0
G1 X68.279 Y133.019 E0.1535 F1035
G1 X169.541 Y133.019 E4.8366
G1 X169.541 Y129.700 E4.9901
G1 X68.279 Y129.700 E9.6733
; outer perimeter
G1 X68.691 Y130.112 F4600
G92 E0
G1 X68.691 Y132.607 E0.1154 F690
G1 X169.129 Y132.607 E4.7604
G1 X169.129 Y130.112 E4.8758
G1 X68.691 Y130.112 E9.5209
; inner perimeter
G1 X68.279 Y133.764 F4600
G92 E0
G1 X68.279 Y137.083 E0.1535 F1035
G1 X169.541 Y137.083 E4.8366
G1 X169.541 Y133.764 E4.9901
G1 X68.279 Y133.764 E9.6733
; outer perimeter
G1 X68.691 Y134.176 F4600
G92 E0
G1 X68.691 Y136.671 E0.1154 F690
G1 X169.129 Y136.671 E4.7604
G1 X169.129 Y134.176 E4.8758
G1 X68.691 Y134.176 E9.5209
; inner perimeter
G1 X68.279 Y137.879 F4600
G92 E0
G1 X68.279 Y141.198 E0.1535 F1035
G1 X169.541 Y141.198 E4.8366
G1 X169.541 Y137.879 E4.9901
G1 X68.279 Y137.879 E9.6733
; outer perimeter
G1 X68.691 Y138.291 F4600
G92 E0
G1 X68.691 Y140.786 E0.1154 F690
G1 X169.129 Y140.786 E4.7604
G1 X169.129 Y138.291 E4.8758
G1 X68.691 Y138.291 E9.5209
; inner perimeter
G1 X68.279 Y141.943 F4600
G92 E0
G1 X68.279 Y145.262 E0.1535 F1035
G1 X169.541 Y145.262 E4.8366
G1 X169.541 Y141.943 E4.9901
G1 X68.279 Y141.943 E9.6733
; outer perimeter
G1 X68.691 Y142.355 F4600
G92 E0
G1 X68.691 Y144.850 E0.1154 F690
G1 X169.129 Y144.850 E4.7604
G1 X169.129 Y142.355 E4.8758
G1 X68.691 Y142.355 E9.5209
; inner perimeter
G1 X68.279 Y146.007 F4600
G92 E0
G1 X68.279 Y149.377 E0.1558 F1035
G1 X169.541 Y149.377 E4.8390
G1 X169.541 Y146.007 E4.9948
G1 X68.279 Y146.007 E9.6780
; outer perimeter
G1 X68.691 Y146.419 F4600
G92 E0
G1 X68.691 Y148.965 E0.1177 F690
G1 X169.129 Y148.965 E4.7628
G1 X169.129 Y146.419 E4.8805
G1 X68.691 Y146.419 E9.5256
; inner perimeter
G1 X68.279 Y150.122 F4600
G92 E0
G1 X68.279 Y153.441 E0.1535 F1035
G1 X169.541 Y153.441 E4.8366
G1 X169.541 Y150.122 E4.9901
G1 X68.279 Y150.122 E9.6733
; outer perimeter
G1 X68.691 Y150.534 F4600
G92 E0
G1 X68.691 Y153.029 E0.1154 F690
G1 X169.129 Y153.029 E4.7604
G1 X169.129 Y150.534 E4.8758
G1 X68.691 Y150.534 E9.5209
; inner perimeter
G1 X68.942 Y154.186 F4600
G92 E0
G1 X68.626 Y154.949 E0.0382 F1035
G1 X69.122 Y155.446 E0.0707
G1 X69.508 Y155.574 E0.0895
G1 X69.661 Y155.574 E0.0965
G1 X69.813 Y155.625 E0.1040
G1 X168.007 Y155.625 E4.6453
G1 X168.159 Y155.574 E4.6527
G1 X168.383 Y155.574 E4.6630
G1 X169.187 Y155.092 E4.7064
G1 X168.936 Y154.186 E4.7499
G1 X68.942 Y154.186 E9.3744
; outer perimeter
G1 X69.217 Y154.598 F4600
G92 E0
G1 X69.111 Y154.852 E0.0127 F690
G1 X69.345 Y155.086 E0.0280
G1 X69.575 Y155.162 E0.0392
G1 X69.727 Y155.162 E0.0463
G1 X69.880 Y155.213 E0.0537
G1 X167.940 Y155.213 E4.5888
G1 X168.092 Y155.162 E4.5962
G1 X168.269 Y155.162 E4.6044
G1 X168.706 Y154.900 E4.6280
G1 X168.622 Y154.598 E4.6425
G1 X69.217 Y154.598 E9.2398
; inner perimeter
G1 X55.770 Y149.075 F4600
G92 E0
G1 X56.051 Y148.384 E0.0345 F1035
G1 X56.054 Y147.574 E0.0719
G1 X55.776 Y146.878 E0.1066
