; G-Code generated by Simplify3D(R) Version 4.0.0
; Jan 17, 2021 at 8:41:48 AM
; Settings Summary
;   processName,Process1
;   applyToModels,Frame_160mm_v3
;   profileName,def (modified)
;   profileVersion,2020-09-07 14:01:24
;   baseProfile,Default (modified)
;   printMaterial,PLA
;   printQuality,Medium
;   printExtruders,
;   extruderName,Primary Extruder
;   extruderToolheadNumber,0
;   extruderDiameter,0.4
;   extruderAutoWidth,0
;   extruderWidth,0.4
;   extrusionMultiplier,0.9
;   extruderUseRetract,1
;   extruderRetractionDistance,1
;   extruderExtraRestartDistance,0
;   extruderRetractionZLift,0
;   extruderRetractionSpeed,1800
;   extruderUseCoasting,0
;   extruderCoastingDistance,0.2
;   extruderUseWipe,0
;   extruderWipeDistance,5
;   primaryExtruder,0
;   layerHeight,0.3
;   topSolidLayers,3
;   bottomSolidLayers,2
;   perimeterOutlines,2
;   printPerimetersInsideOut,1
;   startPointOption,2
;   startPointOriginX,0
;   startPointOriginY,0
;   sequentialIslands,0
;   spiralVaseMode,0
;   firstLayerHeightPercentage,90
;   firstLayerWidthPercentage,103
;   firstLayerUnderspeed,0.3
;   useRaft,0
;   raftExtruder,0
;   raftTopLayers,2
;   raftBaseLayers,2
;   raftOffset,1.4
;   raftSeparationDistance,0.14
;   raftTopInfill,100
;   aboveRaftSpeedMultiplier,0.3
;   useSkirt,0
;   skirtExtruder,0
;   skirtLayers,1
;   skirtOutlines,2
;   skirtOffset,4
;   usePrimePillar,0
;   primePillarExtruder,999
;   primePillarWidth,12
;   primePillarLocation,7
;   primePillarSpeedMultiplier,1
;   useOozeShield,0
;   oozeShieldExtruder,999
;   oozeShieldOffset,2
;   oozeShieldOutlines,1
;   oozeShieldSidewallShape,1
;   oozeShieldSidewallAngle,30
;   oozeShieldSpeedMultiplier,1
;   infillExtruder,0
;   internalInfillPattern,Rectilinear
;   externalInfillPattern,Rectilinear
;   infillPercentage,10
;   outlineOverlapPercentage,15
;   infillExtrusionWidthPercentage,100
;   minInfillLength,5
;   infillLayerInterval,1
;   internalInfillAngles,45,-45
;   overlapInternalInfillAngles,0
;   externalInfillAngles,45,-45
;   generateSupport,1
;   supportExtruder,0
;   supportInfillPercentage,30
;   supportExtraInflation,0
;   supportBaseLayers,0
;   denseSupportExtruder,0
;   denseSupportLayers,0
;   denseSupportInfillPercentage,70
;   supportLayerInterval,1
;   supportHorizontalPartOffset,0.2
;   supportUpperSeparationLayers,1
;   supportLowerSeparationLayers,1
;   supportType,0
;   supportGridSpacing,4
;   maxOverhangAngle,45
;   supportAngles,0
;   temperatureName,Primary Extruder,Hot Bed
;   temperatureNumber,0,1
;   temperatureSetpointCount,1,1
;   temperatureSetpointLayers,1,1
;   temperatureSetpointTemperatures,210,60
;   temperatureStabilizeAtStartup,1,0
;   temperatureHeatedBed,0,1
;   temperatureRelayBetweenLayers,0,0
;   temperatureRelayBetweenLoops,0,0
;   fanLayers,1,2
;   fanSpeeds,0,100
;   blipFanToFullPower,0
;   adjustSpeedForCooling,1
;   minSpeedLayerTime,15
;   minCoolingSpeedSlowdown,20
;   increaseFanForCooling,0
;   minFanLayerTime,45
;   maxCoolingFanSpeed,100
;   increaseFanForBridging,0
;   bridgingFanSpeed,100
;   use5D,1
;   relativeEdistances,0
;   allowEaxisZeroing,1
;   independentExtruderAxes,0
;   includeM10123,0
;   stickySupport,1
;   applyToolheadOffsets,0
;   gcodeXoffset,-0.09
;   gcodeYoffset,-0.03
;   gcodeZoffset,0
;   overrideMachineDefinition,0
;   machineTypeOverride,0
;   strokeXoverride,200
;   strokeYoverride,200
;   strokeZoverride,200
;   originOffsetXoverride,0
;   originOffsetYoverride,0
;   originOffsetZoverride,0
;   homeXdirOverride,-1
;   homeYdirOverride,-1
;   homeZdirOverride,-1
;   flipXoverride,1
;   flipYoverride,-1
;   flipZoverride,1
;   toolheadOffsets,0,0|0,0|0,0|0,0|0,0|0,0
;   overrideFirmwareConfiguration,0
;   firmwareTypeOverride,RepRap (Marlin/Repetier/Sprinter)
;   GPXconfigOverride,r2
;   baudRateOverride,115200
;   overridePrinterModels,0
;   printerModelsOverride
;   startingGcode,G28 ; home all axes,G1 X1 Y1 Z0.2 F3000 ; get ready to prime,G92 E0 ; reset extrusion distance,G1 Y150 E20 F600 ; prime nozzle
;   layerChangeGcode,
;   retractionGcode,
;   toolChangeGcode,
;   endingGcode,M104 S0 ; turn off extruder,M140 S0 ; turn off bedG1 X0 Y0; home,M84 ; disable motors,M107 ; fan off,G28 X Y; Home,M18; Disable steppers
;   exportFileFormat,gcode
;   celebration,0
;   celebrationSong,Random Song
;   postProcessing,
;   defaultSpeed,4600
;   outlineUnderspeed,0.5
;   solidInfillUnderspeed,0.8
;   supportUnderspeed,0.8
;   rapidXYspeed,4600
;   rapidZspeed,1000
;   minBridgingArea,50
;   bridgingExtraInflation,0
;   bridgingExtrusionMultiplier,1
;   bridgingSpeedMultiplier,1
;   useFixedBridgingAngle,0
;   fixedBridgingAngle,0
;   applyBridgingToPerimeters,0
;   filamentDiameters,1.75|1.75|1.75|1.75|1.75|1.75
;   filamentPricesPerKg,46|46|46|46|46|46
;   filamentDensities,1.25|1.25|1.25|1.25|1.25|1.25
;   useMinPrintHeight,0
;   minPrintHeight,0
;   useMaxPrintHeight,0
;   maxPrintHeight,0.6
;   useDiaphragm,0
;   diaphragmLayerInterval,20
;   robustSlicing,1
;   mergeAllIntoSolid,0
;   onlyRetractWhenCrossingOutline,1
;   retractBetweenLayers,1
;   useRetractionMinTravel,0
;   retractionMinTravel,3
;   retractWhileWiping,0
;   onlyWipeOutlines,1
;   avoidCrossingOutline,0
;   maxMovementDetourFactor,3
;   toolChangeRetractionDistance,12
;   toolChangeExtraRestartDistance,-0.5
;   toolChangeRetractionSpeed,600
;   externalThinWallType,1
;   internalThinWallType,2
;   thinWallAllowedOverlapPercentage,8
;   singleExtrusionMinLength,1
;   singleExtrusionMinPrintingWidthPercentage,50
;   singleExtrusionMaxPrintingWidthPercentage,200
;   singleExtrusionEndpointExtension,0.2
;   horizontalSizeCompensation,0
G90
M82
M106 S0
M140 S60
M104 S210 T0
M109 S210 T0
G28 ; home all axes
G1 X1 Y1 Z0.2 F3000 ; get ready to prime
G92 E0 ; reset extrusion distance
G1 Y150 E20 F600 ; prime nozzle
G92 E0
G1 E-1.0000 F1800
G1 Z0.270 F1000
; process Process1
; layer 1, Z = 0.270
T0
; tool H0.300 W0.412
; inner perimeter
G1 X39.543 Y65.531 F4600
G1 E0.0000 F540
G92 E0
G1 X198.277 Y65.531 E7.3411 F1035
G1 X198.277 Y164.320 E11.9100
G1 X138.282 Y164.320 E14.6846
G1 X138.282 Y164.371 E14.6870
G1 X99.538 Y164.371 E16.4788
G1 X99.538 Y164.320 E16.4811
G1 X39.543 Y164.320 E19.2558
G1 X39.543 Y65.531 E23.8246
; outer perimeter
G1 X39.131 Y65.119 F4600
G92 E0
G1 X198.689 Y65.119 E7.3792 F690
G1 X198.689 Y164.732 E11.9862
G1 X138.694 Y164.732 E14.7608
G1 X138.694 Y164.783 E14.7632
G1 X99.126 Y164.783 E16.5931
G1 X99.126 Y164.732 E16.5954
G1 X39.131 Y164.732 E19.3701
G1 X39.131 Y65.119 E23.9770
; inner perimeter
G1 X52.474 Y78.263 F4600
G92 E0
G1 X52.277 Y78.525 E0.0151 F1035
G1 X52.013 Y78.791 E0.0325
G1 X51.845 Y79.209 E0.0533
G1 X51.707 Y79.893 E0.0856
G1 X51.840 Y80.624 E0.1200
G1 X52.012 Y81.059 E0.1416
G1 X52.272 Y81.318 E0.1585
G1 X52.481 Y81.595 E0.1746
G1 X53.142 Y81.962 E0.2096
G1 X53.917 Y82.103 E0.2460
G1 X54.591 Y81.968 E0.2778
G1 X54.978 Y81.815 E0.2970
G1 X55.278 Y81.590 E0.3144
G1 X55.543 Y81.326 E0.3317
G1 X55.742 Y81.062 E0.3470
G1 X55.969 Y80.685 E0.3674
G1 X56.052 Y80.270 E0.3869
G1 X56.053 Y79.590 E0.4183
G1 X55.970 Y79.166 E0.4383
G1 X55.749 Y78.797 E0.4582
G1 X55.552 Y78.533 E0.4735
G1 X55.287 Y78.267 E0.4908
G1 X54.980 Y78.035 E0.5086
G1 X54.284 Y77.757 E0.5433
G1 X53.557 Y77.757 E0.5769
G1 X53.122 Y77.902 E0.5981
G1 X52.857 Y78.034 E0.6118
G1 X52.474 Y78.263 E0.6324
; outer perimeter
G1 X52.755 Y78.575 F4600
G92 E0
G1 X52.590 Y78.795 E0.0127 F690
G1 X52.364 Y79.022 E0.0275
G1 X52.242 Y79.327 E0.0427
G1 X52.127 Y79.897 E0.0696
G1 X52.238 Y80.510 E0.0984
G1 X52.364 Y80.828 E0.1142
G1 X52.583 Y81.047 E0.1286
G1 X52.757 Y81.277 E0.1419
G1 X53.282 Y81.569 E0.1697
G1 X53.913 Y81.684 E0.1994
G1 X54.473 Y81.572 E0.2258
G1 X54.775 Y81.452 E0.2408
G1 X55.008 Y81.277 E0.2543
G1 X55.232 Y81.055 E0.2689
G1 X55.400 Y80.831 E0.2818
G1 X55.580 Y80.534 E0.2979
G1 X55.640 Y80.229 E0.3122
G1 X55.641 Y79.630 E0.3399
G1 X55.580 Y79.316 E0.3547
G1 X55.406 Y79.027 E0.3703
G1 X55.239 Y78.803 E0.3833
G1 X55.016 Y78.579 E0.3979
G1 X54.775 Y78.397 E0.4118
G1 X54.205 Y78.169 E0.4402
G1 X53.624 Y78.169 E0.4671
G1 X53.279 Y78.284 E0.4839
G1 X53.054 Y78.396 E0.4955
G1 X52.755 Y78.575 E0.5117
; inner perimeter
G1 X68.279 Y73.657 F4600
G92 E0
G1 X68.279 Y156.196 E3.8173 F1035
G1 X68.389 Y156.528 E3.8334
G1 X68.810 Y157.157 E3.8684
G1 X69.134 Y157.371 E3.8864
G1 X69.613 Y157.530 E3.9097
G1 X168.148 Y157.530 E8.4668
G1 X168.736 Y157.362 E8.4951
G1 X169.319 Y156.779 E8.5332
G1 X169.541 Y156.037 E8.5690
G1 X169.541 Y73.861 E12.3695
G1 X169.337 Y73.183 E12.4023
G1 X169.015 Y72.703 E12.4290
G1 X168.696 Y72.486 E12.4469
G1 X168.434 Y72.395 E12.4597
G1 X168.139 Y72.322 E12.4737
G1 X69.608 Y72.322 E17.0306
G1 X69.135 Y72.479 E17.0537
G1 X68.805 Y72.699 E17.0720
G1 X68.389 Y73.323 E17.1067
G1 X68.279 Y73.657 E17.1230
; outer perimeter
G1 X68.691 Y73.723 F4600
G92 E0
G1 X68.691 Y156.130 E3.8112 F690
G1 X68.763 Y156.345 E3.8216
G1 X69.106 Y156.859 E3.8502
G1 X69.316 Y156.997 E3.8619
G1 X69.679 Y157.118 E3.8796
G1 X168.090 Y157.118 E8.4309
G1 X168.520 Y156.995 E8.4516
G1 X168.954 Y156.561 E8.4799
G1 X169.129 Y155.977 E8.5081
G1 X169.129 Y73.921 E12.3031
G1 X168.961 Y73.361 E12.3301
G1 X168.718 Y72.999 E12.3503
G1 X168.510 Y72.857 E12.3619
G1 X168.317 Y72.791 E12.3714
G1 X168.088 Y72.734 E12.3823
G1 X69.675 Y72.734 E16.9337
G1 X69.318 Y72.853 E16.9511
G1 X69.102 Y72.996 E16.9631
G1 X68.763 Y73.505 E16.9914
G1 X68.691 Y73.723 E17.0020
; inner perimeter
G1 X54.284 Y147.760 F4600
G92 E0
G1 X53.488 Y147.760 E0.0369 F1035
G1 X53.104 Y147.913 E0.0559
G1 X52.856 Y148.036 E0.0688
G1 X52.512 Y148.242 E0.0873
G1 X52.228 Y148.526 E0.1059
G1 X51.997 Y148.833 E0.1237
G1 X51.845 Y149.212 E0.1425
G1 X51.707 Y149.895 E0.1748
G1 X51.840 Y150.627 E0.2091
G1 X51.996 Y151.019 E0.2287
G1 X52.221 Y151.319 E0.2460
G1 X52.519 Y151.619 E0.2655
G1 X53.142 Y151.965 E0.2985
G1 X53.917 Y152.106 E0.3349
G1 X54.591 Y151.971 E0.3667
G1 X54.978 Y151.817 E0.3860
G1 X55.278 Y151.592 E0.4033
G1 X55.543 Y151.328 E0.4206
G1 X55.775 Y151.021 E0.4385
G1 X56.053 Y150.325 E0.4731
G1 X56.053 Y149.529 E0.5099
G1 X55.776 Y148.834 E0.5445
G1 X55.551 Y148.535 E0.5618
G1 X55.287 Y148.270 E0.5791
G1 X54.980 Y148.038 E0.5969
G1 X54.284 Y147.760 E0.6316
; outer perimeter
G1 X54.205 Y148.172 F4600
G92 E0
G1 X53.567 Y148.172 E0.0295 F690
G1 X53.273 Y148.289 E0.0442
G1 X53.054 Y148.398 E0.0555
G1 X52.768 Y148.569 E0.0709
G1 X52.540 Y148.797 E0.0858
G1 X52.359 Y149.038 E0.0997
G1 X52.242 Y149.330 E0.1143
G1 X52.127 Y149.900 E0.1412
G1 X52.238 Y150.513 E0.1700
G1 X52.358 Y150.816 E0.1851
G1 X52.533 Y151.049 E0.1985
G1 X52.770 Y151.287 E0.2140
G1 X53.282 Y151.571 E0.2412
G1 X53.913 Y151.686 E0.2708
G1 X54.473 Y151.574 E0.2972
G1 X54.775 Y151.455 E0.3122
G1 X55.008 Y151.280 E0.3257
G1 X55.232 Y151.057 E0.3403
G1 X55.413 Y150.816 E0.3542
G1 X55.641 Y150.246 E0.3827
G1 X55.641 Y149.608 E0.4122
G1 X55.413 Y149.038 E0.4406
G1 X55.239 Y148.805 E0.4540
G1 X55.016 Y148.581 E0.4686
G1 X54.775 Y148.400 E0.4826
G1 X54.205 Y148.172 E0.5110
G92 E0
G1 E-1.0000 F1800
; inner perimeter
G1 X181.705 Y149.958 F4600
G1 E0.0000 F1800
G92 E0
G1 X181.841 Y150.637 E0.0320 F1035
G1 X181.994 Y151.020 E0.0511
G1 X182.221 Y151.324 E0.0687
G1 X182.509 Y151.612 E0.0875
G1 X182.849 Y151.815 E0.1058
G1 X183.113 Y151.947 E0.1194
G1 X183.554 Y152.094 E0.1410
G1 X184.282 Y152.094 E0.1746
G1 X184.976 Y151.817 E0.2092
G1 X185.280 Y151.589 E0.2268
G1 X185.545 Y151.324 E0.2441
G1 X185.773 Y151.020 E0.2617
G1 X186.051 Y150.325 E0.2963
G1 X186.051 Y149.529 E0.3331
G1 X185.773 Y148.834 E0.3677
G1 X185.545 Y148.530 E0.3853
G1 X185.280 Y148.265 E0.4026
G1 X184.976 Y148.037 E0.4202
G1 X184.593 Y147.884 E0.4392
G1 X183.914 Y147.748 E0.4713
G1 X183.152 Y147.887 E0.5071
G1 X182.849 Y148.039 E0.5228
G1 X182.509 Y148.242 E0.5411
G1 X182.221 Y148.530 E0.5599
G1 X181.994 Y148.834 E0.5775
G1 X181.838 Y149.222 E0.5968
G1 X181.705 Y149.958 E0.6314
; outer perimeter
G1 X182.124 Y149.954 F4600
G92 E0
G1 X182.237 Y150.519 E0.0267 F690
G1 X182.356 Y150.816 E0.0414
G1 X182.533 Y151.053 E0.0551
G1 X182.765 Y151.284 E0.0703
G1 X183.047 Y151.454 E0.0855
G1 X183.271 Y151.566 E0.0970
G1 X183.621 Y151.682 E0.1141
G1 X184.202 Y151.682 E0.1410
G1 X184.772 Y151.454 E0.1694
G1 X185.009 Y151.277 E0.1831
G1 X185.233 Y151.053 E0.1977
G1 X185.411 Y150.816 E0.2114
G1 X185.639 Y150.246 E0.2398
G1 X185.639 Y149.608 E0.2693
G1 X185.411 Y149.038 E0.2977
G1 X185.233 Y148.801 E0.3114
G1 X185.009 Y148.577 E0.3261
G1 X184.772 Y148.400 E0.3397
G1 X184.476 Y148.281 E0.3545
G1 X183.910 Y148.168 E0.3812
G1 X183.284 Y148.282 E0.4106
G1 X183.047 Y148.400 E0.4229
G1 X182.765 Y148.570 E0.4381
G1 X182.533 Y148.801 E0.4532
G1 X182.356 Y149.038 E0.4669
G1 X182.236 Y149.336 E0.4818
G1 X182.124 Y149.954 E0.5108
; inner perimeter
G1 X183.536 Y82.092 F4600
G92 E0
G1 X184.282 Y82.092 E0.0345 F1035
G1 X184.977 Y81.814 E0.0691
G1 X185.285 Y81.582 E0.0870
G1 X185.549 Y81.316 E0.1043
G1 X185.746 Y81.052 E0.1195
G1 X185.967 Y80.683 E0.1394
G1 X186.051 Y80.259 E0.1594
G1 X186.050 Y79.579 E0.1909
G1 X185.967 Y79.165 E0.2104
G1 X185.739 Y78.787 E0.2308
G1 X185.540 Y78.523 E0.2461
G1 X185.275 Y78.260 E0.2634
G1 X184.975 Y78.034 E0.2807
G1 X184.588 Y77.881 E0.3000
G1 X183.908 Y77.745 E0.3321
G1 X183.218 Y77.884 E0.3646
G1 X182.866 Y78.026 E0.3822
G1 X182.471 Y78.263 E0.4035
G1 X182.071 Y78.797 E0.4343
G1 X181.847 Y79.170 E0.4544
G1 X181.705 Y79.956 E0.4914
G1 X181.850 Y80.685 E0.5257
G1 X182.077 Y81.061 E0.5461
G1 X182.471 Y81.587 E0.5765
G1 X182.876 Y81.828 E0.5983
G1 X183.536 Y82.092 E0.6311
; outer perimeter
G1 X183.615 Y81.680 F4600
G92 E0
G1 X184.202 Y81.680 E0.0272 F690
G1 X184.773 Y81.452 E0.0556
G1 X185.013 Y81.270 E0.0695
G1 X185.236 Y81.046 E0.0841
G1 X185.403 Y80.822 E0.0971
G1 X185.577 Y80.533 E0.1127
G1 X185.639 Y80.219 E0.1274
G1 X185.638 Y79.620 E0.1552
G1 X185.577 Y79.316 E0.1695
G1 X185.398 Y79.018 E0.1856
G1 X185.229 Y78.795 E0.1985
G1 X185.005 Y78.572 E0.2131
G1 X184.772 Y78.397 E0.2266
G1 X184.471 Y78.278 E0.2416
G1 X183.908 Y78.165 E0.2681
G1 X183.337 Y78.280 E0.2951
G1 X183.050 Y78.396 E0.3094
G1 X182.752 Y78.575 E0.3255
G1 X182.414 Y79.027 E0.3516
G1 X182.239 Y79.317 E0.3672
G1 X182.124 Y79.952 E0.3971
G1 X182.240 Y80.534 E0.4245
G1 X182.420 Y80.831 E0.4406
G1 X182.752 Y81.274 E0.4662
G1 X183.060 Y81.458 E0.4828
G1 X183.615 Y81.680 E0.5104
; solid layer
G1 X183.280 Y82.367 F4600
G92 E0
G1 X197.926 Y97.013 E0.9580 F1104
G1 X197.926 Y96.431 E0.9849
G1 X183.938 Y82.442 E1.8998
G1 X184.349 Y82.442 E1.9188
G1 X184.471 Y82.393 E1.9249
G1 X197.926 Y95.848 E2.8050
G1 X197.926 Y95.265 E2.8319
G1 X184.888 Y82.227 E3.6847
G1 X185.150 Y82.122 E3.6978
G1 X185.273 Y82.029 E3.7049
G1 X197.926 Y94.683 E4.5325
G1 X197.926 Y94.100 E4.5594
G1 X185.594 Y81.768 E5.3661
G1 X185.814 Y81.546 E5.3805
G1 X185.874 Y81.466 E5.3852
G1 X197.926 Y93.518 E6.1734
G1 X197.926 Y92.935 E6.2004
G1 X186.113 Y81.121 E6.9730
G1 X186.299 Y80.811 E6.9898
G1 X186.313 Y80.739 E6.9931
G1 X197.926 Y92.352 E7.7527
G1 X197.926 Y91.770 E7.7796
G1 X186.401 Y80.244 E8.5335
G1 X186.400 Y79.660 E8.5605
G1 X197.926 Y91.187 E9.3144
G1 X197.926 Y90.604 E9.3413
G1 X186.207 Y78.885 E10.1078
G1 X169.891 Y74.222 F4600
G92 E0
G1 X197.926 Y102.257 E1.8337 F1104
G1 X197.926 Y102.840 E1.8606
G1 X169.891 Y74.804 E3.6943
G1 X169.891 Y75.387 E3.7212
G1 X197.926 Y103.423 E5.5549
G1 X197.926 Y104.005 E5.5818
G1 X169.891 Y75.970 E7.4155
G1 X169.891 Y76.552 E7.4424
G1 X197.926 Y104.588 E9.2761
G1 X197.926 Y105.171 E9.3031
G1 X169.891 Y77.135 E11.1367
G1 X169.891 Y77.718 E11.1637
G1 X197.926 Y105.753 E12.9973
G1 X197.926 Y106.336 E13.0243
G1 X169.891 Y78.300 E14.8579
G1 X169.891 Y78.883 E14.8849
G1 X197.926 Y106.919 E16.7186
G1 X197.926 Y107.501 E16.7455
G1 X169.891 Y79.466 E18.5792
G1 X169.891 Y80.048 E18.6061
G1 X197.926 Y108.084 E20.4398
G1 X197.926 Y108.667 E20.4667
G1 X169.891 Y80.631 E22.3004
G1 X169.891 Y81.214 E22.3273
G1 X197.926 Y109.249 E24.1610
G1 X197.926 Y109.832 E24.1879
G1 X169.891 Y81.796 E26.0216
G1 X169.891 Y82.379 E26.0486
G1 X197.926 Y110.415 E27.8822
G1 X197.926 Y110.997 E27.9092
