; G-Code generated by Simplify3D(R) Version 4.0.0
; Jan 17, 2021 at 2:18:15 PM
; Settings Summary
;   processName,Process1
;   applyToModels,Frame_160mm_v4
;   profileName,def (modified)
;   profileVersion,2020-09-07 14:01:24
;   baseProfile,Default (modified)
;   printMaterial,PLA
;   printQuality,Medium
;   printExtruders,
;   extruderName,Primary Extruder
;   extruderToolheadNumber,0
;   extruderDiameter,0.4
;   extruderAutoWidth,0
;   extruderWidth,0.4
;   extrusionMultiplier,0.9
;   extruderUseRetract,1
;   extruderRetractionDistance,1
;   extruderExtraRestartDistance,0
;   extruderRetractionZLift,0
;   extruderRetractionSpeed,1800
;   extruderUseCoasting,0
;   extruderCoastingDistance,0.2
;   extruderUseWipe,0
;   extruderWipeDistance,5
;   primaryExtruder,0
;   layerHeight,0.3
;   topSolidLayers,3
;   bottomSolidLayers,2
;   perimeterOutlines,2
;   printPerimetersInsideOut,1
;   startPointOption,2
;   startPointOriginX,0
;   startPointOriginY,0
;   sequentialIslands,0
;   spiralVaseMode,0
;   firstLayerHeightPercentage,90
;   firstLayerWidthPercentage,103
;   firstLayerUnderspeed,0.3
;   useRaft,0
;   raftExtruder,0
;   raftTopLayers,2
;   raftBaseLayers,2
;   raftOffset,1.4
;   raftSeparationDistance,0.14
;   raftTopInfill,100
;   aboveRaftSpeedMultiplier,0.3
;   useSkirt,0
;   skirtExtruder,0
;   skirtLayers,1
;   skirtOutlines,2
;   skirtOffset,4
;   usePrimePillar,0
;   primePillarExtruder,999
;   primePillarWidth,12
;   primePillarLocation,7
;   primePillarSpeedMultiplier,1
;   useOozeShield,0
;   oozeShieldExtruder,999
;   oozeShieldOffset,2
;   oozeShieldOutlines,1
;   oozeShieldSidewallShape,1
;   oozeShieldSidewallAngle,30
;   oozeShieldSpeedMultiplier,1
;   infillExtruder,0
;   internalInfillPattern,Rectilinear
;   externalInfillPattern,Rectilinear
;   infillPercentage,10
;   outlineOverlapPercentage,15
;   infillExtrusionWidthPercentage,100
;   minInfillLength,5
;   infillLayerInterval,1
;   internalInfillAngles,45,-45
;   overlapInternalInfillAngles,0
;   externalInfillAngles,45,-45
;   generateSupport,1
;   supportExtruder,0
;   supportInfillPercentage,30
;   supportExtraInflation,0
;   supportBaseLayers,0
;   denseSupportExtruder,0
;   denseSupportLayers,0
;   denseSupportInfillPercentage,70
;   supportLayerInterval,1
;   supportHorizontalPartOffset,0.2
;   supportUpperSeparationLayers,1
;   supportLowerSeparationLayers,1
;   supportType,0
;   supportGridSpacing,4
;   maxOverhangAngle,45
;   supportAngles,0
;   temperatureName,Primary Extruder,Hot Bed
;   temperatureNumber,0,1
;   temperatureSetpointCount,1,1
;   temperatureSetpointLayers,1,1
;   temperatureSetpointTemperatures,210,60
;   temperatureStabilizeAtStartup,1,0
;   temperatureHeatedBed,0,1
;   temperatureRelayBetweenLayers,0,0
;   temperatureRelayBetweenLoops,0,0
;   fanLayers,1,2
;   fanSpeeds,0,100
;   blipFanToFullPower,0
;   adjustSpeedForCooling,1
;   minSpeedLayerTime,15
;   minCoolingSpeedSlowdown,20
;   increaseFanForCooling,0
;   minFanLayerTime,45
;   maxCoolingFanSpeed,100
;   increaseFanForBridging,0
;   bridgingFanSpeed,100
;   use5D,1
;   relativeEdistances,0
;   allowEaxisZeroing,1
;   independentExtruderAxes,0
;   includeM10123,0
;   stickySupport,1
;   applyToolheadOffsets,0
;   gcodeXoffset,-0.09
;   gcodeYoffset,-0.03
;   gcodeZoffset,0
;   overrideMachineDefinition,0
;   machineTypeOverride,0
;   strokeXoverride,200
;   strokeYoverride,200
;   strokeZoverride,200
;   originOffsetXoverride,0
;   originOffsetYoverride,0
;   originOffsetZoverride,0
;   homeXdirOverride,-1
;   homeYdirOverride,-1
;   homeZdirOverride,-1
;   flipXoverride,1
;   flipYoverride,-1
;   flipZoverride,1
;   toolheadOffsets,0,0|0,0|0,0|0,0|0,0|0,0
;   overrideFirmwareConfiguration,0
;   firmwareTypeOverride,RepRap (Marlin/Repetier/Sprinter)
;   GPXconfigOverride,r2
;   baudRateOverride,115200
;   overridePrinterModels,0
;   printerModelsOverride
;   startingGcode,G28 ; home all axes,G1 X3 Y3 Z0.2 F3000 ; get ready to prime,G92 E0 ; reset extrusion distance,G1 Y150 E20 F600 ; prime nozzle
;   layerChangeGcode,
;   retractionGcode,
;   toolChangeGcode,
;   endingGcode,M104 S0 ; turn off extruder,M140 S0 ; turn off bedG1 X0 Y0; home,M84 ; disable motors,M107 ; fan off,G28 X Y; Home,M18; Disable steppers
;   exportFileFormat,gcode
;   celebration,0
;   celebrationSong,Random Song
;   postProcessing,
;   defaultSpeed,4600
;   outlineUnderspeed,0.5
;   solidInfillUnderspeed,0.8
;   supportUnderspeed,0.8
;   rapidXYspeed,4600
;   rapidZspeed,1000
;   minBridgingArea,50
;   bridgingExtraInflation,0
;   bridgingExtrusionMultiplier,1
;   bridgingSpeedMultiplier,1
;   useFixedBridgingAngle,0
;   fixedBridgingAngle,0
;   applyBridgingToPerimeters,0
;   filamentDiameters,1.75|1.75|1.75|1.75|1.75|1.75
;   filamentPricesPerKg,46|46|46|46|46|46
;   filamentDensities,1.25|1.25|1.25|1.25|1.25|1.25
;   useMinPrintHeight,0
;   minPrintHeight,0
;   useMaxPrintHeight,0
;   maxPrintHeight,0.6
;   useDiaphragm,0
;   diaphragmLayerInterval,20
;   robustSlicing,1
;   mergeAllIntoSolid,0
;   onlyRetractWhenCrossingOutline,1
;   retractBetweenLayers,1
;   useRetractionMinTravel,0
;   retractionMinTravel,3
;   retractWhileWiping,0
;   onlyWipeOutlines,1
;   avoidCrossingOutline,0
;   maxMovementDetourFactor,3
;   toolChangeRetractionDistance,12
;   toolChangeExtraRestartDistance,-0.5
;   toolChangeRetractionSpeed,600
;   externalThinWallType,1
;   internalThinWallType,2
;   thinWallAllowedOverlapPercentage,8
;   singleExtrusionMinLength,1
;   singleExtrusionMinPrintingWidthPercentage,50
;   singleExtrusionMaxPrintingWidthPercentage,200
;   singleExtrusionEndpointExtension,0.2
;   horizontalSizeCompensation,0
G90
M82
M106 S0
M140 S60
M104 S210 T0
M109 S210 T0
G28 ; home all axes
G1 X3 Y3 Z0.2 F3000 ; get ready to prime
G92 E0 ; reset extrusion distance
G1 Y150 E20 F600 ; prime nozzle
G92 E0
G1 E-1.0000 F1800
G1 Z0.270 F1000
; process Process1
; layer 1, Z = 0.270
T0
; tool H0.300 W0.412
; inner perimeter
G1 X39.544 Y65.607 F4600
G1 E0.0000 F540
G92 E0
G1 X198.277 Y65.607 E7.3411 F1035
G1 X198.276 Y164.346 E11.9076
G1 X39.543 Y164.345 E19.2487
G1 X39.544 Y65.607 E23.8152
; outer perimeter
G1 X39.132 Y65.195 F4600
G92 E0
G1 X198.689 Y65.195 E7.3792 F690
G1 X198.688 Y164.758 E11.9838
G1 X39.131 Y164.757 E19.3630
G1 X39.132 Y65.195 E23.9676
; inner perimeter
G1 X52.512 Y78.316 F4600
G92 E0
G1 X52.225 Y78.604 E0.0188 F1035
G1 X51.997 Y78.907 E0.0363
G1 X51.844 Y79.290 E0.0554
G1 X51.707 Y79.969 E0.0874
G1 X51.841 Y80.705 E0.1220
G1 X51.996 Y81.093 E0.1414
G1 X52.220 Y81.391 E0.1586
G1 X52.511 Y81.684 E0.1777
G1 X52.843 Y81.884 E0.1956
G1 X53.154 Y82.040 E0.2117
G1 X53.917 Y82.179 E0.2476
G1 X54.596 Y82.043 E0.2796
G1 X54.979 Y81.890 E0.2987
G1 X55.276 Y81.666 E0.3159
G1 X55.546 Y81.398 E0.3335
G1 X55.775 Y81.094 E0.3511
G1 X56.053 Y80.399 E0.3857
G1 X56.054 Y79.602 E0.4226
G1 X55.775 Y78.906 E0.4572
G1 X55.552 Y78.611 E0.4744
G1 X55.285 Y78.340 E0.4919
G1 X54.980 Y78.111 E0.5096
G1 X54.285 Y77.833 E0.5442
G1 X53.476 Y77.833 E0.5816
G1 X52.871 Y78.101 E0.6122
G1 X52.512 Y78.316 E0.6316
; outer perimeter
G1 X52.767 Y78.643 F4600
G92 E0
G1 X52.537 Y78.875 E0.0151 F690
G1 X52.359 Y79.111 E0.0288
G1 X52.241 Y79.408 E0.0436
G1 X52.126 Y79.973 E0.0702
G1 X52.239 Y80.591 E0.0993
G1 X52.358 Y80.890 E0.1141
G1 X52.532 Y81.120 E0.1275
G1 X52.767 Y81.357 E0.1429
G1 X53.042 Y81.523 E0.1578
G1 X53.286 Y81.645 E0.1704
G1 X53.913 Y81.760 E0.1999
G1 X54.478 Y81.646 E0.2265
G1 X54.775 Y81.528 E0.2413
G1 X55.006 Y81.354 E0.2547
G1 X55.235 Y81.127 E0.2696
G1 X55.413 Y80.890 E0.2833
G1 X55.641 Y80.320 E0.3117
G1 X55.642 Y79.681 E0.3413
G1 X55.413 Y79.111 E0.3697
G1 X55.240 Y78.881 E0.3830
G1 X55.013 Y78.651 E0.3979
G1 X54.776 Y78.473 E0.4116
G1 X54.206 Y78.245 E0.4400
G1 X53.564 Y78.245 E0.4698
G1 X53.061 Y78.468 E0.4952
G1 X52.767 Y78.643 E0.5110
; inner perimeter
G1 X68.280 Y73.755 F4600
G92 E0
G1 X68.279 Y156.271 E3.8162 F1035
G1 X68.390 Y156.604 E3.8324
G1 X68.669 Y157.024 E3.8558
G1 X68.861 Y157.216 E3.8683
G1 X69.280 Y157.496 E3.8916
G1 X69.615 Y157.606 E3.9079
G1 X168.135 Y157.606 E8.4643
G1 X168.519 Y157.508 E8.4826
G1 X168.964 Y157.212 E8.5074
G1 X169.146 Y157.028 E8.5193
G1 X169.337 Y156.745 E8.5351
G1 X169.538 Y156.065 E8.5679
G1 X169.541 Y73.891 E12.3683
G1 X169.323 Y73.155 E12.4038
G1 X169.153 Y72.984 E12.4150
G1 X169.017 Y72.777 E12.4264
G1 X168.674 Y72.549 E12.4455
G1 X168.000 Y72.348 E12.4780
G1 X69.824 Y72.347 E17.0185
G1 X69.144 Y72.548 E17.0513
G1 X68.814 Y72.769 E17.0696
G1 X68.672 Y72.976 E17.0812
G1 X68.573 Y73.075 E17.0877
G1 X68.378 Y73.368 E17.1040
G1 X68.280 Y73.755 E17.1224
; outer perimeter
G1 X68.692 Y73.806 F4600
G92 E0
G1 X68.691 Y156.204 E3.8108 F690
G1 X68.763 Y156.422 E3.8214
G1 X68.989 Y156.761 E3.8402
G1 X69.124 Y156.896 E3.8490
G1 X69.462 Y157.122 E3.8679
G1 X69.681 Y157.194 E3.8785
G1 X168.083 Y157.194 E8.4294
G1 X168.349 Y157.126 E8.4421
G1 X168.701 Y156.892 E8.4616
G1 X168.826 Y156.765 E8.4699
G1 X168.960 Y156.567 E8.4810
G1 X169.126 Y156.005 E8.5081
G1 X169.129 Y73.951 E12.3029
G1 X168.957 Y73.371 E12.3309
G1 X168.832 Y73.244 E12.3391
G1 X168.719 Y73.074 E12.3486
G1 X168.497 Y72.926 E12.3609
G1 X167.940 Y72.760 E12.3878
G1 X69.883 Y72.759 E16.9228
G1 X69.321 Y72.925 E16.9499
G1 X69.110 Y73.067 E16.9616
G1 X68.990 Y73.241 E16.9714
G1 X68.892 Y73.338 E16.9778
G1 X68.760 Y73.537 E16.9888
G1 X68.692 Y73.806 E17.0017
; inner perimeter
G1 X54.285 Y147.835 F4600
G92 E0
G1 X53.487 Y147.835 E0.0369 F1035
G1 X53.086 Y147.996 E0.0569
G1 X52.519 Y148.311 E0.0869
G1 X52.225 Y148.605 E0.1061
G1 X51.996 Y148.909 E0.1237
G1 X51.843 Y149.292 E0.1428
G1 X51.707 Y149.971 E0.1748
G1 X51.846 Y150.733 E0.2106
G1 X51.997 Y151.036 E0.2263
G1 X52.201 Y151.376 E0.2446
G1 X52.519 Y151.695 E0.2654
G1 X53.141 Y152.041 E0.2984
G1 X53.917 Y152.181 E0.3348
G1 X54.596 Y152.046 E0.3669
G1 X54.979 Y151.892 E0.3859
G1 X55.283 Y151.665 E0.4035
G1 X55.570 Y151.376 E0.4223
G1 X55.781 Y151.025 E0.4413
G1 X56.053 Y150.413 E0.4722
G1 X56.053 Y149.604 E0.5096
G1 X55.775 Y148.909 E0.5443
G1 X55.547 Y148.605 E0.5618
G1 X55.282 Y148.341 E0.5792
G1 X54.979 Y148.114 E0.5967
G1 X54.285 Y147.835 E0.6313
; outer perimeter
G1 X54.205 Y148.247 F4600
G92 E0
G1 X53.566 Y148.247 E0.0295 F690
G1 X53.263 Y148.369 E0.0446
G1 X52.770 Y148.643 E0.0707
G1 X52.536 Y148.876 E0.0860
G1 X52.358 Y149.113 E0.0997
G1 X52.240 Y149.410 E0.1145
G1 X52.126 Y149.975 E0.1412
G1 X52.241 Y150.602 E0.1706
G1 X52.358 Y150.838 E0.1828
G1 X52.529 Y151.121 E0.1981
G1 X52.770 Y151.363 E0.2139
G1 X53.282 Y151.648 E0.2410
G1 X53.913 Y151.762 E0.2707
G1 X54.478 Y151.649 E0.2973
G1 X54.775 Y151.530 E0.3121
G1 X55.012 Y151.353 E0.3258
G1 X55.243 Y151.120 E0.3409
G1 X55.415 Y150.834 E0.3564
G1 X55.641 Y150.326 E0.3821
G1 X55.641 Y149.683 E0.4118
G1 X55.413 Y149.113 E0.4402
G1 X55.235 Y148.876 E0.4539
G1 X55.011 Y148.653 E0.4686
G1 X54.775 Y148.476 E0.4822
G1 X54.205 Y148.247 E0.5106
G92 E0
G1 E-1.0000 F1800
; inner perimeter
G1 X181.705 Y149.968 F4600
G1 E0.0000 F1800
G92 E0
G1 X181.777 Y150.395 E0.0200 F1035
G1 X181.846 Y150.740 E0.0363
G1 X181.995 Y151.038 E0.0517
G1 X182.198 Y151.377 E0.0700
G1 X182.517 Y151.695 E0.0908
G1 X183.139 Y152.041 E0.1238
G1 X183.914 Y152.182 E0.1602
G1 X184.594 Y152.046 E0.1922
G1 X184.975 Y151.892 E0.2112
G1 X185.280 Y151.666 E0.2288
G1 X185.568 Y151.377 E0.2477
G1 X185.743 Y151.085 E0.2634
G1 X185.960 Y150.795 E0.2801
G1 X186.050 Y150.344 E0.3014
G1 X186.050 Y149.662 E0.3330
G1 X185.966 Y149.244 E0.3527
G1 X185.743 Y148.871 E0.3728
G1 X185.546 Y148.608 E0.3880
G1 X185.280 Y148.341 E0.4054
G1 X184.975 Y148.113 E0.4231
G1 X184.281 Y147.836 E0.4576
G1 X183.554 Y147.836 E0.4912
G1 X183.114 Y147.982 E0.5127
G1 X182.849 Y148.115 E0.5264
G1 X182.509 Y148.318 E0.5447
G1 X182.221 Y148.608 E0.5636
G1 X181.994 Y148.910 E0.5811
G1 X181.841 Y149.292 E0.6001
G1 X181.705 Y149.968 E0.6320
; outer perimeter
G1 X182.124 Y149.974 F4600
G92 E0
G1 X182.182 Y150.320 E0.0162 F690
G1 X182.239 Y150.605 E0.0296
G1 X182.357 Y150.839 E0.0418
G1 X182.526 Y151.122 E0.0570
G1 X182.767 Y151.363 E0.0728
G1 X183.280 Y151.647 E0.0999
G1 X183.910 Y151.763 E0.1295
G1 X184.476 Y151.649 E0.1562
G1 X184.772 Y151.530 E0.1710
G1 X185.009 Y151.353 E0.1847
G1 X185.241 Y151.122 E0.1998
G1 X185.401 Y150.855 E0.2142
G1 X185.574 Y150.623 E0.2276
G1 X185.638 Y150.303 E0.2427
G1 X185.638 Y149.703 E0.2704
G1 X185.576 Y149.395 E0.2850
G1 X185.401 Y149.101 E0.3008
G1 X185.234 Y148.878 E0.3137
G1 X185.010 Y148.653 E0.3284
G1 X184.772 Y148.476 E0.3421
G1 X184.202 Y148.248 E0.3705
G1 X183.621 Y148.248 E0.3973
G1 X183.271 Y148.364 E0.4144
G1 X183.047 Y148.476 E0.4260
G1 X182.765 Y148.645 E0.4412
G1 X182.533 Y148.878 E0.4564
G1 X182.356 Y149.114 E0.4700
G1 X182.237 Y149.411 E0.4848
G1 X182.124 Y149.974 E0.5114
; inner perimeter
G1 X183.914 Y82.179 F4600
G92 E0
G1 X184.594 Y82.044 E0.0320 F1035
G1 X184.976 Y81.890 E0.0511
G1 X185.280 Y81.664 E0.0686
G1 X185.547 Y81.396 E0.0861
G1 X185.749 Y81.124 E0.1018
G1 X185.967 Y80.760 E0.1214
G1 X186.051 Y80.341 E0.1412
G1 X186.051 Y79.660 E0.1726
G1 X185.966 Y79.241 E0.1924
G1 X185.739 Y78.863 E0.2128
G1 X185.546 Y78.605 E0.2277
G1 X185.280 Y78.338 E0.2452
G1 X184.975 Y78.111 E0.2627
G1 X184.282 Y77.834 E0.2973
G1 X183.554 Y77.834 E0.3309
G1 X183.106 Y77.984 E0.3528
G1 X182.841 Y78.117 E0.3665
G1 X182.510 Y78.316 E0.3844
G1 X182.221 Y78.605 E0.4033
G1 X181.994 Y78.909 E0.4208
G1 X181.841 Y79.290 E0.4398
G1 X181.704 Y79.970 E0.4719
G1 X181.839 Y80.706 E0.5065
G1 X181.994 Y81.093 E0.5257
G1 X182.221 Y81.397 E0.5433
G1 X182.517 Y81.693 E0.5627
G1 X183.140 Y82.039 E0.5956
G1 X183.914 Y82.179 E0.6320
; outer perimeter
G1 X183.910 Y81.760 F4600
G92 E0
G1 X184.476 Y81.647 E0.0267 F690
G1 X184.772 Y81.528 E0.0414
G1 X185.010 Y81.351 E0.0551
G1 X185.234 Y81.127 E0.0698
G1 X185.406 Y80.895 E0.0831
G1 X185.577 Y80.609 E0.0985
G1 X185.639 Y80.300 E0.1131
G1 X185.639 Y79.701 E0.1408
G1 X185.577 Y79.392 E0.1554
G1 X185.397 Y79.093 E0.1715
G1 X185.234 Y78.875 E0.1841
G1 X185.010 Y78.651 E0.1988
G1 X184.772 Y78.474 E0.2125
G1 X184.202 Y78.246 E0.2409
G1 X183.621 Y78.246 E0.2678
G1 X183.265 Y78.365 E0.2851
G1 X183.040 Y78.479 E0.2968
G1 X182.765 Y78.643 E0.3116
G1 X182.533 Y78.875 E0.3268
G1 X182.357 Y79.112 E0.3404
G1 X182.237 Y79.409 E0.3552
G1 X182.124 Y79.974 E0.3819
G1 X182.237 Y80.591 E0.4109
G1 X182.356 Y80.889 E0.4258
G1 X182.533 Y81.127 E0.4395
G1 X182.767 Y81.361 E0.4548
G1 X183.281 Y81.646 E0.4819
G1 X183.910 Y81.760 E0.5115
; solid layer
G1 X183.345 Y82.432 F4600
G92 E0
G1 X197.926 Y97.013 E0.9537 F1104
G1 X197.926 Y96.431 E0.9807
G1 X184.012 Y82.516 E1.8907
G1 X184.498 Y82.420 E1.9137
G1 X197.926 Y95.848 E2.7919
G1 X197.926 Y95.266 E2.8189
G1 X184.942 Y82.281 E3.6681
G1 X185.148 Y82.198 E3.6784
G1 X185.317 Y82.073 E3.6881
G1 X197.926 Y94.683 E4.5128
G1 X197.926 Y94.100 E4.5398
G1 X185.633 Y81.806 E5.3439
G1 X185.813 Y81.626 E5.3557
G1 X185.907 Y81.498 E5.3630
G1 X197.926 Y93.518 E6.1491
G1 X197.926 Y92.935 E6.1761
G1 X186.141 Y81.150 E6.9469
G1 X186.298 Y80.888 E6.9610
G1 X186.326 Y80.751 E6.9674
G1 X197.926 Y92.352 E7.7262
G1 X197.926 Y91.770 E7.7531
G1 X186.401 Y80.244 E8.5070
G1 X186.401 Y79.661 E8.5339
G1 X197.926 Y91.187 E9.2877
G1 X197.926 Y90.604 E9.3147
G1 X186.091 Y78.769 E10.0888
G1 X169.891 Y74.222 F4600
G92 E0
G1 X197.926 Y102.257 E1.8336 F1104
G1 X197.926 Y102.840 E1.8606
G1 X169.891 Y74.805 E3.6942
G1 X169.891 Y75.388 E3.7211
G1 X197.926 Y103.423 E5.5548
G1 X197.926 Y104.005 E5.5817
G1 X169.891 Y75.970 E7.4154
G1 X169.891 Y76.553 E7.4423
G1 X197.926 Y104.588 E9.2759
G1 X197.926 Y105.171 E9.3029
G1 X169.891 Y77.136 E11.1365
G1 X169.891 Y77.718 E11.1635
G1 X197.926 Y105.753 E12.9971
G1 X197.926 Y106.336 E13.0240
G1 X169.891 Y78.301 E14.8577
G1 X169.891 Y78.883 E14.8846
G1 X197.926 Y106.919 E16.7183
G1 X197.926 Y107.501 E16.7452
G1 X169.891 Y79.466 E18.5788
G1 X169.891 Y80.049 E18.6058
G1 X197.926 Y108.084 E20.4394
G1 X197.926 Y108.667 E20.4664
G1 X169.891 Y80.631 E22.3000
G1 X169.891 Y81.214 E22.3270
G1 X197.926 Y109.249 E24.1606
G1 X197.926 Y109.832 E24.1875
G1 X169.891 Y81.797 E26.0212
