; G-Code generated by Simplify3D(R) Version 4.0.0
; Jan 16, 2021 at 1:50:19 PM
; Settings Summary
;   processName,Process1
;   applyToModels,Frame_160mm_v2.0
;   profileName,def (modified)
;   profileVersion,2020-09-07 14:01:24
;   baseProfile,Default (modified)
;   printMaterial,PLA
;   printQuality,Medium
;   printExtruders,
;   extruderName,Primary Extruder
;   extruderToolheadNumber,0
;   extruderDiameter,0.4
;   extruderAutoWidth,0
;   extruderWidth,0.4
;   extrusionMultiplier,0.9
;   extruderUseRetract,1
;   extruderRetractionDistance,1
;   extruderExtraRestartDistance,0
;   extruderRetractionZLift,0
;   extruderRetractionSpeed,1800
;   extruderUseCoasting,0
;   extruderCoastingDistance,0.2
;   extruderUseWipe,0
;   extruderWipeDistance,5
;   primaryExtruder,0
;   layerHeight,0.3
;   topSolidLayers,3
;   bottomSolidLayers,2
;   perimeterOutlines,2
;   printPerimetersInsideOut,1
;   startPointOption,2
;   startPointOriginX,0
;   startPointOriginY,0
;   sequentialIslands,0
;   spiralVaseMode,0
;   firstLayerHeightPercentage,90
;   firstLayerWidthPercentage,103
;   firstLayerUnderspeed,0.3
;   useRaft,0
;   raftExtruder,0
;   raftTopLayers,2
;   raftBaseLayers,2
;   raftOffset,1.4
;   raftSeparationDistance,0.14
;   raftTopInfill,100
;   aboveRaftSpeedMultiplier,0.3
;   useSkirt,0
;   skirtExtruder,0
;   skirtLayers,1
;   skirtOutlines,2
;   skirtOffset,4
;   usePrimePillar,0
;   primePillarExtruder,999
;   primePillarWidth,12
;   primePillarLocation,7
;   primePillarSpeedMultiplier,1
;   useOozeShield,0
;   oozeShieldExtruder,999
;   oozeShieldOffset,2
;   oozeShieldOutlines,1
;   oozeShieldSidewallShape,1
;   oozeShieldSidewallAngle,30
;   oozeShieldSpeedMultiplier,1
;   infillExtruder,0
;   internalInfillPattern,Rectilinear
;   externalInfillPattern,Rectilinear
;   infillPercentage,10
;   outlineOverlapPercentage,15
;   infillExtrusionWidthPercentage,100
;   minInfillLength,5
;   infillLayerInterval,1
;   internalInfillAngles,45,-45
;   overlapInternalInfillAngles,0
;   externalInfillAngles,45,-45
;   generateSupport,1
;   supportExtruder,0
;   supportInfillPercentage,30
;   supportExtraInflation,0
;   supportBaseLayers,0
;   denseSupportExtruder,0
;   denseSupportLayers,0
;   denseSupportInfillPercentage,70
;   supportLayerInterval,1
;   supportHorizontalPartOffset,0.2
;   supportUpperSeparationLayers,1
;   supportLowerSeparationLayers,1
;   supportType,0
;   supportGridSpacing,4
;   maxOverhangAngle,45
;   supportAngles,0
;   temperatureName,Primary Extruder,Hot Bed
;   temperatureNumber,0,1
;   temperatureSetpointCount,1,1
;   temperatureSetpointLayers,1,1
;   temperatureSetpointTemperatures,210,60
;   temperatureStabilizeAtStartup,1,0
;   temperatureHeatedBed,0,1
;   temperatureRelayBetweenLayers,0,0
;   temperatureRelayBetweenLoops,0,0
;   fanLayers,1,2
;   fanSpeeds,0,100
;   blipFanToFullPower,0
;   adjustSpeedForCooling,1
;   minSpeedLayerTime,15
;   minCoolingSpeedSlowdown,20
;   increaseFanForCooling,0
;   minFanLayerTime,45
;   maxCoolingFanSpeed,100
;   increaseFanForBridging,0
;   bridgingFanSpeed,100
;   use5D,1
;   relativeEdistances,0
;   allowEaxisZeroing,1
;   independentExtruderAxes,0
;   includeM10123,0
;   stickySupport,1
;   applyToolheadOffsets,0
;   gcodeXoffset,-0.09
;   gcodeYoffset,-0.03
;   gcodeZoffset,0
;   overrideMachineDefinition,0
;   machineTypeOverride,0
;   strokeXoverride,200
;   strokeYoverride,200
;   strokeZoverride,200
;   originOffsetXoverride,0
;   originOffsetYoverride,0
;   originOffsetZoverride,0
;   homeXdirOverride,-1
;   homeYdirOverride,-1
;   homeZdirOverride,-1
;   flipXoverride,1
;   flipYoverride,-1
;   flipZoverride,1
;   toolheadOffsets,0,0|0,0|0,0|0,0|0,0|0,0
;   overrideFirmwareConfiguration,0
;   firmwareTypeOverride,RepRap (Marlin/Repetier/Sprinter)
;   GPXconfigOverride,r2
;   baudRateOverride,115200
;   overridePrinterModels,0
;   printerModelsOverride
;   startingGcode,G28 ; home all axes,G1 X1 Y1 Z0.2 F3000 ; get ready to prime,G92 E0 ; reset extrusion distance,G1 Y150 E20 F600 ; prime nozzle
;   layerChangeGcode,
;   retractionGcode,
;   toolChangeGcode,
;   endingGcode,M104 S0 ; turn off extruder,M140 S0 ; turn off bedG1 X0 Y0; home,M84 ; disable motors,M107 ; fan off,G28 X Y; Home,M18; Disable steppers
;   exportFileFormat,gcode
;   celebration,0
;   celebrationSong,Random Song
;   postProcessing,
;   defaultSpeed,4600
;   outlineUnderspeed,0.5
;   solidInfillUnderspeed,0.8
;   supportUnderspeed,0.8
;   rapidXYspeed,4600
;   rapidZspeed,1000
;   minBridgingArea,50
;   bridgingExtraInflation,0
;   bridgingExtrusionMultiplier,1
;   bridgingSpeedMultiplier,1
;   useFixedBridgingAngle,0
;   fixedBridgingAngle,0
;   applyBridgingToPerimeters,0
;   filamentDiameters,1.75|1.75|1.75|1.75|1.75|1.75
;   filamentPricesPerKg,46|46|46|46|46|46
;   filamentDensities,1.25|1.25|1.25|1.25|1.25|1.25
;   useMinPrintHeight,0
;   minPrintHeight,0
;   useMaxPrintHeight,0
;   maxPrintHeight,0.6
;   useDiaphragm,0
;   diaphragmLayerInterval,20
;   robustSlicing,1
;   mergeAllIntoSolid,0
;   onlyRetractWhenCrossingOutline,1
;   retractBetweenLayers,1
;   useRetractionMinTravel,0
;   retractionMinTravel,3
;   retractWhileWiping,0
;   onlyWipeOutlines,1
;   avoidCrossingOutline,0
;   maxMovementDetourFactor,3
;   toolChangeRetractionDistance,12
;   toolChangeExtraRestartDistance,-0.5
;   toolChangeRetractionSpeed,600
;   externalThinWallType,1
;   internalThinWallType,2
;   thinWallAllowedOverlapPercentage,8
;   singleExtrusionMinLength,1
;   singleExtrusionMinPrintingWidthPercentage,50
;   singleExtrusionMaxPrintingWidthPercentage,200
;   singleExtrusionEndpointExtension,0.2
;   horizontalSizeCompensation,0
G90
M82
M106 S0
M140 S60
M104 S210 T0
M109 S210 T0
G28 ; home all axes
G1 X1 Y1 Z0.2 F3000 ; get ready to prime
G92 E0 ; reset extrusion distance
G1 Y150 E20 F600 ; prime nozzle
G92 E0
G1 E-1.0000 F1800
G1 Z0.270 F1000
; process Process1
; layer 1, Z = 0.270
T0
; tool H0.300 W0.412
; inner perimeter
G1 X39.543 Y65.557 F4600
G1 E0.0000 F540
G92 E0
G1 X198.277 Y65.557 E7.3411 F1035
G1 X198.277 Y164.346 E11.9099
G1 X100.048 Y164.345 E16.4528
G1 X69.609 Y164.296 E17.8606
G1 X39.543 Y164.296 E19.2511
G1 X39.543 Y65.557 E23.8176
; outer perimeter
G1 X39.131 Y65.145 F4600
G92 E0
G1 X198.689 Y65.145 E7.3792 F690
G1 X198.689 Y164.758 E11.9862
G1 X100.048 Y164.757 E16.5481
G1 X69.609 Y164.708 E17.9559
G1 X39.131 Y164.708 E19.3654
G1 X39.131 Y65.145 E23.9700
; inner perimeter
G1 X52.474 Y78.289 F4600
G92 E0
G1 X52.277 Y78.550 E0.0151 F1035
G1 X52.013 Y78.816 E0.0324
G1 X51.845 Y79.235 E0.0533
G1 X51.707 Y79.919 E0.0856
G1 X51.840 Y80.650 E0.1199
G1 X52.012 Y81.084 E0.1416
G1 X52.272 Y81.344 E0.1585
G1 X52.474 Y81.611 E0.1740
G1 X52.847 Y81.836 E0.1942
G1 X53.155 Y81.990 E0.2101
G1 X53.917 Y82.129 E0.2459
G1 X54.590 Y81.994 E0.2777
G1 X54.943 Y81.855 E0.2952
G1 X55.349 Y81.612 E0.3171
G1 X55.743 Y81.087 E0.3474
G1 X55.969 Y80.710 E0.3678
G1 X56.052 Y80.296 E0.3873
G1 X56.053 Y79.616 E0.4188
G1 X55.970 Y79.191 E0.4388
G1 X55.749 Y78.822 E0.4587
G1 X55.350 Y78.290 E0.4895
G1 X54.954 Y78.051 E0.5108
G1 X54.285 Y77.783 E0.5442
G1 X53.557 Y77.783 E0.5778
G1 X53.122 Y77.928 E0.5990
G1 X52.857 Y78.059 E0.6127
G1 X52.474 Y78.289 E0.6334
; outer perimeter
G1 X52.755 Y78.601 F4600
G92 E0
G1 X52.590 Y78.821 E0.0127 F690
G1 X52.364 Y79.047 E0.0275
G1 X52.242 Y79.353 E0.0427
G1 X52.127 Y79.923 E0.0696
G1 X52.238 Y80.536 E0.0984
G1 X52.364 Y80.853 E0.1142
G1 X52.584 Y81.073 E0.1286
G1 X52.755 Y81.300 E0.1417
G1 X53.046 Y81.475 E0.1574
G1 X53.287 Y81.595 E0.1699
G1 X53.913 Y81.709 E0.1993
G1 X54.473 Y81.597 E0.2258
G1 X54.760 Y81.484 E0.2400
G1 X55.068 Y81.300 E0.2566
G1 X55.400 Y80.857 E0.2822
G1 X55.580 Y80.559 E0.2983
G1 X55.640 Y80.255 E0.3126
G1 X55.641 Y79.655 E0.3404
G1 X55.580 Y79.342 E0.3552
G1 X55.406 Y79.052 E0.3708
G1 X55.068 Y78.601 E0.3968
G1 X54.770 Y78.421 E0.4129
G1 X54.205 Y78.195 E0.4411
G1 X53.624 Y78.195 E0.4680
G1 X53.279 Y78.310 E0.4848
G1 X53.054 Y78.421 E0.4964
G1 X52.755 Y78.601 E0.5125
; inner perimeter
G1 X68.279 Y73.682 F4600
G92 E0
G1 X68.279 Y154.866 E3.7546 F1035
G1 X68.229 Y154.868 E3.7570
G1 X68.229 Y156.042 E3.8113
G1 X68.279 Y156.165 E3.8174
G1 X68.279 Y156.279 E3.8227
G1 X68.360 Y156.359 E3.8279
G1 X68.432 Y156.534 E3.8367
G1 X68.432 Y156.583 E3.8389
G1 X68.668 Y156.820 E3.8544
G1 X68.668 Y156.823 E3.8546
G1 X69.051 Y157.200 E3.8794
G1 X69.092 Y157.200 E3.8813
G1 X69.113 Y157.220 E3.8827
G1 X69.297 Y157.238 E3.8912
G1 X69.419 Y157.353 E3.8990
G1 X168.677 Y157.353 E8.4895
G1 X168.677 Y157.300 E8.4919
G1 X168.880 Y157.300 E8.5013
G1 X168.880 Y157.108 E8.5102
G1 X169.056 Y157.048 E8.5187
G1 X169.025 Y156.863 E8.5274
G1 X169.337 Y156.654 E8.5448
G1 X169.337 Y156.391 E8.5570
G1 X169.439 Y156.295 E8.5634
G1 X169.439 Y156.076 E8.5736
G1 X169.541 Y155.974 E8.5802
G1 X169.541 Y73.887 E12.3766
G1 X169.337 Y73.209 E12.4093
G1 X169.016 Y72.729 E12.4360
G1 X168.697 Y72.512 E12.4539
G1 X168.434 Y72.420 E12.4668
G1 X168.138 Y72.348 E12.4809
G1 X69.609 Y72.348 E17.0377
G1 X69.135 Y72.504 E17.0607
G1 X68.805 Y72.725 E17.0791
G1 X68.389 Y73.349 E17.1137
G1 X68.279 Y73.682 E17.1300
; outer perimeter
G1 X68.691 Y73.748 F4600
G92 E0
G1 X68.691 Y155.265 E3.7700 F690
G1 X68.641 Y155.267 E3.7724
G1 X68.641 Y155.960 E3.8044
G1 X68.691 Y156.083 E3.8106
G1 X68.691 Y156.109 E3.8118
G1 X68.709 Y156.127 E3.8129
G1 X68.714 Y156.139 E3.8135
G1 X68.722 Y156.139 E3.8139
G1 X68.844 Y156.262 E3.8219
G1 X68.844 Y156.413 E3.8289
G1 X68.980 Y156.549 E3.8378
G1 X69.057 Y156.588 E3.8418
G1 X69.062 Y156.633 E3.8439
G1 X69.219 Y156.788 E3.8541
G1 X69.263 Y156.788 E3.8561
G1 X69.300 Y156.825 E3.8585
G1 X69.399 Y156.834 E3.8631
G1 X69.546 Y156.907 E3.8707
G1 X69.582 Y156.941 E3.8730
G1 X168.265 Y156.941 E8.4369
G1 X168.265 Y156.888 E8.4393
G1 X168.468 Y156.888 E8.4487
G1 X168.468 Y156.813 E8.4522
G1 X168.596 Y156.770 E8.4585
G1 X168.614 Y156.643 E8.4644
G1 X168.925 Y156.434 E8.4817
G1 X168.925 Y156.313 E8.4873
G1 X168.980 Y156.162 E8.4948
G1 X169.027 Y156.117 E8.4977
G1 X169.027 Y155.906 E8.5075
G1 X169.129 Y155.804 E8.5142
G1 X169.129 Y73.948 E12.2999
G1 X168.961 Y73.387 E12.3270
G1 X168.718 Y73.025 E12.3471
G1 X168.510 Y72.883 E12.3588
G1 X168.317 Y72.816 E12.3682
G1 X168.088 Y72.760 E12.3791
G1 X69.675 Y72.760 E16.9305
G1 X69.318 Y72.878 E16.9479
G1 X69.102 Y73.022 E16.9599
G1 X68.763 Y73.531 E16.9882
G1 X68.691 Y73.748 E16.9988
; inner perimeter
G1 X54.284 Y147.786 F4600
G92 E0
G1 X53.558 Y147.786 E0.0336 F1035
G1 X53.109 Y147.934 E0.0555
G1 X52.520 Y148.260 E0.0866
G1 X52.228 Y148.552 E0.1057
G1 X51.996 Y148.860 E0.1235
G1 X51.845 Y149.238 E0.1423
G1 X51.707 Y149.922 E0.1746
G1 X51.840 Y150.652 E0.2089
G1 X51.996 Y151.044 E0.2284
G1 X52.221 Y151.345 E0.2458
G1 X52.519 Y151.645 E0.2654
G1 X53.142 Y151.991 E0.2983
G1 X53.917 Y152.131 E0.3347
G1 X54.591 Y151.997 E0.3665
G1 X54.978 Y151.843 E0.3858
G1 X55.278 Y151.618 E0.4031
G1 X55.543 Y151.354 E0.4204
G1 X55.776 Y151.045 E0.4383
G1 X56.053 Y150.351 E0.4729
G1 X56.053 Y149.555 E0.5097
G1 X55.776 Y148.861 E0.5443
G1 X55.551 Y148.560 E0.5616
G1 X55.287 Y148.295 E0.5789
G1 X54.979 Y148.063 E0.5968
G1 X54.284 Y147.786 E0.6314
; outer perimeter
G1 X54.205 Y148.198 F4600
G92 E0
G1 X53.624 Y148.198 E0.0269 F690
G1 X53.275 Y148.313 E0.0439
G1 X52.770 Y148.592 E0.0705
G1 X52.540 Y148.823 E0.0856
G1 X52.359 Y149.064 E0.0996
G1 X52.242 Y149.356 E0.1141
G1 X52.127 Y149.926 E0.1410
G1 X52.238 Y150.538 E0.1698
G1 X52.358 Y150.841 E0.1849
G1 X52.533 Y151.075 E0.1984
G1 X52.770 Y151.313 E0.2139
G1 X53.282 Y151.597 E0.2410
G1 X53.913 Y151.711 E0.2706
G1 X54.473 Y151.600 E0.2971
G1 X54.775 Y151.480 E0.3121
G1 X55.008 Y151.306 E0.3255
G1 X55.232 Y151.083 E0.3401
G1 X55.413 Y150.842 E0.3541
G1 X55.641 Y150.271 E0.3825
G1 X55.641 Y149.634 E0.4120
G1 X55.413 Y149.064 E0.4404
G1 X55.239 Y148.830 E0.4539
G1 X55.016 Y148.606 E0.4685
G1 X54.775 Y148.426 E0.4824
G1 X54.205 Y148.198 E0.5108
G92 E0
G1 E-1.0000 F1800
; inner perimeter
G1 X181.705 Y149.983 F4600
G1 E0.0000 F1800
G92 E0
G1 X181.841 Y150.662 E0.0320 F1035
G1 X181.993 Y151.045 E0.0511
G1 X182.221 Y151.349 E0.0687
G1 X182.510 Y151.638 E0.0875
G1 X182.849 Y151.841 E0.1058
G1 X183.113 Y151.973 E0.1195
G1 X183.555 Y152.120 E0.1410
G1 X184.281 Y152.120 E0.1746
G1 X184.976 Y151.842 E0.2092
G1 X185.279 Y151.615 E0.2267
G1 X185.545 Y151.349 E0.2441
G1 X185.773 Y151.045 E0.2617
G1 X186.051 Y150.351 E0.2963
G1 X186.051 Y149.555 E0.3331
G1 X185.773 Y148.861 E0.3677
G1 X185.545 Y148.556 E0.3853
G1 X185.279 Y148.290 E0.4026
G1 X184.976 Y148.063 E0.4202
G1 X184.594 Y147.910 E0.4392
G1 X183.914 Y147.775 E0.4713
G1 X183.152 Y147.912 E0.5071
G1 X182.849 Y148.065 E0.5228
G1 X182.510 Y148.268 E0.5410
G1 X182.221 Y148.556 E0.5599
G1 X181.993 Y148.861 E0.5775
G1 X181.839 Y149.248 E0.5968
G1 X181.705 Y149.983 E0.6314
; outer perimeter
G1 X182.124 Y149.979 F4600
G92 E0
G1 X182.237 Y150.545 E0.0267 F690
G1 X182.356 Y150.841 E0.0414
G1 X182.533 Y151.079 E0.0551
G1 X182.765 Y151.310 E0.0703
G1 X183.047 Y151.479 E0.0855
G1 X183.271 Y151.591 E0.0971
G1 X183.621 Y151.708 E0.1142
G1 X184.202 Y151.708 E0.1410
G1 X184.772 Y151.480 E0.1694
G1 X185.009 Y151.303 E0.1831
G1 X185.233 Y151.079 E0.1977
G1 X185.411 Y150.841 E0.2115
G1 X185.639 Y150.271 E0.2398
G1 X185.639 Y149.634 E0.2693
G1 X185.411 Y149.064 E0.2977
G1 X185.233 Y148.826 E0.3114
G1 X185.009 Y148.603 E0.3261
G1 X184.772 Y148.426 E0.3397
G1 X184.476 Y148.306 E0.3545
G1 X183.910 Y148.194 E0.3812
G1 X183.284 Y148.307 E0.4106
G1 X183.047 Y148.426 E0.4229
G1 X182.765 Y148.595 E0.4381
G1 X182.533 Y148.826 E0.4532
G1 X182.356 Y149.064 E0.4669
G1 X182.236 Y149.362 E0.4818
G1 X182.124 Y149.979 E0.5108
; inner perimeter
G1 X183.536 Y82.118 F4600
G92 E0
G1 X184.282 Y82.118 E0.0345 F1035
G1 X184.952 Y81.849 E0.0679
G1 X185.347 Y81.611 E0.0892
G1 X185.746 Y81.078 E0.1200
G1 X185.967 Y80.709 E0.1399
G1 X186.051 Y80.285 E0.1599
G1 X186.050 Y79.604 E0.1914
G1 X185.967 Y79.190 E0.2109
G1 X185.740 Y78.813 E0.2313
G1 X185.346 Y78.289 E0.2616
G1 X184.940 Y78.045 E0.2835
G1 X184.588 Y77.907 E0.3010
G1 X183.908 Y77.770 E0.3331
G1 X183.218 Y77.910 E0.3656
G1 X182.866 Y78.051 E0.3832
G1 X182.470 Y78.290 E0.4045
G1 X182.071 Y78.822 E0.4353
G1 X181.847 Y79.195 E0.4554
G1 X181.705 Y79.981 E0.4924
G1 X181.850 Y80.710 E0.5267
G1 X182.077 Y81.087 E0.5471
G1 X182.471 Y81.612 E0.5774
G1 X182.876 Y81.854 E0.5992
G1 X183.536 Y82.118 E0.6321
; outer perimeter
G1 X183.615 Y81.706 F4600
G92 E0
G1 X184.202 Y81.706 E0.0272 F690
G1 X184.767 Y81.479 E0.0553
G1 X185.065 Y81.299 E0.0714
G1 X185.403 Y80.848 E0.0975
G1 X185.577 Y80.559 E0.1131
G1 X185.639 Y80.245 E0.1279
G1 X185.638 Y79.645 E0.1556
G1 X185.577 Y79.341 E0.1700
G1 X185.398 Y79.044 E0.1860
G1 X185.065 Y78.601 E0.2116
G1 X184.757 Y78.416 E0.2282
G1 X184.471 Y78.303 E0.2425
G1 X183.908 Y78.190 E0.2690
G1 X183.337 Y78.306 E0.2960
G1 X183.050 Y78.421 E0.3103
G1 X182.752 Y78.601 E0.3264
G1 X182.414 Y79.052 E0.3524
G1 X182.239 Y79.343 E0.3681
G1 X182.124 Y79.977 E0.3979
G1 X182.240 Y80.559 E0.4254
G1 X182.419 Y80.857 E0.4414
G1 X182.752 Y81.300 E0.4671
G1 X183.059 Y81.484 E0.4836
G1 X183.615 Y81.706 E0.5113
; solid layer
G1 X183.323 Y82.410 F4600
G92 E0
G1 X197.926 Y97.013 E0.9552 F1104
G1 X197.926 Y96.431 E0.9821
G1 X183.963 Y82.468 E1.8954
G1 X184.350 Y82.468 E1.9132
G1 X184.490 Y82.412 E1.9202
G1 X197.926 Y95.848 E2.7990
G1 X197.926 Y95.265 E2.8260
G1 X184.906 Y82.245 E3.6776
G1 X185.108 Y82.163 E3.6877
G1 X185.295 Y82.051 E3.6978
G1 X197.926 Y94.683 E4.5239
G1 X197.926 Y94.100 E4.5509
G1 X185.636 Y81.809 E5.3548
G1 X185.885 Y81.476 E5.3740
G1 X197.926 Y93.518 E6.1616
G1 X197.926 Y92.935 E6.1885
G1 X186.123 Y81.131 E6.9605
G1 X186.299 Y80.836 E6.9764
G1 X186.317 Y80.743 E6.9808
G1 X197.926 Y92.352 E7.7401
G1 X197.926 Y91.770 E7.7670
G1 X186.401 Y80.244 E8.5209
G1 X186.400 Y79.660 E8.5479
G1 X197.926 Y91.187 E9.3017
G1 X197.926 Y90.604 E9.3287
G1 X186.169 Y78.847 E10.0977
G1 X169.891 Y74.222 F4600
G92 E0
G1 X197.926 Y102.257 E1.8337 F1104
G1 X197.926 Y102.840 E1.8606
G1 X169.891 Y74.804 E3.6943
G1 X169.891 Y75.387 E3.7212
