; G-Code generated by Simplify3D(R) Version 4.0.0
; Jan 16, 2021 at 2:01:50 PM
; Settings Summary
;   processName,Process1
;   applyToModels,LCD_Panel_160mm_v1
;   profileName,def (modified)
;   profileVersion,2020-09-07 14:01:24
;   baseProfile,Default (modified)
;   printMaterial,PLA
;   printQuality,Medium
;   printExtruders,
;   extruderName,Primary Extruder
;   extruderToolheadNumber,0
;   extruderDiameter,0.4
;   extruderAutoWidth,0
;   extruderWidth,0.4
;   extrusionMultiplier,0.9
;   extruderUseRetract,1
;   extruderRetractionDistance,1
;   extruderExtraRestartDistance,0
;   extruderRetractionZLift,0
;   extruderRetractionSpeed,1800
;   extruderUseCoasting,0
;   extruderCoastingDistance,0.2
;   extruderUseWipe,0
;   extruderWipeDistance,5
;   primaryExtruder,0
;   layerHeight,0.3
;   topSolidLayers,3
;   bottomSolidLayers,2
;   perimeterOutlines,2
;   printPerimetersInsideOut,1
;   startPointOption,2
;   startPointOriginX,0
;   startPointOriginY,0
;   sequentialIslands,0
;   spiralVaseMode,0
;   firstLayerHeightPercentage,90
;   firstLayerWidthPercentage,103
;   firstLayerUnderspeed,0.3
;   useRaft,0
;   raftExtruder,0
;   raftTopLayers,2
;   raftBaseLayers,2
;   raftOffset,1.4
;   raftSeparationDistance,0.14
;   raftTopInfill,100
;   aboveRaftSpeedMultiplier,0.3
;   useSkirt,0
;   skirtExtruder,0
;   skirtLayers,1
;   skirtOutlines,2
;   skirtOffset,4
;   usePrimePillar,0
;   primePillarExtruder,999
;   primePillarWidth,12
;   primePillarLocation,7
;   primePillarSpeedMultiplier,1
;   useOozeShield,0
;   oozeShieldExtruder,999
;   oozeShieldOffset,2
;   oozeShieldOutlines,1
;   oozeShieldSidewallShape,1
;   oozeShieldSidewallAngle,30
;   oozeShieldSpeedMultiplier,1
;   infillExtruder,0
;   internalInfillPattern,Rectilinear
;   externalInfillPattern,Rectilinear
;   infillPercentage,10
;   outlineOverlapPercentage,15
;   infillExtrusionWidthPercentage,100
;   minInfillLength,5
;   infillLayerInterval,1
;   internalInfillAngles,45,-45
;   overlapInternalInfillAngles,0
;   externalInfillAngles,45,-45
;   generateSupport,1
;   supportExtruder,0
;   supportInfillPercentage,30
;   supportExtraInflation,0
;   supportBaseLayers,0
;   denseSupportExtruder,0
;   denseSupportLayers,0
;   denseSupportInfillPercentage,70
;   supportLayerInterval,1
;   supportHorizontalPartOffset,0.2
;   supportUpperSeparationLayers,1
;   supportLowerSeparationLayers,1
;   supportType,0
;   supportGridSpacing,4
;   maxOverhangAngle,45
;   supportAngles,0
;   temperatureName,Primary Extruder,Hot Bed
;   temperatureNumber,0,1
;   temperatureSetpointCount,1,1
;   temperatureSetpointLayers,1,1
;   temperatureSetpointTemperatures,210,60
;   temperatureStabilizeAtStartup,1,0
;   temperatureHeatedBed,0,1
;   temperatureRelayBetweenLayers,0,0
;   temperatureRelayBetweenLoops,0,0
;   fanLayers,1,2
;   fanSpeeds,0,100
;   blipFanToFullPower,0
;   adjustSpeedForCooling,1
;   minSpeedLayerTime,15
;   minCoolingSpeedSlowdown,20
;   increaseFanForCooling,0
;   minFanLayerTime,45
;   maxCoolingFanSpeed,100
;   increaseFanForBridging,0
;   bridgingFanSpeed,100
;   use5D,1
;   relativeEdistances,0
;   allowEaxisZeroing,1
;   independentExtruderAxes,0
;   includeM10123,0
;   stickySupport,1
;   applyToolheadOffsets,0
;   gcodeXoffset,-0.09
;   gcodeYoffset,-0.03
;   gcodeZoffset,0
;   overrideMachineDefinition,0
;   machineTypeOverride,0
;   strokeXoverride,200
;   strokeYoverride,200
;   strokeZoverride,200
;   originOffsetXoverride,0
;   originOffsetYoverride,0
;   originOffsetZoverride,0
;   homeXdirOverride,-1
;   homeYdirOverride,-1
;   homeZdirOverride,-1
;   flipXoverride,1
;   flipYoverride,-1
;   flipZoverride,1
;   toolheadOffsets,0,0|0,0|0,0|0,0|0,0|0,0
;   overrideFirmwareConfiguration,0
;   firmwareTypeOverride,RepRap (Marlin/Repetier/Sprinter)
;   GPXconfigOverride,r2
;   baudRateOverride,115200
;   overridePrinterModels,0
;   printerModelsOverride
;   startingGcode,G28 ; home all axes,G1 X1 Y1 Z0.2 F3000 ; get ready to prime,G92 E0 ; reset extrusion distance,G1 Y150 E20 F600 ; prime nozzle
;   layerChangeGcode,
;   retractionGcode,
;   toolChangeGcode,
;   endingGcode,M104 S0 ; turn off extruder,M140 S0 ; turn off bedG1 X0 Y0; home,M84 ; disable motors,M107 ; fan off,G28 X Y; Home,M18; Disable steppers
;   exportFileFormat,gcode
;   celebration,0
;   celebrationSong,Random Song
;   postProcessing,
;   defaultSpeed,4600
;   outlineUnderspeed,0.5
;   solidInfillUnderspeed,0.8
;   supportUnderspeed,0.8
;   rapidXYspeed,4600
;   rapidZspeed,1000
;   minBridgingArea,50
;   bridgingExtraInflation,0
;   bridgingExtrusionMultiplier,1
;   bridgingSpeedMultiplier,1
;   useFixedBridgingAngle,0
;   fixedBridgingAngle,0
;   applyBridgingToPerimeters,0
;   filamentDiameters,1.75|1.75|1.75|1.75|1.75|1.75
;   filamentPricesPerKg,46|46|46|46|46|46
;   filamentDensities,1.25|1.25|1.25|1.25|1.25|1.25
;   useMinPrintHeight,0
;   minPrintHeight,0
;   useMaxPrintHeight,0
;   maxPrintHeight,0.6
;   useDiaphragm,0
;   diaphragmLayerInterval,20
;   robustSlicing,1
;   mergeAllIntoSolid,0
;   onlyRetractWhenCrossingOutline,1
;   retractBetweenLayers,1
;   useRetractionMinTravel,0
;   retractionMinTravel,3
;   retractWhileWiping,0
;   onlyWipeOutlines,1
;   avoidCrossingOutline,0
;   maxMovementDetourFactor,3
;   toolChangeRetractionDistance,12
;   toolChangeExtraRestartDistance,-0.5
;   toolChangeRetractionSpeed,600
;   externalThinWallType,1
;   internalThinWallType,2
;   thinWallAllowedOverlapPercentage,8
;   singleExtrusionMinLength,1
;   singleExtrusionMinPrintingWidthPercentage,50
;   singleExtrusionMaxPrintingWidthPercentage,200
;   singleExtrusionEndpointExtension,0.2
;   horizontalSizeCompensation,0
G90
M82
M106 S0
M140 S60
M104 S210 T0
M109 S210 T0
G28 ; home all axes
G1 X1 Y1 Z0.2 F3000 ; get ready to prime
G92 E0 ; reset extrusion distance
G1 Y150 E20 F600 ; prime nozzle
G92 E0
G1 E-1.0000 F1800
G1 Z0.270 F1000
; process Process1
; layer 1, Z = 0.270
T0
; tool H0.300 W0.412
; inner perimeter
G1 X39.544 Y63.652 F4600
G1 E0.0000 F540
G92 E0
G1 X198.276 Y63.652 E7.3411 F1035
G1 X198.276 Y162.339 E11.9052
G1 X68.178 Y162.339 E17.9221
G1 X68.178 Y162.390 E17.9244
G1 X39.544 Y162.390 E19.2487
G1 X39.544 Y63.652 E23.8152
; outer perimeter
G1 X39.132 Y63.240 F4600
G92 E0
G1 X198.688 Y63.240 E7.3792 F690
G1 X198.688 Y162.751 E11.9815
G1 X68.590 Y162.751 E17.9983
G1 X68.590 Y162.802 E18.0006
G1 X39.132 Y162.802 E19.3630
G1 X39.132 Y63.240 E23.9676
; inner perimeter
G1 X52.228 Y76.581 F4600
G92 E0
G1 X51.980 Y76.990 E0.0221 F1035
G1 X51.843 Y77.332 E0.0392
G1 X51.707 Y78.013 E0.0713
G1 X51.862 Y78.843 E0.1103
G1 X52.082 Y79.136 E0.1273
G1 X52.250 Y79.416 E0.1424
G1 X52.513 Y79.679 E0.1595
G1 X53.173 Y80.074 E0.1951
G1 X53.593 Y80.162 E0.2150
G1 X54.279 Y80.159 E0.2467
G1 X54.718 Y80.012 E0.2681
G1 X55.340 Y79.667 E0.3010
G1 X55.747 Y79.128 E0.3322
G1 X55.966 Y78.756 E0.3522
G1 X56.054 Y78.339 E0.3719
G1 X56.051 Y77.584 E0.4069
G1 X55.770 Y76.893 E0.4413
G1 X55.550 Y76.600 E0.4583
G1 X55.284 Y76.334 E0.4757
G1 X54.968 Y76.099 E0.4939
G1 X54.594 Y75.949 E0.5125
G1 X53.856 Y75.815 E0.5472
G1 X53.116 Y75.967 E0.5821
G1 X52.754 Y76.184 E0.6017
G1 X52.516 Y76.365 E0.6155
G1 X52.228 Y76.581 E0.6322
; outer perimeter
G1 X52.539 Y76.863 F4600
G92 E0
G1 X52.350 Y77.175 E0.0169 F690
G1 X52.240 Y77.450 E0.0306
G1 X52.127 Y78.016 E0.0573
G1 X52.249 Y78.673 E0.0882
G1 X52.424 Y78.906 E0.1016
G1 X52.577 Y79.161 E0.1154
G1 X52.768 Y79.352 E0.1279
G1 X53.325 Y79.685 E0.1579
G1 X53.634 Y79.750 E0.1725
G1 X54.211 Y79.747 E0.1992
G1 X54.551 Y79.634 E0.2158
G1 X55.063 Y79.349 E0.2429
G1 X55.404 Y78.899 E0.2690
G1 X55.577 Y78.605 E0.2847
G1 X55.642 Y78.297 E0.2993
G1 X55.639 Y77.665 E0.3285
G1 X55.409 Y77.098 E0.3569
G1 X55.238 Y76.871 E0.3700
G1 X55.014 Y76.646 E0.3847
G1 X54.766 Y76.462 E0.3990
G1 X54.479 Y76.347 E0.4132
G1 X53.861 Y76.235 E0.4423
G1 X53.268 Y76.356 E0.4703
G1 X52.985 Y76.526 E0.4855
G1 X52.764 Y76.694 E0.4984
G1 X52.539 Y76.863 E0.5114
G92 E0
G1 E-1.0000 F1800
; inner perimeter
G1 X71.275 Y89.602 F4600
G1 E0.0000 F1800
G92 E0
G1 X71.175 Y90.100 E0.0235 F1035
G1 X71.175 Y149.489 E2.7701
G1 X71.438 Y150.014 E2.7972
G1 X71.907 Y150.483 E2.8280
G1 X72.266 Y150.723 E2.8479
G1 X107.404 Y150.723 E4.4730
G1 X107.871 Y150.645 E4.4949
G1 X108.673 Y150.177 E4.5378
G1 X109.022 Y149.759 E4.5630
G1 X109.447 Y149.091 E4.5996
G1 X109.597 Y148.566 E4.6249
G1 X109.597 Y146.710 E4.7107
G1 X128.376 Y146.710 E5.5792
G1 X128.376 Y148.221 E5.6492
G1 X128.504 Y149.057 E5.6883
G1 X128.951 Y149.759 E5.7268
G1 X129.313 Y150.193 E5.7529
G1 X129.699 Y150.386 E5.7729
G1 X130.088 Y150.646 E5.7945
G1 X130.627 Y150.723 E5.8196
G1 X165.665 Y150.723 E7.4401
G1 X166.145 Y150.483 E7.4649
G1 X166.270 Y150.296 E7.4753
G1 X166.370 Y150.230 E7.4809
G1 X166.637 Y149.963 E7.4983
G1 X166.712 Y149.660 E7.5128
G1 X166.797 Y149.489 E7.5216
G1 X166.797 Y90.105 E10.2680
G1 X166.719 Y89.706 E10.2868
G1 X166.449 Y89.165 E10.3148
G1 X165.970 Y88.878 E10.3406
G1 X165.629 Y88.780 E10.3570
G1 X165.402 Y88.628 E10.3696
G1 X72.663 Y88.628 E14.6586
G1 X72.369 Y88.776 E14.6739
G1 X71.815 Y88.960 E14.7009
G1 X71.539 Y89.236 E14.7189
G1 X71.438 Y89.439 E14.7294
G1 X71.275 Y89.602 E14.7401
; outer perimeter
G1 X71.654 Y89.805 F4600
G92 E0
G1 X71.587 Y90.140 E0.0158 F690
G1 X71.587 Y149.391 E2.7561
G1 X71.776 Y149.770 E2.7756
G1 X72.170 Y150.163 E2.8014
G1 X72.391 Y150.311 E2.8137
G1 X107.370 Y150.311 E4.4314
G1 X107.729 Y150.251 E4.4482
G1 X108.403 Y149.858 E4.4843
G1 X108.688 Y149.515 E4.5049
G1 X109.067 Y148.920 E4.5375
G1 X109.185 Y148.508 E4.5574
G1 X109.185 Y146.298 E4.6596
G1 X128.788 Y146.298 E5.5662
G1 X128.788 Y148.190 E5.6537
G1 X128.898 Y148.909 E5.6874
G1 X129.285 Y149.515 E5.7206
G1 X129.575 Y149.863 E5.7416
G1 X129.907 Y150.029 E5.7587
G1 X130.239 Y150.251 E5.7772
G1 X130.656 Y150.311 E5.7967
G1 X165.568 Y150.311 E7.4113
G1 X165.863 Y150.163 E7.4266
G1 X165.973 Y149.999 E7.4357
G1 X166.108 Y149.909 E7.4432
G1 X166.265 Y149.753 E7.4535
G1 X166.323 Y149.516 E7.4647
G1 X166.385 Y149.392 E7.4712
G1 X166.385 Y90.145 E10.2112
G1 X166.325 Y89.840 E10.2256
G1 X166.134 Y89.456 E10.2454
G1 X165.805 Y89.259 E10.2632
G1 X165.454 Y89.159 E10.2801
G1 X165.277 Y89.040 E10.2899
G1 X72.760 Y89.040 E14.5686
G1 X72.527 Y89.157 E14.5807
G1 X72.037 Y89.320 E14.6046
G1 X71.878 Y89.480 E14.6150
G1 X71.776 Y89.683 E14.6255
G1 X71.654 Y89.805 E14.6335
; inner perimeter
G1 X54.594 Y145.952 F4600
G92 E0
G1 X53.856 Y145.818 E0.0347 F1035
G1 X53.116 Y145.969 E0.0696
G1 X52.756 Y146.185 E0.0890
G1 X52.492 Y146.383 E0.1043
G1 X52.225 Y146.650 E0.1217
G1 X51.991 Y146.965 E0.1399
G1 X51.843 Y147.335 E0.1583
G1 X51.708 Y148.014 E0.1903
G1 X51.856 Y148.830 E0.2287
G1 X52.076 Y149.128 E0.2458
G1 X52.285 Y149.469 E0.2643
G1 X52.805 Y149.859 E0.2944
G1 X53.191 Y150.083 E0.3150
G1 X53.594 Y150.164 E0.3340
G1 X54.333 Y150.164 E0.3682
G1 X55.027 Y149.886 E0.4028
G1 X55.340 Y149.652 E0.4209
G1 X55.653 Y149.339 E0.4413
G1 X55.780 Y149.031 E0.4567
G1 X55.973 Y148.767 E0.4718
G1 X56.054 Y148.281 E0.4946
G1 X56.054 Y147.600 E0.5261
G1 X55.771 Y146.897 E0.5612
G1 X55.550 Y146.602 E0.5782
G1 X55.284 Y146.336 E0.5956
G1 X54.968 Y146.102 E0.6138
G1 X54.594 Y145.952 E0.6325
; outer perimeter
G1 X54.479 Y146.350 F4600
G92 E0
G1 X53.861 Y146.237 E0.0291 F690
G1 X53.268 Y146.359 E0.0571
G1 X52.986 Y146.528 E0.0723
G1 X52.762 Y146.695 E0.0852
G1 X52.538 Y146.920 E0.0998
G1 X52.354 Y147.168 E0.1141
G1 X52.240 Y147.453 E0.1283
G1 X52.127 Y148.018 E0.1550
G1 X52.244 Y148.662 E0.1853
G1 X52.418 Y148.897 E0.1988
G1 X52.595 Y149.186 E0.2145
G1 X53.033 Y149.515 E0.2398
G1 X53.339 Y149.693 E0.2561
G1 X53.635 Y149.752 E0.2701
G1 X54.254 Y149.752 E0.2987
G1 X54.824 Y149.524 E0.3271
G1 X55.070 Y149.340 E0.3413
G1 X55.303 Y149.106 E0.3566
G1 X55.418 Y148.828 E0.3705
G1 X55.582 Y148.603 E0.3834
G1 X55.642 Y148.247 E0.4001
G1 X55.642 Y147.680 E0.4263
G1 X55.409 Y147.100 E0.4552
G1 X55.238 Y146.873 E0.4684
G1 X55.014 Y146.649 E0.4830
G1 X54.766 Y146.464 E0.4973
G1 X54.479 Y146.350 E0.5116
G92 E0
G1 E-1.0000 F1800
; inner perimeter
G1 X181.705 Y147.963 F4600
G1 E0.0000 F1800
G92 E0
G1 X181.853 Y148.784 E0.0386 F1035
G1 X182.072 Y149.075 E0.0554
G1 X182.246 Y149.369 E0.0712
G1 X182.535 Y149.658 E0.0901
G1 X182.841 Y149.888 E0.1078
G1 X183.235 Y150.042 E0.1274
G1 X183.592 Y150.113 E0.1442
G1 X184.343 Y150.110 E0.1790
G1 X184.654 Y149.986 E0.1944
G1 X184.978 Y149.921 E0.2097
G1 X185.328 Y149.659 E0.2300
G1 X185.617 Y149.371 E0.2488
G1 X185.826 Y149.022 E0.2676
G1 X185.980 Y148.709 E0.2838
G1 X186.050 Y148.278 E0.3040
G1 X186.050 Y147.660 E0.3326
G1 X185.973 Y147.263 E0.3513
G1 X185.740 Y146.795 E0.3754
G1 X185.541 Y146.596 E0.3884
G1 X185.277 Y146.265 E0.4080
G1 X184.962 Y146.103 E0.4244
G1 X184.645 Y145.913 E0.4415
G1 X183.916 Y145.767 E0.4759
G1 X183.132 Y145.910 E0.5127
G1 X182.745 Y146.141 E0.5336
G1 X182.488 Y146.333 E0.5484
G1 X182.213 Y146.611 E0.5665
G1 X181.988 Y146.919 E0.5841
G1 X181.841 Y147.286 E0.6024
G1 X181.705 Y147.963 E0.6343
; outer perimeter
G1 X182.125 Y147.967 F4600
G92 E0
G1 X182.241 Y148.615 E0.0304 F690
G1 X182.415 Y148.846 E0.0438
G1 X182.574 Y149.114 E0.0583
G1 X182.806 Y149.346 E0.0734
G1 X183.043 Y149.524 E0.0871
G1 X183.352 Y149.645 E0.1025
G1 X183.632 Y149.701 E0.1157
G1 X184.263 Y149.699 E0.1449
G1 X184.536 Y149.590 E0.1584
G1 X184.805 Y149.536 E0.1712
G1 X185.057 Y149.346 E0.1857
G1 X185.290 Y149.115 E0.2009
G1 X185.464 Y148.825 E0.2166
G1 X185.583 Y148.582 E0.2291
G1 X185.638 Y148.244 E0.2449
G1 X185.638 Y147.700 E0.2701
G1 X185.579 Y147.396 E0.2844
G1 X185.401 Y147.039 E0.3028
G1 X185.234 Y146.871 E0.3138
G1 X185.010 Y146.591 E0.3304
G1 X184.761 Y146.463 E0.3433
G1 X184.494 Y146.303 E0.3577
G1 X183.913 Y146.187 E0.3851
G1 X183.279 Y146.302 E0.4149
G1 X182.975 Y146.484 E0.4313
G1 X182.759 Y146.645 E0.4438
G1 X182.528 Y146.879 E0.4590
G1 X182.351 Y147.120 E0.4728
G1 X182.237 Y147.404 E0.4870
G1 X182.125 Y147.967 E0.5135
; inner perimeter
G1 X183.591 Y80.111 F4600
G92 E0
G1 X184.328 Y80.111 E0.0341 F1035
G1 X184.651 Y79.984 E0.0501
G1 X184.976 Y79.919 E0.0654
G1 X185.353 Y79.640 E0.0871
G1 X185.621 Y79.309 E0.1069
G1 X185.808 Y79.058 E0.1213
G1 X185.980 Y78.705 E0.1395
G1 X186.050 Y78.275 E0.1596
G1 X186.050 Y77.610 E0.1904
G1 X185.767 Y76.820 E0.2292
G1 X185.541 Y76.594 E0.2440
G1 X185.275 Y76.261 E0.2637
G1 X184.915 Y76.079 E0.2823
G1 X184.333 Y75.846 E0.3114
G1 X183.854 Y75.766 E0.3338
G1 X183.430 Y75.850 E0.3538
G1 X183.076 Y75.992 E0.3715
G1 X182.488 Y76.317 E0.4025
G1 X182.226 Y76.645 E0.4219
G1 X182.004 Y76.878 E0.4368
G1 X181.841 Y77.284 E0.4571
G1 X181.706 Y77.956 E0.4888
G1 X181.845 Y78.794 E0.5281
G1 X182.103 Y79.221 E0.5511
G1 X182.277 Y79.395 E0.5625
G1 X182.541 Y79.726 E0.5821
G1 X182.890 Y79.905 E0.6002
G1 X183.235 Y80.040 E0.6174
G1 X183.591 Y80.111 E0.6341
; outer perimeter
G1 X183.632 Y79.699 F4600
G92 E0
G1 X184.250 Y79.699 E0.0286 F690
G1 X184.535 Y79.587 E0.0427
G1 X184.805 Y79.533 E0.0555
G1 X185.066 Y79.340 E0.0705
G1 X185.296 Y79.056 E0.0874
G1 X185.455 Y78.843 E0.0997
G1 X185.583 Y78.579 E0.1133
G1 X185.638 Y78.242 E0.1291
G1 X185.638 Y77.681 E0.1550
G1 X185.410 Y77.045 E0.1862
G1 X185.234 Y76.868 E0.1978
G1 X185.010 Y76.588 E0.2144
G1 X184.746 Y76.455 E0.2280
G1 X184.221 Y76.245 E0.2542
G1 X183.860 Y76.185 E0.2711
G1 X183.548 Y76.246 E0.2858
G1 X183.253 Y76.365 E0.3005
G1 X182.759 Y76.638 E0.3266
G1 X182.537 Y76.916 E0.3431
G1 X182.356 Y77.105 E0.3552
G1 X182.237 Y77.402 E0.3700
G1 X182.125 Y77.963 E0.3964
G1 X182.239 Y78.649 E0.4286
G1 X182.430 Y78.965 E0.4457
G1 X182.584 Y79.120 E0.4558
G1 X182.808 Y79.400 E0.4724
G1 X183.059 Y79.528 E0.4854
G1 X183.352 Y79.643 E0.4999
G1 X183.632 Y79.699 E0.5132
; solid layer
G1 X182.975 Y80.314 F4600
G92 E0
G1 X197.926 Y95.265 E0.9779 F1104
G1 X197.926 Y94.683 E1.0049
G1 X183.705 Y80.461 E1.9350
G1 X184.287 Y80.461 E1.9620
G1 X197.926 Y94.100 E2.8540
G1 X197.926 Y93.517 E2.8810
G1 X184.736 Y80.327 E3.7437
G1 X184.750 Y80.322 E3.7444
G1 X185.121 Y80.247 E3.7619
G1 X185.189 Y80.197 E3.7658
G1 X197.926 Y92.935 E4.5989
G1 X197.926 Y92.352 E4.6258
