; G-Code generated by Simplify3D(R) Version 4.0.0
; Jan 16, 2021 at 2:05:54 PM
; Settings Summary
;   processName,Process1
;   applyToModels,LCDPanel128x64_v1.0
;   profileName,def (modified)
;   profileVersion,2020-09-07 14:01:24
;   baseProfile,Default (modified)
;   printMaterial,PLA
;   printQuality,Medium
;   printExtruders,
;   extruderName,Primary Extruder
;   extruderToolheadNumber,0
;   extruderDiameter,0.4
;   extruderAutoWidth,0
;   extruderWidth,0.4
;   extrusionMultiplier,0.9
;   extruderUseRetract,1
;   extruderRetractionDistance,1
;   extruderExtraRestartDistance,0
;   extruderRetractionZLift,0
;   extruderRetractionSpeed,1800
;   extruderUseCoasting,0
;   extruderCoastingDistance,0.2
;   extruderUseWipe,0
;   extruderWipeDistance,5
;   primaryExtruder,0
;   layerHeight,0.3
;   topSolidLayers,3
;   bottomSolidLayers,2
;   perimeterOutlines,2
;   printPerimetersInsideOut,1
;   startPointOption,2
;   startPointOriginX,0
;   startPointOriginY,0
;   sequentialIslands,0
;   spiralVaseMode,0
;   firstLayerHeightPercentage,90
;   firstLayerWidthPercentage,103
;   firstLayerUnderspeed,0.3
;   useRaft,0
;   raftExtruder,0
;   raftTopLayers,2
;   raftBaseLayers,2
;   raftOffset,1.4
;   raftSeparationDistance,0.14
;   raftTopInfill,100
;   aboveRaftSpeedMultiplier,0.3
;   useSkirt,0
;   skirtExtruder,0
;   skirtLayers,1
;   skirtOutlines,2
;   skirtOffset,4
;   usePrimePillar,0
;   primePillarExtruder,999
;   primePillarWidth,12
;   primePillarLocation,7
;   primePillarSpeedMultiplier,1
;   useOozeShield,0
;   oozeShieldExtruder,999
;   oozeShieldOffset,2
;   oozeShieldOutlines,1
;   oozeShieldSidewallShape,1
;   oozeShieldSidewallAngle,30
;   oozeShieldSpeedMultiplier,1
;   infillExtruder,0
;   internalInfillPattern,Rectilinear
;   externalInfillPattern,Rectilinear
;   infillPercentage,10
;   outlineOverlapPercentage,15
;   infillExtrusionWidthPercentage,100
;   minInfillLength,5
;   infillLayerInterval,1
;   internalInfillAngles,45,-45
;   overlapInternalInfillAngles,0
;   externalInfillAngles,45,-45
;   generateSupport,1
;   supportExtruder,0
;   supportInfillPercentage,30
;   supportExtraInflation,0
;   supportBaseLayers,0
;   denseSupportExtruder,0
;   denseSupportLayers,0
;   denseSupportInfillPercentage,70
;   supportLayerInterval,1
;   supportHorizontalPartOffset,0.2
;   supportUpperSeparationLayers,1
;   supportLowerSeparationLayers,1
;   supportType,0
;   supportGridSpacing,4
;   maxOverhangAngle,45
;   supportAngles,0
;   temperatureName,Primary Extruder,Hot Bed
;   temperatureNumber,0,1
;   temperatureSetpointCount,1,1
;   temperatureSetpointLayers,1,1
;   temperatureSetpointTemperatures,210,60
;   temperatureStabilizeAtStartup,1,0
;   temperatureHeatedBed,0,1
;   temperatureRelayBetweenLayers,0,0
;   temperatureRelayBetweenLoops,0,0
;   fanLayers,1,2
;   fanSpeeds,0,100
;   blipFanToFullPower,0
;   adjustSpeedForCooling,1
;   minSpeedLayerTime,15
;   minCoolingSpeedSlowdown,20
;   increaseFanForCooling,0
;   minFanLayerTime,45
;   maxCoolingFanSpeed,100
;   increaseFanForBridging,0
;   bridgingFanSpeed,100
;   use5D,1
;   relativeEdistances,0
;   allowEaxisZeroing,1
;   independentExtruderAxes,0
;   includeM10123,0
;   stickySupport,1
;   applyToolheadOffsets,0
;   gcodeXoffset,-0.09
;   gcodeYoffset,-0.03
;   gcodeZoffset,0
;   overrideMachineDefinition,0
;   machineTypeOverride,0
;   strokeXoverride,200
;   strokeYoverride,200
;   strokeZoverride,200
;   originOffsetXoverride,0
;   originOffsetYoverride,0
;   originOffsetZoverride,0
;   homeXdirOverride,-1
;   homeYdirOverride,-1
;   homeZdirOverride,-1
;   flipXoverride,1
;   flipYoverride,-1
;   flipZoverride,1
;   toolheadOffsets,0,0|0,0|0,0|0,0|0,0|0,0
;   overrideFirmwareConfiguration,0
;   firmwareTypeOverride,RepRap (Marlin/Repetier/Sprinter)
;   GPXconfigOverride,r2
;   baudRateOverride,115200
;   overridePrinterModels,0
;   printerModelsOverride
;   startingGcode,G28 ; home all axes,G1 X1 Y1 Z0.2 F3000 ; get ready to prime,G92 E0 ; reset extrusion distance,G1 Y150 E20 F600 ; prime nozzle
;   layerChangeGcode,
;   retractionGcode,
;   toolChangeGcode,
;   endingGcode,M104 S0 ; turn off extruder,M140 S0 ; turn off bedG1 X0 Y0; home,M84 ; disable motors,M107 ; fan off,G28 X Y; Home,M18; Disable steppers
;   exportFileFormat,gcode
;   celebration,0
;   celebrationSong,Random Song
;   postProcessing,
;   defaultSpeed,4600
;   outlineUnderspeed,0.5
;   solidInfillUnderspeed,0.8
;   supportUnderspeed,0.8
;   rapidXYspeed,4600
;   rapidZspeed,1000
;   minBridgingArea,50
;   bridgingExtraInflation,0
;   bridgingExtrusionMultiplier,1
;   bridgingSpeedMultiplier,1
;   useFixedBridgingAngle,0
;   fixedBridgingAngle,0
;   applyBridgingToPerimeters,0
;   filamentDiameters,1.75|1.75|1.75|1.75|1.75|1.75
;   filamentPricesPerKg,46|46|46|46|46|46
;   filamentDensities,1.25|1.25|1.25|1.25|1.25|1.25
;   useMinPrintHeight,0
;   minPrintHeight,0
;   useMaxPrintHeight,0
;   maxPrintHeight,0.6
;   useDiaphragm,0
;   diaphragmLayerInterval,20
;   robustSlicing,1
;   mergeAllIntoSolid,0
;   onlyRetractWhenCrossingOutline,1
;   retractBetweenLayers,1
;   useRetractionMinTravel,0
;   retractionMinTravel,3
;   retractWhileWiping,0
;   onlyWipeOutlines,1
;   avoidCrossingOutline,0
;   maxMovementDetourFactor,3
;   toolChangeRetractionDistance,12
;   toolChangeExtraRestartDistance,-0.5
;   toolChangeRetractionSpeed,600
;   externalThinWallType,1
;   internalThinWallType,2
;   thinWallAllowedOverlapPercentage,8
;   singleExtrusionMinLength,1
;   singleExtrusionMinPrintingWidthPercentage,50
;   singleExtrusionMaxPrintingWidthPercentage,200
;   singleExtrusionEndpointExtension,0.2
;   horizontalSizeCompensation,0
G90
M82
M106 S0
M140 S60
M104 S210 T0
M109 S210 T0
G28 ; home all axes
G1 X1 Y1 Z0.2 F3000 ; get ready to prime
G92 E0 ; reset extrusion distance
G1 Y150 E20 F600 ; prime nozzle
G92 E0
G1 E-1.0000 F1800
G1 Z0.270 F1000
; process Process1
; layer 1, Z = 0.270
T0
; tool H0.300 W0.412
; inner perimeter
G1 X69.328 Y61.578 F4600
G1 E0.0000 F540
G92 E0
G1 X168.492 Y61.578 E4.5862 F1035
G1 X168.492 Y152.012 E8.7686
G1 X69.328 Y152.012 E13.3547
G1 X69.328 Y61.578 E17.5371
; outer perimeter
G1 X68.916 Y61.166 F4600
G92 E0
G1 X168.904 Y61.166 E4.6243 F690
G1 X168.904 Y152.424 E8.8448
G1 X68.916 Y152.424 E13.4691
G1 X68.916 Y61.166 E17.6896
; inner perimeter
G1 X79.172 Y69.326 F4600
G92 E0
G1 X78.851 Y69.757 E0.0248 F1035
G1 X78.582 Y70.222 E0.0497
G1 X78.370 Y70.715 E0.0745
G1 X78.215 Y71.230 E0.0994
G1 X78.122 Y71.759 E0.1242
G1 X78.091 Y72.295 E0.1491
G1 X78.122 Y72.831 E0.1739
G1 X78.215 Y73.360 E0.1987
G1 X78.370 Y73.875 E0.2236
G1 X78.582 Y74.368 E0.2484
G1 X78.851 Y74.833 E0.2733
G1 X79.172 Y75.264 E0.2981
G1 X79.540 Y75.655 E0.3230
G1 X79.952 Y76.000 E0.3478
G1 X80.401 Y76.295 E0.3726
G1 X80.880 Y76.536 E0.3975
G1 X81.385 Y76.720 E0.4223
G1 X81.908 Y76.844 E0.4472
G1 X82.441 Y76.906 E0.4720
G1 X82.979 Y76.906 E0.4968
G1 X83.512 Y76.844 E0.5217
G1 X84.035 Y76.720 E0.5465
G1 X84.539 Y76.536 E0.5714
G1 X85.020 Y76.295 E0.5962
G1 X85.468 Y76.000 E0.6211
G1 X85.880 Y75.655 E0.6459
G1 X86.248 Y75.264 E0.6707
G1 X86.569 Y74.833 E0.6956
G1 X86.838 Y74.368 E0.7204
G1 X87.050 Y73.875 E0.7453
G1 X87.205 Y73.360 E0.7701
G1 X87.298 Y72.831 E0.7949
G1 X87.329 Y72.295 E0.8198
G1 X87.298 Y71.759 E0.8446
G1 X87.205 Y71.230 E0.8695
G1 X87.050 Y70.715 E0.8943
G1 X86.838 Y70.222 E0.9192
G1 X86.569 Y69.757 E0.9440
G1 X86.248 Y69.326 E0.9688
G1 X85.880 Y68.935 E0.9937
G1 X85.468 Y68.590 E1.0185
G1 X85.019 Y68.295 E1.0434
G1 X84.540 Y68.054 E1.0682
G1 X84.035 Y67.870 E1.0931
G1 X83.512 Y67.746 E1.1179
G1 X82.979 Y67.684 E1.1427
G1 X82.441 Y67.684 E1.1676
G1 X81.908 Y67.746 E1.1924
G1 X81.385 Y67.870 E1.2173
G1 X80.881 Y68.054 E1.2421
G1 X80.400 Y68.295 E1.2670
G1 X79.952 Y68.590 E1.2918
G1 X79.540 Y68.935 E1.3166
G1 X79.172 Y69.326 E1.3415
; outer perimeter
G1 X79.488 Y69.591 F4600
G92 E0
G1 X79.196 Y69.984 E0.0226 F690
G1 X78.951 Y70.407 E0.0452
G1 X78.757 Y70.856 E0.0679
G1 X78.617 Y71.325 E0.0905
G1 X78.532 Y71.807 E0.1131
G1 X78.504 Y72.295 E0.1357
G1 X78.532 Y72.783 E0.1584
G1 X78.617 Y73.265 E0.1810
G1 X78.757 Y73.734 E0.2036
G1 X78.951 Y74.183 E0.2262
G1 X79.196 Y74.606 E0.2488
G1 X79.488 Y74.999 E0.2715
G1 X79.823 Y75.355 E0.2941
G1 X80.198 Y75.669 E0.3167
G1 X80.607 Y75.938 E0.3393
G1 X81.044 Y76.157 E0.3620
G1 X81.504 Y76.325 E0.3846
G1 X81.980 Y76.437 E0.4072
G1 X82.465 Y76.494 E0.4298
G1 X82.955 Y76.494 E0.4524
G1 X83.440 Y76.437 E0.4751
G1 X83.916 Y76.325 E0.4977
G1 X84.376 Y76.157 E0.5203
G1 X84.813 Y75.938 E0.5429
G1 X85.222 Y75.669 E0.5656
G1 X85.597 Y75.355 E0.5882
G1 X85.932 Y74.999 E0.6108
G1 X86.224 Y74.606 E0.6334
G1 X86.469 Y74.183 E0.6561
G1 X86.663 Y73.734 E0.6787
G1 X86.803 Y73.265 E0.7013
G1 X86.888 Y72.783 E0.7239
G1 X86.916 Y72.295 E0.7465
G1 X86.888 Y71.807 E0.7692
G1 X86.803 Y71.325 E0.7918
G1 X86.663 Y70.856 E0.8144
G1 X86.469 Y70.407 E0.8370
G1 X86.224 Y69.984 E0.8597
G1 X85.932 Y69.591 E0.8823
G1 X85.597 Y69.235 E0.9049
G1 X85.222 Y68.921 E0.9275
G1 X84.813 Y68.652 E0.9501
G1 X84.376 Y68.433 E0.9728
G1 X83.916 Y68.265 E0.9954
G1 X83.440 Y68.153 E1.0180
G1 X82.955 Y68.096 E1.0406
G1 X82.465 Y68.096 E1.0633
G1 X81.980 Y68.153 E1.0859
G1 X81.504 Y68.265 E1.1085
G1 X81.044 Y68.433 E1.1311
G1 X80.607 Y68.652 E1.1537
G1 X80.198 Y68.921 E1.1764
G1 X79.823 Y69.235 E1.1990
G1 X79.488 Y69.591 E1.2216
G92 E0
G1 E-1.0000 F1800
; inner perimeter
G1 X91.507 Y65.553 F4600
G1 E0.0000 F1800
G92 E0
G1 X91.507 Y77.037 E0.5311 F1035
G1 X91.529 Y77.291 E0.5429
G1 X91.602 Y77.564 E0.5560
G1 X91.722 Y77.820 E0.5690
G1 X91.884 Y78.052 E0.5821
G1 X92.083 Y78.251 E0.5952
G1 X92.315 Y78.413 E0.6082
G1 X92.571 Y78.533 E0.6213
G1 X92.844 Y78.606 E0.6344
G1 X93.125 Y78.630 E0.6474
G1 X93.406 Y78.606 E0.6605
G1 X93.679 Y78.533 E0.6736
G1 X93.935 Y78.413 E0.6866
G1 X94.167 Y78.251 E0.6997
G1 X94.366 Y78.052 E0.7127
G1 X94.528 Y77.820 E0.7258
G1 X94.648 Y77.564 E0.7389
G1 X94.721 Y77.291 E0.7519
G1 X94.743 Y77.037 E0.7637
G1 X94.743 Y65.553 E1.2948
G1 X94.721 Y65.299 E1.3067
G1 X94.648 Y65.026 E1.3197
G1 X94.528 Y64.770 E1.3328
G1 X94.366 Y64.538 E1.3458
G1 X94.167 Y64.339 E1.3589
G1 X93.935 Y64.177 E1.3720
G1 X93.679 Y64.057 E1.3850
G1 X93.406 Y63.984 E1.3981
G1 X93.125 Y63.960 E1.4112
G1 X92.844 Y63.984 E1.4242
G1 X92.571 Y64.057 E1.4373
G1 X92.315 Y64.177 E1.4503
G1 X92.083 Y64.339 E1.4634
G1 X91.884 Y64.538 E1.4765
G1 X91.722 Y64.770 E1.4895
G1 X91.602 Y65.026 E1.5026
G1 X91.529 Y65.299 E1.5157
G1 X91.507 Y65.553 E1.5275
; outer perimeter
G1 X91.919 Y65.571 F4600
G92 E0
G1 X91.919 Y77.019 E0.5294 F690
G1 X91.937 Y77.220 E0.5388
G1 X91.991 Y77.423 E0.5485
G1 X92.080 Y77.613 E0.5582
G1 X92.201 Y77.786 E0.5679
G1 X92.349 Y77.934 E0.5777
G1 X92.522 Y78.055 E0.5874
G1 X92.712 Y78.144 E0.5971
G1 X92.915 Y78.198 E0.6069
G1 X93.125 Y78.217 E0.6166
G1 X93.335 Y78.198 E0.6263
G1 X93.538 Y78.144 E0.6360
G1 X93.728 Y78.055 E0.6458
G1 X93.901 Y77.934 E0.6555
G1 X94.049 Y77.786 E0.6652
G1 X94.170 Y77.613 E0.6750
G1 X94.259 Y77.423 E0.6847
G1 X94.313 Y77.220 E0.6944
G1 X94.331 Y77.019 E0.7037
G1 X94.331 Y65.571 E1.2332
G1 X94.313 Y65.370 E1.2425
G1 X94.259 Y65.167 E1.2522
G1 X94.170 Y64.977 E1.2619
G1 X94.049 Y64.804 E1.2717
G1 X93.901 Y64.656 E1.2814
G1 X93.728 Y64.535 E1.2911
G1 X93.538 Y64.446 E1.3009
G1 X93.335 Y64.392 E1.3106
G1 X93.125 Y64.373 E1.3203
G1 X92.915 Y64.392 E1.3300
G1 X92.712 Y64.446 E1.3398
G1 X92.522 Y64.535 E1.3495
G1 X92.349 Y64.656 E1.3592
G1 X92.201 Y64.804 E1.3690
G1 X92.080 Y64.977 E1.3787
G1 X91.991 Y65.167 E1.3884
G1 X91.937 Y65.370 E1.3981
G1 X91.919 Y65.571 E1.4075
G92 E0
G1 E-1.0000 F1800
; inner perimeter
G1 X95.526 Y65.545 F4600
G1 E0.0000 F1800
G92 E0
G1 X95.526 Y77.039 E0.5316 F1035
G1 X95.546 Y77.280 E0.5428
G1 X95.612 Y77.540 E0.5551
G1 X95.720 Y77.785 E0.5675
G1 X95.866 Y78.009 E0.5799
G1 X96.048 Y78.206 E0.5923
G1 X96.259 Y78.371 E0.6047
G1 X96.495 Y78.498 E0.6171
G1 X96.749 Y78.584 E0.6295
G1 X97.013 Y78.628 E0.6419
G1 X97.281 Y78.628 E0.6543
G1 X97.545 Y78.583 E0.6666
G1 X97.798 Y78.496 E0.6790
G1 X98.033 Y78.368 E0.6914
G1 X98.244 Y78.203 E0.7038
G1 X98.425 Y78.005 E0.7162
G1 X98.571 Y77.780 E0.7286
G1 X98.678 Y77.535 E0.7410
G1 X98.743 Y77.275 E0.7534
G1 X98.762 Y77.042 E0.7642
G1 X98.762 Y65.545 E1.2959
G1 X98.740 Y65.291 E1.3077
G1 X98.667 Y65.018 E1.3207
G1 X98.547 Y64.762 E1.3338
G1 X98.385 Y64.531 E1.3469
G1 X98.186 Y64.331 E1.3599
G1 X97.954 Y64.169 E1.3730
G1 X97.698 Y64.050 E1.3860
G1 X97.426 Y63.977 E1.3991
G1 X97.144 Y63.952 E1.4122
G1 X96.863 Y63.977 E1.4252
G1 X96.590 Y64.050 E1.4383
G1 X96.334 Y64.169 E1.4514
G1 X96.103 Y64.331 E1.4644
G1 X95.903 Y64.531 E1.4775
G1 X95.741 Y64.762 E1.4905
G1 X95.621 Y65.018 E1.5036
G1 X95.548 Y65.291 E1.5167
G1 X95.526 Y65.545 E1.5285
; outer perimeter
G1 X95.938 Y65.563 F4600
G92 E0
G1 X95.938 Y77.022 E0.5299 F690
G1 X95.954 Y77.212 E0.5388
G1 X96.003 Y77.406 E0.5480
G1 X96.083 Y77.588 E0.5572
G1 X96.192 Y77.755 E0.5664
G1 X96.328 Y77.902 E0.5757
G1 X96.485 Y78.024 E0.5849
G1 X96.661 Y78.119 E0.5941
G1 X96.850 Y78.184 E0.6034
G1 X97.046 Y78.216 E0.6126
G1 X97.246 Y78.216 E0.6218
G1 X97.443 Y78.183 E0.6310
G1 X97.631 Y78.117 E0.6403
G1 X97.806 Y78.022 E0.6495
G1 X97.964 Y77.899 E0.6587
G1 X98.098 Y77.752 E0.6679
G1 X98.207 Y77.585 E0.6772
G1 X98.287 Y77.402 E0.6864
G1 X98.335 Y77.208 E0.6956
G1 X98.350 Y77.026 E0.7041
G1 X98.350 Y65.563 E1.2342
G1 X98.333 Y65.363 E1.2435
G1 X98.278 Y65.160 E1.2532
G1 X98.189 Y64.969 E1.2630
G1 X98.069 Y64.797 E1.2727
G1 X97.920 Y64.648 E1.2824
G1 X97.748 Y64.527 E1.2922
G1 X97.557 Y64.438 E1.3019
G1 X97.354 Y64.384 E1.3116
G1 X97.144 Y64.366 E1.3213
G1 X96.935 Y64.384 E1.3311
G1 X96.731 Y64.438 E1.3408
G1 X96.541 Y64.527 E1.3505
G1 X96.368 Y64.648 E1.3603
G1 X96.220 Y64.797 E1.3700
G1 X96.099 Y64.969 E1.3797
G1 X96.010 Y65.160 E1.3894
G1 X95.956 Y65.363 E1.3992
G1 X95.938 Y65.563 E1.4085
G92 E0
G1 E-1.0000 F1800
; inner perimeter
G1 X99.507 Y65.553 F4600
G1 E0.0000 F1800
G92 E0
G1 X99.507 Y77.036 E0.5310 F1035
G1 X99.527 Y77.277 E0.5422
G1 X99.593 Y77.536 E0.5546
G1 X99.700 Y77.781 E0.5670
G1 X99.847 Y78.005 E0.5794
G1 X100.028 Y78.202 E0.5917
G1 X100.239 Y78.366 E0.6041
G1 X100.474 Y78.494 E0.6165
G1 X100.727 Y78.581 E0.6289
G1 X100.991 Y78.625 E0.6412
G1 X101.259 Y78.625 E0.6536
G1 X101.523 Y78.580 E0.6660
G1 X101.776 Y78.494 E0.6784
G1 X102.011 Y78.366 E0.6907
G1 X102.222 Y78.202 E0.7031
G1 X102.404 Y78.005 E0.7155
G1 X102.550 Y77.781 E0.7279
G1 X102.657 Y77.536 E0.7402
G1 X102.723 Y77.276 E0.7526
G1 X102.742 Y77.043 E0.7635
G1 X102.743 Y65.553 E1.2948
G1 X102.721 Y65.299 E1.3067
G1 X102.648 Y65.026 E1.3197
G1 X102.528 Y64.770 E1.3328
G1 X102.366 Y64.538 E1.3458
G1 X102.167 Y64.339 E1.3589
G1 X101.935 Y64.177 E1.3720
G1 X101.679 Y64.057 E1.3850
G1 X101.406 Y63.984 E1.3981
G1 X101.125 Y63.960 E1.4112
G1 X100.844 Y63.984 E1.4242
G1 X100.571 Y64.057 E1.4373
G1 X100.315 Y64.177 E1.4503
G1 X100.083 Y64.339 E1.4634
G1 X99.884 Y64.538 E1.4765
G1 X99.722 Y64.770 E1.4895
G1 X99.602 Y65.026 E1.5026
G1 X99.529 Y65.299 E1.5157
G1 X99.507 Y65.553 E1.5275
; outer perimeter
G1 X99.919 Y65.571 F4600
G92 E0
G1 X99.919 Y77.019 E0.5294 F690
G1 X99.935 Y77.209 E0.5382
G1 X99.984 Y77.402 E0.5475
G1 X100.064 Y77.584 E0.5567
G1 X100.173 Y77.751 E0.5659
G1 X100.308 Y77.898 E0.5751
G1 X100.465 Y78.020 E0.5843
G1 X100.640 Y78.115 E0.5936
G1 X100.829 Y78.180 E0.6028
G1 X101.025 Y78.213 E0.6120
G1 X101.225 Y78.213 E0.6212
G1 X101.421 Y78.180 E0.6304
G1 X101.610 Y78.115 E0.6396
G1 X101.785 Y78.020 E0.6489
G1 X101.942 Y77.898 E0.6581
G1 X102.077 Y77.751 E0.6673
G1 X102.186 Y77.584 E0.6765
G1 X102.266 Y77.402 E0.6857
G1 X102.315 Y77.208 E0.6950
G1 X102.330 Y77.026 E0.7034
G1 X102.331 Y65.571 E1.2332
G1 X102.313 Y65.370 E1.2425
G1 X102.259 Y65.167 E1.2522
G1 X102.170 Y64.977 E1.2620
G1 X102.049 Y64.804 E1.2717
G1 X101.901 Y64.656 E1.2814
G1 X101.728 Y64.535 E1.2911
G1 X101.538 Y64.446 E1.3009
G1 X101.335 Y64.392 E1.3106
G1 X101.125 Y64.373 E1.3203
G1 X100.915 Y64.392 E1.3301
G1 X100.712 Y64.446 E1.3398
G1 X100.522 Y64.535 E1.3495
G1 X100.349 Y64.656 E1.3592
