; G-Code generated by Simplify3D(R) Version 4.0.0
; Jan 16, 2021 at 7:24:51 PM
; Settings Summary
;   processName,Process1
;   applyToModels,side_panel_160mm_v2
;   profileName,def (modified)
;   profileVersion,2020-09-07 14:01:24
;   baseProfile,Default (modified)
;   printMaterial,PLA
;   printQuality,Medium
;   printExtruders,
;   extruderName,Primary Extruder
;   extruderToolheadNumber,0
;   extruderDiameter,0.4
;   extruderAutoWidth,0
;   extruderWidth,0.4
;   extrusionMultiplier,0.9
;   extruderUseRetract,1
;   extruderRetractionDistance,1
;   extruderExtraRestartDistance,0
;   extruderRetractionZLift,0
;   extruderRetractionSpeed,1800
;   extruderUseCoasting,0
;   extruderCoastingDistance,0.2
;   extruderUseWipe,0
;   extruderWipeDistance,5
;   primaryExtruder,0
;   layerHeight,0.3
;   topSolidLayers,3
;   bottomSolidLayers,2
;   perimeterOutlines,2
;   printPerimetersInsideOut,1
;   startPointOption,2
;   startPointOriginX,0
;   startPointOriginY,0
;   sequentialIslands,0
;   spiralVaseMode,0
;   firstLayerHeightPercentage,90
;   firstLayerWidthPercentage,103
;   firstLayerUnderspeed,0.3
;   useRaft,0
;   raftExtruder,0
;   raftTopLayers,2
;   raftBaseLayers,2
;   raftOffset,1.4
;   raftSeparationDistance,0.14
;   raftTopInfill,100
;   aboveRaftSpeedMultiplier,0.3
;   useSkirt,0
;   skirtExtruder,0
;   skirtLayers,1
;   skirtOutlines,2
;   skirtOffset,4
;   usePrimePillar,0
;   primePillarExtruder,999
;   primePillarWidth,12
;   primePillarLocation,7
;   primePillarSpeedMultiplier,1
;   useOozeShield,0
;   oozeShieldExtruder,999
;   oozeShieldOffset,2
;   oozeShieldOutlines,1
;   oozeShieldSidewallShape,1
;   oozeShieldSidewallAngle,30
;   oozeShieldSpeedMultiplier,1
;   infillExtruder,0
;   internalInfillPattern,Rectilinear
;   externalInfillPattern,Rectilinear
;   infillPercentage,10
;   outlineOverlapPercentage,15
;   infillExtrusionWidthPercentage,100
;   minInfillLength,5
;   infillLayerInterval,1
;   internalInfillAngles,45,-45
;   overlapInternalInfillAngles,0
;   externalInfillAngles,45,-45
;   generateSupport,1
;   supportExtruder,0
;   supportInfillPercentage,30
;   supportExtraInflation,0
;   supportBaseLayers,0
;   denseSupportExtruder,0
;   denseSupportLayers,0
;   denseSupportInfillPercentage,70
;   supportLayerInterval,1
;   supportHorizontalPartOffset,0.2
;   supportUpperSeparationLayers,1
;   supportLowerSeparationLayers,1
;   supportType,0
;   supportGridSpacing,4
;   maxOverhangAngle,45
;   supportAngles,0
;   temperatureName,Primary Extruder,Hot Bed
;   temperatureNumber,0,1
;   temperatureSetpointCount,1,1
;   temperatureSetpointLayers,1,1
;   temperatureSetpointTemperatures,210,60
;   temperatureStabilizeAtStartup,1,0
;   temperatureHeatedBed,0,1
;   temperatureRelayBetweenLayers,0,0
;   temperatureRelayBetweenLoops,0,0
;   fanLayers,1,2
;   fanSpeeds,0,100
;   blipFanToFullPower,0
;   adjustSpeedForCooling,1
;   minSpeedLayerTime,15
;   minCoolingSpeedSlowdown,20
;   increaseFanForCooling,0
;   minFanLayerTime,45
;   maxCoolingFanSpeed,100
;   increaseFanForBridging,0
;   bridgingFanSpeed,100
;   use5D,1
;   relativeEdistances,0
;   allowEaxisZeroing,1
;   independentExtruderAxes,0
;   includeM10123,0
;   stickySupport,1
;   applyToolheadOffsets,0
;   gcodeXoffset,-0.09
;   gcodeYoffset,-0.03
;   gcodeZoffset,0
;   overrideMachineDefinition,0
;   machineTypeOverride,0
;   strokeXoverride,200
;   strokeYoverride,200
;   strokeZoverride,200
;   originOffsetXoverride,0
;   originOffsetYoverride,0
;   originOffsetZoverride,0
;   homeXdirOverride,-1
;   homeYdirOverride,-1
;   homeZdirOverride,-1
;   flipXoverride,1
;   flipYoverride,-1
;   flipZoverride,1
;   toolheadOffsets,0,0|0,0|0,0|0,0|0,0|0,0
;   overrideFirmwareConfiguration,0
;   firmwareTypeOverride,RepRap (Marlin/Repetier/Sprinter)
;   GPXconfigOverride,r2
;   baudRateOverride,115200
;   overridePrinterModels,0
;   printerModelsOverride
;   startingGcode,G28 ; home all axes,G1 X1 Y1 Z0.2 F3000 ; get ready to prime,G92 E0 ; reset extrusion distance,G1 Y150 E20 F600 ; prime nozzle
;   layerChangeGcode,
;   retractionGcode,
;   toolChangeGcode,
;   endingGcode,M104 S0 ; turn off extruder,M140 S0 ; turn off bedG1 X0 Y0; home,M84 ; disable motors,M107 ; fan off,G28 X Y; Home,M18; Disable steppers
;   exportFileFormat,gcode
;   celebration,0
;   celebrationSong,Random Song
;   postProcessing,
;   defaultSpeed,4600
;   outlineUnderspeed,0.5
;   solidInfillUnderspeed,0.8
;   supportUnderspeed,0.8
;   rapidXYspeed,4600
;   rapidZspeed,1000
;   minBridgingArea,50
;   bridgingExtraInflation,0
;   bridgingExtrusionMultiplier,1
;   bridgingSpeedMultiplier,1
;   useFixedBridgingAngle,0
;   fixedBridgingAngle,0
;   applyBridgingToPerimeters,0
;   filamentDiameters,1.75|1.75|1.75|1.75|1.75|1.75
;   filamentPricesPerKg,46|46|46|46|46|46
;   filamentDensities,1.25|1.25|1.25|1.25|1.25|1.25
;   useMinPrintHeight,0
;   minPrintHeight,0
;   useMaxPrintHeight,0
;   maxPrintHeight,0.6
;   useDiaphragm,0
;   diaphragmLayerInterval,20
;   robustSlicing,1
;   mergeAllIntoSolid,0
;   onlyRetractWhenCrossingOutline,1
;   retractBetweenLayers,1
;   useRetractionMinTravel,0
;   retractionMinTravel,3
;   retractWhileWiping,0
;   onlyWipeOutlines,1
;   avoidCrossingOutline,0
;   maxMovementDetourFactor,3
;   toolChangeRetractionDistance,12
;   toolChangeExtraRestartDistance,-0.5
;   toolChangeRetractionSpeed,600
;   externalThinWallType,1
;   internalThinWallType,2
;   thinWallAllowedOverlapPercentage,8
;   singleExtrusionMinLength,1
;   singleExtrusionMinPrintingWidthPercentage,50
;   singleExtrusionMaxPrintingWidthPercentage,200
;   singleExtrusionEndpointExtension,0.2
;   horizontalSizeCompensation,0
G90
M82
M106 S0
M140 S60
M104 S210 T0
M109 S210 T0
G28 ; home all axes
G1 X1 Y1 Z0.2 F3000 ; get ready to prime
G92 E0 ; reset extrusion distance
G1 Y150 E20 F600 ; prime nozzle
G92 E0
G1 E-1.0000 F1800
G1 Z0.270 F1000
; process Process1
; layer 1, Z = 0.270
T0
; tool H0.300 W0.412
; inner perimeter
G1 X39.505 Y65.614 F4600
G1 E0.0000 F540
G92 E0
G1 X99.718 Y65.586 E2.7847 F1035
G1 X99.722 Y72.350 E3.0976
G1 X69.863 Y72.364 E4.4785
G1 X69.616 Y72.385 E4.4900
G1 X69.344 Y72.456 E4.5029
G1 X69.087 Y72.574 E4.5160
G1 X68.855 Y72.735 E4.5291
G1 X68.654 Y72.934 E4.5422
G1 X68.491 Y73.166 E4.5553
G1 X68.371 Y73.421 E4.5683
G1 X68.297 Y73.693 E4.5813
G1 X68.273 Y73.949 E4.5932
G1 X68.311 Y156.008 E8.3883
G1 X68.332 Y156.259 E8.4000
G1 X68.405 Y156.532 E8.4130
G1 X68.524 Y156.788 E8.4261
G1 X68.685 Y157.019 E8.4391
G1 X68.884 Y157.220 E8.4522
G1 X69.114 Y157.382 E8.4652
G1 X69.370 Y157.503 E8.4783
G1 X69.644 Y157.577 E8.4914
G1 X69.898 Y157.600 E8.5032
G1 X100.380 Y157.586 E9.9129
G1 X109.641 Y157.568 E10.3413
G1 X136.850 Y157.568 E11.5996
G1 X136.850 Y164.332 E11.9125
G1 X109.655 Y164.332 E13.1702
G1 X100.382 Y164.350 E13.5991
G1 X39.551 Y164.377 E16.4124
G1 X39.505 Y65.614 E20.9800
G92 E0
G1 E-1.0000 F1800
G1 X100.955 Y65.585 F4600
G1 E0.0000 F1800
G92 E0
G1 X118.887 Y65.577 E0.8293 F1035
G1 X136.819 Y65.569 E1.6586
G1 X136.822 Y72.333 E1.9714
G1 X118.890 Y72.341 E2.8008
G1 X100.958 Y72.349 E3.6301
G1 X100.955 Y65.585 E3.9429
; outer perimeter
G1 X100.543 Y65.173 F4600
G92 E0
G1 X118.887 Y65.165 E0.8484 F690
G1 X137.230 Y65.156 E1.6967
G1 X137.234 Y72.744 E2.0477
G1 X118.890 Y72.753 E2.8960
G1 X100.546 Y72.761 E3.7444
G1 X100.543 Y65.173 E4.0953
G92 E0
G1 E-1.0000 F1800
G1 X100.130 Y65.174 F4600
G1 E0.0000 F1800
G92 E0
G1 X100.134 Y72.762 E0.3509 F690
G1 X69.881 Y72.776 E1.7501
G1 X69.686 Y72.793 E1.7591
G1 X69.483 Y72.846 E1.7688
G1 X69.292 Y72.934 E1.7785
G1 X69.119 Y73.054 E1.7883
G1 X68.970 Y73.202 E1.7980
G1 X68.848 Y73.374 E1.8078
G1 X68.759 Y73.564 E1.8175
G1 X68.704 Y73.767 E1.8272
G1 X68.685 Y73.967 E1.8365
G1 X68.723 Y155.991 E5.6299
G1 X68.740 Y156.188 E5.6391
G1 X68.794 Y156.391 E5.6488
G1 X68.882 Y156.582 E5.6585
G1 X69.002 Y156.755 E5.6683
G1 X69.150 Y156.904 E5.6780
G1 X69.322 Y157.025 E5.6877
G1 X69.513 Y157.115 E5.6975
G1 X69.717 Y157.170 E5.7072
G1 X69.917 Y157.188 E5.7165
G1 X100.379 Y157.174 E7.1253
G1 X109.641 Y157.156 E7.5537
G1 X137.262 Y157.156 E8.8311
G1 X137.262 Y164.744 E9.1821
G1 X109.655 Y164.744 E10.4588
G1 X100.382 Y164.762 E10.8877
G1 X39.139 Y164.790 E13.7201
G1 X39.093 Y65.202 E18.3258
G1 X100.130 Y65.174 E21.1487
G92 E0
G1 E-1.0000 F1800
; inner perimeter
G1 X55.933 Y79.245 F4600
G1 E0.0000 F1800
G92 E0
G1 X55.772 Y78.902 E0.0175 F1035
G1 X55.555 Y78.593 E0.0350
G1 X55.288 Y78.326 E0.0524
G1 X54.978 Y78.109 E0.0699
G1 X54.635 Y77.949 E0.0875
G1 X54.269 Y77.852 E0.1049
G1 X53.893 Y77.819 E0.1224
G1 X53.515 Y77.852 E0.1399
G1 X53.149 Y77.950 E0.1575
G1 X52.808 Y78.110 E0.1749
G1 X52.497 Y78.327 E0.1925
G1 X52.230 Y78.595 E0.2099
G1 X52.014 Y78.905 E0.2274
G1 X51.854 Y79.248 E0.2449
G1 X51.756 Y79.612 E0.2624
G1 X51.723 Y79.990 E0.2799
G1 X51.756 Y80.368 E0.2974
G1 X51.854 Y80.732 E0.3149
G1 X52.014 Y81.075 E0.3324
G1 X52.232 Y81.386 E0.3500
G1 X52.499 Y81.652 E0.3674
G1 X52.809 Y81.869 E0.3849
G1 X53.152 Y82.029 E0.4024
G1 X53.518 Y82.127 E0.4199
G1 X53.894 Y82.160 E0.4374
G1 X54.271 Y82.126 E0.4549
G1 X54.636 Y82.028 E0.4724
G1 X54.980 Y81.868 E0.4899
G1 X55.289 Y81.651 E0.5074
G1 X55.556 Y81.384 E0.5248
G1 X55.773 Y81.073 E0.5424
G1 X55.933 Y80.730 E0.5599
G1 X56.031 Y80.365 E0.5774
G1 X56.063 Y79.988 E0.5948
G1 X56.031 Y79.612 E0.6123
G1 X55.933 Y79.245 E0.6299
; outer perimeter
G1 X55.544 Y79.387 F4600
G92 E0
G1 X55.414 Y79.110 E0.0142 F690
G1 X55.238 Y78.859 E0.0283
G1 X55.022 Y78.643 E0.0425
G1 X54.771 Y78.467 E0.0566
G1 X54.494 Y78.338 E0.0708
G1 X54.198 Y78.259 E0.0850
G1 X53.893 Y78.232 E0.0991
G1 X53.587 Y78.259 E0.1133
G1 X53.291 Y78.338 E0.1275
G1 X53.015 Y78.468 E0.1416
G1 X52.763 Y78.644 E0.1558
G1 X52.547 Y78.861 E0.1699
G1 X52.372 Y79.111 E0.1841
G1 X52.243 Y79.389 E0.1983
G1 X52.163 Y79.684 E0.2124
G1 X52.136 Y79.990 E0.2266
G1 X52.163 Y80.295 E0.2408
G1 X52.243 Y80.591 E0.2549
G1 X52.372 Y80.868 E0.2691
G1 X52.549 Y81.119 E0.2833
G1 X52.765 Y81.335 E0.2974
G1 X53.016 Y81.511 E0.3116
G1 X53.293 Y81.640 E0.3257
G1 X53.589 Y81.719 E0.3399
G1 X53.894 Y81.746 E0.3540
G1 X54.199 Y81.719 E0.3682
G1 X54.495 Y81.640 E0.3824
G1 X54.773 Y81.510 E0.3965
G1 X55.023 Y81.334 E0.4107
G1 X55.240 Y81.118 E0.4249
G1 X55.415 Y80.867 E0.4390
G1 X55.544 Y80.589 E0.4532
G1 X55.624 Y80.293 E0.4673
G1 X55.650 Y79.988 E0.4815
G1 X55.624 Y79.683 E0.4957
G1 X55.544 Y79.387 E0.5098
; inner perimeter
G1 X53.925 Y147.818 F4600
G92 E0
G1 X53.548 Y147.852 E0.0175 F1035
G1 X53.183 Y147.950 E0.0350
G1 X52.840 Y148.109 E0.0525
G1 X52.529 Y148.327 E0.0700
G1 X52.262 Y148.595 E0.0875
G1 X52.046 Y148.905 E0.1050
G1 X51.886 Y149.249 E0.1225
G1 X51.789 Y149.614 E0.1400
G1 X51.756 Y149.990 E0.1575
G1 X51.789 Y150.367 E0.1750
G1 X51.887 Y150.732 E0.1924
G1 X52.047 Y151.075 E0.2099
G1 X52.264 Y151.385 E0.2274
G1 X52.531 Y151.652 E0.2449
G1 X52.841 Y151.869 E0.2624
G1 X53.184 Y152.029 E0.2799
G1 X53.550 Y152.127 E0.2974
G1 X53.927 Y152.159 E0.3149
G1 X54.303 Y152.127 E0.3324
G1 X54.670 Y152.028 E0.3500
G1 X55.013 Y151.867 E0.3675
G1 X55.322 Y151.651 E0.3849
G1 X55.589 Y151.384 E0.4024
G1 X55.806 Y151.074 E0.4199
G1 X55.966 Y150.731 E0.4374
G1 X56.064 Y150.365 E0.4549
G1 X56.096 Y149.988 E0.4724
G1 X56.063 Y149.611 E0.4899
G1 X55.965 Y149.247 E0.5074
G1 X55.805 Y148.904 E0.5249
G1 X55.588 Y148.594 E0.5424
G1 X55.321 Y148.327 E0.5599
G1 X55.011 Y148.109 E0.5773
G1 X54.668 Y147.950 E0.5949
G1 X54.303 Y147.852 E0.6123
G1 X53.925 Y147.818 E0.6299
; outer perimeter
G1 X53.925 Y148.232 F4600
G92 E0
G1 X53.620 Y148.259 E0.0142 F690
G1 X53.324 Y148.338 E0.0283
G1 X53.047 Y148.468 E0.0425
G1 X52.796 Y148.643 E0.0567
G1 X52.580 Y148.861 E0.0708
G1 X52.404 Y149.111 E0.0850
G1 X52.275 Y149.389 E0.0992
G1 X52.196 Y149.685 E0.1133
G1 X52.169 Y149.990 E0.1275
G1 X52.196 Y150.295 E0.1416
G1 X52.276 Y150.590 E0.1558
G1 X52.405 Y150.868 E0.1699
G1 X52.581 Y151.119 E0.1841
G1 X52.797 Y151.335 E0.1982
G1 X53.048 Y151.511 E0.2124
G1 X53.325 Y151.640 E0.2266
G1 X53.621 Y151.719 E0.2407
G1 X53.927 Y151.745 E0.2549
G1 X54.232 Y151.719 E0.2691
G1 X54.528 Y151.640 E0.2833
G1 X54.806 Y151.510 E0.2974
G1 X55.056 Y151.334 E0.3116
G1 X55.272 Y151.118 E0.3257
G1 X55.448 Y150.867 E0.3399
G1 X55.577 Y150.589 E0.3541
G1 X55.657 Y150.293 E0.3682
G1 X55.683 Y149.988 E0.3824
G1 X55.656 Y149.684 E0.3965
G1 X55.576 Y149.388 E0.4107
G1 X55.447 Y149.110 E0.4249
G1 X55.271 Y148.860 E0.4390
G1 X55.055 Y148.643 E0.4532
G1 X54.804 Y148.468 E0.4673
G1 X54.527 Y148.338 E0.4815
G1 X54.231 Y148.259 E0.4956
G1 X53.925 Y148.232 E0.5099
; solid layer
G1 X55.900 Y148.429 F4600
G92 E0
G1 X71.484 Y164.013 E1.0192 F1104
G1 X70.901 Y164.013 E1.0462
G1 X56.398 Y149.510 E1.9948
G1 X56.409 Y149.550 E1.9967
G1 X56.448 Y149.987 E2.0170
G1 X56.436 Y150.130 E2.0236
G1 X70.319 Y164.013 E2.9316
G1 X69.737 Y164.013 E2.9586
G1 X56.355 Y150.632 E3.8338
G1 X56.296 Y150.851 E3.8443
G1 X56.200 Y151.059 E3.8549
G1 X69.154 Y164.014 E4.7022
G1 X68.572 Y164.014 E4.7291
G1 X55.986 Y151.428 E5.5523
G1 X55.858 Y151.610 E5.5626
G1 X55.722 Y151.746 E5.5715
G1 X67.989 Y164.014 E6.3739
G1 X67.407 Y164.015 E6.4009
G1 X55.410 Y152.017 E7.1855
G1 X55.189 Y152.171 E7.1980
G1 X55.048 Y152.238 E7.2052
G1 X66.825 Y164.015 E7.9755
G1 X66.242 Y164.015 E8.0024
G1 X54.629 Y152.402 E8.7620
G1 X54.364 Y152.473 E8.7747
G1 X54.137 Y152.492 E8.7852
G1 X65.660 Y164.015 E9.5388
G1 X65.078 Y164.016 E9.5658
G1 X53.539 Y152.477 E10.3204
G1 X69.432 Y157.882 F4600
G92 E0
G1 X75.561 Y164.011 E0.4008 F1104
G1 X76.143 Y164.011 E0.4278
G1 X70.082 Y157.950 E0.8242
G1 X70.664 Y157.949 E0.8511
G1 X76.725 Y164.010 E1.2475
G1 X77.308 Y164.010 E1.2745
G1 X71.247 Y157.949 E1.6709
G1 X71.829 Y157.949 E1.6978
G1 X77.890 Y164.010 E2.0942
G1 X78.472 Y164.009 E2.1211
G1 X72.412 Y157.949 E2.5175
G1 X72.994 Y157.948 E2.5445
G1 X79.055 Y164.009 E2.9409
G1 X79.637 Y164.009 E2.9678
G1 X73.576 Y157.948 E3.3642
G1 X74.159 Y157.948 E3.3912
G1 X80.220 Y164.009 E3.7876
G1 X80.802 Y164.008 E3.8145
G1 X74.741 Y157.948 E4.2109
G1 X75.324 Y157.947 E4.2378
G1 X81.384 Y164.008 E4.6343
G1 X81.967 Y164.008 E4.6612
G1 X75.906 Y157.947 E5.0576
G1 X76.488 Y157.947 E5.0845
G1 X82.549 Y164.008 E5.4809
G1 X83.132 Y164.007 E5.5079
G1 X77.071 Y157.947 E5.9043
G1 X77.653 Y157.946 E5.9312
G1 X83.714 Y164.007 E6.3276
G1 X84.296 Y164.007 E6.3546
G1 X78.236 Y157.946 E6.7510
G1 X78.818 Y157.946 E6.7779
G1 X84.879 Y164.007 E7.1743
G1 X85.461 Y164.006 E7.2012
G1 X79.400 Y157.945 E7.5976
G1 X79.983 Y157.945 E7.6246
G1 X86.044 Y164.006 E8.0210
G1 X86.626 Y164.006 E8.0479
G1 X80.565 Y157.945 E8.4443
G1 X81.148 Y157.945 E8.4713
G1 X87.208 Y164.005 E8.8677
G1 X87.791 Y164.005 E8.8946
G1 X81.730 Y157.944 E9.2910
G1 X82.312 Y157.944 E9.3179
G1 X88.373 Y164.005 E9.7144
G1 X88.956 Y164.005 E9.7413
G1 X82.895 Y157.944 E10.1377
G1 X83.477 Y157.944 E10.1646
G1 X89.538 Y164.004 E10.5610
G1 X90.120 Y164.004 E10.5880
G1 X84.059 Y157.943 E10.9844
G1 X84.642 Y157.943 E11.0113
G1 X90.703 Y164.004 E11.4077
G1 X91.285 Y164.004 E11.4346
G1 X85.224 Y157.943 E11.8311
G1 X85.807 Y157.943 E11.8580
G1 X91.867 Y164.003 E12.2544
G1 X92.450 Y164.003 E12.2813
G1 X86.389 Y157.942 E12.6777
G1 X86.971 Y157.942 E12.7047
G1 X93.032 Y164.003 E13.1011
G1 X93.615 Y164.003 E13.1280
G1 X87.554 Y157.942 E13.5244
G1 X88.136 Y157.941 E13.5514
G1 X94.197 Y164.002 E13.9478
G1 X94.779 Y164.002 E13.9747
G1 X88.719 Y157.941 E14.3711
G1 X89.301 Y157.941 E14.3980
G1 X95.362 Y164.002 E14.7944
G1 X95.944 Y164.001 E14.8214
G1 X89.883 Y157.941 E15.2178
G1 X90.466 Y157.940 E15.2447
G1 X96.527 Y164.001 E15.6411
G1 X97.109 Y164.001 E15.6681
G1 X91.048 Y157.940 E16.0645
G1 X91.631 Y157.940 E16.0914
G1 X97.691 Y164.001 E16.4878
G1 X98.274 Y164.000 E16.5147
G1 X92.213 Y157.940 E16.9111
G1 X92.795 Y157.939 E16.9381
G1 X98.856 Y164.000 E17.3345
G1 X99.439 Y164.000 E17.3614
G1 X93.378 Y157.939 E17.7578
G1 X93.960 Y157.939 E17.7848
G1 X100.021 Y164.000 E18.1812
G1 X100.381 Y163.999 E18.1978
G1 X100.603 Y163.999 E18.2081
G1 X94.543 Y157.939 E18.6045
G1 X95.125 Y157.938 E18.6314
G1 X101.185 Y163.998 E19.0277
G1 X101.766 Y163.997 E19.0546
