; G-Code generated by Simplify3D(R) Version 4.0.0
; Jan 17, 2021 at 2:20:28 PM
; Settings Summary
;   processName,Process1
;   applyToModels,side_center_15mm_V3
;   profileName,def (modified)
;   profileVersion,2020-09-07 14:01:24
;   baseProfile,Default (modified)
;   printMaterial,PLA
;   printQuality,Medium
;   printExtruders,
;   extruderName,Primary Extruder
;   extruderToolheadNumber,0
;   extruderDiameter,0.4
;   extruderAutoWidth,0
;   extruderWidth,0.4
;   extrusionMultiplier,0.9
;   extruderUseRetract,1
;   extruderRetractionDistance,1
;   extruderExtraRestartDistance,0
;   extruderRetractionZLift,0
;   extruderRetractionSpeed,1800
;   extruderUseCoasting,0
;   extruderCoastingDistance,0.2
;   extruderUseWipe,0
;   extruderWipeDistance,5
;   primaryExtruder,0
;   layerHeight,0.3
;   topSolidLayers,3
;   bottomSolidLayers,2
;   perimeterOutlines,2
;   printPerimetersInsideOut,1
;   startPointOption,2
;   startPointOriginX,0
;   startPointOriginY,0
;   sequentialIslands,0
;   spiralVaseMode,0
;   firstLayerHeightPercentage,90
;   firstLayerWidthPercentage,103
;   firstLayerUnderspeed,0.3
;   useRaft,0
;   raftExtruder,0
;   raftTopLayers,2
;   raftBaseLayers,2
;   raftOffset,1.4
;   raftSeparationDistance,0.14
;   raftTopInfill,100
;   aboveRaftSpeedMultiplier,0.3
;   useSkirt,0
;   skirtExtruder,0
;   skirtLayers,1
;   skirtOutlines,2
;   skirtOffset,4
;   usePrimePillar,0
;   primePillarExtruder,999
;   primePillarWidth,12
;   primePillarLocation,7
;   primePillarSpeedMultiplier,1
;   useOozeShield,0
;   oozeShieldExtruder,999
;   oozeShieldOffset,2
;   oozeShieldOutlines,1
;   oozeShieldSidewallShape,1
;   oozeShieldSidewallAngle,30
;   oozeShieldSpeedMultiplier,1
;   infillExtruder,0
;   internalInfillPattern,Rectilinear
;   externalInfillPattern,Rectilinear
;   infillPercentage,10
;   outlineOverlapPercentage,15
;   infillExtrusionWidthPercentage,100
;   minInfillLength,5
;   infillLayerInterval,1
;   internalInfillAngles,45,-45
;   overlapInternalInfillAngles,0
;   externalInfillAngles,45,-45
;   generateSupport,1
;   supportExtruder,0
;   supportInfillPercentage,30
;   supportExtraInflation,0
;   supportBaseLayers,0
;   denseSupportExtruder,0
;   denseSupportLayers,0
;   denseSupportInfillPercentage,70
;   supportLayerInterval,1
;   supportHorizontalPartOffset,0.2
;   supportUpperSeparationLayers,1
;   supportLowerSeparationLayers,1
;   supportType,0
;   supportGridSpacing,4
;   maxOverhangAngle,45
;   supportAngles,0
;   temperatureName,Primary Extruder,Hot Bed
;   temperatureNumber,0,1
;   temperatureSetpointCount,1,1
;   temperatureSetpointLayers,1,1
;   temperatureSetpointTemperatures,210,60
;   temperatureStabilizeAtStartup,1,0
;   temperatureHeatedBed,0,1
;   temperatureRelayBetweenLayers,0,0
;   temperatureRelayBetweenLoops,0,0
;   fanLayers,1,2
;   fanSpeeds,0,100
;   blipFanToFullPower,0
;   adjustSpeedForCooling,1
;   minSpeedLayerTime,15
;   minCoolingSpeedSlowdown,20
;   increaseFanForCooling,0
;   minFanLayerTime,45
;   maxCoolingFanSpeed,100
;   increaseFanForBridging,0
;   bridgingFanSpeed,100
;   use5D,1
;   relativeEdistances,0
;   allowEaxisZeroing,1
;   independentExtruderAxes,0
;   includeM10123,0
;   stickySupport,1
;   applyToolheadOffsets,0
;   gcodeXoffset,-0.09
;   gcodeYoffset,-0.03
;   gcodeZoffset,0
;   overrideMachineDefinition,0
;   machineTypeOverride,0
;   strokeXoverride,200
;   strokeYoverride,200
;   strokeZoverride,200
;   originOffsetXoverride,0
;   originOffsetYoverride,0
;   originOffsetZoverride,0
;   homeXdirOverride,-1
;   homeYdirOverride,-1
;   homeZdirOverride,-1
;   flipXoverride,1
;   flipYoverride,-1
;   flipZoverride,1
;   toolheadOffsets,0,0|0,0|0,0|0,0|0,0|0,0
;   overrideFirmwareConfiguration,0
;   firmwareTypeOverride,RepRap (Marlin/Repetier/Sprinter)
;   GPXconfigOverride,r2
;   baudRateOverride,115200
;   overridePrinterModels,0
;   printerModelsOverride
;   startingGcode,G28 ; home all axes,G1 X3 Y3 Z0.2 F3000 ; get ready to prime,G92 E0 ; reset extrusion distance,G1 Y150 E20 F600 ; prime nozzle
;   layerChangeGcode,
;   retractionGcode,
;   toolChangeGcode,
;   endingGcode,M104 S0 ; turn off extruder,M140 S0 ; turn off bedG1 X0 Y0; home,M84 ; disable motors,M107 ; fan off,G28 X Y; Home,M18; Disable steppers
;   exportFileFormat,gcode
;   celebration,0
;   celebrationSong,Random Song
;   postProcessing,
;   defaultSpeed,4600
;   outlineUnderspeed,0.5
;   solidInfillUnderspeed,0.8
;   supportUnderspeed,0.8
;   rapidXYspeed,4600
;   rapidZspeed,1000
;   minBridgingArea,50
;   bridgingExtraInflation,0
;   bridgingExtrusionMultiplier,1
;   bridgingSpeedMultiplier,1
;   useFixedBridgingAngle,0
;   fixedBridgingAngle,0
;   applyBridgingToPerimeters,0
;   filamentDiameters,1.75|1.75|1.75|1.75|1.75|1.75
;   filamentPricesPerKg,46|46|46|46|46|46
;   filamentDensities,1.25|1.25|1.25|1.25|1.25|1.25
;   useMinPrintHeight,0
;   minPrintHeight,0
;   useMaxPrintHeight,0
;   maxPrintHeight,0.6
;   useDiaphragm,0
;   diaphragmLayerInterval,20
;   robustSlicing,1
;   mergeAllIntoSolid,0
;   onlyRetractWhenCrossingOutline,1
;   retractBetweenLayers,1
;   useRetractionMinTravel,0
;   retractionMinTravel,3
;   retractWhileWiping,0
;   onlyWipeOutlines,1
;   avoidCrossingOutline,0
;   maxMovementDetourFactor,3
;   toolChangeRetractionDistance,12
;   toolChangeExtraRestartDistance,-0.5
;   toolChangeRetractionSpeed,600
;   externalThinWallType,1
;   internalThinWallType,2
;   thinWallAllowedOverlapPercentage,8
;   singleExtrusionMinLength,1
;   singleExtrusionMinPrintingWidthPercentage,50
;   singleExtrusionMaxPrintingWidthPercentage,200
;   singleExtrusionEndpointExtension,0.2
;   horizontalSizeCompensation,0
G90
M82
M106 S0
M140 S60
M104 S210 T0
M109 S210 T0
G28 ; home all axes
G1 X3 Y3 Z0.2 F3000 ; get ready to prime
G92 E0 ; reset extrusion distance
G1 Y150 E20 F600 ; prime nozzle
G92 E0
G1 E-1.0000 F1800
G1 Z0.270 F1000
; process Process1
; layer 1, Z = 0.270
T0
; tool H0.300 W0.412
; inner perimeter
G1 X71.789 Y98.569 F4600
G1 E0.0000 F540
G92 E0
G1 X71.852 Y98.552 E0.0030 F1035
G1 X71.917 Y98.546 E0.0060
G1 X71.984 Y98.553 E0.0091
G1 X72.048 Y98.570 E0.0122
G1 X72.108 Y98.598 E0.0153
G1 X72.163 Y98.636 E0.0183
G1 X72.209 Y98.682 E0.0214
G1 X72.247 Y98.737 E0.0244
G1 X72.275 Y98.796 E0.0275
G1 X72.292 Y98.860 E0.0305
G1 X72.300 Y98.952 E0.0348
G1 X72.299 Y100.544 E0.1085
G1 X75.618 Y100.548 E0.2619
G1 X75.619 Y98.958 E0.3355
G1 X75.628 Y98.866 E0.3397
G1 X75.646 Y98.799 E0.3430
G1 X75.673 Y98.740 E0.3460
G1 X75.710 Y98.687 E0.3489
G1 X75.758 Y98.639 E0.3521
G1 X75.812 Y98.602 E0.3551
G1 X75.872 Y98.573 E0.3582
G1 X75.936 Y98.556 E0.3612
G1 X76.002 Y98.550 E0.3643
G1 X76.067 Y98.556 E0.3673
G1 X76.129 Y98.573 E0.3703
G1 X76.191 Y98.602 E0.3735
G1 X76.246 Y98.640 E0.3766
G1 X76.292 Y98.686 E0.3796
G1 X76.330 Y98.741 E0.3827
G1 X76.358 Y98.801 E0.3857
G1 X76.375 Y98.863 E0.3887
G1 X76.383 Y98.956 E0.3930
G1 X76.382 Y100.548 E0.4667
G1 X79.702 Y100.552 E0.6202
G1 X79.703 Y98.960 E0.6938
G1 X79.711 Y98.868 E0.6981
G1 X79.728 Y98.805 E0.7011
G1 X79.756 Y98.744 E0.7042
G1 X79.795 Y98.689 E0.7073
G1 X79.841 Y98.643 E0.7103
G1 X79.895 Y98.605 E0.7134
G1 X79.955 Y98.577 E0.7164
G1 X80.019 Y98.560 E0.7195
G1 X80.086 Y98.554 E0.7226
G1 X80.152 Y98.560 E0.7257
G1 X80.215 Y98.577 E0.7287
G1 X80.274 Y98.604 E0.7317
G1 X80.328 Y98.642 E0.7348
G1 X80.376 Y98.690 E0.7379
G1 X80.413 Y98.744 E0.7409
G1 X80.442 Y98.804 E0.7440
G1 X80.459 Y98.868 E0.7471
G1 X80.467 Y98.961 E0.7514
G1 X80.465 Y100.552 E0.8250
G1 X83.785 Y100.556 E0.9785
G1 X83.786 Y98.964 E1.0521
G1 X83.794 Y98.872 E1.0564
G1 X83.811 Y98.808 E1.0594
G1 X83.840 Y98.748 E1.0625
G1 X83.877 Y98.693 E1.0656
G1 X83.924 Y98.647 E1.0686
G1 X83.978 Y98.609 E1.0716
G1 X84.037 Y98.582 E1.0747
G1 X84.102 Y98.564 E1.0778
G1 X84.169 Y98.558 E1.0809
G1 X84.235 Y98.564 E1.0839
G1 X84.298 Y98.581 E1.0870
G1 X84.358 Y98.609 E1.0900
G1 X84.412 Y98.647 E1.0931
G1 X84.459 Y98.693 E1.0961
G1 X84.497 Y98.747 E1.0992
G1 X84.525 Y98.807 E1.1022
G1 X84.542 Y98.872 E1.1053
G1 X84.550 Y98.964 E1.1096
G1 X84.549 Y100.555 E1.1832
G1 X87.868 Y100.559 E1.3367
G1 X87.869 Y98.967 E1.4103
G1 X87.877 Y98.876 E1.4146
G1 X87.895 Y98.811 E1.4177
G1 X87.922 Y98.752 E1.4207
G1 X87.960 Y98.698 E1.4237
G1 X88.007 Y98.651 E1.4268
G1 X88.062 Y98.612 E1.4299
G1 X88.122 Y98.584 E1.4330
G1 X88.185 Y98.567 E1.4360
G1 X88.250 Y98.561 E1.4390
G1 X88.316 Y98.568 E1.4421
G1 X88.381 Y98.585 E1.4452
G1 X88.441 Y98.613 E1.4482
G1 X88.496 Y98.651 E1.4513
G1 X88.542 Y98.697 E1.4544
G1 X88.580 Y98.751 E1.4574
G1 X88.608 Y98.811 E1.4605
G1 X88.625 Y98.876 E1.4636
G1 X88.633 Y98.968 E1.4678
G1 X88.632 Y100.559 E1.5415
G1 X91.951 Y100.563 E1.6950
G1 X91.953 Y98.971 E1.7686
G1 X91.961 Y98.879 E1.7728
G1 X91.978 Y98.815 E1.7759
G1 X92.006 Y98.755 E1.7790
G1 X92.044 Y98.701 E1.7820
G1 X92.090 Y98.655 E1.7850
G1 X92.144 Y98.617 E1.7881
G1 X92.206 Y98.588 E1.7912
G1 X92.269 Y98.571 E1.7943
G1 X92.335 Y98.565 E1.7974
G1 X92.400 Y98.571 E1.8004
G1 X92.464 Y98.588 E1.8035
G1 X92.524 Y98.616 E1.8065
G1 X92.578 Y98.654 E1.8095
G1 X92.625 Y98.701 E1.8126
G1 X92.663 Y98.755 E1.8157
G1 X92.691 Y98.815 E1.8188
G1 X92.708 Y98.879 E1.8218
G1 X92.717 Y98.972 E1.8261
G1 X92.715 Y100.563 E1.8997
G1 X96.034 Y100.567 E2.0532
G1 X96.036 Y98.976 E2.1268
G1 X96.044 Y98.883 E2.1311
G1 X96.061 Y98.819 E2.1342
G1 X96.089 Y98.759 E2.1372
G1 X96.127 Y98.704 E2.1403
G1 X96.174 Y98.658 E2.1434
G1 X96.228 Y98.620 E2.1464
G1 X96.287 Y98.593 E2.1494
G1 X96.352 Y98.575 E2.1525
G1 X96.418 Y98.569 E2.1556
G1 X96.485 Y98.575 E2.1587
G1 X96.548 Y98.592 E2.1617
G1 X96.608 Y98.620 E2.1648
G1 X96.661 Y98.657 E2.1678
G1 X96.709 Y98.705 E2.1709
G1 X96.747 Y98.759 E2.1740
G1 X96.774 Y98.819 E2.1770
G1 X96.792 Y98.883 E2.1801
G1 X96.800 Y98.976 E2.1844
G1 X96.798 Y100.568 E2.2580
G1 X100.118 Y100.569 E2.4115
G1 X100.119 Y98.979 E2.4851
G1 X100.127 Y98.887 E2.4893
G1 X100.144 Y98.823 E2.4924
G1 X100.172 Y98.763 E2.4955
G1 X100.210 Y98.708 E2.4986
G1 X100.257 Y98.662 E2.5016
G1 X100.312 Y98.623 E2.5047
G1 X100.372 Y98.595 E2.5078
G1 X100.435 Y98.578 E2.5108
G1 X100.500 Y98.572 E2.5138
G1 X100.566 Y98.579 E2.5169
G1 X100.631 Y98.596 E2.5200
G1 X100.691 Y98.624 E2.5230
G1 X100.746 Y98.662 E2.5261
G1 X100.792 Y98.708 E2.5292
G1 X100.830 Y98.762 E2.5322
G1 X100.858 Y98.822 E2.5352
G1 X100.875 Y98.887 E2.5383
G1 X100.883 Y98.979 E2.5426
G1 X100.882 Y100.570 E2.6162
G1 X104.201 Y100.574 E2.7697
G1 X104.202 Y98.983 E2.8433
G1 X104.211 Y98.891 E2.8476
G1 X104.228 Y98.826 E2.8507
G1 X104.255 Y98.767 E2.8537
G1 X104.293 Y98.713 E2.8567
G1 X104.340 Y98.666 E2.8598
G1 X104.395 Y98.627 E2.8629
G1 X104.455 Y98.599 E2.8660
G1 X104.518 Y98.582 E2.8690
G1 X104.585 Y98.576 E2.8721
G1 X104.650 Y98.582 E2.8751
G1 X104.713 Y98.599 E2.8781
G1 X104.774 Y98.628 E2.8813
G1 X104.829 Y98.666 E2.8844
G1 X104.875 Y98.712 E2.8874
G1 X104.913 Y98.766 E2.8904
G1 X104.941 Y98.826 E2.8935
G1 X104.958 Y98.890 E2.8966
G1 X104.966 Y98.983 E2.9009
G1 X104.965 Y100.574 E2.9745
G1 X108.284 Y100.578 E3.1280
G1 X108.286 Y98.986 E3.2016
G1 X108.294 Y98.894 E3.2059
G1 X108.311 Y98.830 E3.2089
G1 X108.339 Y98.770 E3.2120
G1 X108.377 Y98.715 E3.2151
G1 X108.424 Y98.669 E3.2181
G1 X108.477 Y98.631 E3.2211
G1 X108.537 Y98.604 E3.2242
G1 X108.602 Y98.586 E3.2273
G1 X108.668 Y98.580 E3.2304
G1 X108.734 Y98.586 E3.2335
G1 X108.797 Y98.603 E3.2365
G1 X108.857 Y98.631 E3.2395
G1 X108.911 Y98.668 E3.2426
G1 X108.958 Y98.715 E3.2456
G1 X108.996 Y98.770 E3.2487
G1 X109.024 Y98.830 E3.2518
G1 X109.041 Y98.894 E3.2548
G1 X109.050 Y98.987 E3.2591
G1 X109.048 Y100.578 E3.3328
G1 X112.367 Y100.582 E3.4863
G1 X112.369 Y98.990 E3.5599
G1 X112.377 Y98.898 E3.5641
G1 X112.394 Y98.834 E3.5672
G1 X112.422 Y98.774 E3.5703
G1 X112.460 Y98.719 E3.5733
G1 X112.507 Y98.673 E3.5764
G1 X112.560 Y98.635 E3.5794
G1 X112.620 Y98.608 E3.5825
G1 X112.685 Y98.590 E3.5856
G1 X112.751 Y98.584 E3.5886
G1 X112.818 Y98.590 E3.5917
G1 X112.881 Y98.607 E3.5947
G1 X112.940 Y98.635 E3.5978
G1 X112.995 Y98.673 E3.6009
G1 X113.042 Y98.719 E3.6039
G1 X113.079 Y98.773 E3.6070
G1 X113.107 Y98.833 E3.6100
G1 X113.125 Y98.898 E3.6131
G1 X113.133 Y98.990 E3.6174
G1 X113.131 Y100.581 E3.6910
G1 X116.451 Y100.585 E3.8445
G1 X116.452 Y98.993 E3.9181
G1 X116.460 Y98.902 E3.9224
G1 X116.478 Y98.837 E3.9255
G1 X116.505 Y98.778 E3.9285
G1 X116.543 Y98.724 E3.9315
G1 X116.590 Y98.677 E3.9346
G1 X116.645 Y98.638 E3.9377
G1 X116.705 Y98.610 E3.9408
G1 X116.768 Y98.593 E3.9438
G1 X116.833 Y98.588 E3.9468
G1 X116.899 Y98.594 E3.9499
G1 X116.964 Y98.611 E3.9530
G1 X117.024 Y98.639 E3.9560
G1 X117.078 Y98.677 E3.9591
G1 X117.125 Y98.723 E3.9622
G1 X117.163 Y98.777 E3.9652
G1 X117.191 Y98.837 E3.9683
G1 X117.208 Y98.902 E3.9713
G1 X117.216 Y98.994 E3.9756
G1 X117.215 Y100.585 E4.0492
G1 X120.534 Y100.589 E4.2027
G1 X120.535 Y98.997 E4.2763
G1 X120.543 Y98.905 E4.2806
G1 X120.561 Y98.841 E4.2837
G1 X120.588 Y98.782 E4.2867
G1 X120.627 Y98.727 E4.2898
G1 X120.673 Y98.680 E4.2929
G1 X120.727 Y98.643 E4.2959
G1 X120.788 Y98.614 E4.2990
G1 X120.851 Y98.597 E4.3020
G1 X120.918 Y98.591 E4.3051
G1 X120.982 Y98.597 E4.3081
G1 X121.047 Y98.614 E4.3112
G1 X121.107 Y98.642 E4.3143
G1 X121.161 Y98.680 E4.3173
G1 X121.208 Y98.727 E4.3204
G1 X121.246 Y98.781 E4.3235
G1 X121.274 Y98.841 E4.3265
G1 X121.291 Y98.905 E4.3296
G1 X121.299 Y98.998 E4.3339
G1 X121.298 Y100.589 E4.4075
G1 X124.617 Y100.593 E4.5610
G1 X124.619 Y99.001 E4.6346
G1 X124.627 Y98.909 E4.6389
G1 X124.644 Y98.845 E4.6419
G1 X124.672 Y98.785 E4.6450
G1 X124.710 Y98.730 E4.6481
G1 X124.757 Y98.684 E4.6511
G1 X124.810 Y98.646 E4.6542
G1 X124.870 Y98.619 E4.6572
G1 X124.935 Y98.601 E4.6603
G1 X125.001 Y98.595 E4.6634
G1 X125.067 Y98.601 E4.6665
G1 X125.130 Y98.618 E4.6695
G1 X125.190 Y98.646 E4.6725
G1 X125.244 Y98.683 E4.6756
G1 X125.291 Y98.730 E4.6786
G1 X125.329 Y98.785 E4.6817
G1 X125.357 Y98.845 E4.6848
G1 X125.374 Y98.909 E4.6878
G1 X125.382 Y99.002 E4.6922
G1 X125.381 Y100.593 E4.7658
G1 X128.700 Y100.597 E4.9193
G1 X128.702 Y99.005 E4.9929
G1 X128.710 Y98.913 E4.9972
G1 X128.727 Y98.849 E5.0002
G1 X128.755 Y98.789 E5.0033
G1 X128.793 Y98.735 E5.0064
G1 X128.840 Y98.688 E5.0094
G1 X128.895 Y98.649 E5.0125
G1 X128.955 Y98.621 E5.0156
G1 X129.018 Y98.604 E5.0186
G1 X129.083 Y98.599 E5.0216
G1 X129.149 Y98.605 E5.0247
G1 X129.214 Y98.622 E5.0278
G1 X129.273 Y98.650 E5.0308
G1 X129.328 Y98.688 E5.0339
G1 X129.375 Y98.734 E5.0370
G1 X129.413 Y98.788 E5.0400
G1 X129.440 Y98.848 E5.0431
G1 X129.458 Y98.913 E5.0462
G1 X129.466 Y99.005 E5.0504
G1 X129.464 Y100.596 E5.1240
G1 X132.784 Y100.600 E5.2776
G1 X132.785 Y99.009 E5.3511
G1 X132.793 Y98.917 E5.3554
G1 X132.811 Y98.852 E5.3585
G1 X132.838 Y98.793 E5.3615
G1 X132.876 Y98.739 E5.3646
G1 X132.923 Y98.692 E5.3676
G1 X132.978 Y98.653 E5.3708
G1 X133.038 Y98.625 E5.3738
G1 X133.101 Y98.608 E5.3768
G1 X133.168 Y98.602 E5.3799
G1 X133.232 Y98.608 E5.3829
G1 X133.295 Y98.625 E5.3860
G1 X133.357 Y98.654 E5.3891
G1 X133.411 Y98.692 E5.3922
G1 X133.458 Y98.738 E5.3952
G1 X133.496 Y98.792 E5.3983
G1 X133.524 Y98.852 E5.4013
G1 X133.541 Y98.916 E5.4044
G1 X133.549 Y99.009 E5.4087
G1 X133.548 Y100.600 E5.4823
G1 X136.867 Y100.604 E5.6358
G1 X136.868 Y99.012 E5.7094
G1 X136.876 Y98.920 E5.7137
G1 X136.894 Y98.856 E5.7167
G1 X136.922 Y98.796 E5.7198
G1 X136.960 Y98.741 E5.7229
G1 X137.006 Y98.695 E5.7259
G1 X137.060 Y98.657 E5.7290
G1 X137.120 Y98.630 E5.7320
G1 X137.184 Y98.612 E5.7351
G1 X137.251 Y98.606 E5.7382
G1 X137.317 Y98.612 E5.7413
G1 X137.380 Y98.629 E5.7443
G1 X137.440 Y98.657 E5.7473
G1 X137.494 Y98.694 E5.7504
G1 X137.541 Y98.741 E5.7534
G1 X137.579 Y98.796 E5.7565
G1 X137.607 Y98.856 E5.7596
G1 X137.624 Y98.920 E5.7626
G1 X137.632 Y99.013 E5.7669
G1 X137.631 Y100.604 E5.8406
G1 X140.950 Y100.608 E5.9941
G1 X140.952 Y99.016 E6.0677
G1 X140.960 Y98.924 E6.0720
G1 X140.977 Y98.860 E6.0750
G1 X141.005 Y98.800 E6.0781
G1 X141.043 Y98.745 E6.0812
G1 X141.089 Y98.699 E6.0842
G1 X141.143 Y98.661 E6.0872
G1 X141.203 Y98.633 E6.0903
G1 X141.268 Y98.616 E6.0934
G1 X141.334 Y98.610 E6.0965
G1 X141.400 Y98.616 E6.0995
