; G-Code generated by Simplify3D(R) Version 4.0.0
; Nov 3, 2020 at 4:47:44 PM
; Settings Summary
;   processName,Process1
;   applyToModels,1_Base
;   profileName,new profile (modified)
;   profileVersion,2020-09-07 14:01:24
;   baseProfile,Default (modified)
;   printMaterial,PLA
;   printQuality,Medium
;   printExtruders,
;   extruderName,Primary Extruder
;   extruderToolheadNumber,0
;   extruderDiameter,0.4
;   extruderAutoWidth,0
;   extruderWidth,0.4
;   extrusionMultiplier,0.9
;   extruderUseRetract,1
;   extruderRetractionDistance,1
;   extruderExtraRestartDistance,0
;   extruderRetractionZLift,0
;   extruderRetractionSpeed,1800
;   extruderUseCoasting,0
;   extruderCoastingDistance,0.2
;   extruderUseWipe,0
;   extruderWipeDistance,5
;   primaryExtruder,0
;   layerHeight,0.3
;   topSolidLayers,3
;   bottomSolidLayers,3
;   perimeterOutlines,2
;   printPerimetersInsideOut,1
;   startPointOption,2
;   startPointOriginX,0
;   startPointOriginY,0
;   sequentialIslands,0
;   spiralVaseMode,0
;   firstLayerHeightPercentage,100
;   firstLayerWidthPercentage,103
;   firstLayerUnderspeed,0.5
;   useRaft,0
;   raftExtruder,0
;   raftTopLayers,3
;   raftBaseLayers,2
;   raftOffset,3
;   raftSeparationDistance,0.14
;   raftTopInfill,100
;   aboveRaftSpeedMultiplier,0.3
;   useSkirt,0
;   skirtExtruder,0
;   skirtLayers,1
;   skirtOutlines,2
;   skirtOffset,4
;   usePrimePillar,0
;   primePillarExtruder,999
;   primePillarWidth,12
;   primePillarLocation,7
;   primePillarSpeedMultiplier,1
;   useOozeShield,0
;   oozeShieldExtruder,999
;   oozeShieldOffset,2
;   oozeShieldOutlines,1
;   oozeShieldSidewallShape,1
;   oozeShieldSidewallAngle,30
;   oozeShieldSpeedMultiplier,1
;   infillExtruder,0
;   internalInfillPattern,Rectilinear
;   externalInfillPattern,Rectilinear
;   infillPercentage,40
;   outlineOverlapPercentage,15
;   infillExtrusionWidthPercentage,100
;   minInfillLength,5
;   infillLayerInterval,1
;   internalInfillAngles,45,-45
;   overlapInternalInfillAngles,0
;   externalInfillAngles,45,-45
;   generateSupport,0
;   supportExtruder,0
;   supportInfillPercentage,30
;   supportExtraInflation,0
;   supportBaseLayers,0
;   denseSupportExtruder,0
;   denseSupportLayers,0
;   denseSupportInfillPercentage,70
;   supportLayerInterval,1
;   supportHorizontalPartOffset,0.3
;   supportUpperSeparationLayers,1
;   supportLowerSeparationLayers,1
;   supportType,1
;   supportGridSpacing,4
;   maxOverhangAngle,45
;   supportAngles,0
;   temperatureName,Primary Extruder,Hot Bed
;   temperatureNumber,0,1
;   temperatureSetpointCount,1,1
;   temperatureSetpointLayers,1,1
;   temperatureSetpointTemperatures,210,60
;   temperatureStabilizeAtStartup,1,0
;   temperatureHeatedBed,0,1
;   temperatureRelayBetweenLayers,0,0
;   temperatureRelayBetweenLoops,0,0
;   fanLayers,1,2
;   fanSpeeds,0,100
;   blipFanToFullPower,0
;   adjustSpeedForCooling,1
;   minSpeedLayerTime,15
;   minCoolingSpeedSlowdown,20
;   increaseFanForCooling,0
;   minFanLayerTime,45
;   maxCoolingFanSpeed,100
;   increaseFanForBridging,0
;   bridgingFanSpeed,100
;   use5D,1
;   relativeEdistances,0
;   allowEaxisZeroing,1
;   independentExtruderAxes,0
;   includeM10123,0
;   stickySupport,1
;   applyToolheadOffsets,0
;   gcodeXoffset,0
;   gcodeYoffset,0
;   gcodeZoffset,0
;   overrideMachineDefinition,0
;   machineTypeOverride,0
;   strokeXoverride,200
;   strokeYoverride,200
;   strokeZoverride,200
;   originOffsetXoverride,0
;   originOffsetYoverride,0
;   originOffsetZoverride,0
;   homeXdirOverride,-1
;   homeYdirOverride,-1
;   homeZdirOverride,-1
;   flipXoverride,1
;   flipYoverride,-1
;   flipZoverride,1
;   toolheadOffsets,0,0|0,0|0,0|0,0|0,0|0,0
;   overrideFirmwareConfiguration,0
;   firmwareTypeOverride,RepRap (Marlin/Repetier/Sprinter)
;   GPXconfigOverride,r2
;   baudRateOverride,115200
;   overridePrinterModels,0
;   printerModelsOverride
;   startingGcode,G28 ; home all axes,G1 X0 Y5 Z0.2 F3000 ; get ready to prime,G92 E0 ; reset extrusion distance,G1 Y150 E20 F600 ; prime nozzle
;   layerChangeGcode,
;   retractionGcode,
;   toolChangeGcode,
;   endingGcode,M104 S0 ; turn off extruder,M140 S0 ; turn off bedG1 X0 Y0; home,M84 ; disable motors,M107 ; fan off
;   exportFileFormat,gcode
;   celebration,0
;   celebrationSong,Random Song
;   postProcessing,
;   defaultSpeed,4600
;   outlineUnderspeed,0.5
;   solidInfillUnderspeed,0.8
;   supportUnderspeed,0.8
;   rapidXYspeed,4800
;   rapidZspeed,1000
;   minBridgingArea,50
;   bridgingExtraInflation,0
;   bridgingExtrusionMultiplier,1
;   bridgingSpeedMultiplier,1
;   useFixedBridgingAngle,0
;   fixedBridgingAngle,0
;   applyBridgingToPerimeters,0
;   filamentDiameters,1.75|1.75|1.75|1.75|1.75|1.75
;   filamentPricesPerKg,46|46|46|46|46|46
;   filamentDensities,1.25|1.25|1.25|1.25|1.25|1.25
;   useMinPrintHeight,0
;   minPrintHeight,0
;   useMaxPrintHeight,0
;   maxPrintHeight,0
;   useDiaphragm,0
;   diaphragmLayerInterval,20
;   robustSlicing,1
;   mergeAllIntoSolid,0
;   onlyRetractWhenCrossingOutline,1
;   retractBetweenLayers,1
;   useRetractionMinTravel,0
;   retractionMinTravel,3
;   retractWhileWiping,0
;   onlyWipeOutlines,1
;   avoidCrossingOutline,0
;   maxMovementDetourFactor,3
;   toolChangeRetractionDistance,12
;   toolChangeExtraRestartDistance,-0.5
;   toolChangeRetractionSpeed,600
;   externalThinWallType,1
;   internalThinWallType,1
;   thinWallAllowedOverlapPercentage,10
;   singleExtrusionMinLength,1
;   singleExtrusionMinPrintingWidthPercentage,50
;   singleExtrusionMaxPrintingWidthPercentage,200
;   singleExtrusionEndpointExtension,0.2
;   horizontalSizeCompensation,0
G90
M82
M106 S0
M140 S60
M104 S210 T0
M109 S210 T0
G28 ; home all axes
G1 X0 Y5 Z0.2 F3000 ; get ready to prime
G92 E0 ; reset extrusion distance
G1 Y150 E20 F600 ; prime nozzle
G92 E0
G1 E-1.0000 F1800
G1 Z0.300 F1000
; process Process1
; layer 1, Z = 0.300
T0
; tool H0.300 W0.412
; inner perimeter
G1 X22.388 Y30.301 F4800
G1 E0.0000 F540
G92 E0
G1 X23.335 Y29.759 E0.0505 F1725
G1 X24.321 Y29.290 E0.1009
G1 X25.339 Y28.897 E0.1514
G1 X26.384 Y28.583 E0.2019
G1 X27.450 Y28.349 E0.2523
G1 X28.530 Y28.196 E0.3028
G1 X29.619 Y28.126 E0.3532
G1 X30.710 Y28.139 E0.4037
G1 X31.797 Y28.234 E0.4542
G1 X32.874 Y28.411 E0.5046
G1 X33.934 Y28.670 E0.5551
G1 X34.971 Y29.008 E0.6056
G1 X35.980 Y29.423 E0.6560
G1 X36.954 Y29.914 E0.7065
G1 X37.889 Y30.478 E0.7570
G1 X38.787 Y31.117 E0.8080
G1 X96.587 Y75.653 E4.1826
G1 X97.183 Y76.053 E4.2157
G1 X97.843 Y76.380 E4.2498
G1 X98.541 Y76.617 E4.2839
G1 X99.264 Y76.762 E4.3180
G1 X100.000 Y76.810 E4.3521
G1 X100.736 Y76.762 E4.3862
G1 X101.459 Y76.617 E4.4203
G1 X102.157 Y76.380 E4.4544
G1 X102.817 Y76.053 E4.4885
G1 X103.413 Y75.653 E4.5217
G1 X161.213 Y31.117 E7.8963
G1 X162.111 Y30.478 E7.9473
G1 X163.046 Y29.914 E7.9978
G1 X164.020 Y29.423 E8.0482
G1 X165.029 Y29.008 E8.0987
G1 X166.066 Y28.670 E8.1492
G1 X167.126 Y28.411 E8.1996
G1 X168.203 Y28.234 E8.2501
G1 X169.290 Y28.139 E8.3005
G1 X170.381 Y28.126 E8.3510
G1 X171.470 Y28.196 E8.4015
G1 X172.550 Y28.349 E8.4519
G1 X173.616 Y28.583 E8.5024
G1 X174.661 Y28.897 E8.5529
G1 X175.679 Y29.290 E8.6033
G1 X176.665 Y29.759 E8.6538
G1 X177.612 Y30.301 E8.7043
G1 X178.515 Y30.913 E8.7547
G1 X179.369 Y31.592 E8.8052
G1 X180.169 Y32.333 E8.8556
G1 X180.911 Y33.134 E8.9061
G1 X181.590 Y33.988 E8.9566
G1 X182.202 Y34.891 E9.0070
G1 X182.744 Y35.838 E9.0575
G1 X183.213 Y36.824 E9.1080
G1 X183.605 Y37.842 E9.1584
G1 X183.920 Y38.887 E9.2089
G1 X184.154 Y39.952 E9.2594
G1 X184.306 Y41.033 E9.3098
G1 X184.376 Y42.122 E9.3603
G1 X184.364 Y43.213 E9.4107
G1 X184.269 Y44.300 E9.4612
G1 X184.092 Y45.376 E9.5117
G1 X183.833 Y46.436 E9.5621
G1 X183.495 Y47.474 E9.6126
G1 X183.079 Y48.483 E9.6631
G1 X182.588 Y49.457 E9.7135
G1 X182.025 Y50.392 E9.7640
G1 X181.385 Y51.290 E9.8150
G1 X129.608 Y118.489 E13.7384
G1 X129.211 Y120.179 E13.8187
G1 X128.767 Y121.702 E13.8920
G1 X128.244 Y123.200 E13.9654
G1 X127.644 Y124.668 E14.0388
G1 X126.967 Y126.103 E14.1121
G1 X126.216 Y127.500 E14.1855
G1 X125.392 Y128.855 E14.2588
G1 X124.442 Y130.249 E14.3369
G1 X124.037 Y131.442 E14.3951
G1 X123.760 Y131.430 E14.4079
G1 X123.717 Y131.257 E14.4162
G1 X123.468 Y130.675 E14.4454
G1 X123.144 Y130.163 E14.4735
G1 X122.708 Y129.669 E14.5039
G1 X122.216 Y129.270 E14.5332
G1 X121.692 Y128.967 E14.5612
G1 X121.102 Y128.741 E14.5905
G1 X120.482 Y128.613 E14.6197
G1 X119.849 Y128.586 E14.6490
G1 X119.221 Y128.661 E14.6783
G1 X118.612 Y128.837 E14.7076
G1 X118.040 Y129.108 E14.7369
G1 X117.519 Y129.468 E14.7662
G1 X117.063 Y129.907 E14.7954
G1 X116.684 Y130.413 E14.8247
G1 X116.402 Y130.950 E14.8527
G1 X116.192 Y131.574 E14.8832
G1 X116.092 Y132.200 E14.9125
G1 X116.092 Y132.805 E14.9405
G1 X116.192 Y133.431 E14.9698
G1 X116.402 Y134.056 E15.0003
G1 X116.684 Y134.592 E15.0283
G1 X117.063 Y135.099 E15.0576
G1 X117.519 Y135.538 E15.0869
G1 X118.040 Y135.898 E15.1161
G1 X118.612 Y136.169 E15.1454
G1 X119.221 Y136.344 E15.1747
G1 X119.849 Y136.420 E15.2040
G1 X120.482 Y136.393 E15.2333
G1 X121.102 Y136.264 E15.2626
G1 X121.692 Y136.038 E15.2918
G1 X122.216 Y135.736 E15.3198
G1 X122.327 Y135.646 E15.3264
G1 X122.555 Y135.805 E15.3393
G1 X113.622 Y162.115 E16.6243
G1 X113.231 Y163.139 E16.6749
G1 X112.769 Y164.119 E16.7250
G1 X112.235 Y165.062 E16.7752
G1 X111.631 Y165.961 E16.8253
G1 X110.961 Y166.813 E16.8754
G1 X110.229 Y167.612 E16.9255
G1 X109.439 Y168.353 E16.9756
G1 X108.595 Y169.033 E17.0257
G1 X107.703 Y169.648 E17.0758
G1 X106.766 Y170.193 E17.1259
G1 X105.792 Y170.666 E17.1761
G1 X104.784 Y171.065 E17.2262
G1 X103.749 Y171.387 E17.2763
G1 X102.694 Y171.630 E17.3264
G1 X101.622 Y171.792 E17.3765
G1 X100.542 Y171.874 E17.4266
G1 X99.458 Y171.874 E17.4767
G1 X98.378 Y171.792 E17.5269
G1 X97.306 Y171.630 E17.5770
G1 X96.251 Y171.387 E17.6271
G1 X95.216 Y171.065 E17.6772
G1 X94.208 Y170.666 E17.7273
G1 X93.234 Y170.193 E17.7774
G1 X92.297 Y169.648 E17.8275
G1 X91.405 Y169.033 E17.8776
G1 X90.561 Y168.353 E17.9278
G1 X89.771 Y167.612 E17.9779
G1 X89.039 Y166.813 E18.0280
G1 X88.369 Y165.961 E18.0781
G1 X87.765 Y165.062 E18.1282
G1 X87.231 Y164.119 E18.1783
G1 X86.769 Y163.139 E18.2284
G1 X86.378 Y162.115 E18.2791
G1 X77.440 Y135.792 E19.5648
G1 X77.654 Y135.631 E19.5771
G1 X78.040 Y135.898 E19.5988
G1 X78.612 Y136.169 E19.6281
G1 X79.221 Y136.344 E19.6574
G1 X79.849 Y136.420 E19.6867
G1 X80.482 Y136.393 E19.7160
G1 X81.102 Y136.264 E19.7453
G1 X81.692 Y136.038 E19.7745
G1 X82.216 Y135.736 E19.8025
G1 X82.708 Y135.337 E19.8318
G1 X83.144 Y134.842 E19.8623
G1 X83.468 Y134.330 E19.8903
G1 X83.717 Y133.748 E19.9195
G1 X83.869 Y133.134 E19.9488
G1 X83.920 Y132.503 E19.9781
G1 X83.869 Y131.872 E20.0074
G1 X83.717 Y131.257 E20.0367
G1 X83.468 Y130.675 E20.0659
G1 X83.144 Y130.163 E20.0940
G1 X82.708 Y129.669 E20.1244
G1 X82.216 Y129.270 E20.1537
G1 X81.692 Y128.967 E20.1817
G1 X81.102 Y128.741 E20.2110
G1 X80.482 Y128.613 E20.2402
G1 X79.849 Y128.586 E20.2695
G1 X79.221 Y128.661 E20.2988
G1 X78.612 Y128.837 E20.3281
G1 X78.040 Y129.108 E20.3574
G1 X77.519 Y129.468 E20.3867
G1 X77.063 Y129.907 E20.4159
G1 X76.684 Y130.413 E20.4452
G1 X76.402 Y130.950 E20.4732
G1 X76.233 Y131.452 E20.4978
G1 X75.967 Y131.453 E20.5101
G1 X75.558 Y130.249 E20.5688
G1 X74.608 Y128.856 E20.6468
G1 X73.784 Y127.500 E20.7202
G1 X73.033 Y126.103 E20.7936
G1 X72.356 Y124.668 E20.8669
G1 X71.756 Y123.200 E20.9403
G1 X71.233 Y121.702 E21.0137
G1 X70.789 Y120.179 E21.0870
G1 X70.392 Y118.489 E21.1673
G1 X18.615 Y51.290 E25.0907
G1 X17.975 Y50.392 E25.1417
G1 X17.412 Y49.457 E25.1922
G1 X16.921 Y48.483 E25.2426
G1 X16.505 Y47.474 E25.2931
G1 X16.167 Y46.436 E25.3436
G1 X15.908 Y45.376 E25.3940
G1 X15.731 Y44.300 E25.4445
G1 X15.636 Y43.213 E25.4949
G1 X15.623 Y42.122 E25.5454
G1 X15.694 Y41.033 E25.5959
G1 X15.846 Y39.952 E25.6463
G1 X16.080 Y38.887 E25.6968
G1 X16.395 Y37.842 E25.7473
G1 X16.787 Y36.824 E25.7977
G1 X17.256 Y35.838 E25.8482
G1 X17.798 Y34.891 E25.8987
G1 X18.410 Y33.988 E25.9491
G1 X19.089 Y33.134 E25.9996
G1 X19.831 Y32.333 E26.0500
G1 X20.631 Y31.592 E26.1005
G1 X21.485 Y30.913 E26.1510
G1 X22.388 Y30.301 E26.2014
; outer perimeter
G1 X22.170 Y29.951 F4800
G92 E0
G1 X23.144 Y29.393 E0.0519 F1150
G1 X24.158 Y28.911 E0.1038
G1 X25.205 Y28.507 E0.1557
G1 X26.280 Y28.184 E0.2076
G1 X27.377 Y27.943 E0.2596
G1 X28.488 Y27.786 E0.3115
G1 X29.608 Y27.714 E0.3634
G1 X30.730 Y27.727 E0.4153
G1 X31.848 Y27.825 E0.4672
G1 X32.956 Y28.007 E0.5191
G1 X34.046 Y28.273 E0.5710
G1 X35.114 Y28.621 E0.6229
G1 X36.151 Y29.048 E0.6748
G1 X37.154 Y29.554 E0.7267
G1 X38.115 Y30.133 E0.7787
G1 X39.033 Y30.786 E0.8308
G1 X96.828 Y75.319 E4.2051
G1 X97.390 Y75.695 E4.2364
G1 X98.002 Y75.998 E4.2680
G1 X98.648 Y76.219 E4.2996
G1 X99.318 Y76.352 E4.3312
G1 X100.000 Y76.397 E4.3628
G1 X100.682 Y76.352 E4.3943
G1 X101.352 Y76.219 E4.4259
G1 X101.998 Y75.998 E4.4575
G1 X102.610 Y75.695 E4.4891
G1 X103.172 Y75.319 E4.5204
G1 X160.967 Y30.786 E7.8948
G1 X161.885 Y30.133 E7.9468
G1 X162.846 Y29.554 E7.9988
G1 X163.849 Y29.048 E8.0507
G1 X164.886 Y28.621 E8.1026
G1 X165.954 Y28.273 E8.1545
G1 X167.044 Y28.007 E8.2064
G1 X168.152 Y27.825 E8.2583
G1 X169.270 Y27.727 E8.3102
G1 X170.392 Y27.714 E8.3621
G1 X171.512 Y27.786 E8.4140
G1 X172.623 Y27.943 E8.4659
G1 X173.720 Y28.184 E8.5179
G1 X174.795 Y28.507 E8.5698
G1 X175.842 Y28.911 E8.6217
G1 X176.856 Y29.393 E8.6736
G1 X177.830 Y29.951 E8.7255
G1 X178.759 Y30.580 E8.7774
G1 X179.638 Y31.279 E8.8293
G1 X180.461 Y32.042 E8.8812
G1 X181.224 Y32.865 E8.9331
G1 X181.922 Y33.744 E8.9851
G1 X182.552 Y34.673 E9.0370
G1 X183.109 Y35.647 E9.0889
G1 X183.591 Y36.661 E9.1408
G1 X183.995 Y37.708 E9.1927
G1 X184.319 Y38.783 E9.2446
G1 X184.559 Y39.879 E9.2965
G1 X184.716 Y40.990 E9.3484
G1 X184.789 Y42.111 E9.4003
G1 X184.776 Y43.233 E9.4522
G1 X184.678 Y44.351 E9.5042
G1 X184.496 Y45.459 E9.5561
G1 X184.230 Y46.549 E9.6080
G1 X183.882 Y47.616 E9.6599
G1 X183.454 Y48.654 E9.7118
G1 X182.949 Y49.657 E9.7637
G1 X182.370 Y50.618 E9.8156
G1 X181.716 Y51.535 E9.8677
G1 X129.988 Y118.670 E13.7873
G1 X129.609 Y120.283 E13.8640
G1 X129.160 Y121.828 E13.9384
G1 X128.630 Y123.346 E14.0127
G1 X128.021 Y124.834 E14.0871
G1 X127.335 Y126.288 E14.1615
G1 X126.574 Y127.704 E14.2358
G1 X125.739 Y129.079 E14.3102
G1 X124.814 Y130.435 E14.3861
G1 X114.010 Y162.255 E15.9403
G1 X113.611 Y163.300 E15.9920
G1 X113.135 Y164.309 E16.0435
G1 X112.586 Y165.278 E16.0951
G1 X111.965 Y166.204 E16.1466
G1 X111.275 Y167.080 E16.1982
G1 X110.522 Y167.902 E16.2497
G1 X109.710 Y168.664 E16.3013
G1 X108.842 Y169.364 E16.3528
G1 X107.923 Y169.996 E16.4044
G1 X106.960 Y170.557 E16.4559
G1 X105.958 Y171.044 E16.5075
G1 X104.921 Y171.454 E16.5590
G1 X103.857 Y171.785 E16.6106
G1 X102.771 Y172.035 E16.6621
G1 X101.669 Y172.202 E16.7137
G1 X100.557 Y172.286 E16.7652
G1 X99.443 Y172.286 E16.8168
G1 X98.331 Y172.202 E16.8683
G1 X97.229 Y172.035 E16.9199
G1 X96.143 Y171.785 E16.9714
G1 X95.079 Y171.454 E17.0230
G1 X94.042 Y171.044 E17.0745
G1 X93.040 Y170.557 E17.1261
G1 X92.077 Y169.996 E17.1776
G1 X91.158 Y169.364 E17.2292
G1 X90.290 Y168.664 E17.2807
G1 X89.478 Y167.902 E17.3323
G1 X88.725 Y167.080 E17.3838
G1 X88.035 Y166.204 E17.4354
G1 X87.414 Y165.278 E17.4869
G1 X86.865 Y164.309 E17.5385
G1 X86.389 Y163.300 E17.5900
G1 X85.990 Y162.255 E17.6418
G1 X75.186 Y130.435 E19.1959
G1 X74.261 Y129.079 E19.2718
G1 X73.426 Y127.704 E19.3462
G1 X72.665 Y126.288 E19.4206
G1 X71.979 Y124.834 E19.4949
G1 X71.370 Y123.346 E19.5693
G1 X70.840 Y121.827 E19.6437
G1 X70.391 Y120.284 E19.7180
G1 X70.012 Y118.670 E19.7947
G1 X18.284 Y51.535 E23.7143
G1 X17.630 Y50.618 E23.7664
G1 X17.051 Y49.657 E23.8183
G1 X16.546 Y48.654 E23.8702
G1 X16.118 Y47.616 E23.9221
G1 X15.770 Y46.549 E23.9740
G1 X15.504 Y45.459 E24.0260
G1 X15.322 Y44.351 E24.0779
G1 X15.224 Y43.233 E24.1298
G1 X15.211 Y42.111 E24.1817
G1 X15.284 Y40.990 E24.2336
G1 X15.441 Y39.879 E24.2855
G1 X15.681 Y38.783 E24.3374
G1 X16.005 Y37.708 E24.3893
G1 X16.408 Y36.661 E24.4412
G1 X16.891 Y35.647 E24.4931
G1 X17.448 Y34.673 E24.5451
G1 X18.078 Y33.744 E24.5970
