; G-Code generated by Simplify3D(R) Version 4.0.0
; Nov 3, 2020 at 5:25:34 PM
; Settings Summary
;   processName,Process1
;   applyToModels,2_Feet,2_Feet(2),2_Feet(3)
;   profileName,new profile (modified)
;   profileVersion,2020-09-07 14:01:24
;   baseProfile,Default (modified)
;   printMaterial,PLA
;   printQuality,Medium
;   printExtruders,
;   extruderName,Primary Extruder
;   extruderToolheadNumber,0
;   extruderDiameter,0.4
;   extruderAutoWidth,0
;   extruderWidth,0.4
;   extrusionMultiplier,0.9
;   extruderUseRetract,1
;   extruderRetractionDistance,1
;   extruderExtraRestartDistance,0
;   extruderRetractionZLift,0
;   extruderRetractionSpeed,1800
;   extruderUseCoasting,0
;   extruderCoastingDistance,0.2
;   extruderUseWipe,0
;   extruderWipeDistance,5
;   primaryExtruder,0
;   layerHeight,0.24
;   topSolidLayers,3
;   bottomSolidLayers,3
;   perimeterOutlines,2
;   printPerimetersInsideOut,1
;   startPointOption,2
;   startPointOriginX,0
;   startPointOriginY,0
;   sequentialIslands,0
;   spiralVaseMode,0
;   firstLayerHeightPercentage,100
;   firstLayerWidthPercentage,103
;   firstLayerUnderspeed,0.5
;   useRaft,0
;   raftExtruder,0
;   raftTopLayers,3
;   raftBaseLayers,2
;   raftOffset,3
;   raftSeparationDistance,0.14
;   raftTopInfill,100
;   aboveRaftSpeedMultiplier,0.3
;   useSkirt,0
;   skirtExtruder,0
;   skirtLayers,1
;   skirtOutlines,2
;   skirtOffset,4
;   usePrimePillar,0
;   primePillarExtruder,999
;   primePillarWidth,12
;   primePillarLocation,7
;   primePillarSpeedMultiplier,1
;   useOozeShield,0
;   oozeShieldExtruder,999
;   oozeShieldOffset,2
;   oozeShieldOutlines,1
;   oozeShieldSidewallShape,1
;   oozeShieldSidewallAngle,30
;   oozeShieldSpeedMultiplier,1
;   infillExtruder,0
;   internalInfillPattern,Rectilinear
;   externalInfillPattern,Rectilinear
;   infillPercentage,40
;   outlineOverlapPercentage,15
;   infillExtrusionWidthPercentage,100
;   minInfillLength,5
;   infillLayerInterval,1
;   internalInfillAngles,45,-45
;   overlapInternalInfillAngles,0
;   externalInfillAngles,45,-45
;   generateSupport,0
;   supportExtruder,0
;   supportInfillPercentage,30
;   supportExtraInflation,0
;   supportBaseLayers,0
;   denseSupportExtruder,0
;   denseSupportLayers,0
;   denseSupportInfillPercentage,70
;   supportLayerInterval,1
;   supportHorizontalPartOffset,0.3
;   supportUpperSeparationLayers,1
;   supportLowerSeparationLayers,1
;   supportType,1
;   supportGridSpacing,4
;   maxOverhangAngle,45
;   supportAngles,0
;   temperatureName,Primary Extruder,Hot Bed
;   temperatureNumber,0,1
;   temperatureSetpointCount,1,1
;   temperatureSetpointLayers,1,1
;   temperatureSetpointTemperatures,210,60
;   temperatureStabilizeAtStartup,1,0
;   temperatureHeatedBed,0,1
;   temperatureRelayBetweenLayers,0,0
;   temperatureRelayBetweenLoops,0,0
;   fanLayers,1,2
;   fanSpeeds,0,100
;   blipFanToFullPower,0
;   adjustSpeedForCooling,1
;   minSpeedLayerTime,15
;   minCoolingSpeedSlowdown,20
;   increaseFanForCooling,0
;   minFanLayerTime,45
;   maxCoolingFanSpeed,100
;   increaseFanForBridging,0
;   bridgingFanSpeed,100
;   use5D,1
;   relativeEdistances,0
;   allowEaxisZeroing,1
;   independentExtruderAxes,0
;   includeM10123,0
;   stickySupport,1
;   applyToolheadOffsets,0
;   gcodeXoffset,0
;   gcodeYoffset,0
;   gcodeZoffset,0
;   overrideMachineDefinition,0
;   machineTypeOverride,0
;   strokeXoverride,200
;   strokeYoverride,200
;   strokeZoverride,200
;   originOffsetXoverride,0
;   originOffsetYoverride,0
;   originOffsetZoverride,0
;   homeXdirOverride,-1
;   homeYdirOverride,-1
;   homeZdirOverride,-1
;   flipXoverride,1
;   flipYoverride,-1
;   flipZoverride,1
;   toolheadOffsets,0,0|0,0|0,0|0,0|0,0|0,0
;   overrideFirmwareConfiguration,0
;   firmwareTypeOverride,RepRap (Marlin/Repetier/Sprinter)
;   GPXconfigOverride,r2
;   baudRateOverride,115200
;   overridePrinterModels,0
;   printerModelsOverride
;   startingGcode,G28 ; home all axes,G1 X0 Y5 Z0.2 F3000 ; get ready to prime,G92 E0 ; reset extrusion distance,G1 Y150 E20 F600 ; prime nozzle
;   layerChangeGcode,
;   retractionGcode,
;   toolChangeGcode,
;   endingGcode,M104 S0 ; turn off extruder,M140 S0 ; turn off bedG1 X0 Y0; home,M84 ; disable motors,M107 ; fan off
;   exportFileFormat,gcode
;   celebration,0
;   celebrationSong,Random Song
;   postProcessing,
;   defaultSpeed,4600
;   outlineUnderspeed,0.5
;   solidInfillUnderspeed,0.8
;   supportUnderspeed,0.8
;   rapidXYspeed,4800
;   rapidZspeed,1000
;   minBridgingArea,50
;   bridgingExtraInflation,0
;   bridgingExtrusionMultiplier,1
;   bridgingSpeedMultiplier,1
;   useFixedBridgingAngle,0
;   fixedBridgingAngle,0
;   applyBridgingToPerimeters,0
;   filamentDiameters,1.75|1.75|1.75|1.75|1.75|1.75
;   filamentPricesPerKg,46|46|46|46|46|46
;   filamentDensities,1.25|1.25|1.25|1.25|1.25|1.25
;   useMinPrintHeight,0
;   minPrintHeight,0
;   useMaxPrintHeight,0
;   maxPrintHeight,0
;   useDiaphragm,0
;   diaphragmLayerInterval,20
;   robustSlicing,1
;   mergeAllIntoSolid,0
;   onlyRetractWhenCrossingOutline,1
;   retractBetweenLayers,1
;   useRetractionMinTravel,0
;   retractionMinTravel,3
;   retractWhileWiping,0
;   onlyWipeOutlines,1
;   avoidCrossingOutline,0
;   maxMovementDetourFactor,3
;   toolChangeRetractionDistance,12
;   toolChangeExtraRestartDistance,-0.5
;   toolChangeRetractionSpeed,600
;   externalThinWallType,1
;   internalThinWallType,1
;   thinWallAllowedOverlapPercentage,10
;   singleExtrusionMinLength,1
;   singleExtrusionMinPrintingWidthPercentage,50
;   singleExtrusionMaxPrintingWidthPercentage,200
;   singleExtrusionEndpointExtension,0.2
;   horizontalSizeCompensation,0
G90
M82
M106 S0
M140 S60
M104 S210 T0
M109 S210 T0
G28 ; home all axes
G1 X0 Y5 Z0.2 F3000 ; get ready to prime
G92 E0 ; reset extrusion distance
G1 Y150 E20 F600 ; prime nozzle
G92 E0
G1 E-1.0000 F1800
G1 Z0.240 F1000
; process Process1
; layer 1, Z = 0.240
T0
; tool H0.240 W0.412
; inner perimeter
G1 X87.922 Y57.196 F4800
G1 E0.0000 F540
G92 E0
G1 X88.480 Y56.395 E0.0361 F1725
G1 X89.102 Y55.620 E0.0729
G1 X89.407 Y55.277 E0.0899
G1 X90.095 Y54.577 E0.1262
G1 X90.445 Y54.255 E0.1438
G1 X91.201 Y53.628 E0.1801
G1 X91.582 Y53.344 E0.1977
G1 X92.397 Y52.796 E0.2340
G1 X92.809 Y52.549 E0.2518
G1 X93.229 Y52.316 E0.2696
G1 X94.106 Y51.886 E0.3057
G1 X95.010 Y51.516 E0.3419
G1 X95.463 Y51.357 E0.3596
G1 X95.922 Y51.213 E0.3774
G1 X96.868 Y50.968 E0.4136
G1 X97.822 Y50.788 E0.4495
G1 X98.792 Y50.673 E0.4856
G1 X99.266 Y50.641 E0.5032
G1 X100.248 Y50.625 E0.5395
G1 X100.728 Y50.641 E0.5573
G1 X101.208 Y50.673 E0.5751
G1 X102.178 Y50.788 E0.6112
G1 X103.138 Y50.969 E0.6474
G1 X103.605 Y51.081 E0.6652
G1 X104.068 Y51.210 E0.6829
G1 X104.995 Y51.518 E0.7191
G1 X105.894 Y51.886 E0.7550
G1 X106.771 Y52.316 E0.7912
G1 X107.191 Y52.549 E0.8089
G1 X107.603 Y52.797 E0.8267
G1 X108.418 Y53.344 E0.8630
G1 X108.799 Y53.628 E0.8806
G1 X109.555 Y54.255 E0.9170
G1 X109.905 Y54.577 E0.9345
G1 X110.590 Y55.273 E0.9707
G1 X111.226 Y56.014 E1.0068
G1 X111.517 Y56.390 E1.0244
G1 X112.078 Y57.196 E1.0607
G1 X112.332 Y57.604 E1.0785
G1 X112.572 Y58.020 E1.0963
G1 X113.017 Y58.890 E1.1324
G1 X113.400 Y59.782 E1.1684
G1 X113.724 Y60.704 E1.2045
G1 X113.860 Y61.165 E1.2223
G1 X113.980 Y61.630 E1.2401
G1 X114.177 Y62.587 E1.2762
G1 X114.309 Y63.554 E1.3123
G1 X114.349 Y64.028 E1.3299
G1 X114.382 Y65.004 E1.3661
G1 X114.349 Y65.980 E1.4022
G1 X114.308 Y66.459 E1.4200
G1 X114.251 Y66.936 E1.4378
G1 X114.087 Y67.899 E1.4739
G1 X113.858 Y68.849 E1.5100
G1 X113.724 Y69.305 E1.5276
G1 X113.398 Y70.231 E1.5640
G1 X113.216 Y70.676 E1.5817
G1 X113.019 Y71.114 E1.5995
G1 X112.575 Y71.984 E1.6356
G1 X112.072 Y72.821 E1.6718
G1 X111.807 Y73.216 E1.6894
G1 X111.219 Y74.002 E1.7257
G1 X110.916 Y74.368 E1.7433
G1 X110.251 Y75.091 E1.7796
G1 X109.912 Y75.425 E1.7972
G1 X109.178 Y76.077 E1.8335
G1 X108.803 Y76.377 E1.8513
G1 X108.418 Y76.665 E1.8691
G1 X107.603 Y77.212 E1.9054
G1 X107.195 Y77.457 E1.9230
G1 X106.334 Y77.916 E1.9592
G1 X105.443 Y78.316 E1.9953
G1 X105.000 Y78.489 E2.0129
G1 X104.068 Y78.799 E2.0492
G1 X103.610 Y78.926 E2.0668
G1 X102.657 Y79.138 E2.1029
G1 X101.691 Y79.286 E2.1391
G1 X101.218 Y79.334 E2.1567
G1 X100.238 Y79.384 E2.1930
G1 X99.762 Y79.384 E2.2106
G1 X98.782 Y79.334 E2.2469
G1 X98.309 Y79.286 E2.2645
G1 X97.338 Y79.138 E2.3008
G1 X96.873 Y79.042 E2.3184
G1 X95.922 Y78.796 E2.3547
G1 X95.468 Y78.653 E2.3723
G1 X94.548 Y78.312 E2.4087
G1 X94.106 Y78.123 E2.4264
G1 X93.671 Y77.919 E2.4442
G1 X92.805 Y77.457 E2.4805
G1 X92.397 Y77.212 E2.4981
G1 X91.586 Y76.668 E2.5343
G1 X90.814 Y76.070 E2.5704
G1 X90.453 Y75.760 E2.5880
G1 X89.741 Y75.084 E2.6243
G1 X89.410 Y74.736 E2.6421
G1 X89.091 Y74.376 E2.6599
G1 X88.480 Y73.614 E2.6960
G1 X87.922 Y72.812 E2.7322
G1 X87.671 Y72.409 E2.7497
G1 X87.194 Y71.550 E2.7861
G1 X86.985 Y71.124 E2.8037
G1 X86.600 Y70.226 E2.8398
G1 X86.276 Y69.305 E2.8759
G1 X86.140 Y68.844 E2.8937
G1 X86.020 Y68.379 E2.9115
G1 X85.822 Y67.417 E2.9478
G1 X85.750 Y66.947 E2.9654
G1 X85.651 Y65.975 E3.0015
G1 X85.618 Y64.999 E3.0377
G1 X85.626 Y64.518 E3.0555
G1 X85.651 Y64.039 E3.0732
G1 X85.750 Y63.062 E3.1096
G1 X85.822 Y62.592 E3.1272
G1 X86.020 Y61.630 E3.1635
G1 X86.139 Y61.170 E3.1811
G1 X86.431 Y60.238 E3.2172
G1 X86.786 Y59.328 E3.2533
G1 X86.981 Y58.894 E3.2709
G1 X87.428 Y58.020 E3.3073
G1 X87.668 Y57.604 E3.3250
G1 X87.922 Y57.196 E3.3428
; outer perimeter
G1 X87.578 Y56.969 F4800
G92 E0
G1 X88.150 Y56.148 E0.0370 F1150
G1 X88.788 Y55.354 E0.0747
G1 X89.106 Y54.996 E0.0924
G1 X89.809 Y54.281 E0.1295
G1 X90.174 Y53.945 E0.1479
G1 X90.946 Y53.304 E0.1850
G1 X91.343 Y53.007 E0.2034
G1 X92.176 Y52.449 E0.2405
G1 X92.603 Y52.192 E0.2589
G1 X93.038 Y51.951 E0.2773
G1 X93.937 Y51.510 E0.3143
G1 X94.864 Y51.131 E0.3514
G1 X95.333 Y50.966 E0.3698
G1 X95.808 Y50.817 E0.3882
G1 X96.778 Y50.566 E0.4253
G1 X97.760 Y50.381 E0.4622
G1 X98.754 Y50.263 E0.4993
G1 X99.249 Y50.229 E0.5176
G1 X100.251 Y50.212 E0.5547
G1 X100.749 Y50.229 E0.5732
G1 X101.246 Y50.263 E0.5916
G1 X102.240 Y50.381 E0.6286
G1 X103.224 Y50.566 E0.6657
G1 X103.708 Y50.683 E0.6841
G1 X104.188 Y50.815 E0.7025
G1 X105.138 Y51.131 E0.7396
G1 X106.063 Y51.510 E0.7765
G1 X106.962 Y51.951 E0.8136
G1 X107.397 Y52.192 E0.8320
G1 X107.824 Y52.449 E0.8504
G1 X108.657 Y53.007 E0.8875
G1 X109.054 Y53.304 E0.9059
G1 X109.826 Y53.945 E0.9430
G1 X110.191 Y54.281 E0.9613
G1 X110.893 Y54.994 E0.9984
G1 X111.545 Y55.754 E1.0354
G1 X111.849 Y56.146 E1.0538
G1 X112.422 Y56.969 E1.0909
G1 X112.685 Y57.392 E1.1093
G1 X112.934 Y57.823 E1.1277
G1 X113.390 Y58.714 E1.1648
G1 X113.784 Y59.633 E1.2017
G1 X114.116 Y60.577 E1.2388
G1 X114.257 Y61.055 E1.2572
G1 X114.382 Y61.537 E1.2756
G1 X114.583 Y62.517 E1.3127
G1 X114.718 Y63.509 E1.3497
G1 X114.760 Y64.004 E1.3681
G1 X114.794 Y65.004 E1.4051
G1 X114.760 Y66.005 E1.4421
G1 X114.718 Y66.501 E1.4606
G1 X114.659 Y66.996 E1.4790
G1 X114.491 Y67.982 E1.5160
G1 X114.257 Y68.956 E1.5531
G1 X114.116 Y69.431 E1.5714
G1 X113.784 Y70.377 E1.6085
G1 X113.595 Y70.838 E1.6269
G1 X113.391 Y71.293 E1.6454
G1 X112.935 Y72.184 E1.6824
G1 X112.420 Y73.042 E1.7194
G1 X112.143 Y73.454 E1.7378
G1 X111.543 Y74.257 E1.7749
G1 X111.226 Y74.639 E1.7933
G1 X110.548 Y75.378 E1.8304
G1 X110.194 Y75.726 E1.8487
G1 X109.444 Y76.392 E1.8858
G1 X109.055 Y76.703 E1.9042
G1 X108.657 Y77.001 E1.9227
G1 X107.824 Y77.560 E1.9598
G1 X107.399 Y77.815 E1.9781
G1 X106.515 Y78.286 E2.0152
G1 X105.602 Y78.696 E2.0522
G1 X105.140 Y78.877 E2.0706
G1 X104.188 Y79.193 E2.1077
G1 X103.710 Y79.326 E2.1260
G1 X102.733 Y79.544 E2.1631
G1 X101.743 Y79.695 E2.2001
G1 X101.250 Y79.745 E2.2185
G1 X100.248 Y79.796 E2.2556
G1 X99.752 Y79.796 E2.2739
G1 X98.750 Y79.745 E2.3110
G1 X98.257 Y79.695 E2.3294
G1 X97.265 Y79.543 E2.3665
G1 X96.779 Y79.443 E2.3848
G1 X95.808 Y79.192 E2.4220
G1 X95.335 Y79.044 E2.4403
G1 X94.395 Y78.695 E2.4774
G1 X93.937 Y78.499 E2.4958
G1 X93.487 Y78.287 E2.5143
G1 X92.601 Y77.815 E2.5514
G1 X92.176 Y77.560 E2.5697
G1 X91.345 Y77.002 E2.6068
G1 X90.553 Y76.389 E2.6438
G1 X90.177 Y76.066 E2.6622
G1 X89.450 Y75.375 E2.6993
G1 X89.107 Y75.014 E2.7177
G1 X88.776 Y74.642 E2.7361
G1 X88.150 Y73.861 E2.7731
G1 X87.578 Y73.039 E2.8102
G1 X87.316 Y72.618 E2.8285
G1 X86.829 Y71.741 E2.8656
G1 X86.611 Y71.296 E2.8840
G1 X86.216 Y70.376 E2.9210
G1 X85.884 Y69.431 E2.9581
G1 X85.743 Y68.954 E2.9765
G1 X85.618 Y68.472 E2.9949
G1 X85.416 Y67.489 E3.0320
G1 X85.341 Y66.999 E3.0504
G1 X85.240 Y66.003 E3.0874
G1 X85.206 Y65.002 E3.1245
G1 X85.214 Y64.505 E3.1429
G1 X85.240 Y64.007 E3.1613
G1 X85.341 Y63.010 E3.1984
G1 X85.416 Y62.519 E3.2168
G1 X85.618 Y61.537 E3.2539
G1 X85.743 Y61.056 E3.2722
G1 X86.042 Y60.101 E3.3093
G1 X86.406 Y59.169 E3.3463
G1 X86.609 Y58.716 E3.3647
G1 X87.066 Y57.823 E3.4018
G1 X87.315 Y57.392 E3.4202
G1 X87.578 Y56.969 E3.4386
; inner perimeter
G1 X98.341 Y63.854 F4800
G92 E0
G1 X98.215 Y64.058 E0.0089 F1725
G1 X98.055 Y64.454 E0.0247
G1 X97.981 Y64.893 E0.0411
G1 X98.005 Y65.320 E0.0570
G1 X98.061 Y65.570 E0.0665
G1 X98.222 Y65.967 E0.0823
G1 X98.475 Y66.332 E0.0987
G1 X98.803 Y66.633 E0.1152
G1 X99.188 Y66.856 E0.1317
G1 X99.596 Y66.983 E0.1475
G1 X99.850 Y67.019 E0.1570
G1 X100.278 Y67.007 E0.1728
G1 X100.709 Y66.898 E0.1893
G1 X101.106 Y66.697 E0.2057
G1 X101.436 Y66.425 E0.2215
G1 X101.604 Y66.231 E0.2310
G1 X101.828 Y65.867 E0.2469
G1 X101.973 Y65.446 E0.2633
G1 X102.020 Y65.020 E0.2792
G1 X102.005 Y64.774 E0.2883
G1 X101.967 Y64.546 E0.2969
G1 X101.828 Y64.141 E0.3127
G1 X101.604 Y63.777 E0.3285
G1 X101.436 Y63.584 E0.3380
G1 X101.119 Y63.323 E0.3532
G1 X100.897 Y63.194 E0.3627
G1 X100.496 Y63.044 E0.3785
G1 X100.056 Y62.983 E0.3950
G1 X99.612 Y63.020 E0.4114
G1 X99.188 Y63.153 E0.4279
G1 X98.803 Y63.375 E0.4443
G1 X98.488 Y63.665 E0.4602
G1 X98.341 Y63.854 E0.4690
; outer perimeter
G1 X98.680 Y64.089 F4800
G92 E0
G1 X98.584 Y64.245 E0.0068 F1150
G1 X98.453 Y64.567 E0.0196
G1 X98.395 Y64.916 E0.0327
G1 X98.414 Y65.263 E0.0456
G1 X98.456 Y65.447 E0.0526
G1 X98.586 Y65.769 E0.0654
G1 X98.788 Y66.060 E0.0785
G1 X99.048 Y66.299 E0.0916
G1 X99.354 Y66.476 E0.1047
G1 X99.686 Y66.580 E0.1176
G1 X99.873 Y66.606 E0.1245
G1 X100.221 Y66.596 E0.1374
G1 X100.564 Y66.509 E0.1505
G1 X100.879 Y66.350 E0.1636
G1 X101.148 Y66.129 E0.1764
G1 X101.271 Y65.987 E0.1834
G1 X101.454 Y65.690 E0.1963
G1 X101.568 Y65.356 E0.2094
G1 X101.607 Y65.010 E0.2222
G1 X101.595 Y64.820 E0.2293
G1 X101.566 Y64.647 E0.2357
G1 X101.454 Y64.318 E0.2486
G1 X101.271 Y64.022 E0.2615
G1 X101.148 Y63.880 E0.2685
G1 X100.883 Y63.662 E0.2811
G1 X100.720 Y63.568 E0.2881
G1 X100.395 Y63.446 E0.3010
G1 X100.044 Y63.398 E0.3140
G1 X99.692 Y63.427 E0.3271
G1 X99.354 Y63.532 E0.3402
G1 X99.048 Y63.709 E0.3533
G1 X98.792 Y63.945 E0.3662
G1 X98.680 Y64.089 E0.3729
G92 E0
G1 E-1.0000 F1800
; solid layer
G1 X99.306 Y67.260 F4800
G1 E0.0000 F1800
G92 E0
G1 X108.336 Y76.289 E0.4725 F1840
G1 X108.589 Y76.100 E0.4842
G1 X108.667 Y76.038 E0.4879
G1 X99.994 Y67.365 E0.9417
G1 X100.326 Y67.356 E0.9540
G1 X100.519 Y67.307 E0.9613
G1 X108.988 Y75.777 E1.4045
G1 X109.297 Y75.503 E1.4198
G1 X100.958 Y67.164 E1.8561
G1 X101.298 Y66.992 E1.8702
G1 X101.337 Y66.960 E1.8720
G1 X109.605 Y75.229 E2.3047
G1 X109.673 Y75.169 E2.3080
G1 X109.902 Y74.943 E2.3199
G1 X101.656 Y66.697 E2.7514
G1 X101.681 Y66.677 E2.7526
G1 X101.888 Y66.440 E2.7642
G1 X101.923 Y66.381 E2.7667
G1 X110.186 Y74.644 E3.1991
G1 X110.465 Y74.341 E3.2143
G1 X102.145 Y66.020 E3.6497
G1 X102.147 Y66.017 E3.6498
G1 X102.295 Y65.587 E3.6666
G1 X110.739 Y74.032 E4.1085
G1 X110.944 Y73.786 E4.1204
G1 X111.000 Y73.710 E4.1238
G1 X102.366 Y65.076 E4.5756
G1 X109.115 Y54.346 F4800
G92 E0
G1 X110.644 Y55.875 E0.0800 F1840
G1 X110.954 Y56.235 E0.0976
G1 X111.234 Y56.598 E0.1145
G1 X111.785 Y57.389 E0.1502
G1 X112.031 Y57.784 E0.1674
G1 X112.114 Y57.927 E0.1735
G1 X107.075 Y52.888 E0.4372
G1 X107.015 Y52.852 E0.4398
G1 X106.609 Y52.627 E0.4570
G1 X105.867 Y52.263 E0.4875
G1 X112.743 Y59.138 E0.8473
G1 X113.074 Y59.910 E0.8784
G1 X113.151 Y60.129 E0.8870
G1 X104.866 Y51.844 E1.3205
G1 X103.993 Y51.554 E1.3545
