; G-Code generated by Simplify3D(R) Version 4.0.0
; Nov 4, 2020 at 1:34:54 PM
; Settings Summary
;   processName,Process1
;   applyToModels,2_Feet,2_Feet(2),2_Feet(3)
;   profileName,new profile (modified)
;   profileVersion,2020-09-07 14:01:24
;   baseProfile,Default (modified)
;   printMaterial,PLA
;   printQuality,Medium
;   printExtruders,
;   extruderName,Primary Extruder
;   extruderToolheadNumber,0
;   extruderDiameter,0.4
;   extruderAutoWidth,0
;   extruderWidth,0.4
;   extrusionMultiplier,0.9
;   extruderUseRetract,1
;   extruderRetractionDistance,1
;   extruderExtraRestartDistance,0
;   extruderRetractionZLift,0
;   extruderRetractionSpeed,1800
;   extruderUseCoasting,0
;   extruderCoastingDistance,0.2
;   extruderUseWipe,0
;   extruderWipeDistance,5
;   primaryExtruder,0
;   layerHeight,0.24
;   topSolidLayers,3
;   bottomSolidLayers,3
;   perimeterOutlines,2
;   printPerimetersInsideOut,1
;   startPointOption,2
;   startPointOriginX,0
;   startPointOriginY,0
;   sequentialIslands,0
;   spiralVaseMode,0
;   firstLayerHeightPercentage,100
;   firstLayerWidthPercentage,103
;   firstLayerUnderspeed,0.5
;   useRaft,0
;   raftExtruder,0
;   raftTopLayers,3
;   raftBaseLayers,2
;   raftOffset,3
;   raftSeparationDistance,0.14
;   raftTopInfill,100
;   aboveRaftSpeedMultiplier,0.3
;   useSkirt,0
;   skirtExtruder,0
;   skirtLayers,1
;   skirtOutlines,2
;   skirtOffset,4
;   usePrimePillar,0
;   primePillarExtruder,999
;   primePillarWidth,12
;   primePillarLocation,7
;   primePillarSpeedMultiplier,1
;   useOozeShield,0
;   oozeShieldExtruder,999
;   oozeShieldOffset,2
;   oozeShieldOutlines,1
;   oozeShieldSidewallShape,1
;   oozeShieldSidewallAngle,30
;   oozeShieldSpeedMultiplier,1
;   infillExtruder,0
;   internalInfillPattern,Rectilinear
;   externalInfillPattern,Rectilinear
;   infillPercentage,40
;   outlineOverlapPercentage,15
;   infillExtrusionWidthPercentage,100
;   minInfillLength,5
;   infillLayerInterval,1
;   internalInfillAngles,45,-45
;   overlapInternalInfillAngles,0
;   externalInfillAngles,45,-45
;   generateSupport,0
;   supportExtruder,0
;   supportInfillPercentage,30
;   supportExtraInflation,0
;   supportBaseLayers,0
;   denseSupportExtruder,0
;   denseSupportLayers,0
;   denseSupportInfillPercentage,70
;   supportLayerInterval,1
;   supportHorizontalPartOffset,0.3
;   supportUpperSeparationLayers,1
;   supportLowerSeparationLayers,1
;   supportType,1
;   supportGridSpacing,4
;   maxOverhangAngle,45
;   supportAngles,0
;   temperatureName,Primary Extruder,Hot Bed
;   temperatureNumber,0,1
;   temperatureSetpointCount,1,1
;   temperatureSetpointLayers,1,1
;   temperatureSetpointTemperatures,210,60
;   temperatureStabilizeAtStartup,1,0
;   temperatureHeatedBed,0,1
;   temperatureRelayBetweenLayers,0,0
;   temperatureRelayBetweenLoops,0,0
;   fanLayers,1,2
;   fanSpeeds,0,100
;   blipFanToFullPower,0
;   adjustSpeedForCooling,1
;   minSpeedLayerTime,15
;   minCoolingSpeedSlowdown,20
;   increaseFanForCooling,0
;   minFanLayerTime,45
;   maxCoolingFanSpeed,100
;   increaseFanForBridging,0
;   bridgingFanSpeed,100
;   use5D,1
;   relativeEdistances,0
;   allowEaxisZeroing,1
;   independentExtruderAxes,0
;   includeM10123,0
;   stickySupport,1
;   applyToolheadOffsets,0
;   gcodeXoffset,0
;   gcodeYoffset,0
;   gcodeZoffset,0
;   overrideMachineDefinition,0
;   machineTypeOverride,0
;   strokeXoverride,200
;   strokeYoverride,200
;   strokeZoverride,200
;   originOffsetXoverride,0
;   originOffsetYoverride,0
;   originOffsetZoverride,0
;   homeXdirOverride,-1
;   homeYdirOverride,-1
;   homeZdirOverride,-1
;   flipXoverride,1
;   flipYoverride,-1
;   flipZoverride,1
;   toolheadOffsets,0,0|0,0|0,0|0,0|0,0|0,0
;   overrideFirmwareConfiguration,0
;   firmwareTypeOverride,RepRap (Marlin/Repetier/Sprinter)
;   GPXconfigOverride,r2
;   baudRateOverride,115200
;   overridePrinterModels,0
;   printerModelsOverride
;   startingGcode,G28 ; home all axes,G1 X0 Y5 Z0.2 F3000 ; get ready to prime,G92 E0 ; reset extrusion distance,G1 Y150 E20 F600 ; prime nozzle
;   layerChangeGcode,
;   retractionGcode,
;   toolChangeGcode,
;   endingGcode,M104 S0 ; turn off extruder,M140 S0 ; turn off bedG1 X0 Y0; home,M84 ; disable motors,M107 ; fan off,G28 X Y; Home,M18; Disable steppers
;   exportFileFormat,gcode
;   celebration,0
;   celebrationSong,Random Song
;   postProcessing,
;   defaultSpeed,4600
;   outlineUnderspeed,0.5
;   solidInfillUnderspeed,0.8
;   supportUnderspeed,0.8
;   rapidXYspeed,4800
;   rapidZspeed,1000
;   minBridgingArea,50
;   bridgingExtraInflation,0
;   bridgingExtrusionMultiplier,1
;   bridgingSpeedMultiplier,1
;   useFixedBridgingAngle,0
;   fixedBridgingAngle,0
;   applyBridgingToPerimeters,0
;   filamentDiameters,1.75|1.75|1.75|1.75|1.75|1.75
;   filamentPricesPerKg,46|46|46|46|46|46
;   filamentDensities,1.25|1.25|1.25|1.25|1.25|1.25
;   useMinPrintHeight,0
;   minPrintHeight,0
;   useMaxPrintHeight,0
;   maxPrintHeight,0
;   useDiaphragm,0
;   diaphragmLayerInterval,20
;   robustSlicing,1
;   mergeAllIntoSolid,0
;   onlyRetractWhenCrossingOutline,1
;   retractBetweenLayers,1
;   useRetractionMinTravel,0
;   retractionMinTravel,3
;   retractWhileWiping,0
;   onlyWipeOutlines,1
;   avoidCrossingOutline,0
;   maxMovementDetourFactor,3
;   toolChangeRetractionDistance,12
;   toolChangeExtraRestartDistance,-0.5
;   toolChangeRetractionSpeed,600
;   externalThinWallType,1
;   internalThinWallType,1
;   thinWallAllowedOverlapPercentage,10
;   singleExtrusionMinLength,1
;   singleExtrusionMinPrintingWidthPercentage,50
;   singleExtrusionMaxPrintingWidthPercentage,200
;   singleExtrusionEndpointExtension,0.2
;   horizontalSizeCompensation,0
G90
M82
M106 S0
M140 S60
M104 S210 T0
M109 S210 T0
G28 ; home all axes
G1 X0 Y5 Z0.2 F3000 ; get ready to prime
G92 E0 ; reset extrusion distance
G1 Y150 E20 F600 ; prime nozzle
G92 E0
G1 E-1.0000 F1800
G1 Z0.240 F1000
; process Process1
; layer 1, Z = 0.240
T0
; tool H0.240 W0.412
; inner perimeter
G1 X102.480 Y75.395 F4800
G1 E0.0000 F540
G92 E0
G1 X103.102 Y74.620 E0.0368 F1725
G1 X103.410 Y74.273 E0.0539
G1 X103.741 Y73.925 E0.0717
G1 X104.453 Y73.248 E0.1080
G1 X104.814 Y72.939 E0.1256
G1 X105.586 Y72.341 E0.1618
G1 X106.397 Y71.796 E0.1979
G1 X106.809 Y71.549 E0.2157
G1 X107.229 Y71.316 E0.2335
G1 X108.106 Y70.886 E0.2696
G1 X109.010 Y70.516 E0.3057
G1 X109.464 Y70.357 E0.3235
G1 X109.922 Y70.213 E0.3413
G1 X110.867 Y69.968 E0.3774
G1 X111.827 Y69.788 E0.4136
G1 X112.304 Y69.723 E0.4313
G1 X112.782 Y69.674 E0.4491
G1 X113.762 Y69.624 E0.4855
G1 X114.238 Y69.624 E0.5030
G1 X115.213 Y69.674 E0.5392
G1 X116.178 Y69.788 E0.5751
G1 X117.138 Y69.969 E0.6113
G1 X117.605 Y70.081 E0.6290
G1 X118.068 Y70.210 E0.6468
G1 X118.995 Y70.518 E0.6830
G1 X119.899 Y70.888 E0.7191
G1 X120.329 Y71.090 E0.7367
G1 X121.196 Y71.552 E0.7730
G1 X121.603 Y71.796 E0.7906
G1 X122.418 Y72.344 E0.8269
G1 X122.803 Y72.631 E0.8447
G1 X123.178 Y72.932 E0.8625
G1 X123.912 Y73.584 E0.8988
G1 X124.251 Y73.917 E0.9164
G1 X124.916 Y74.640 E0.9527
G1 X125.219 Y75.006 E0.9703
G1 X125.807 Y75.793 E1.0066
G1 X126.072 Y76.187 E1.0242
G1 X126.575 Y77.025 E1.0604
G1 X127.019 Y77.894 E1.0965
G1 X127.214 Y78.328 E1.1141
G1 X127.569 Y79.238 E1.1502
G1 X127.861 Y80.170 E1.1864
G1 X127.980 Y80.630 E1.2040
G1 X128.178 Y81.592 E1.2403
G1 X128.250 Y82.062 E1.2579
G1 X128.349 Y83.039 E1.2942
G1 X128.374 Y83.518 E1.3120
G1 X128.382 Y83.999 E1.3298
G1 X128.349 Y84.980 E1.3661
G1 X128.309 Y85.454 E1.3837
G1 X128.177 Y86.422 E1.4198
G1 X127.980 Y87.379 E1.4559
G1 X127.861 Y87.839 E1.4735
G1 X127.569 Y88.771 E1.5097
G1 X127.214 Y89.681 E1.5458
G1 X127.017 Y90.119 E1.5636
G1 X126.806 Y90.551 E1.5814
G1 X126.329 Y91.409 E1.6177
G1 X126.078 Y91.812 E1.6353
G1 X125.517 Y92.618 E1.6716
G1 X125.226 Y92.994 E1.6892
G1 X124.586 Y93.739 E1.7255
G1 X124.259 Y94.084 E1.7431
G1 X123.547 Y94.760 E1.7794
G1 X123.186 Y95.070 E1.7970
G1 X122.414 Y95.668 E1.8332
G1 X121.603 Y96.212 E1.8693
G1 X121.195 Y96.457 E1.8869
G1 X120.334 Y96.916 E1.9230
G1 X119.443 Y97.316 E1.9592
G1 X119.000 Y97.489 E1.9768
G1 X118.068 Y97.799 E2.0131
G1 X117.605 Y97.927 E2.0309
G1 X117.138 Y98.040 E2.0487
G1 X116.173 Y98.221 E2.0850
G1 X115.702 Y98.285 E2.1026
G1 X114.728 Y98.367 E2.1387
G1 X113.752 Y98.384 E2.1748
G1 X113.277 Y98.368 E2.1924
G1 X112.298 Y98.285 E2.2288
G1 X111.827 Y98.221 E2.2463
G1 X110.862 Y98.040 E2.2827
G1 X110.395 Y97.927 E2.3004
G1 X109.932 Y97.799 E2.3182
G1 X109.000 Y97.489 E2.3546
G1 X108.557 Y97.316 E2.3721
G1 X107.666 Y96.916 E2.4083
G1 X106.805 Y96.457 E2.4444
G1 X106.397 Y96.212 E2.4620
G1 X105.586 Y95.668 E2.4981
G1 X104.814 Y95.070 E2.5343
G1 X104.453 Y94.760 E2.5519
G1 X103.741 Y94.084 E2.5882
G1 X103.414 Y93.739 E2.6058
G1 X102.774 Y92.994 E2.6421
G1 X102.483 Y92.618 E2.6597
G1 X101.922 Y91.812 E2.6960
G1 X101.671 Y91.409 E2.7136
G1 X101.194 Y90.551 E2.7499
G1 X100.985 Y90.124 E2.7675
G1 X100.600 Y89.226 E2.8037
G1 X100.276 Y88.305 E2.8398
G1 X100.140 Y87.844 E2.8576
G1 X100.020 Y87.379 E2.8754
G1 X99.822 Y86.417 E2.9117
G1 X99.750 Y85.947 E2.9293
G1 X99.651 Y84.975 E2.9654
G1 X99.618 Y83.999 E3.0016
G1 X99.626 Y83.518 E3.0193
G1 X99.651 Y83.039 E3.0371
G1 X99.750 Y82.062 E3.0735
G1 X99.822 Y81.592 E3.0910
G1 X100.020 Y80.630 E3.1274
G1 X100.139 Y80.170 E3.1449
G1 X100.431 Y79.238 E3.1811
G1 X100.786 Y78.328 E3.2172
G1 X100.981 Y77.894 E3.2348
G1 X101.428 Y77.020 E3.2711
G1 X101.668 Y76.604 E3.2889
G1 X101.922 Y76.196 E3.3067
G1 X102.480 Y75.395 E3.3428
; outer perimeter
G1 X102.150 Y75.148 F4800
G92 E0
G1 X102.788 Y74.354 E0.0377 F1150
G1 X103.107 Y73.994 E0.0555
G1 X103.450 Y73.633 E0.0739
G1 X104.177 Y72.942 E0.1110
G1 X104.553 Y72.619 E0.1293
G1 X105.345 Y72.006 E0.1664
G1 X106.176 Y71.449 E0.2034
G1 X106.603 Y71.192 E0.2219
G1 X107.038 Y70.951 E0.2403
G1 X107.937 Y70.510 E0.2773
G1 X108.864 Y70.131 E0.3144
G1 X109.333 Y69.966 E0.3328
G1 X109.809 Y69.816 E0.3512
G1 X110.778 Y69.566 E0.3882
G1 X111.761 Y69.381 E0.4253
G1 X112.255 Y69.314 E0.4437
G1 X112.750 Y69.263 E0.4621
G1 X113.752 Y69.212 E0.4992
G1 X114.248 Y69.212 E0.5176
G1 X115.248 Y69.263 E0.5546
G1 X116.240 Y69.381 E0.5916
G1 X117.224 Y69.566 E0.6286
G1 X117.708 Y69.683 E0.6471
G1 X118.188 Y69.816 E0.6655
G1 X119.138 Y70.131 E0.7025
G1 X120.065 Y70.510 E0.7396
G1 X120.514 Y70.721 E0.7579
G1 X121.399 Y71.193 E0.7950
G1 X121.824 Y71.448 E0.8134
G1 X122.657 Y72.007 E0.8505
G1 X123.055 Y72.306 E0.8689
G1 X123.444 Y72.617 E0.8873
G1 X124.194 Y73.283 E0.9244
G1 X124.548 Y73.631 E0.9428
G1 X125.226 Y74.369 E0.9799
G1 X125.543 Y74.751 E0.9983
G1 X126.143 Y75.554 E1.0354
G1 X126.420 Y75.966 E1.0537
G1 X126.935 Y76.825 E1.0908
G1 X127.391 Y77.716 E1.1278
G1 X127.594 Y78.169 E1.1461
G1 X127.958 Y79.101 E1.1832
G1 X128.257 Y80.056 E1.2202
G1 X128.382 Y80.537 E1.2386
G1 X128.584 Y81.519 E1.2757
G1 X128.659 Y82.010 E1.2940
G1 X128.760 Y83.007 E1.3311
G1 X128.786 Y83.505 E1.3496
G1 X128.794 Y84.002 E1.3680
G1 X128.760 Y85.005 E1.4051
G1 X128.718 Y85.499 E1.4235
G1 X128.583 Y86.491 E1.4605
G1 X128.382 Y87.472 E1.4975
G1 X128.257 Y87.952 E1.5159
G1 X127.958 Y88.907 E1.5529
G1 X127.594 Y89.840 E1.5900
G1 X127.390 Y90.294 E1.6084
G1 X127.171 Y90.741 E1.6268
G1 X126.684 Y91.618 E1.6639
G1 X126.422 Y92.039 E1.6823
G1 X125.849 Y92.862 E1.7194
G1 X125.545 Y93.255 E1.7377
G1 X124.892 Y94.016 E1.7748
G1 X124.550 Y94.375 E1.7932
G1 X123.823 Y95.066 E1.8303
G1 X123.447 Y95.389 E1.8487
G1 X122.655 Y96.002 E1.8857
G1 X121.824 Y96.560 E1.9227
G1 X121.398 Y96.815 E1.9411
G1 X120.515 Y97.286 E1.9781
G1 X119.602 Y97.697 E2.0152
G1 X119.140 Y97.877 E2.0335
G1 X118.188 Y98.193 E2.0706
G1 X117.708 Y98.326 E2.0891
G1 X117.224 Y98.443 E2.1075
G1 X116.239 Y98.628 E2.1446
G1 X115.747 Y98.695 E2.1629
G1 X114.749 Y98.779 E2.2000
G1 X113.749 Y98.796 E2.2370
G1 X113.252 Y98.779 E2.2554
G1 X112.253 Y98.695 E2.2925
G1 X111.761 Y98.628 E2.3108
G1 X110.776 Y98.443 E2.3479
G1 X110.292 Y98.326 E2.3664
G1 X109.812 Y98.193 E2.3848
G1 X108.860 Y97.877 E2.4219
G1 X108.398 Y97.697 E2.4403
G1 X107.485 Y97.286 E2.4773
G1 X106.602 Y96.815 E2.5143
G1 X106.176 Y96.560 E2.5327
G1 X105.345 Y96.002 E2.5697
G1 X104.553 Y95.389 E2.6068
G1 X104.177 Y95.066 E2.6251
G1 X103.450 Y94.375 E2.6622
G1 X103.108 Y94.016 E2.6806
G1 X102.455 Y93.255 E2.7177
G1 X102.151 Y92.862 E2.7360
G1 X101.578 Y92.039 E2.7732
G1 X101.316 Y91.618 E2.7915
G1 X100.829 Y90.741 E2.8286
G1 X100.610 Y90.296 E2.8470
G1 X100.216 Y89.376 E2.8840
G1 X99.884 Y88.431 E2.9211
G1 X99.743 Y87.954 E2.9395
G1 X99.618 Y87.472 E2.9579
G1 X99.416 Y86.489 E2.9950
G1 X99.341 Y85.999 E3.0134
G1 X99.240 Y85.003 E3.0504
G1 X99.206 Y84.002 E3.0874
G1 X99.214 Y83.505 E3.1059
G1 X99.240 Y83.007 E3.1243
G1 X99.341 Y82.010 E3.1614
G1 X99.416 Y81.519 E3.1797
G1 X99.618 Y80.537 E3.2168
G1 X99.743 Y80.056 E3.2352
G1 X100.042 Y79.101 E3.2722
G1 X100.406 Y78.169 E3.3093
G1 X100.609 Y77.716 E3.3276
G1 X101.066 Y76.823 E3.3647
G1 X101.315 Y76.392 E3.3832
G1 X101.578 Y75.969 E3.4016
G1 X102.150 Y75.148 E3.4386
; inner perimeter
G1 X112.341 Y82.854 F4800
G92 E0
G1 X112.215 Y83.058 E0.0089 F1725
G1 X112.055 Y83.454 E0.0247
G1 X111.981 Y83.893 E0.0411
G1 X112.005 Y84.320 E0.0570
G1 X112.061 Y84.570 E0.0665
G1 X112.222 Y84.967 E0.0823
G1 X112.475 Y85.332 E0.0987
G1 X112.803 Y85.633 E0.1152
G1 X113.188 Y85.856 E0.1317
G1 X113.596 Y85.983 E0.1475
G1 X113.850 Y86.019 E0.1570
G1 X114.278 Y86.007 E0.1728
G1 X114.709 Y85.898 E0.1893
G1 X115.106 Y85.697 E0.2057
G1 X115.436 Y85.425 E0.2215
G1 X115.604 Y85.231 E0.2310
G1 X115.828 Y84.867 E0.2469
G1 X115.973 Y84.446 E0.2633
G1 X116.020 Y84.020 E0.2792
G1 X116.005 Y83.774 E0.2883
G1 X115.967 Y83.546 E0.2969
G1 X115.828 Y83.141 E0.3127
G1 X115.604 Y82.777 E0.3285
G1 X115.436 Y82.584 E0.3380
G1 X115.119 Y82.323 E0.3532
G1 X114.897 Y82.194 E0.3627
G1 X114.496 Y82.044 E0.3785
G1 X114.056 Y81.983 E0.3950
G1 X113.612 Y82.020 E0.4114
G1 X113.188 Y82.153 E0.4279
G1 X112.803 Y82.375 E0.4443
G1 X112.488 Y82.665 E0.4602
G1 X112.341 Y82.854 E0.4690
; outer perimeter
G1 X112.680 Y83.089 F4800
G92 E0
G1 X112.584 Y83.245 E0.0068 F1150
G1 X112.453 Y83.567 E0.0196
G1 X112.395 Y83.916 E0.0327
G1 X112.414 Y84.263 E0.0456
G1 X112.456 Y84.447 E0.0526
G1 X112.586 Y84.769 E0.0654
G1 X112.788 Y85.060 E0.0785
G1 X113.048 Y85.299 E0.0916
G1 X113.354 Y85.476 E0.1047
G1 X113.686 Y85.580 E0.1176
G1 X113.873 Y85.606 E0.1245
G1 X114.221 Y85.596 E0.1374
G1 X114.564 Y85.509 E0.1505
G1 X114.879 Y85.350 E0.1636
G1 X115.148 Y85.129 E0.1764
G1 X115.271 Y84.987 E0.1834
G1 X115.454 Y84.690 E0.1963
G1 X115.568 Y84.356 E0.2094
G1 X115.607 Y84.010 E0.2222
G1 X115.595 Y83.820 E0.2293
G1 X115.566 Y83.647 E0.2357
G1 X115.454 Y83.318 E0.2486
G1 X115.271 Y83.022 E0.2615
G1 X115.148 Y82.880 E0.2685
G1 X114.883 Y82.662 E0.2811
G1 X114.720 Y82.568 E0.2881
G1 X114.395 Y82.446 E0.3010
G1 X114.044 Y82.398 E0.3140
G1 X113.692 Y82.427 E0.3271
G1 X113.354 Y82.532 E0.3402
G1 X113.048 Y82.709 E0.3533
G1 X112.792 Y82.945 E0.3662
G1 X112.680 Y83.089 E0.3729
G92 E0
G1 E-1.0000 F1800
; solid layer
G1 X113.306 Y86.260 F4800
G1 E0.0000 F1800
G92 E0
G1 X122.333 Y95.287 E0.4724 F1840
G1 X122.662 Y95.033 E0.4877
G1 X113.994 Y86.365 E0.9413
G1 X114.326 Y86.356 E0.9536
G1 X114.519 Y86.307 E0.9609
G1 X122.989 Y94.778 E1.4041
G1 X123.303 Y94.509 E1.4194
G1 X114.958 Y86.164 E1.8560
G1 X115.299 Y85.992 E1.8702
G1 X115.337 Y85.960 E1.8720
G1 X123.602 Y94.225 E2.3044
G1 X123.900 Y93.941 E2.3197
G1 X115.656 Y85.697 E2.7511
G1 X115.681 Y85.677 E2.7522
G1 X115.888 Y85.440 E2.7639
G1 X115.923 Y85.381 E2.7664
G1 X124.190 Y93.648 E3.1989
G1 X124.326 Y93.504 E3.2063
G1 X124.466 Y93.341 E3.2142
G1 X116.145 Y85.020 E3.6496
G1 X116.147 Y85.017 E3.6497
G1 X116.295 Y84.587 E3.6665
G1 X124.735 Y93.028 E4.1082
G1 X124.954 Y92.773 E4.1206
G1 X125.002 Y92.712 E4.1235
G1 X116.366 Y84.076 E4.5753
G1 X123.105 Y73.335 F4800
G92 E0
G1 X124.708 Y74.938 E0.0839 F1840
G1 X124.944 Y75.223 E0.0976
G1 X125.521 Y75.995 E0.1333
G1 X125.776 Y76.375 E0.1502
G1 X126.097 Y76.910 E0.1733
G1 X121.075 Y71.888 E0.4361
G1 X121.023 Y71.857 E0.4383
G1 X120.172 Y71.403 E0.4740
G1 X119.862 Y71.257 E0.4867
G1 X126.747 Y78.143 E0.8470
