; G-Code generated by Simplify3D(R) Version 4.0.0
; Nov 4, 2020 at 11:43:46 AM
; Settings Summary
;   processName,Process1
;   applyToModels,3_Base_posts,3_Base_posts(2)
;   profileName,new profile (modified)
;   profileVersion,2020-09-07 14:01:24
;   baseProfile,Default (modified)
;   printMaterial,PLA
;   printQuality,Medium
;   printExtruders,
;   extruderName,Primary Extruder
;   extruderToolheadNumber,0
;   extruderDiameter,0.4
;   extruderAutoWidth,0
;   extruderWidth,0.4
;   extrusionMultiplier,0.9
;   extruderUseRetract,1
;   extruderRetractionDistance,1
;   extruderExtraRestartDistance,0
;   extruderRetractionZLift,0
;   extruderRetractionSpeed,1800
;   extruderUseCoasting,0
;   extruderCoastingDistance,0.2
;   extruderUseWipe,0
;   extruderWipeDistance,5
;   primaryExtruder,0
;   layerHeight,0.24
;   topSolidLayers,3
;   bottomSolidLayers,3
;   perimeterOutlines,2
;   printPerimetersInsideOut,1
;   startPointOption,2
;   startPointOriginX,0
;   startPointOriginY,0
;   sequentialIslands,0
;   spiralVaseMode,0
;   firstLayerHeightPercentage,100
;   firstLayerWidthPercentage,103
;   firstLayerUnderspeed,0.5
;   useRaft,0
;   raftExtruder,0
;   raftTopLayers,3
;   raftBaseLayers,2
;   raftOffset,3
;   raftSeparationDistance,0.14
;   raftTopInfill,100
;   aboveRaftSpeedMultiplier,0.3
;   useSkirt,0
;   skirtExtruder,0
;   skirtLayers,1
;   skirtOutlines,2
;   skirtOffset,4
;   usePrimePillar,0
;   primePillarExtruder,999
;   primePillarWidth,12
;   primePillarLocation,7
;   primePillarSpeedMultiplier,1
;   useOozeShield,0
;   oozeShieldExtruder,999
;   oozeShieldOffset,2
;   oozeShieldOutlines,1
;   oozeShieldSidewallShape,1
;   oozeShieldSidewallAngle,30
;   oozeShieldSpeedMultiplier,1
;   infillExtruder,0
;   internalInfillPattern,Rectilinear
;   externalInfillPattern,Rectilinear
;   infillPercentage,100
;   outlineOverlapPercentage,15
;   infillExtrusionWidthPercentage,100
;   minInfillLength,5
;   infillLayerInterval,1
;   internalInfillAngles,45,-45
;   overlapInternalInfillAngles,0
;   externalInfillAngles,45,-45
;   generateSupport,0
;   supportExtruder,0
;   supportInfillPercentage,30
;   supportExtraInflation,0
;   supportBaseLayers,0
;   denseSupportExtruder,0
;   denseSupportLayers,0
;   denseSupportInfillPercentage,70
;   supportLayerInterval,1
;   supportHorizontalPartOffset,0.3
;   supportUpperSeparationLayers,1
;   supportLowerSeparationLayers,1
;   supportType,1
;   supportGridSpacing,4
;   maxOverhangAngle,45
;   supportAngles,0
;   temperatureName,Primary Extruder,Hot Bed
;   temperatureNumber,0,1
;   temperatureSetpointCount,1,1
;   temperatureSetpointLayers,1,1
;   temperatureSetpointTemperatures,210,60
;   temperatureStabilizeAtStartup,1,0
;   temperatureHeatedBed,0,1
;   temperatureRelayBetweenLayers,0,0
;   temperatureRelayBetweenLoops,0,0
;   fanLayers,1,2
;   fanSpeeds,0,100
;   blipFanToFullPower,0
;   adjustSpeedForCooling,1
;   minSpeedLayerTime,15
;   minCoolingSpeedSlowdown,20
;   increaseFanForCooling,0
;   minFanLayerTime,45
;   maxCoolingFanSpeed,100
;   increaseFanForBridging,0
;   bridgingFanSpeed,100
;   use5D,1
;   relativeEdistances,0
;   allowEaxisZeroing,1
;   independentExtruderAxes,0
;   includeM10123,0
;   stickySupport,1
;   applyToolheadOffsets,0
;   gcodeXoffset,0
;   gcodeYoffset,0
;   gcodeZoffset,0
;   overrideMachineDefinition,0
;   machineTypeOverride,0
;   strokeXoverride,200
;   strokeYoverride,200
;   strokeZoverride,200
;   originOffsetXoverride,0
;   originOffsetYoverride,0
;   originOffsetZoverride,0
;   homeXdirOverride,-1
;   homeYdirOverride,-1
;   homeZdirOverride,-1
;   flipXoverride,1
;   flipYoverride,-1
;   flipZoverride,1
;   toolheadOffsets,0,0|0,0|0,0|0,0|0,0|0,0
;   overrideFirmwareConfiguration,0
;   firmwareTypeOverride,RepRap (Marlin/Repetier/Sprinter)
;   GPXconfigOverride,r2
;   baudRateOverride,115200
;   overridePrinterModels,0
;   printerModelsOverride
;   startingGcode,G28 ; home all axes,G1 X0 Y5 Z0.2 F3000 ; get ready to prime,G92 E0 ; reset extrusion distance,G1 Y150 E20 F600 ; prime nozzle
;   layerChangeGcode,
;   retractionGcode,
;   toolChangeGcode,
;   endingGcode,M104 S0 ; turn off extruder,M140 S0 ; turn off bedG1 X0 Y0; home,M84 ; disable motors,M107 ; fan off,G28 X Y; Home,M18; Disable steppers
;   exportFileFormat,gcode
;   celebration,0
;   celebrationSong,Random Song
;   postProcessing,
;   defaultSpeed,4600
;   outlineUnderspeed,0.5
;   solidInfillUnderspeed,0.8
;   supportUnderspeed,0.8
;   rapidXYspeed,4800
;   rapidZspeed,1000
;   minBridgingArea,50
;   bridgingExtraInflation,0
;   bridgingExtrusionMultiplier,1
;   bridgingSpeedMultiplier,1
;   useFixedBridgingAngle,0
;   fixedBridgingAngle,0
;   applyBridgingToPerimeters,0
;   filamentDiameters,1.75|1.75|1.75|1.75|1.75|1.75
;   filamentPricesPerKg,46|46|46|46|46|46
;   filamentDensities,1.25|1.25|1.25|1.25|1.25|1.25
;   useMinPrintHeight,0
;   minPrintHeight,0
;   useMaxPrintHeight,0
;   maxPrintHeight,0
;   useDiaphragm,0
;   diaphragmLayerInterval,20
;   robustSlicing,1
;   mergeAllIntoSolid,0
;   onlyRetractWhenCrossingOutline,1
;   retractBetweenLayers,1
;   useRetractionMinTravel,0
;   retractionMinTravel,3
;   retractWhileWiping,0
;   onlyWipeOutlines,1
;   avoidCrossingOutline,0
;   maxMovementDetourFactor,3
;   toolChangeRetractionDistance,12
;   toolChangeExtraRestartDistance,-0.5
;   toolChangeRetractionSpeed,600
;   externalThinWallType,1
;   internalThinWallType,1
;   thinWallAllowedOverlapPercentage,10
;   singleExtrusionMinLength,1
;   singleExtrusionMinPrintingWidthPercentage,50
;   singleExtrusionMaxPrintingWidthPercentage,200
;   singleExtrusionEndpointExtension,0.2
;   horizontalSizeCompensation,0
G90
M82
M106 S0
M140 S60
M104 S210 T0
M109 S210 T0
G28 ; home all axes
G1 X0 Y5 Z0.2 F3000 ; get ready to prime
G92 E0 ; reset extrusion distance
G1 Y150 E20 F600 ; prime nozzle
G92 E0
G1 E-1.0000 F1800
G1 Z0.240 F1000
; process Process1
; layer 1, Z = 0.240
T0
; tool H0.240 W0.412
; inner perimeter
G1 X111.567 Y72.753 F4800
G1 E0.0000 F540
G92 E0
G1 X111.647 Y72.651 E0.0048 F1725
G1 X111.773 Y72.555 E0.0107
G1 X111.805 Y72.539 E0.0120
G1 X111.862 Y72.520 E0.0142
G1 X112.039 Y72.498 E0.0208
G1 X115.977 Y72.498 E0.1665
G1 X116.056 Y72.504 E0.1694
G1 X116.205 Y72.545 E0.1752
G1 X116.241 Y72.563 E0.1767
G1 X116.364 Y72.658 E0.1824
G1 X116.390 Y72.689 E0.1839
G1 X116.458 Y72.807 E0.1889
G1 X116.493 Y72.942 E0.1941
G1 X116.502 Y76.959 E0.3427
G1 X116.478 Y77.134 E0.3492
G1 X116.427 Y77.259 E0.3543
G1 X116.394 Y77.308 E0.3564
G1 X116.358 Y77.350 E0.3585
G1 X116.314 Y77.388 E0.3606
G1 X116.192 Y77.458 E0.3659
G1 X116.076 Y77.491 E0.3703
G1 X114.764 Y77.512 E0.4189
G1 X114.764 Y78.863 E0.4688
G1 X114.618 Y79.175 E0.4816
G1 X114.466 Y79.679 E0.5011
G1 X114.392 Y80.190 E0.5202
G1 X114.382 Y80.453 E0.5299
G1 X114.390 Y109.799 E1.6157
G1 X114.465 Y110.309 E1.6348
G1 X114.534 Y110.575 E1.6449
G1 X114.622 Y110.835 E1.6551
G1 X114.764 Y111.137 E1.6674
G1 X114.764 Y112.491 E1.7175
G1 X116.052 Y112.505 E1.7652
G1 X116.221 Y112.549 E1.7716
G1 X116.371 Y112.665 E1.7786
G1 X116.394 Y112.692 E1.7800
G1 X116.427 Y112.741 E1.7821
G1 X116.478 Y112.866 E1.7872
G1 X116.502 Y113.041 E1.7937
G1 X116.502 Y116.977 E1.9393
G1 X116.495 Y117.075 E1.9430
G1 X116.486 Y117.115 E1.9445
G1 X116.433 Y117.243 E1.9496
G1 X116.337 Y117.370 E1.9555
G1 X116.307 Y117.393 E1.9569
G1 X116.193 Y117.458 E1.9617
G1 X116.058 Y117.493 E1.9669
G1 X112.022 Y117.502 E2.1162
G1 X111.925 Y117.495 E2.1198
G1 X111.885 Y117.486 E2.1213
G1 X111.757 Y117.433 E2.1264
G1 X111.620 Y117.329 E2.1329
G1 X111.542 Y117.193 E2.1386
G1 X111.507 Y117.058 E2.1438
G1 X111.498 Y113.041 E2.2924
G1 X111.522 Y112.866 E2.2989
G1 X111.573 Y112.741 E2.3040
G1 X111.606 Y112.692 E2.3061
G1 X111.642 Y112.650 E2.3082
G1 X111.686 Y112.612 E2.3103
G1 X111.808 Y112.542 E2.3156
G1 X111.924 Y112.509 E2.3200
G1 X113.236 Y112.488 E2.3686
G1 X113.236 Y111.137 E2.4185
G1 X113.377 Y110.835 E2.4309
G1 X113.466 Y110.575 E2.4410
G1 X113.535 Y110.309 E2.4512
G1 X113.610 Y109.799 E2.4703
G1 X113.618 Y80.453 E3.5560
G1 X113.608 Y80.190 E3.5658
G1 X113.534 Y79.679 E3.5849
G1 X113.382 Y79.175 E3.6044
G1 X113.236 Y78.863 E3.6171
G1 X113.236 Y77.509 E3.6672
G1 X111.948 Y77.495 E3.7149
G1 X111.813 Y77.460 E3.7200
G1 X111.684 Y77.387 E3.7255
G1 X111.642 Y77.350 E3.7276
G1 X111.606 Y77.308 E3.7296
G1 X111.573 Y77.259 E3.7318
G1 X111.522 Y77.134 E3.7368
G1 X111.498 Y76.959 E3.7434
G1 X111.498 Y73.019 E3.8891
G1 X111.502 Y72.961 E3.8913
G1 X111.548 Y72.785 E3.8980
G1 X111.567 Y72.753 E3.8994
; outer perimeter
G1 X111.213 Y72.537 F4800
G92 E0
G1 X111.354 Y72.356 E0.0085 F1150
G1 X111.556 Y72.202 E0.0179
G1 X111.649 Y72.156 E0.0217
G1 X111.771 Y72.116 E0.0265
G1 X112.013 Y72.086 E0.0355
G1 X115.992 Y72.086 E0.1827
G1 X116.126 Y72.096 E0.1877
G1 X116.354 Y72.158 E0.1964
G1 X116.463 Y72.213 E0.2009
G1 X116.649 Y72.358 E0.2097
G1 X116.729 Y72.450 E0.2142
G1 X116.842 Y72.650 E0.2227
G1 X116.905 Y72.889 E0.2318
G1 X116.914 Y76.986 E0.3834
G1 X116.880 Y77.242 E0.3929
G1 X116.793 Y77.453 E0.4014
G1 X116.723 Y77.559 E0.4061
G1 X116.650 Y77.642 E0.4102
G1 X116.555 Y77.725 E0.4149
G1 X116.352 Y77.842 E0.4235
G1 X116.135 Y77.902 E0.4318
G1 X115.176 Y77.917 E0.4673
G1 X115.176 Y78.954 E0.5057
G1 X115.004 Y79.322 E0.5207
G1 X114.870 Y79.769 E0.5380
G1 X114.802 Y80.227 E0.5551
G1 X114.794 Y80.460 E0.5638
G1 X114.802 Y109.769 E1.6482
G1 X114.869 Y110.227 E1.6653
G1 X114.929 Y110.457 E1.6741
G1 X115.005 Y110.681 E1.6828
G1 X115.176 Y111.046 E1.6977
G1 X115.176 Y112.084 E1.7361
G1 X116.106 Y112.094 E1.7706
G1 X116.349 Y112.156 E1.7798
G1 X116.451 Y112.206 E1.7840
G1 X116.654 Y112.363 E1.7935
G1 X116.723 Y112.441 E1.7974
G1 X116.793 Y112.547 E1.8021
G1 X116.880 Y112.758 E1.8105
G1 X116.914 Y113.014 E1.8201
G1 X116.914 Y116.992 E1.9673
G1 X116.903 Y117.133 E1.9725
G1 X116.882 Y117.237 E1.9764
G1 X116.794 Y117.450 E1.9849
G1 X116.641 Y117.650 E1.9942
G1 X116.550 Y117.729 E1.9987
G1 X116.350 Y117.842 E2.0072
G1 X116.111 Y117.905 E2.0163
G1 X112.008 Y117.914 E2.1682
G1 X111.867 Y117.903 E2.1734
G1 X111.763 Y117.882 E2.1773
G1 X111.550 Y117.794 E2.1858
G1 X111.350 Y117.641 E2.1951
G1 X111.271 Y117.550 E2.1996
G1 X111.158 Y117.350 E2.2081
G1 X111.095 Y117.111 E2.2172
G1 X111.086 Y113.014 E2.3689
G1 X111.120 Y112.758 E2.3784
G1 X111.207 Y112.547 E2.3868
G1 X111.277 Y112.441 E2.3915
G1 X111.350 Y112.358 E2.3956
G1 X111.445 Y112.275 E2.4003
G1 X111.648 Y112.158 E2.4089
G1 X111.865 Y112.098 E2.4173
G1 X112.824 Y112.083 E2.4528
G1 X112.824 Y111.046 E2.4911
G1 X112.995 Y110.681 E2.5060
G1 X113.071 Y110.457 E2.5148
G1 X113.131 Y110.227 E2.5236
G1 X113.198 Y109.769 E2.5407
G1 X113.206 Y80.460 E3.6251
G1 X113.198 Y80.227 E3.6337
G1 X113.130 Y79.769 E3.6509
G1 X112.996 Y79.322 E3.6681
G1 X112.824 Y78.954 E3.6831
G1 X112.824 Y77.916 E3.7215
G1 X111.894 Y77.906 E3.7560
G1 X111.658 Y77.845 E3.7650
G1 X111.445 Y77.725 E3.7740
G1 X111.350 Y77.642 E3.7787
G1 X111.277 Y77.559 E3.7828
G1 X111.207 Y77.453 E3.7875
G1 X111.120 Y77.242 E3.7959
G1 X111.086 Y76.986 E3.8055
G1 X111.086 Y73.006 E3.9527
G1 X111.093 Y72.895 E3.9569
G1 X111.159 Y72.645 E3.9664
G1 X111.213 Y72.537 E3.9709
; solid layer
G1 X111.848 Y76.526 F4800
G92 E0
G1 X112.473 Y77.150 E0.0327 F1840
G1 X113.062 Y77.157 E0.0545
G1 X111.848 Y75.943 E0.1180
G1 X111.848 Y75.360 E0.1395
G1 X114.413 Y77.925 E0.2738
G1 X114.413 Y77.343 E0.2953
G1 X111.848 Y74.778 E0.4295
G1 X111.848 Y74.195 E0.4511
G1 X114.814 Y77.161 E0.6063
G1 X115.387 Y77.152 E0.6275
G1 X111.848 Y73.612 E0.8127
G1 X111.848 Y73.030 E0.8342
G1 X115.961 Y77.142 E1.0494
G1 X116.026 Y77.141 E1.0518
G1 X116.056 Y77.133 E1.0529
G1 X116.110 Y77.102 E1.0552
G1 X116.115 Y77.096 E1.0555
G1 X116.137 Y77.042 E1.0576
G1 X116.152 Y76.936 E1.0616
G1 X116.151 Y76.750 E1.0685
G1 X112.249 Y72.848 E1.2726
G1 X112.832 Y72.848 E1.2942
G1 X116.150 Y76.166 E1.4678
G1 X116.149 Y75.582 E1.4894
G1 X113.415 Y72.848 E1.6325
G1 X113.997 Y72.848 E1.6540
G1 X116.148 Y74.999 E1.7665
G1 X116.146 Y74.415 E1.7881
G1 X114.580 Y72.848 E1.8701
G1 X115.163 Y72.848 E1.8917
G1 X116.145 Y73.831 E1.9431
G1 X116.144 Y73.247 E1.9647
G1 X115.745 Y72.848 E1.9855
G1 X113.587 Y77.682 F4800
G92 E0
G1 X114.413 Y78.508 E0.0433 F1840
G1 X114.413 Y78.785 E0.0535
G1 X114.316 Y78.993 E0.0620
G1 X113.587 Y78.264 E0.1002
G1 X113.587 Y78.785 E0.1194
G1 X113.641 Y78.901 E0.1242
G1 X114.174 Y79.434 E0.1521
G1 X114.124 Y79.603 E0.1586
G1 X114.077 Y79.920 E0.1705
G1 X113.896 Y79.739 E0.1799
G1 X113.958 Y80.158 E0.1956
G1 X113.966 Y80.392 E0.2042
G1 X114.032 Y80.457 E0.2077
G1 X114.032 Y81.040 E0.2292
G1 X113.968 Y80.976 E0.2326
G1 X113.968 Y81.559 E0.2541
G1 X114.032 Y81.623 E0.2575
G1 X114.032 Y82.206 E0.2790
G1 X113.968 Y82.141 E0.2824
G1 X113.968 Y82.724 E0.3040
G1 X114.032 Y82.789 E0.3074
G1 X114.033 Y83.371 E0.3289
G1 X113.967 Y83.306 E0.3323
G1 X113.967 Y83.889 E0.3539
G1 X114.033 Y83.954 E0.3573
G1 X114.033 Y84.537 E0.3789
G1 X113.967 Y84.471 E0.3823
G1 X113.967 Y85.054 E0.4039
G1 X114.033 Y85.120 E0.4073
G1 X114.033 Y85.703 E0.4289
G1 X113.967 Y85.636 E0.4324
G1 X113.967 Y86.219 E0.4539
G1 X114.033 Y86.285 E0.4574
G1 X114.034 Y86.868 E0.4790
G1 X113.966 Y86.801 E0.4825
G1 X113.966 Y87.384 E0.5040
G1 X114.034 Y87.451 E0.5076
G1 X114.034 Y88.034 E0.5291
G1 X113.966 Y87.966 E0.5327
G1 X113.966 Y88.549 E0.5542
G1 X114.034 Y88.617 E0.5578
G1 X114.034 Y89.199 E0.5793
G1 X113.966 Y89.131 E0.5829
G1 X113.966 Y89.714 E0.6045
G1 X114.034 Y89.782 E0.6081
G1 X114.034 Y90.365 E0.6296
G1 X113.966 Y90.296 E0.6332
G1 X113.965 Y90.879 E0.6548
G1 X114.035 Y90.948 E0.6584
G1 X114.035 Y91.531 E0.6800
G1 X113.965 Y91.461 E0.6836
G1 X113.965 Y92.044 E0.7052
G1 X114.035 Y92.114 E0.7088
G1 X114.035 Y92.696 E0.7304
G1 X113.965 Y92.626 E0.7341
G1 X113.965 Y93.209 E0.7556
G1 X114.035 Y93.279 E0.7593
G1 X114.035 Y93.862 E0.7809
G1 X113.965 Y93.791 E0.7846
G1 X113.964 Y94.374 E0.8061
G1 X114.036 Y94.445 E0.8099
G1 X114.036 Y95.028 E0.8314
G1 X113.964 Y94.956 E0.8352
G1 X113.964 Y95.539 E0.8567
G1 X114.036 Y95.610 E0.8605
G1 X114.036 Y96.193 E0.8820
G1 X113.964 Y96.121 E0.8858
G1 X113.964 Y96.704 E0.9074
G1 X114.036 Y96.776 E0.9111
G1 X114.036 Y97.359 E0.9327
G1 X113.964 Y97.286 E0.9365
G1 X113.963 Y97.869 E0.9581
G1 X114.037 Y97.942 E0.9619
G1 X114.037 Y98.524 E0.9835
G1 X113.963 Y98.451 E0.9873
G1 X113.963 Y99.034 E1.0088
G1 X114.037 Y99.107 E1.0127
G1 X114.037 Y99.690 E1.0343
G1 X113.963 Y99.616 E1.0381
G1 X113.963 Y100.199 E1.0597
G1 X114.037 Y100.273 E1.0636
G1 X114.037 Y100.856 E1.0851
G1 X113.963 Y100.781 E1.0890
G1 X113.963 Y101.364 E1.1106
G1 X114.037 Y101.439 E1.1145
G1 X114.038 Y102.021 E1.1361
G1 X113.962 Y101.946 E1.1400
G1 X113.962 Y102.529 E1.1616
G1 X114.038 Y102.604 E1.1655
G1 X114.038 Y103.187 E1.1871
G1 X113.962 Y103.111 E1.1911
G1 X113.962 Y103.694 E1.2126
G1 X114.038 Y103.770 E1.2166
G1 X114.038 Y104.353 E1.2382
G1 X113.962 Y104.276 E1.2422
G1 X113.962 Y104.859 E1.2637
G1 X114.038 Y104.935 E1.2677
G1 X114.039 Y105.518 E1.2893
G1 X113.961 Y105.441 E1.2933
G1 X113.961 Y106.024 E1.3149
G1 X114.039 Y106.101 E1.3190
G1 X114.039 Y106.684 E1.3405
G1 X113.961 Y106.606 E1.3446
G1 X113.961 Y107.189 E1.3661
G1 X114.039 Y107.267 E1.3702
G1 X114.039 Y107.850 E1.3918
G1 X113.961 Y107.771 E1.3959
G1 X113.961 Y108.354 E1.4174
G1 X114.039 Y108.432 E1.4216
G1 X114.040 Y109.015 E1.4431
G1 X113.960 Y108.936 E1.4473
G1 X113.960 Y109.519 E1.4688
G1 X114.040 Y109.598 E1.4730
G1 X114.040 Y109.825 E1.4814
G1 X114.101 Y110.242 E1.4970
G1 X113.925 Y110.066 E1.5062
G1 X113.879 Y110.379 E1.5179
G1 X113.833 Y110.556 E1.5247
G1 X114.345 Y111.068 E1.5515
G1 X114.413 Y111.215 E1.5574
G1 X114.413 Y111.720 E1.5761
G1 X113.689 Y110.995 E1.6140
G1 X113.587 Y111.215 E1.6230
G1 X113.587 Y111.476 E1.6326
G1 X114.413 Y112.302 E1.6759
G1 X114.413 Y112.838 E1.6957
G1 X114.955 Y112.844 E1.7157
G1 X116.152 Y114.041 E1.7783
G1 X116.152 Y114.623 E1.7999
G1 X113.587 Y112.058 E1.9341
G1 X113.587 Y112.641 E1.9557
G1 X116.152 Y115.206 E2.0899
G1 X116.152 Y115.789 E2.1114
G1 X113.202 Y112.839 E2.2658
G1 X112.629 Y112.848 E2.2870
G1 X116.152 Y116.371 E2.4713
