; G-Code generated by Simplify3D(R) Version 4.0.0
; Nov 4, 2020 at 12:46:54 PM
; Settings Summary
;   processName,Process1
;   applyToModels,3_Base_posts
;   profileName,new profile (modified)
;   profileVersion,2020-09-07 14:01:24
;   baseProfile,Default (modified)
;   printMaterial,PLA
;   printQuality,Medium
;   printExtruders,
;   extruderName,Primary Extruder
;   extruderToolheadNumber,0
;   extruderDiameter,0.4
;   extruderAutoWidth,0
;   extruderWidth,0.4
;   extrusionMultiplier,0.9
;   extruderUseRetract,1
;   extruderRetractionDistance,1
;   extruderExtraRestartDistance,0
;   extruderRetractionZLift,0
;   extruderRetractionSpeed,1800
;   extruderUseCoasting,0
;   extruderCoastingDistance,0.2
;   extruderUseWipe,0
;   extruderWipeDistance,5
;   primaryExtruder,0
;   layerHeight,0.24
;   topSolidLayers,3
;   bottomSolidLayers,3
;   perimeterOutlines,2
;   printPerimetersInsideOut,1
;   startPointOption,2
;   startPointOriginX,0
;   startPointOriginY,0
;   sequentialIslands,0
;   spiralVaseMode,0
;   firstLayerHeightPercentage,100
;   firstLayerWidthPercentage,103
;   firstLayerUnderspeed,0.5
;   useRaft,0
;   raftExtruder,0
;   raftTopLayers,3
;   raftBaseLayers,2
;   raftOffset,3
;   raftSeparationDistance,0.14
;   raftTopInfill,100
;   aboveRaftSpeedMultiplier,0.3
;   useSkirt,0
;   skirtExtruder,0
;   skirtLayers,1
;   skirtOutlines,2
;   skirtOffset,4
;   usePrimePillar,0
;   primePillarExtruder,999
;   primePillarWidth,12
;   primePillarLocation,7
;   primePillarSpeedMultiplier,1
;   useOozeShield,0
;   oozeShieldExtruder,999
;   oozeShieldOffset,2
;   oozeShieldOutlines,1
;   oozeShieldSidewallShape,1
;   oozeShieldSidewallAngle,30
;   oozeShieldSpeedMultiplier,1
;   infillExtruder,0
;   internalInfillPattern,Rectilinear
;   externalInfillPattern,Rectilinear
;   infillPercentage,100
;   outlineOverlapPercentage,15
;   infillExtrusionWidthPercentage,100
;   minInfillLength,5
;   infillLayerInterval,1
;   internalInfillAngles,45,-45
;   overlapInternalInfillAngles,0
;   externalInfillAngles,45,-45
;   generateSupport,0
;   supportExtruder,0
;   supportInfillPercentage,30
;   supportExtraInflation,0
;   supportBaseLayers,0
;   denseSupportExtruder,0
;   denseSupportLayers,0
;   denseSupportInfillPercentage,70
;   supportLayerInterval,1
;   supportHorizontalPartOffset,0.3
;   supportUpperSeparationLayers,1
;   supportLowerSeparationLayers,1
;   supportType,1
;   supportGridSpacing,4
;   maxOverhangAngle,45
;   supportAngles,0
;   temperatureName,Primary Extruder,Hot Bed
;   temperatureNumber,0,1
;   temperatureSetpointCount,1,1
;   temperatureSetpointLayers,1,1
;   temperatureSetpointTemperatures,210,60
;   temperatureStabilizeAtStartup,1,0
;   temperatureHeatedBed,0,1
;   temperatureRelayBetweenLayers,0,0
;   temperatureRelayBetweenLoops,0,0
;   fanLayers,1,2
;   fanSpeeds,0,100
;   blipFanToFullPower,0
;   adjustSpeedForCooling,1
;   minSpeedLayerTime,15
;   minCoolingSpeedSlowdown,20
;   increaseFanForCooling,0
;   minFanLayerTime,45
;   maxCoolingFanSpeed,100
;   increaseFanForBridging,0
;   bridgingFanSpeed,100
;   use5D,1
;   relativeEdistances,0
;   allowEaxisZeroing,1
;   independentExtruderAxes,0
;   includeM10123,0
;   stickySupport,1
;   applyToolheadOffsets,0
;   gcodeXoffset,0
;   gcodeYoffset,0
;   gcodeZoffset,0
;   overrideMachineDefinition,0
;   machineTypeOverride,0
;   strokeXoverride,200
;   strokeYoverride,200
;   strokeZoverride,200
;   originOffsetXoverride,0
;   originOffsetYoverride,0
;   originOffsetZoverride,0
;   homeXdirOverride,-1
;   homeYdirOverride,-1
;   homeZdirOverride,-1
;   flipXoverride,1
;   flipYoverride,-1
;   flipZoverride,1
;   toolheadOffsets,0,0|0,0|0,0|0,0|0,0|0,0
;   overrideFirmwareConfiguration,0
;   firmwareTypeOverride,RepRap (Marlin/Repetier/Sprinter)
;   GPXconfigOverride,r2
;   baudRateOverride,115200
;   overridePrinterModels,0
;   printerModelsOverride
;   startingGcode,G28 ; home all axes,G1 X0 Y5 Z0.2 F3000 ; get ready to prime,G92 E0 ; reset extrusion distance,G1 Y150 E20 F600 ; prime nozzle
;   layerChangeGcode,
;   retractionGcode,
;   toolChangeGcode,
;   endingGcode,M104 S0 ; turn off extruder,M140 S0 ; turn off bedG1 X0 Y0; home,M84 ; disable motors,M107 ; fan off,G28 X Y; Home,M18; Disable steppers
;   exportFileFormat,gcode
;   celebration,0
;   celebrationSong,Random Song
;   postProcessing,
;   defaultSpeed,4600
;   outlineUnderspeed,0.5
;   solidInfillUnderspeed,0.8
;   supportUnderspeed,0.8
;   rapidXYspeed,4800
;   rapidZspeed,1000
;   minBridgingArea,50
;   bridgingExtraInflation,0
;   bridgingExtrusionMultiplier,1
;   bridgingSpeedMultiplier,1
;   useFixedBridgingAngle,0
;   fixedBridgingAngle,0
;   applyBridgingToPerimeters,0
;   filamentDiameters,1.75|1.75|1.75|1.75|1.75|1.75
;   filamentPricesPerKg,46|46|46|46|46|46
;   filamentDensities,1.25|1.25|1.25|1.25|1.25|1.25
;   useMinPrintHeight,0
;   minPrintHeight,0
;   useMaxPrintHeight,0
;   maxPrintHeight,0
;   useDiaphragm,0
;   diaphragmLayerInterval,20
;   robustSlicing,1
;   mergeAllIntoSolid,0
;   onlyRetractWhenCrossingOutline,1
;   retractBetweenLayers,1
;   useRetractionMinTravel,0
;   retractionMinTravel,3
;   retractWhileWiping,0
;   onlyWipeOutlines,1
;   avoidCrossingOutline,0
;   maxMovementDetourFactor,3
;   toolChangeRetractionDistance,12
;   toolChangeExtraRestartDistance,-0.5
;   toolChangeRetractionSpeed,600
;   externalThinWallType,1
;   internalThinWallType,1
;   thinWallAllowedOverlapPercentage,10
;   singleExtrusionMinLength,1
;   singleExtrusionMinPrintingWidthPercentage,50
;   singleExtrusionMaxPrintingWidthPercentage,200
;   singleExtrusionEndpointExtension,0.2
;   horizontalSizeCompensation,0
G90
M82
M106 S0
M140 S60
M104 S210 T0
M109 S210 T0
G28 ; home all axes
G1 X0 Y5 Z0.2 F3000 ; get ready to prime
G92 E0 ; reset extrusion distance
G1 Y150 E20 F600 ; prime nozzle
G92 E0
G1 E-1.0000 F1800
G1 Z0.240 F1000
; process Process1
; layer 1, Z = 0.240
T0
; tool H0.240 W0.412
; inner perimeter
G1 X111.567 Y72.753 F4800
G1 E0.0000 F540
G92 E0
G1 X111.647 Y72.651 E0.0048 F1640
G1 X111.773 Y72.555 E0.0107
G1 X111.805 Y72.539 E0.0120
G1 X111.862 Y72.520 E0.0142
G1 X112.039 Y72.498 E0.0208
G1 X115.977 Y72.498 E0.1665
G1 X116.056 Y72.504 E0.1694
G1 X116.205 Y72.545 E0.1752
G1 X116.241 Y72.563 E0.1767
G1 X116.364 Y72.658 E0.1824
G1 X116.390 Y72.689 E0.1839
G1 X116.458 Y72.807 E0.1889
G1 X116.493 Y72.942 E0.1941
G1 X116.502 Y76.959 E0.3427
G1 X116.478 Y77.134 E0.3492
G1 X116.427 Y77.259 E0.3543
G1 X116.394 Y77.308 E0.3564
G1 X116.358 Y77.350 E0.3585
G1 X116.314 Y77.388 E0.3606
G1 X116.192 Y77.458 E0.3659
G1 X116.076 Y77.491 E0.3703
G1 X114.764 Y77.512 E0.4189
G1 X114.764 Y78.863 E0.4688
G1 X114.618 Y79.175 E0.4816
G1 X114.466 Y79.679 E0.5011
G1 X114.392 Y80.190 E0.5202
G1 X114.382 Y80.453 E0.5299
G1 X114.390 Y109.799 E1.6157
G1 X114.465 Y110.309 E1.6348
G1 X114.534 Y110.575 E1.6449
G1 X114.622 Y110.835 E1.6551
G1 X114.764 Y111.137 E1.6674
G1 X114.764 Y112.491 E1.7175
G1 X116.052 Y112.505 E1.7652
G1 X116.221 Y112.549 E1.7716
G1 X116.371 Y112.665 E1.7786
G1 X116.394 Y112.692 E1.7800
G1 X116.427 Y112.741 E1.7821
G1 X116.478 Y112.866 E1.7872
G1 X116.502 Y113.041 E1.7937
G1 X116.502 Y116.977 E1.9393
G1 X116.495 Y117.075 E1.9430
G1 X116.486 Y117.115 E1.9445
G1 X116.433 Y117.243 E1.9496
G1 X116.337 Y117.370 E1.9555
G1 X116.307 Y117.393 E1.9569
G1 X116.193 Y117.458 E1.9617
G1 X116.058 Y117.493 E1.9669
G1 X112.022 Y117.502 E2.1162
G1 X111.925 Y117.495 E2.1198
G1 X111.885 Y117.486 E2.1213
G1 X111.757 Y117.433 E2.1264
G1 X111.620 Y117.329 E2.1329
G1 X111.542 Y117.193 E2.1386
G1 X111.507 Y117.058 E2.1438
G1 X111.498 Y113.041 E2.2924
G1 X111.522 Y112.866 E2.2989
G1 X111.573 Y112.741 E2.3040
G1 X111.606 Y112.692 E2.3061
G1 X111.642 Y112.650 E2.3082
G1 X111.686 Y112.612 E2.3103
G1 X111.808 Y112.542 E2.3156
G1 X111.924 Y112.509 E2.3200
G1 X113.236 Y112.488 E2.3686
G1 X113.236 Y111.137 E2.4185
G1 X113.377 Y110.835 E2.4309
G1 X113.466 Y110.575 E2.4410
G1 X113.535 Y110.309 E2.4512
G1 X113.610 Y109.799 E2.4703
G1 X113.618 Y80.453 E3.5560
G1 X113.608 Y80.190 E3.5658
G1 X113.534 Y79.679 E3.5849
G1 X113.382 Y79.175 E3.6044
G1 X113.236 Y78.863 E3.6171
G1 X113.236 Y77.509 E3.6672
G1 X111.948 Y77.495 E3.7149
G1 X111.813 Y77.460 E3.7200
G1 X111.684 Y77.387 E3.7255
G1 X111.642 Y77.350 E3.7276
G1 X111.606 Y77.308 E3.7296
G1 X111.573 Y77.259 E3.7318
G1 X111.522 Y77.134 E3.7368
G1 X111.498 Y76.959 E3.7434
G1 X111.498 Y73.019 E3.8891
G1 X111.502 Y72.961 E3.8913
G1 X111.548 Y72.785 E3.8980
G1 X111.567 Y72.753 E3.8994
; outer perimeter
G1 X111.213 Y72.537 F4800
G92 E0
G1 X111.354 Y72.356 E0.0085 F1093
G1 X111.556 Y72.202 E0.0179
G1 X111.649 Y72.156 E0.0217
G1 X111.771 Y72.116 E0.0265
G1 X112.013 Y72.086 E0.0355
G1 X115.992 Y72.086 E0.1827
G1 X116.126 Y72.096 E0.1877
G1 X116.354 Y72.158 E0.1964
G1 X116.463 Y72.213 E0.2009
G1 X116.649 Y72.358 E0.2097
G1 X116.729 Y72.450 E0.2142
G1 X116.842 Y72.650 E0.2227
G1 X116.905 Y72.889 E0.2318
G1 X116.914 Y76.986 E0.3834
G1 X116.880 Y77.242 E0.3929
G1 X116.793 Y77.453 E0.4014
G1 X116.723 Y77.559 E0.4061
G1 X116.650 Y77.642 E0.4102
G1 X116.555 Y77.725 E0.4149
G1 X116.352 Y77.842 E0.4235
G1 X116.135 Y77.902 E0.4318
G1 X115.176 Y77.917 E0.4673
G1 X115.176 Y78.954 E0.5057
G1 X115.004 Y79.322 E0.5207
G1 X114.870 Y79.769 E0.5380
G1 X114.802 Y80.227 E0.5551
G1 X114.794 Y80.460 E0.5638
G1 X114.802 Y109.769 E1.6482
G1 X114.869 Y110.227 E1.6653
G1 X114.929 Y110.457 E1.6741
G1 X115.005 Y110.681 E1.6828
G1 X115.176 Y111.046 E1.6977
G1 X115.176 Y112.084 E1.7361
G1 X116.106 Y112.094 E1.7706
G1 X116.349 Y112.156 E1.7798
G1 X116.451 Y112.206 E1.7840
G1 X116.654 Y112.363 E1.7935
G1 X116.723 Y112.441 E1.7974
G1 X116.793 Y112.547 E1.8021
G1 X116.880 Y112.758 E1.8105
G1 X116.914 Y113.014 E1.8201
G1 X116.914 Y116.992 E1.9673
G1 X116.903 Y117.133 E1.9725
G1 X116.882 Y117.237 E1.9764
G1 X116.794 Y117.450 E1.9849
G1 X116.641 Y117.650 E1.9942
G1 X116.550 Y117.729 E1.9987
G1 X116.350 Y117.842 E2.0072
G1 X116.111 Y117.905 E2.0163
G1 X112.008 Y117.914 E2.1682
G1 X111.867 Y117.903 E2.1734
G1 X111.763 Y117.882 E2.1773
G1 X111.550 Y117.794 E2.1858
G1 X111.350 Y117.641 E2.1951
G1 X111.271 Y117.550 E2.1996
G1 X111.158 Y117.350 E2.2081
G1 X111.095 Y117.111 E2.2172
G1 X111.086 Y113.014 E2.3689
G1 X111.120 Y112.758 E2.3784
G1 X111.207 Y112.547 E2.3868
G1 X111.277 Y112.441 E2.3915
G1 X111.350 Y112.358 E2.3956
G1 X111.445 Y112.275 E2.4003
G1 X111.648 Y112.158 E2.4089
G1 X111.865 Y112.098 E2.4173
G1 X112.824 Y112.083 E2.4528
G1 X112.824 Y111.046 E2.4911
G1 X112.995 Y110.681 E2.5060
G1 X113.071 Y110.457 E2.5148
G1 X113.131 Y110.227 E2.5236
G1 X113.198 Y109.769 E2.5407
G1 X113.206 Y80.460 E3.6251
G1 X113.198 Y80.227 E3.6337
G1 X113.130 Y79.769 E3.6509
G1 X112.996 Y79.322 E3.6681
G1 X112.824 Y78.954 E3.6831
G1 X112.824 Y77.916 E3.7215
G1 X111.894 Y77.906 E3.7560
G1 X111.658 Y77.845 E3.7650
G1 X111.445 Y77.725 E3.7740
G1 X111.350 Y77.642 E3.7787
G1 X111.277 Y77.559 E3.7828
G1 X111.207 Y77.453 E3.7875
G1 X111.120 Y77.242 E3.7959
G1 X111.086 Y76.986 E3.8055
G1 X111.086 Y73.006 E3.9527
G1 X111.093 Y72.895 E3.9569
G1 X111.159 Y72.645 E3.9664
G1 X111.213 Y72.537 E3.9709
; solid layer
G1 X111.848 Y76.534 F4800
G92 E0
G1 X112.464 Y77.150 E0.0322 F1749
G1 X113.054 Y77.157 E0.0540
G1 X111.848 Y75.951 E0.1171
G1 X111.848 Y75.368 E0.1387
G1 X114.413 Y77.934 E0.2729
G1 X114.413 Y77.351 E0.2944
G1 X111.848 Y74.786 E0.4287
G1 X111.848 Y74.203 E0.4502
G1 X114.806 Y77.161 E0.6050
G1 X115.379 Y77.152 E0.6262
G1 X111.848 Y73.621 E0.8110
G1 X111.848 Y73.038 E0.8325
G1 X115.953 Y77.142 E1.0473
G1 X116.026 Y77.141 E1.0500
G1 X116.056 Y77.133 E1.0511
G1 X116.110 Y77.102 E1.0534
G1 X116.115 Y77.096 E1.0537
G1 X116.137 Y77.042 E1.0558
G1 X116.152 Y76.936 E1.0598
G1 X116.151 Y76.758 E1.0664
G1 X112.241 Y72.848 E1.2710
G1 X112.824 Y72.848 E1.2925
G1 X116.150 Y76.174 E1.4666
G1 X116.149 Y75.591 E1.4882
G1 X113.406 Y72.848 E1.6316
G1 X113.989 Y72.848 E1.6532
G1 X116.148 Y75.007 E1.7661
G1 X116.146 Y74.423 E1.7877
G1 X114.572 Y72.848 E1.8701
G1 X115.154 Y72.848 E1.8917
G1 X116.145 Y73.839 E1.9435
G1 X116.144 Y73.255 E1.9651
G1 X115.737 Y72.848 E1.9864
G1 X113.587 Y77.690 F4800
G92 E0
G1 X114.413 Y78.516 E0.0433 F1749
G1 X114.413 Y78.785 E0.0532
G1 X114.313 Y78.999 E0.0619
G1 X113.587 Y78.272 E0.1000
G1 X113.587 Y78.785 E0.1189
G1 X113.648 Y78.916 E0.1243
G1 X114.172 Y79.441 E0.1517
G1 X114.124 Y79.603 E0.1580
G1 X114.076 Y79.927 E0.1701
G1 X113.898 Y79.749 E0.1795
G1 X113.958 Y80.158 E0.1948
G1 X113.967 Y80.400 E0.2037
G1 X114.032 Y80.465 E0.2071
G1 X114.032 Y81.048 E0.2287
G1 X113.968 Y80.984 E0.2321
G1 X113.968 Y81.567 E0.2536
G1 X114.032 Y81.631 E0.2570
G1 X114.032 Y82.214 E0.2785
G1 X113.968 Y82.149 E0.2819
G1 X113.968 Y82.732 E0.3035
G1 X114.032 Y82.797 E0.3068
G1 X114.033 Y83.379 E0.3284
G1 X113.967 Y83.314 E0.3318
G1 X113.967 Y83.897 E0.3534
G1 X114.033 Y83.962 E0.3568
G1 X114.033 Y84.545 E0.3784
G1 X113.967 Y84.479 E0.3818
G1 X113.967 Y85.062 E0.4034
G1 X114.033 Y85.128 E0.4068
G1 X114.033 Y85.711 E0.4284
G1 X113.967 Y85.644 E0.4319
G1 X113.967 Y86.227 E0.4534
G1 X114.033 Y86.294 E0.4569
G1 X114.034 Y86.876 E0.4785
G1 X113.966 Y86.809 E0.4820
G1 X113.966 Y87.392 E0.5035
G1 X114.034 Y87.459 E0.5071
G1 X114.034 Y88.042 E0.5286
G1 X113.966 Y87.974 E0.5322
G1 X113.966 Y88.557 E0.5537
G1 X114.034 Y88.625 E0.5573
G1 X114.034 Y89.208 E0.5788
G1 X113.966 Y89.139 E0.5824
G1 X113.966 Y89.722 E0.6040
G1 X114.034 Y89.790 E0.6075
G1 X114.034 Y90.373 E0.6291
G1 X113.966 Y90.304 E0.6327
G1 X113.965 Y90.887 E0.6543
G1 X114.035 Y90.956 E0.6579
G1 X114.035 Y91.539 E0.6795
G1 X113.965 Y91.469 E0.6831
G1 X113.965 Y92.052 E0.7047
G1 X114.035 Y92.122 E0.7083
G1 X114.035 Y92.704 E0.7299
G1 X113.965 Y92.634 E0.7335
G1 X113.965 Y93.217 E0.7551
G1 X114.035 Y93.287 E0.7588
G1 X114.035 Y93.870 E0.7804
G1 X113.965 Y93.799 E0.7841
G1 X113.964 Y94.382 E0.8056
G1 X114.036 Y94.453 E0.8093
G1 X114.036 Y95.036 E0.8309
G1 X113.964 Y94.964 E0.8346
G1 X113.964 Y95.547 E0.8562
G1 X114.036 Y95.619 E0.8600
G1 X114.036 Y96.201 E0.8815
G1 X113.964 Y96.129 E0.8853
G1 X113.964 Y96.712 E0.9068
G1 X114.036 Y96.784 E0.9106
G1 X114.036 Y97.367 E0.9322
G1 X113.964 Y97.294 E0.9360
G1 X113.963 Y97.877 E0.9576
G1 X114.037 Y97.950 E0.9614
G1 X114.037 Y98.533 E0.9829
G1 X113.963 Y98.459 E0.9868
G1 X113.963 Y99.042 E1.0083
G1 X114.037 Y99.115 E1.0122
G1 X114.037 Y99.698 E1.0338
G1 X113.963 Y99.624 E1.0376
G1 X113.963 Y100.207 E1.0592
G1 X114.037 Y100.281 E1.0631
G1 X114.037 Y100.864 E1.0846
G1 X113.963 Y100.789 E1.0885
G1 X113.963 Y101.372 E1.1101
G1 X114.037 Y101.447 E1.1140
G1 X114.038 Y102.030 E1.1356
G1 X113.962 Y101.954 E1.1395
G1 X113.962 Y102.537 E1.1611
G1 X114.038 Y102.612 E1.1650
G1 X114.038 Y103.195 E1.1866
G1 X113.962 Y103.119 E1.1906
G1 X113.962 Y103.702 E1.2121
G1 X114.038 Y103.778 E1.2161
G1 X114.038 Y104.361 E1.2377
G1 X113.962 Y104.284 E1.2417
G1 X113.962 Y104.867 E1.2632
G1 X114.038 Y104.944 E1.2672
G1 X114.039 Y105.526 E1.2888
G1 X113.961 Y105.449 E1.2928
G1 X113.961 Y106.032 E1.3144
G1 X114.039 Y106.109 E1.3184
G1 X114.039 Y106.692 E1.3400
G1 X113.961 Y106.614 E1.3441
G1 X113.961 Y107.197 E1.3656
G1 X114.039 Y107.275 E1.3697
G1 X114.039 Y107.858 E1.3913
G1 X113.961 Y107.779 E1.3954
G1 X113.961 Y108.362 E1.4169
G1 X114.039 Y108.440 E1.4211
G1 X114.040 Y109.023 E1.4426
G1 X113.960 Y108.944 E1.4468
G1 X113.960 Y109.527 E1.4683
G1 X114.040 Y109.606 E1.4725
G1 X114.040 Y109.825 E1.4806
G1 X114.102 Y110.251 E1.4965
G1 X113.924 Y110.073 E1.5058
G1 X113.879 Y110.379 E1.5173
G1 X113.831 Y110.563 E1.5243
G1 X114.352 Y111.084 E1.5516
G1 X114.413 Y111.215 E1.5569
G1 X114.413 Y111.728 E1.5759
G1 X113.687 Y111.001 E1.6139
G1 X113.587 Y111.215 E1.6227
G1 X113.587 Y111.484 E1.6326
G1 X114.413 Y112.310 E1.6759
G1 X114.413 Y112.838 E1.6954
G1 X114.946 Y112.843 E1.7151
G1 X116.152 Y114.049 E1.7782
G1 X116.152 Y114.631 E1.7997
G1 X113.587 Y112.066 E1.9339
G1 X113.587 Y112.649 E1.9555
G1 X116.152 Y115.214 E2.0897
G1 X116.152 Y115.797 E2.1113
G1 X113.194 Y112.839 E2.2660
G1 X112.621 Y112.848 E2.2873
G1 X116.152 Y116.379 E2.4720
G1 X116.152 Y116.962 E2.4936
