; G-Code generated by Simplify3D(R) Version 4.0.0
; Nov 3, 2020 at 6:17:50 PM
; Settings Summary
;   processName,Process1
;   applyToModels,4_Sides
;   profileName,new profile (modified)
;   profileVersion,2020-09-07 14:01:24
;   baseProfile,Default (modified)
;   printMaterial,PLA
;   printQuality,Medium
;   printExtruders,
;   extruderName,Primary Extruder
;   extruderToolheadNumber,0
;   extruderDiameter,0.4
;   extruderAutoWidth,0
;   extruderWidth,0.4
;   extrusionMultiplier,0.9
;   extruderUseRetract,1
;   extruderRetractionDistance,1
;   extruderExtraRestartDistance,0
;   extruderRetractionZLift,0
;   extruderRetractionSpeed,1800
;   extruderUseCoasting,0
;   extruderCoastingDistance,0.2
;   extruderUseWipe,0
;   extruderWipeDistance,5
;   primaryExtruder,0
;   layerHeight,0.3
;   topSolidLayers,3
;   bottomSolidLayers,3
;   perimeterOutlines,2
;   printPerimetersInsideOut,1
;   startPointOption,2
;   startPointOriginX,0
;   startPointOriginY,0
;   sequentialIslands,0
;   spiralVaseMode,0
;   firstLayerHeightPercentage,100
;   firstLayerWidthPercentage,103
;   firstLayerUnderspeed,0.5
;   useRaft,0
;   raftExtruder,0
;   raftTopLayers,3
;   raftBaseLayers,2
;   raftOffset,3
;   raftSeparationDistance,0.14
;   raftTopInfill,100
;   aboveRaftSpeedMultiplier,0.3
;   useSkirt,0
;   skirtExtruder,0
;   skirtLayers,1
;   skirtOutlines,2
;   skirtOffset,4
;   usePrimePillar,0
;   primePillarExtruder,999
;   primePillarWidth,12
;   primePillarLocation,7
;   primePillarSpeedMultiplier,1
;   useOozeShield,0
;   oozeShieldExtruder,999
;   oozeShieldOffset,2
;   oozeShieldOutlines,1
;   oozeShieldSidewallShape,1
;   oozeShieldSidewallAngle,30
;   oozeShieldSpeedMultiplier,1
;   infillExtruder,0
;   internalInfillPattern,Rectilinear
;   externalInfillPattern,Rectilinear
;   infillPercentage,50
;   outlineOverlapPercentage,15
;   infillExtrusionWidthPercentage,100
;   minInfillLength,5
;   infillLayerInterval,1
;   internalInfillAngles,45,-45
;   overlapInternalInfillAngles,0
;   externalInfillAngles,45,-45
;   generateSupport,0
;   supportExtruder,0
;   supportInfillPercentage,30
;   supportExtraInflation,0
;   supportBaseLayers,0
;   denseSupportExtruder,0
;   denseSupportLayers,0
;   denseSupportInfillPercentage,70
;   supportLayerInterval,1
;   supportHorizontalPartOffset,0.3
;   supportUpperSeparationLayers,1
;   supportLowerSeparationLayers,1
;   supportType,1
;   supportGridSpacing,4
;   maxOverhangAngle,45
;   supportAngles,0
;   temperatureName,Primary Extruder,Hot Bed
;   temperatureNumber,0,1
;   temperatureSetpointCount,1,1
;   temperatureSetpointLayers,1,1
;   temperatureSetpointTemperatures,210,60
;   temperatureStabilizeAtStartup,1,0
;   temperatureHeatedBed,0,1
;   temperatureRelayBetweenLayers,0,0
;   temperatureRelayBetweenLoops,0,0
;   fanLayers,1,2
;   fanSpeeds,0,100
;   blipFanToFullPower,0
;   adjustSpeedForCooling,1
;   minSpeedLayerTime,15
;   minCoolingSpeedSlowdown,20
;   increaseFanForCooling,0
;   minFanLayerTime,45
;   maxCoolingFanSpeed,100
;   increaseFanForBridging,0
;   bridgingFanSpeed,100
;   use5D,1
;   relativeEdistances,0
;   allowEaxisZeroing,1
;   independentExtruderAxes,0
;   includeM10123,0
;   stickySupport,1
;   applyToolheadOffsets,0
;   gcodeXoffset,0
;   gcodeYoffset,0
;   gcodeZoffset,0
;   overrideMachineDefinition,0
;   machineTypeOverride,0
;   strokeXoverride,200
;   strokeYoverride,200
;   strokeZoverride,200
;   originOffsetXoverride,0
;   originOffsetYoverride,0
;   originOffsetZoverride,0
;   homeXdirOverride,-1
;   homeYdirOverride,-1
;   homeZdirOverride,-1
;   flipXoverride,1
;   flipYoverride,-1
;   flipZoverride,1
;   toolheadOffsets,0,0|0,0|0,0|0,0|0,0|0,0
;   overrideFirmwareConfiguration,0
;   firmwareTypeOverride,RepRap (Marlin/Repetier/Sprinter)
;   GPXconfigOverride,r2
;   baudRateOverride,115200
;   overridePrinterModels,0
;   printerModelsOverride
;   startingGcode,G28 ; home all axes,G1 X0 Y5 Z0.2 F3000 ; get ready to prime,G92 E0 ; reset extrusion distance,G1 Y150 E20 F600 ; prime nozzle
;   layerChangeGcode,
;   retractionGcode,
;   toolChangeGcode,
;   endingGcode,M104 S0 ; turn off extruder,M140 S0 ; turn off bedG1 X0 Y0; home,M84 ; disable motors,M107 ; fan off,G28 X Y; Home
;   exportFileFormat,gcode
;   celebration,0
;   celebrationSong,Random Song
;   postProcessing,
;   defaultSpeed,4600
;   outlineUnderspeed,0.5
;   solidInfillUnderspeed,0.8
;   supportUnderspeed,0.8
;   rapidXYspeed,4800
;   rapidZspeed,1000
;   minBridgingArea,50
;   bridgingExtraInflation,0
;   bridgingExtrusionMultiplier,1
;   bridgingSpeedMultiplier,1
;   useFixedBridgingAngle,0
;   fixedBridgingAngle,0
;   applyBridgingToPerimeters,0
;   filamentDiameters,1.75|1.75|1.75|1.75|1.75|1.75
;   filamentPricesPerKg,46|46|46|46|46|46
;   filamentDensities,1.25|1.25|1.25|1.25|1.25|1.25
;   useMinPrintHeight,0
;   minPrintHeight,0
;   useMaxPrintHeight,0
;   maxPrintHeight,0
;   useDiaphragm,0
;   diaphragmLayerInterval,20
;   robustSlicing,1
;   mergeAllIntoSolid,0
;   onlyRetractWhenCrossingOutline,1
;   retractBetweenLayers,1
;   useRetractionMinTravel,0
;   retractionMinTravel,3
;   retractWhileWiping,0
;   onlyWipeOutlines,1
;   avoidCrossingOutline,0
;   maxMovementDetourFactor,3
;   toolChangeRetractionDistance,12
;   toolChangeExtraRestartDistance,-0.5
;   toolChangeRetractionSpeed,600
;   externalThinWallType,1
;   internalThinWallType,1
;   thinWallAllowedOverlapPercentage,10
;   singleExtrusionMinLength,1
;   singleExtrusionMinPrintingWidthPercentage,50
;   singleExtrusionMaxPrintingWidthPercentage,200
;   singleExtrusionEndpointExtension,0.2
;   horizontalSizeCompensation,0
G90
M82
M106 S0
M140 S60
M104 S210 T0
M109 S210 T0
G28 ; home all axes
G1 X0 Y5 Z0.2 F3000 ; get ready to prime
G92 E0 ; reset extrusion distance
G1 Y150 E20 F600 ; prime nozzle
G92 E0
G1 E-1.0000 F1800
G1 Z0.300 F1000
; process Process1
; layer 1, Z = 0.300
T0
; tool H0.300 W0.412
; inner perimeter
G1 X25.197 Y157.821 F4800
G1 E0.0000 F540
G92 E0
G1 X25.881 Y157.877 E0.0318 F1725
G1 X26.552 Y158.017 E0.0634
G1 X27.259 Y158.264 E0.0981
G1 X27.873 Y158.571 E0.1298
G1 X28.392 Y158.915 E0.1586
G1 X28.963 Y159.402 E0.1933
G1 X29.959 Y160.516 E0.2624
G1 X30.555 Y161.057 E0.2996
G1 X31.165 Y161.504 E0.3346
G1 X31.860 Y161.910 E0.3719
G1 X32.597 Y162.240 E0.4092
G1 X33.350 Y162.482 E0.4458
G1 X65.343 Y170.924 E1.9761
G1 X76.324 Y166.454 E2.5243
G1 X78.665 Y166.037 E2.6343
G1 X79.926 Y165.772 E2.6939
G1 X80.025 Y166.096 E2.7096
G1 X75.425 Y167.965 E2.9392
G1 X74.939 Y168.212 E2.9645
G1 X74.478 Y168.550 E2.9909
G1 X74.080 Y168.959 E3.0173
G1 X73.753 Y169.427 E3.0437
G1 X73.519 Y169.920 E3.0689
G1 X72.167 Y173.501 E3.2459
G1 X71.895 Y173.484 E3.2586
G1 X71.854 Y173.320 E3.2664
G1 X71.612 Y172.771 E3.2942
G1 X71.279 Y172.271 E3.3219
G1 X70.865 Y171.836 E3.3497
G1 X70.382 Y171.479 E3.3775
G1 X69.845 Y171.211 E3.4053
G1 X69.269 Y171.040 E3.4330
G1 X68.673 Y170.970 E3.4608
G1 X68.073 Y171.004 E3.4886
G1 X67.520 Y171.133 E3.5149
G1 X66.923 Y171.318 E3.5438
G1 X65.722 Y171.627 E3.6011
G1 X56.768 Y174.527 E4.0364
G1 X56.610 Y174.304 E4.0491
G1 X56.783 Y174.080 E4.0621
G1 X56.981 Y173.706 E4.0817
G1 X57.112 Y173.304 E4.1013
G1 X57.173 Y172.886 E4.1208
G1 X57.161 Y172.463 E4.1404
G1 X57.078 Y172.049 E4.1599
G1 X56.925 Y171.654 E4.1795
G1 X56.707 Y171.292 E4.1990
G1 X56.430 Y170.972 E4.2186
G1 X56.103 Y170.704 E4.2381
G1 X55.735 Y170.496 E4.2577
G1 X55.362 Y170.363 E4.2760
G1 X32.863 Y164.426 E5.3522
G1 X32.361 Y164.279 E5.3764
G1 X31.875 Y164.107 E5.4002
G1 X31.369 Y163.897 E5.4256
G1 X31.012 Y163.772 E5.4430
G1 X30.605 Y163.702 E5.4621
G1 X30.193 Y163.700 E5.4812
G1 X29.786 Y163.768 E5.5002
G1 X29.396 Y163.902 E5.5193
G1 X29.034 Y164.099 E5.5384
G1 X28.710 Y164.353 E5.5575
G1 X28.429 Y164.662 E5.5768
G1 X28.009 Y165.339 E5.6136
G1 X27.768 Y165.653 E5.6319
G1 X27.467 Y165.966 E5.6520
G1 X27.230 Y166.224 E5.6682
G1 X27.014 Y166.552 E5.6863
G1 X26.853 Y166.909 E5.7045
G1 X26.750 Y167.288 E5.7226
G1 X26.709 Y167.678 E5.7408
G1 X26.729 Y168.069 E5.7589
G1 X26.812 Y168.453 E5.7770
G1 X26.954 Y168.818 E5.7952
G1 X27.152 Y169.157 E5.8133
G1 X27.401 Y169.460 E5.8314
G1 X27.677 Y169.703 E5.8484
G1 X38.399 Y177.749 E6.4684
G1 X39.040 Y178.172 E6.5039
G1 X39.649 Y178.477 E6.5354
G1 X40.482 Y178.782 E6.5765
G1 X41.148 Y178.935 E6.6081
G1 X41.927 Y179.024 E6.6443
G1 X42.715 Y179.018 E6.6808
G1 X43.496 Y178.916 E6.7172
G1 X44.240 Y178.724 E6.7527
G1 X45.715 Y178.247 E6.8245
G1 X45.872 Y178.473 E6.8372
G1 X45.474 Y178.976 E6.8669
G1 X45.194 Y179.487 E6.8938
G1 X45.003 Y180.037 E6.9208
G1 X44.907 Y180.612 E6.9477
G1 X44.909 Y181.194 E6.9746
G1 X45.008 Y181.768 E7.0016
G1 X45.202 Y182.318 E7.0285
G1 X45.484 Y182.827 E7.0555
G1 X45.848 Y183.282 E7.0824
G1 X46.264 Y183.652 E7.1081
G1 X50.262 Y186.653 E7.3393
G1 X50.573 Y186.849 E7.3563
G1 X50.933 Y187.004 E7.3745
G1 X51.313 Y187.099 E7.3926
G1 X51.704 Y187.134 E7.4107
G1 X52.095 Y187.106 E7.4289
G1 X52.477 Y187.016 E7.4470
G1 X52.840 Y186.867 E7.4652
G1 X53.175 Y186.663 E7.4833
G1 X53.473 Y186.408 E7.5014
G1 X53.727 Y186.108 E7.5196
G1 X54.204 Y185.319 E7.5623
G1 X54.550 Y184.902 E7.5873
G1 X54.589 Y184.864 E7.5898
G1 X54.938 Y184.557 E7.6113
G1 X55.385 Y184.267 E7.6360
G1 X55.866 Y184.049 E7.6604
G1 X56.472 Y183.885 E7.6894
G1 X56.996 Y183.832 E7.7138
G1 X57.527 Y183.858 E7.7384
G1 X58.047 Y183.964 E7.7629
G1 X58.546 Y184.147 E7.7875
G1 X59.012 Y184.403 E7.8121
G1 X59.433 Y184.726 E7.8367
G1 X59.799 Y185.107 E7.8611
G1 X60.155 Y185.623 E7.8901
G1 X60.381 Y186.100 E7.9145
G1 X60.533 Y186.609 E7.9390
G1 X60.607 Y187.136 E7.9637
G1 X60.600 Y188.094 E8.0079
G1 X60.675 Y188.520 E8.0279
G1 X60.822 Y188.923 E8.0478
G1 X61.037 Y189.296 E8.0677
G1 X61.313 Y189.625 E8.0876
G1 X61.642 Y189.902 E8.1075
G1 X62.014 Y190.118 E8.1273
G1 X62.418 Y190.265 E8.1472
G1 X62.841 Y190.341 E8.1671
G1 X63.244 Y190.342 E8.1857
G1 X64.161 Y190.264 E8.2283
G1 X64.684 Y190.176 E8.2529
G1 X65.210 Y189.999 E8.2785
G1 X65.701 Y189.740 E8.3042
G1 X66.145 Y189.406 E8.3299
G1 X66.529 Y189.006 E8.3555
G1 X66.845 Y188.549 E8.3812
G1 X67.073 Y188.071 E8.4057
G1 X67.462 Y187.054 E8.4561
G1 X67.736 Y187.073 E8.4688
G1 X67.778 Y187.257 E8.4775
G1 X68.002 Y187.794 E8.5044
G1 X68.313 Y188.287 E8.5314
G1 X68.702 Y188.720 E8.5583
G1 X69.159 Y189.083 E8.5852
G1 X69.669 Y189.364 E8.6122
G1 X70.219 Y189.555 E8.6391
G1 X70.793 Y189.652 E8.6661
G1 X71.350 Y189.652 E8.6918
G1 X74.643 Y189.371 E8.8447
G1 X75.420 Y189.256 E8.8810
G1 X76.195 Y189.040 E8.9182
G1 X76.938 Y188.729 E8.9554
G1 X77.633 Y188.330 E8.9925
G1 X78.192 Y187.916 E9.0247
G1 X78.778 Y187.369 E9.0617
G1 X79.294 Y186.751 E9.0990
G1 X79.728 Y186.074 E9.1362
G1 X80.067 Y185.365 E9.1725
G1 X84.815 Y173.589 E9.7597
G1 X85.051 Y172.890 E9.7939
G1 X85.207 Y172.149 E9.8289
G1 X85.275 Y171.396 E9.8638
G1 X85.255 Y170.640 E9.8988
G1 X85.147 Y169.895 E9.9336
G1 X84.984 Y169.258 E9.9640
G1 X84.674 Y168.465 E10.0034
G1 X84.371 Y167.883 E10.0337
G1 X83.945 Y167.252 E10.0690
G1 X83.571 Y166.837 E10.0948
G1 X83.129 Y166.485 E10.1209
G1 X82.636 Y166.209 E10.1471
G1 X82.105 Y166.017 E10.1732
G1 X81.549 Y165.913 E10.1993
G1 X80.915 Y165.899 E10.2287
G1 X80.884 Y165.570 E10.2440
G1 X81.065 Y165.532 E10.2525
G1 X83.448 Y164.954 E10.3659
G1 X85.813 Y164.303 E10.4794
G1 X86.636 Y164.049 E10.5192
G1 X86.789 Y164.280 E10.5320
G1 X86.322 Y164.836 E10.5656
G1 X85.960 Y165.439 E10.5982
G1 X85.696 Y166.091 E10.6307
G1 X85.539 Y166.776 E10.6632
G1 X85.490 Y167.478 E10.6957
G1 X85.553 Y168.183 E10.7284
G1 X85.924 Y169.566 E10.7947
G1 X86.051 Y170.296 E10.8290
G1 X86.104 Y171.032 E10.8631
G1 X86.083 Y171.769 E10.8972
G1 X85.987 Y172.501 E10.9313
G1 X85.817 Y173.219 E10.9654
G1 X85.571 Y173.931 E11.0003
G1 X81.490 Y184.051 E11.5049
G1 X81.327 Y184.581 E11.5306
G1 X81.250 Y185.157 E11.5575
G1 X81.271 Y185.738 E11.5843
G1 X81.388 Y186.307 E11.6112
G1 X81.599 Y186.848 E11.6381
G1 X81.897 Y187.347 E11.6649
G1 X82.274 Y187.789 E11.6918
G1 X82.720 Y188.162 E11.7187
G1 X83.221 Y188.455 E11.7455
G1 X83.764 Y188.661 E11.7724
G1 X84.335 Y188.773 E11.7993
G1 X84.915 Y188.788 E11.8262
G1 X85.469 Y188.710 E11.8520
G1 X88.190 Y188.045 E11.9816
G1 X90.870 Y187.306 E12.1101
G1 X93.527 Y186.488 E12.2387
G1 X96.158 Y185.592 E12.3673
G1 X98.762 Y184.620 E12.4958
G1 X101.355 Y183.564 E12.6253
G1 X101.950 Y183.255 E12.6563
G1 X102.506 Y182.846 E12.6882
G1 X102.993 Y182.356 E12.7202
G1 X103.399 Y181.798 E12.7521
G1 X103.713 Y181.183 E12.7840
G1 X103.928 Y180.531 E12.8158
G1 X104.034 Y179.931 E12.8439
G1 X104.063 Y178.958 E12.8890
G1 X104.771 Y179.366 E12.9268
G1 X105.401 Y179.611 E12.9580
G1 X105.981 Y179.747 E12.9856
G1 X106.655 Y179.806 E13.0169
G1 X107.333 Y179.763 E13.0483
G1 X107.997 Y179.616 E13.0798
G1 X108.630 Y179.371 E13.1111
G1 X109.150 Y179.075 E13.1388
G1 X109.746 Y178.612 E13.1737
G1 X110.157 Y178.175 E13.2015
G1 X110.546 Y177.622 E13.2327
G1 X110.849 Y177.013 E13.2642
G1 X111.055 Y176.366 E13.2956
G1 X111.157 Y175.718 E13.3260
G1 X111.377 Y172.978 E13.4531
G1 X111.632 Y172.912 E13.4653
G1 X111.997 Y173.459 E13.4957
G1 X112.458 Y173.964 E13.5273
G1 X112.990 Y174.392 E13.5589
G1 X113.582 Y174.733 E13.5905
G1 X114.141 Y174.952 E13.6182
G1 X114.882 Y175.127 E13.6535
G1 X115.565 Y175.171 E13.6851
G1 X116.162 Y175.124 E13.7128
G1 X116.825 Y174.975 E13.7442
G1 X117.462 Y174.726 E13.7759
G1 X118.036 Y174.392 E13.8066
G1 X120.314 Y172.770 E13.9359
G1 X122.529 Y171.093 E14.0644
G1 X124.693 Y169.352 E14.1928
G1 X126.805 Y167.548 E14.3213
G1 X128.863 Y165.683 E14.4498
G1 X130.866 Y163.758 E14.5782
G1 X132.811 Y161.775 E14.7067
G1 X134.709 Y159.722 E14.8360
G1 X135.118 Y159.189 E14.8670
G1 X135.448 Y158.584 E14.8990
G1 X135.682 Y157.934 E14.9309
G1 X135.812 Y157.257 E14.9628
G1 X135.837 Y156.567 E14.9947
G1 X135.755 Y155.882 E15.0266
G1 X135.570 Y155.221 E15.0584
G1 X135.323 Y154.663 E15.0866
G1 X134.956 Y154.082 E15.1183
G1 X134.503 Y153.562 E15.1503
G1 X133.931 Y153.081 E15.1848
G1 X134.034 Y152.831 E15.1973
G1 X134.666 Y152.881 E15.2266
G1 X135.371 Y152.824 E15.2593
G1 X136.058 Y152.657 E15.2921
G1 X136.711 Y152.384 E15.3248
G1 X137.312 Y152.011 E15.3575
G1 X137.847 Y151.548 E15.3902
G1 X138.299 Y151.009 E15.4227
G1 X138.628 Y150.474 E15.4518
G1 X138.925 Y149.750 E15.4880
G1 X139.073 Y149.141 E15.5170
G1 X139.134 Y148.438 E15.5496
G1 X139.082 Y147.732 E15.5823
G1 X138.935 Y147.108 E15.6120
G1 X139.193 Y146.975 E15.6254
G1 X139.299 Y147.097 E15.6329
G1 X139.733 Y147.456 E15.6590
G1 X140.220 Y147.740 E15.6850
G1 X140.746 Y147.942 E15.7111
G1 X141.298 Y148.056 E15.7371
G1 X141.861 Y148.079 E15.7632
G1 X142.420 Y148.011 E15.7892
G1 X142.960 Y147.853 E15.8153
G1 X143.469 Y147.610 E15.8413
G1 X143.931 Y147.287 E15.8674
G1 X144.334 Y146.894 E15.8934
G1 X144.657 Y146.458 E15.9185
G1 X146.136 Y143.993 E16.0515
G1 X147.529 Y141.503 E16.1834
G1 X148.846 Y138.972 E16.3154
G1 X150.086 Y136.402 E16.4474
G1 X151.248 Y133.796 E16.5793
G1 X152.331 Y131.155 E16.7113
G1 X153.334 Y128.484 E16.8433
G1 X154.255 Y125.783 E16.9753
G1 X155.101 Y123.035 E17.1083
G1 X155.214 Y122.469 E17.1349
G1 X155.228 Y121.870 E17.1626
G1 X155.140 Y121.278 E17.1903
G1 X154.951 Y120.710 E17.2180
G1 X154.667 Y120.183 E17.2457
G1 X154.297 Y119.712 E17.2734
G1 X153.851 Y119.313 E17.3011
G1 X153.343 Y118.995 E17.3288
G1 X152.788 Y118.770 E17.3565
G1 X152.203 Y118.643 E17.3842
G1 X151.605 Y118.619 E17.4118
G1 X151.167 Y118.677 E17.4323
G1 X151.081 Y118.366 E17.4472
G1 X154.749 Y116.778 E17.6321
G1 X155.296 Y116.493 E17.6606
G1 X155.815 Y116.119 E17.6902
G1 X156.275 Y115.675 E17.7198
G1 X156.664 Y115.174 E17.7491
G1 X156.947 Y114.691 E17.7750
G1 X157.192 Y114.103 E17.8044
G1 X157.346 Y113.501 E17.8332
G1 X157.814 Y110.682 E17.9653
G1 X158.193 Y107.868 E18.0966
G1 X158.488 Y105.044 E18.2280
G1 X158.698 Y102.212 E18.3593
G1 X158.823 Y99.375 E18.4906
G1 X158.863 Y96.536 E18.6219
G1 X158.817 Y93.696 E18.7533
G1 X158.684 Y90.841 E18.8855
G1 X158.594 Y90.188 E18.9160
G1 X158.400 Y89.539 E18.9473
G1 X158.112 Y88.929 E18.9785
G1 X157.786 Y88.434 E19.0059
G1 X157.340 Y87.928 E19.0371
G1 X156.819 Y87.494 E19.0685
G1 X156.239 Y87.143 E19.0998
