; G-Code generated by Simplify3D(R) Version 4.0.0
; Nov 4, 2020 at 9:36:39 AM
; Settings Summary
;   processName,Process1
;   applyToModels,5_Headpone_post_-_mount
;   profileName,new profile (modified)
;   profileVersion,2020-09-07 14:01:24
;   baseProfile,Default (modified)
;   printMaterial,PLA
;   printQuality,Medium
;   printExtruders,
;   extruderName,Primary Extruder
;   extruderToolheadNumber,0
;   extruderDiameter,0.4
;   extruderAutoWidth,0
;   extruderWidth,0.4
;   extrusionMultiplier,0.9
;   extruderUseRetract,1
;   extruderRetractionDistance,1
;   extruderExtraRestartDistance,0
;   extruderRetractionZLift,0
;   extruderRetractionSpeed,1800
;   extruderUseCoasting,0
;   extruderCoastingDistance,0.2
;   extruderUseWipe,0
;   extruderWipeDistance,5
;   primaryExtruder,0
;   layerHeight,0.3
;   topSolidLayers,3
;   bottomSolidLayers,3
;   perimeterOutlines,2
;   printPerimetersInsideOut,1
;   startPointOption,2
;   startPointOriginX,0
;   startPointOriginY,0
;   sequentialIslands,0
;   spiralVaseMode,0
;   firstLayerHeightPercentage,100
;   firstLayerWidthPercentage,103
;   firstLayerUnderspeed,0.5
;   useRaft,0
;   raftExtruder,0
;   raftTopLayers,3
;   raftBaseLayers,2
;   raftOffset,3
;   raftSeparationDistance,0.14
;   raftTopInfill,100
;   aboveRaftSpeedMultiplier,0.3
;   useSkirt,0
;   skirtExtruder,0
;   skirtLayers,1
;   skirtOutlines,2
;   skirtOffset,4
;   usePrimePillar,0
;   primePillarExtruder,999
;   primePillarWidth,12
;   primePillarLocation,7
;   primePillarSpeedMultiplier,1
;   useOozeShield,0
;   oozeShieldExtruder,999
;   oozeShieldOffset,2
;   oozeShieldOutlines,1
;   oozeShieldSidewallShape,1
;   oozeShieldSidewallAngle,30
;   oozeShieldSpeedMultiplier,1
;   infillExtruder,0
;   internalInfillPattern,Rectilinear
;   externalInfillPattern,Rectilinear
;   infillPercentage,50
;   outlineOverlapPercentage,15
;   infillExtrusionWidthPercentage,100
;   minInfillLength,5
;   infillLayerInterval,1
;   internalInfillAngles,45,-45
;   overlapInternalInfillAngles,0
;   externalInfillAngles,45,-45
;   generateSupport,0
;   supportExtruder,0
;   supportInfillPercentage,30
;   supportExtraInflation,0
;   supportBaseLayers,0
;   denseSupportExtruder,0
;   denseSupportLayers,0
;   denseSupportInfillPercentage,70
;   supportLayerInterval,1
;   supportHorizontalPartOffset,0.3
;   supportUpperSeparationLayers,1
;   supportLowerSeparationLayers,1
;   supportType,1
;   supportGridSpacing,4
;   maxOverhangAngle,45
;   supportAngles,0
;   temperatureName,Primary Extruder,Hot Bed
;   temperatureNumber,0,1
;   temperatureSetpointCount,1,1
;   temperatureSetpointLayers,1,1
;   temperatureSetpointTemperatures,210,60
;   temperatureStabilizeAtStartup,1,0
;   temperatureHeatedBed,0,1
;   temperatureRelayBetweenLayers,0,0
;   temperatureRelayBetweenLoops,0,0
;   fanLayers,1,2
;   fanSpeeds,0,100
;   blipFanToFullPower,0
;   adjustSpeedForCooling,1
;   minSpeedLayerTime,15
;   minCoolingSpeedSlowdown,20
;   increaseFanForCooling,0
;   minFanLayerTime,45
;   maxCoolingFanSpeed,100
;   increaseFanForBridging,0
;   bridgingFanSpeed,100
;   use5D,1
;   relativeEdistances,0
;   allowEaxisZeroing,1
;   independentExtruderAxes,0
;   includeM10123,0
;   stickySupport,1
;   applyToolheadOffsets,0
;   gcodeXoffset,0
;   gcodeYoffset,0
;   gcodeZoffset,0
;   overrideMachineDefinition,0
;   machineTypeOverride,0
;   strokeXoverride,200
;   strokeYoverride,200
;   strokeZoverride,200
;   originOffsetXoverride,0
;   originOffsetYoverride,0
;   originOffsetZoverride,0
;   homeXdirOverride,-1
;   homeYdirOverride,-1
;   homeZdirOverride,-1
;   flipXoverride,1
;   flipYoverride,-1
;   flipZoverride,1
;   toolheadOffsets,0,0|0,0|0,0|0,0|0,0|0,0
;   overrideFirmwareConfiguration,0
;   firmwareTypeOverride,RepRap (Marlin/Repetier/Sprinter)
;   GPXconfigOverride,r2
;   baudRateOverride,115200
;   overridePrinterModels,0
;   printerModelsOverride
;   startingGcode,G28 ; home all axes,G1 X0 Y5 Z0.2 F3000 ; get ready to prime,G92 E0 ; reset extrusion distance,G1 Y150 E20 F600 ; prime nozzle
;   layerChangeGcode,
;   retractionGcode,
;   toolChangeGcode,
;   endingGcode,M104 S0 ; turn off extruder,M140 S0 ; turn off bedG1 X0 Y0; home,M84 ; disable motors,M107 ; fan off,G28 X Y; Home,M18; Disable steppers
;   exportFileFormat,gcode
;   celebration,0
;   celebrationSong,Random Song
;   postProcessing,
;   defaultSpeed,4600
;   outlineUnderspeed,0.5
;   solidInfillUnderspeed,0.8
;   supportUnderspeed,0.8
;   rapidXYspeed,4800
;   rapidZspeed,1000
;   minBridgingArea,50
;   bridgingExtraInflation,0
;   bridgingExtrusionMultiplier,1
;   bridgingSpeedMultiplier,1
;   useFixedBridgingAngle,0
;   fixedBridgingAngle,0
;   applyBridgingToPerimeters,0
;   filamentDiameters,1.75|1.75|1.75|1.75|1.75|1.75
;   filamentPricesPerKg,46|46|46|46|46|46
;   filamentDensities,1.25|1.25|1.25|1.25|1.25|1.25
;   useMinPrintHeight,0
;   minPrintHeight,0
;   useMaxPrintHeight,0
;   maxPrintHeight,0
;   useDiaphragm,0
;   diaphragmLayerInterval,20
;   robustSlicing,1
;   mergeAllIntoSolid,0
;   onlyRetractWhenCrossingOutline,1
;   retractBetweenLayers,1
;   useRetractionMinTravel,0
;   retractionMinTravel,3
;   retractWhileWiping,0
;   onlyWipeOutlines,1
;   avoidCrossingOutline,0
;   maxMovementDetourFactor,3
;   toolChangeRetractionDistance,12
;   toolChangeExtraRestartDistance,-0.5
;   toolChangeRetractionSpeed,600
;   externalThinWallType,1
;   internalThinWallType,1
;   thinWallAllowedOverlapPercentage,10
;   singleExtrusionMinLength,1
;   singleExtrusionMinPrintingWidthPercentage,50
;   singleExtrusionMaxPrintingWidthPercentage,200
;   singleExtrusionEndpointExtension,0.2
;   horizontalSizeCompensation,0
G90
M82
M106 S0
M140 S60
M104 S210 T0
M109 S210 T0
G28 ; home all axes
G1 X0 Y5 Z0.2 F3000 ; get ready to prime
G92 E0 ; reset extrusion distance
G1 Y150 E20 F600 ; prime nozzle
G92 E0
G1 E-1.0000 F1800
G1 Z0.300 F1000
; process Process1
; layer 1, Z = 0.300
T0
; tool H0.300 W0.412
; inner perimeter
G1 X92.468 Y77.118 F4800
G1 E0.0000 F540
G92 E0
G1 X95.382 Y77.118 E0.1348 F1725
G1 X95.382 Y84.756 E0.4880
G1 X97.744 Y87.118 E0.6425
G1 X130.256 Y87.118 E2.1461
G1 X132.618 Y84.756 E2.3006
G1 X132.618 Y77.118 E2.6538
G1 X135.532 Y77.118 E2.7886
G1 X135.532 Y156.486 E6.4592
G1 X135.514 Y156.885 E6.4777
G1 X135.487 Y157.076 E6.4867
G1 X92.512 Y157.076 E8.4742
G1 X92.487 Y156.897 E8.4826
G1 X92.468 Y156.485 E8.5016
G1 X92.468 Y77.118 E12.1722
; outer perimeter
G1 X92.056 Y76.706 F4800
G92 E0
G1 X95.794 Y76.706 E0.1729 F1150
G1 X95.794 Y84.585 E0.5373
G1 X97.915 Y86.706 E0.6760
G1 X130.085 Y86.706 E2.1638
G1 X132.206 Y84.585 E2.3025
G1 X132.206 Y76.706 E2.6669
G1 X135.944 Y76.706 E2.8398
G1 X135.944 Y156.495 E6.5299
G1 X135.924 Y156.923 E6.5497
G1 X135.847 Y157.488 E6.5761
G1 X92.154 Y157.488 E8.5968
G1 X92.077 Y156.935 E8.6227
G1 X92.056 Y156.495 E8.6430
G1 X92.056 Y76.706 E12.3332
; solid layer
G1 X94.609 Y77.468 F4800
G92 E0
G1 X95.032 Y77.891 E0.0276 F1840
G1 X95.032 Y78.474 E0.0546
G1 X94.026 Y77.468 E0.1203
G1 X93.444 Y77.468 E0.1473
G1 X95.032 Y79.056 E0.2512
G1 X95.032 Y79.639 E0.2781
G1 X92.861 Y77.468 E0.4201
G1 X92.818 Y77.468 E0.4221
G1 X92.818 Y78.008 E0.4470
G1 X95.032 Y80.221 E0.5918
G1 X95.032 Y80.804 E0.6187
G1 X92.818 Y78.591 E0.7635
G1 X92.818 Y79.173 E0.7905
G1 X95.032 Y81.387 E0.9352
G1 X95.032 Y81.969 E0.9622
G1 X92.818 Y79.756 E1.1070
G1 X92.818 Y80.339 E1.1339
G1 X95.032 Y82.552 E1.2787
G1 X95.032 Y83.135 E1.3056
G1 X92.818 Y80.921 E1.4504
G1 X92.818 Y81.504 E1.4774
G1 X95.032 Y83.717 E1.6222
G1 X95.032 Y84.300 E1.6491
G1 X92.818 Y82.086 E1.7939
G1 X92.818 Y82.669 E1.8208
G1 X95.032 Y84.883 E1.9656
G1 X95.032 Y84.901 E1.9665
G1 X97.599 Y87.468 E2.1344
G1 X97.617 Y87.468 E2.1352
G1 X135.182 Y125.033 E4.5921
G1 X135.182 Y124.450 E4.6191
G1 X98.200 Y87.468 E7.0378
G1 X98.783 Y87.468 E7.0648
G1 X135.182 Y123.867 E9.4455
G1 X135.182 Y123.285 E9.4724
G1 X99.365 Y87.468 E11.8150
G1 X99.948 Y87.468 E11.8419
G1 X135.182 Y122.702 E14.1464
G1 X135.182 Y122.119 E14.1734
G1 X100.531 Y87.468 E16.4397
G1 X101.113 Y87.468 E16.4667
G1 X135.182 Y121.537 E18.6949
G1 X135.182 Y120.954 E18.7219
G1 X101.696 Y87.468 E20.9120
G1 X102.279 Y87.468 E20.9390
G1 X135.182 Y120.371 E23.0910
G1 X135.182 Y119.789 E23.1179
G1 X102.861 Y87.468 E25.2319
G1 X103.444 Y87.468 E25.2588
G1 X135.182 Y119.206 E27.3346
G1 X135.182 Y118.624 E27.3616
G1 X104.026 Y87.468 E29.3993
G1 X104.609 Y87.468 E29.4262
G1 X135.182 Y118.041 E31.4258
G1 X135.182 Y117.458 E31.4528
G1 X105.192 Y87.468 E33.4143
G1 X105.774 Y87.468 E33.4412
G1 X135.182 Y116.876 E35.3646
G1 X135.182 Y116.293 E35.3915
G1 X106.357 Y87.468 E37.2768
G1 X106.940 Y87.468 E37.3038
G1 X135.182 Y115.710 E39.1509
G1 X135.182 Y115.128 E39.1779
G1 X107.522 Y87.468 E40.9869
G1 X108.105 Y87.468 E41.0139
G1 X135.182 Y114.545 E42.7848
G1 X135.182 Y113.962 E42.8118
G1 X108.688 Y87.468 E44.5446
G1 X109.270 Y87.468 E44.5716
G1 X135.182 Y113.380 E46.2663
G1 X135.182 Y112.797 E46.2932
G1 X109.853 Y87.468 E47.9499
G1 X110.436 Y87.468 E47.9768
G1 X135.182 Y112.214 E49.5953
G1 X135.182 Y111.632 E49.6223
G1 X111.018 Y87.468 E51.2027
G1 X111.601 Y87.468 E51.2296
G1 X135.182 Y111.049 E52.7719
G1 X135.182 Y110.466 E52.7989
G1 X112.184 Y87.468 E54.3030
G1 X112.766 Y87.468 E54.3300
G1 X135.182 Y109.884 E55.7961
G1 X135.182 Y109.301 E55.8230
G1 X113.349 Y87.468 E57.2510
G1 X113.932 Y87.468 E57.2779
G1 X135.182 Y108.718 E58.6678
G1 X135.182 Y108.136 E58.6948
G1 X114.514 Y87.468 E60.0465
G1 X115.097 Y87.468 E60.0735
G1 X135.182 Y107.553 E61.3871
G1 X135.182 Y106.970 E61.4140
G1 X115.680 Y87.468 E62.6896
G1 X116.262 Y87.468 E62.7165
G1 X135.182 Y106.388 E63.9540
G1 X135.182 Y105.805 E63.9809
G1 X116.845 Y87.468 E65.1802
G1 X117.428 Y87.468 E65.2072
G1 X135.182 Y105.222 E66.3684
G1 X135.182 Y104.640 E66.3953
G1 X118.010 Y87.468 E67.5184
G1 X118.593 Y87.468 E67.5454
G1 X135.182 Y104.057 E68.6304
G1 X135.182 Y103.474 E68.6573
G1 X119.176 Y87.468 E69.7042
G1 X119.758 Y87.468 E69.7312
G1 X135.182 Y102.892 E70.7399
G1 X135.182 Y102.309 E70.7669
G1 X120.341 Y87.468 E71.7375
G1 X120.924 Y87.468 E71.7645
G1 X135.182 Y101.726 E72.6971
G1 X135.182 Y101.144 E72.7240
G1 X121.506 Y87.468 E73.6185
G1 X122.089 Y87.468 E73.6454
G1 X135.182 Y100.561 E74.5017
G1 X135.182 Y99.979 E74.5287
G1 X122.671 Y87.468 E75.3469
G1 X123.254 Y87.468 E75.3739
G1 X135.182 Y99.396 E76.1540
G1 X135.182 Y98.813 E76.1809
G1 X123.837 Y87.468 E76.9230
G1 X124.419 Y87.468 E76.9499
G1 X135.182 Y98.231 E77.6538
G1 X135.182 Y97.648 E77.6808
G1 X125.002 Y87.468 E78.3466
G1 X125.585 Y87.468 E78.3735
G1 X135.182 Y97.065 E79.0012
G1 X135.182 Y96.483 E79.0282
G1 X126.167 Y87.468 E79.6177
G1 X126.750 Y87.468 E79.6447
G1 X135.182 Y95.900 E80.1962
G1 X135.182 Y95.317 E80.2231
G1 X127.333 Y87.468 E80.7365
G1 X127.915 Y87.468 E80.7634
G1 X135.182 Y94.735 E81.2387
G1 X135.182 Y94.152 E81.2656
G1 X128.498 Y87.468 E81.7028
G1 X129.081 Y87.468 E81.7297
G1 X135.182 Y93.569 E82.1288
G1 X135.182 Y92.987 E82.1557
G1 X129.663 Y87.468 E82.5166
G1 X130.246 Y87.468 E82.5436
G1 X135.182 Y92.404 E82.8664
G1 X135.182 Y91.821 E82.8934
G1 X130.615 Y87.254 E83.1921
G1 X130.906 Y86.963 E83.2111
G1 X135.182 Y91.239 E83.4908
G1 X135.182 Y90.656 E83.5177
G1 X131.198 Y86.672 E83.7783
G1 X131.489 Y86.380 E83.7974
G1 X135.182 Y90.073 E84.0389
G1 X135.182 Y89.491 E84.0658
G1 X131.780 Y86.089 E84.2883
G1 X132.071 Y85.798 E84.3074
G1 X135.182 Y88.908 E84.5108
G1 X135.182 Y88.325 E84.5377
G1 X132.363 Y85.506 E84.7221
G1 X132.654 Y85.215 E84.7412
G1 X135.182 Y87.743 E84.9065
G1 X135.182 Y87.160 E84.9334
G1 X132.945 Y84.924 E85.0797
G1 X132.968 Y84.901 E85.0812
G1 X132.968 Y84.364 E85.1060
G1 X135.182 Y86.577 E85.2508
G1 X135.182 Y85.995 E85.2778
G1 X132.968 Y83.781 E85.4225
G1 X132.968 Y83.199 E85.4495
G1 X135.182 Y85.412 E85.5943
G1 X135.182 Y84.829 E85.6212
G1 X132.968 Y82.616 E85.7660
G1 X132.968 Y82.033 E85.7929
G1 X135.182 Y84.247 E85.9377
G1 X135.182 Y83.664 E85.9647
G1 X132.968 Y81.451 E86.1094
G1 X132.968 Y80.868 E86.1364
G1 X135.182 Y83.081 E86.2812
G1 X135.182 Y82.499 E86.3081
G1 X132.968 Y80.285 E86.4529
G1 X132.968 Y79.703 E86.4798
G1 X135.182 Y81.916 E86.6246
G1 X135.182 Y81.334 E86.6516
G1 X132.968 Y79.120 E86.7963
G1 X132.968 Y78.537 E86.8233
G1 X135.182 Y80.751 E86.9681
G1 X135.182 Y80.168 E86.9950
G1 X132.968 Y77.955 E87.1398
G1 X132.968 Y77.468 E87.1623
G1 X133.064 Y77.468 E87.1667
G1 X135.182 Y79.586 E87.3052
G1 X135.182 Y79.003 E87.3322
G1 X133.647 Y77.468 E87.4326
G1 X134.230 Y77.468 E87.4595
G1 X135.182 Y78.420 E87.5218
G1 X135.182 Y77.838 E87.5487
G1 X134.812 Y77.468 E87.5729
G92 E0
G1 E-1.0000 F1800
G1 X92.818 Y83.252 F4800
G1 E0.0000 F1800
G92 E0
G1 X135.182 Y125.615 E2.7708 F1840
G1 X135.182 Y126.198 E2.7977
G1 X92.818 Y83.834 E5.5685
G1 X92.818 Y84.417 E5.5955
G1 X135.182 Y126.781 E8.3662
G1 X135.182 Y127.363 E8.3932
G1 X92.818 Y85.000 E11.1640
G1 X92.818 Y85.582 E11.1909
G1 X135.182 Y127.946 E13.9617
G1 X135.182 Y128.529 E13.9887
G1 X92.818 Y86.165 E16.7594
G1 X92.818 Y86.748 E16.7864
G1 X135.182 Y129.111 E19.5572
G1 X135.182 Y129.694 E19.5841
G1 X92.818 Y87.330 E22.3549
G1 X92.818 Y87.913 E22.3818
G1 X135.182 Y130.277 E25.1526
G1 X135.182 Y130.859 E25.1796
G1 X92.818 Y88.496 E27.9504
G1 X92.818 Y89.078 E27.9773
G1 X135.182 Y131.442 E30.7481
G1 X135.182 Y132.025 E30.7750
G1 X92.818 Y89.661 E33.5458
G1 X92.818 Y90.244 E33.5728
G1 X135.182 Y132.607 E36.3435
G1 X135.182 Y133.190 E36.3705
G1 X92.818 Y90.826 E39.1413
G1 X92.818 Y91.409 E39.1682
G1 X135.182 Y133.773 E41.9390
G1 X135.182 Y134.355 E41.9660
G1 X92.818 Y91.992 E44.7367
G1 X92.818 Y92.574 E44.7637
G1 X135.182 Y134.938 E47.5345
G1 X135.182 Y135.521 E47.5614
G1 X92.818 Y93.157 E50.3322
G1 X92.818 Y93.740 E50.3591
G1 X135.182 Y136.103 E53.1299
G1 X135.182 Y136.686 E53.1569
G1 X92.818 Y94.322 E55.9277
G1 X92.818 Y94.905 E55.9546
G1 X135.182 Y137.268 E58.7254
G1 X135.182 Y137.851 E58.7523
G1 X92.818 Y95.488 E61.5231
G1 X92.818 Y96.070 E61.5501
G1 X135.182 Y138.434 E64.3208
G1 X135.182 Y139.016 E64.3478
G1 X92.818 Y96.653 E67.1186
G1 X92.818 Y97.236 E67.1455
G1 X135.182 Y139.599 E69.9163
G1 X135.182 Y140.182 E69.9433
G1 X92.818 Y97.818 E72.7140
G1 X92.818 Y98.401 E72.7410
G1 X135.182 Y140.764 E75.5118
G1 X135.182 Y141.347 E75.5387
G1 X92.818 Y98.984 E78.3095
G1 X92.818 Y99.566 E78.3364
G1 X135.182 Y141.930 E81.1072
G1 X135.182 Y142.512 E81.1342
G1 X92.818 Y100.149 E83.9050
G1 X92.818 Y100.731 E83.9319
G1 X135.182 Y143.095 E86.7027
G1 X135.182 Y143.678 E86.7296
G1 X92.818 Y101.314 E89.5004
G1 X92.818 Y101.897 E89.5274
G1 X135.182 Y144.260 E92.2981
G1 X135.182 Y144.843 E92.3251
G1 X92.818 Y102.479 E95.0959
G1 X92.818 Y103.062 E95.1228
G1 X135.182 Y145.426 E97.8936
G1 X135.182 Y146.008 E97.9206
G1 X92.818 Y103.645 E100.6913
G1 X92.818 Y104.227 E100.7183
G1 X135.182 Y146.591 E103.4891
G1 X135.182 Y147.174 E103.5160
G1 X92.818 Y104.810 E106.2868
G1 X92.818 Y105.393 E106.3137
G1 X135.182 Y147.756 E109.0845
G1 X135.182 Y148.339 E109.1115
G1 X92.818 Y105.975 E111.8823
G1 X92.818 Y106.558 E111.9092
G1 X135.182 Y148.922 E114.6800
G1 X135.182 Y149.504 E114.7069
G1 X92.818 Y107.141 E117.4777
G1 X92.818 Y107.723 E117.5047
G1 X135.182 Y150.087 E120.2754
G1 X135.182 Y150.670 E120.3024
G1 X92.818 Y108.306 E123.0732
G1 X92.818 Y108.889 E123.1001
G1 X135.182 Y151.252 E125.8709
G1 X135.182 Y151.835 E125.8979
G1 X92.818 Y109.471 E128.6686
G1 X92.818 Y110.054 E128.6956
G1 X135.182 Y152.418 E131.4664
G1 X135.182 Y153.000 E131.4933
G1 X92.818 Y110.637 E134.2641
G1 X92.818 Y111.219 E134.2910
G1 X135.182 Y153.583 E137.0618
G1 X135.182 Y154.166 E137.0888
G1 X92.818 Y111.802 E139.8596
G1 X92.818 Y112.385 E139.8865
G1 X135.182 Y154.748 E142.6573
G1 X135.182 Y155.331 E142.6842
G1 X92.818 Y112.967 E145.4550
G1 X92.818 Y113.550 E145.4820
G1 X135.182 Y155.913 E148.2527
G1 X135.182 Y156.478 E148.2788
G1 X135.181 Y156.495 E148.2797
G1 X92.818 Y114.133 E151.0504
G1 X92.818 Y114.715 E151.0773
G1 X134.829 Y156.726 E153.8251
G1 X134.247 Y156.726 E153.8520
G1 X92.818 Y115.298 E156.5616
G1 X92.818 Y115.881 E156.5886
G1 X133.664 Y156.726 E159.2601
G1 X133.081 Y156.726 E159.2870
