; G-Code generated by Simplify3D(R) Version 4.0.0
; Nov 4, 2020 at 4:31:00 PM
; Settings Summary
;   processName,Process1
;   applyToModels,6_Cable_hook
;   profileName,new profile (modified)
;   profileVersion,2020-09-07 14:01:24
;   baseProfile,Default (modified)
;   printMaterial,PLA
;   printQuality,Medium
;   printExtruders,
;   extruderName,Primary Extruder
;   extruderToolheadNumber,0
;   extruderDiameter,0.4
;   extruderAutoWidth,0
;   extruderWidth,0.4
;   extrusionMultiplier,0.9
;   extruderUseRetract,1
;   extruderRetractionDistance,1
;   extruderExtraRestartDistance,0
;   extruderRetractionZLift,0
;   extruderRetractionSpeed,1800
;   extruderUseCoasting,0
;   extruderCoastingDistance,0.2
;   extruderUseWipe,0
;   extruderWipeDistance,5
;   primaryExtruder,0
;   layerHeight,0.3
;   topSolidLayers,3
;   bottomSolidLayers,3
;   perimeterOutlines,2
;   printPerimetersInsideOut,1
;   startPointOption,2
;   startPointOriginX,0
;   startPointOriginY,0
;   sequentialIslands,0
;   spiralVaseMode,0
;   firstLayerHeightPercentage,100
;   firstLayerWidthPercentage,103
;   firstLayerUnderspeed,0.5
;   useRaft,0
;   raftExtruder,0
;   raftTopLayers,3
;   raftBaseLayers,2
;   raftOffset,3
;   raftSeparationDistance,0.14
;   raftTopInfill,100
;   aboveRaftSpeedMultiplier,0.3
;   useSkirt,0
;   skirtExtruder,0
;   skirtLayers,1
;   skirtOutlines,2
;   skirtOffset,4
;   usePrimePillar,0
;   primePillarExtruder,999
;   primePillarWidth,12
;   primePillarLocation,7
;   primePillarSpeedMultiplier,1
;   useOozeShield,0
;   oozeShieldExtruder,999
;   oozeShieldOffset,2
;   oozeShieldOutlines,1
;   oozeShieldSidewallShape,1
;   oozeShieldSidewallAngle,30
;   oozeShieldSpeedMultiplier,1
;   infillExtruder,0
;   internalInfillPattern,Rectilinear
;   externalInfillPattern,Rectilinear
;   infillPercentage,100
;   outlineOverlapPercentage,15
;   infillExtrusionWidthPercentage,100
;   minInfillLength,5
;   infillLayerInterval,1
;   internalInfillAngles,45,-45
;   overlapInternalInfillAngles,0
;   externalInfillAngles,45,-45
;   generateSupport,0
;   supportExtruder,0
;   supportInfillPercentage,30
;   supportExtraInflation,0
;   supportBaseLayers,0
;   denseSupportExtruder,0
;   denseSupportLayers,0
;   denseSupportInfillPercentage,70
;   supportLayerInterval,1
;   supportHorizontalPartOffset,0.3
;   supportUpperSeparationLayers,1
;   supportLowerSeparationLayers,1
;   supportType,1
;   supportGridSpacing,4
;   maxOverhangAngle,45
;   supportAngles,0
;   temperatureName,Primary Extruder,Hot Bed
;   temperatureNumber,0,1
;   temperatureSetpointCount,1,1
;   temperatureSetpointLayers,1,1
;   temperatureSetpointTemperatures,210,60
;   temperatureStabilizeAtStartup,1,0
;   temperatureHeatedBed,0,1
;   temperatureRelayBetweenLayers,0,0
;   temperatureRelayBetweenLoops,0,0
;   fanLayers,1,2
;   fanSpeeds,0,100
;   blipFanToFullPower,0
;   adjustSpeedForCooling,1
;   minSpeedLayerTime,15
;   minCoolingSpeedSlowdown,20
;   increaseFanForCooling,0
;   minFanLayerTime,45
;   maxCoolingFanSpeed,100
;   increaseFanForBridging,0
;   bridgingFanSpeed,100
;   use5D,1
;   relativeEdistances,0
;   allowEaxisZeroing,1
;   independentExtruderAxes,0
;   includeM10123,0
;   stickySupport,1
;   applyToolheadOffsets,0
;   gcodeXoffset,0
;   gcodeYoffset,0
;   gcodeZoffset,0
;   overrideMachineDefinition,0
;   machineTypeOverride,0
;   strokeXoverride,200
;   strokeYoverride,200
;   strokeZoverride,200
;   originOffsetXoverride,0
;   originOffsetYoverride,0
;   originOffsetZoverride,0
;   homeXdirOverride,-1
;   homeYdirOverride,-1
;   homeZdirOverride,-1
;   flipXoverride,1
;   flipYoverride,-1
;   flipZoverride,1
;   toolheadOffsets,0,0|0,0|0,0|0,0|0,0|0,0
;   overrideFirmwareConfiguration,0
;   firmwareTypeOverride,RepRap (Marlin/Repetier/Sprinter)
;   GPXconfigOverride,r2
;   baudRateOverride,115200
;   overridePrinterModels,0
;   printerModelsOverride
;   startingGcode,G28 ; home all axes,G1 X0 Y5 Z0.2 F3000 ; get ready to prime,G92 E0 ; reset extrusion distance,G1 Y150 E20 F600 ; prime nozzle
;   layerChangeGcode,
;   retractionGcode,
;   toolChangeGcode,
;   endingGcode,M104 S0 ; turn off extruder,M140 S0 ; turn off bedG1 X0 Y0; home,M84 ; disable motors,M107 ; fan off,G28 X Y; Home,M18; Disable steppers
;   exportFileFormat,gcode
;   celebration,0
;   celebrationSong,Random Song
;   postProcessing,
;   defaultSpeed,4600
;   outlineUnderspeed,0.5
;   solidInfillUnderspeed,0.8
;   supportUnderspeed,0.8
;   rapidXYspeed,4800
;   rapidZspeed,1000
;   minBridgingArea,50
;   bridgingExtraInflation,0
;   bridgingExtrusionMultiplier,1
;   bridgingSpeedMultiplier,1
;   useFixedBridgingAngle,0
;   fixedBridgingAngle,0
;   applyBridgingToPerimeters,0
;   filamentDiameters,1.75|1.75|1.75|1.75|1.75|1.75
;   filamentPricesPerKg,46|46|46|46|46|46
;   filamentDensities,1.25|1.25|1.25|1.25|1.25|1.25
;   useMinPrintHeight,0
;   minPrintHeight,0
;   useMaxPrintHeight,0
;   maxPrintHeight,0
;   useDiaphragm,0
;   diaphragmLayerInterval,20
;   robustSlicing,1
;   mergeAllIntoSolid,0
;   onlyRetractWhenCrossingOutline,1
;   retractBetweenLayers,1
;   useRetractionMinTravel,0
;   retractionMinTravel,3
;   retractWhileWiping,0
;   onlyWipeOutlines,1
;   avoidCrossingOutline,0
;   maxMovementDetourFactor,3
;   toolChangeRetractionDistance,12
;   toolChangeExtraRestartDistance,-0.5
;   toolChangeRetractionSpeed,600
;   externalThinWallType,1
;   internalThinWallType,1
;   thinWallAllowedOverlapPercentage,10
;   singleExtrusionMinLength,1
;   singleExtrusionMinPrintingWidthPercentage,50
;   singleExtrusionMaxPrintingWidthPercentage,200
;   singleExtrusionEndpointExtension,0.2
;   horizontalSizeCompensation,0
G90
M82
M106 S0
M140 S60
M104 S210 T0
M109 S210 T0
G28 ; home all axes
G1 X0 Y5 Z0.2 F3000 ; get ready to prime
G92 E0 ; reset extrusion distance
G1 Y150 E20 F600 ; prime nozzle
G92 E0
G1 E-1.0000 F1800
G1 Z0.300 F1000
; process Process1
; layer 1, Z = 0.300
T0
; tool H0.300 W0.412
; inner perimeter
G1 X78.414 Y97.511 F4800
G1 E0.0000 F540
G92 E0
G1 X78.681 Y97.480 E0.0124 F1725
G1 X79.012 Y97.468 E0.0277
G1 X108.988 Y97.468 E1.4141
G1 X109.319 Y97.480 E1.4294
G1 X109.586 Y97.510 E1.4418
G1 X109.586 Y99.489 E1.5334
G1 X109.328 Y99.519 E1.5454
G1 X108.797 Y99.526 E1.5700
G1 X108.382 Y99.487 E1.5893
G1 X108.186 Y99.454 E1.5984
G1 X107.748 Y99.351 E1.6193
G1 X106.532 Y98.963 E1.6783
G1 X106.532 Y139.040 E3.5318
G1 X107.700 Y138.663 E3.5885
G1 X108.165 Y138.550 E3.6106
G1 X108.365 Y138.516 E3.6200
G1 X108.785 Y138.475 E3.6395
G1 X109.329 Y138.481 E3.6647
G1 X109.586 Y138.510 E3.6767
G1 X109.586 Y140.489 E3.7682
G1 X109.319 Y140.520 E3.7806
G1 X108.988 Y140.532 E3.7960
G1 X79.012 Y140.532 E5.1823
G1 X78.681 Y140.520 E5.1976
G1 X78.414 Y140.490 E5.2101
G1 X78.414 Y138.511 E5.3016
G1 X78.674 Y138.481 E5.3137
G1 X79.203 Y138.474 E5.3382
G1 X79.619 Y138.513 E5.3575
G1 X79.814 Y138.546 E5.3667
G1 X80.252 Y138.649 E5.3875
G1 X81.468 Y139.037 E5.4465
G1 X81.468 Y98.960 E7.3000
G1 X80.300 Y99.337 E7.3567
G1 X79.835 Y99.450 E7.3789
G1 X79.635 Y99.484 E7.3882
G1 X79.215 Y99.525 E7.4077
G1 X78.673 Y99.519 E7.4328
G1 X78.414 Y99.490 E7.4449
G1 X78.414 Y97.511 E7.5364
; outer perimeter
G1 X78.299 Y97.109 F4800
G92 E0
G1 X78.650 Y97.069 E0.0164 F1150
G1 X79.004 Y97.056 E0.0327
G1 X108.996 Y97.056 E1.4198
G1 X109.350 Y97.069 E1.4362
G1 X109.686 Y97.107 E1.4518
G1 X109.998 Y97.169 E1.4666
G1 X109.998 Y99.831 E1.5897
G1 X109.704 Y99.891 E1.6036
G1 X109.354 Y99.930 E1.6199
G1 X108.780 Y99.938 E1.6464
G1 X108.328 Y99.896 E1.6674
G1 X108.105 Y99.858 E1.6779
G1 X107.638 Y99.748 E1.7001
G1 X106.944 Y99.527 E1.7337
G1 X106.944 Y138.474 E3.5350
G1 X107.588 Y138.266 E3.5662
G1 X108.082 Y138.146 E3.5898
G1 X108.310 Y138.107 E3.6005
G1 X108.767 Y138.062 E3.6217
G1 X109.354 Y138.070 E3.6489
G1 X109.690 Y138.107 E3.6645
G1 X109.998 Y138.169 E3.6790
G1 X109.998 Y140.831 E3.8022
G1 X109.700 Y140.891 E3.8162
G1 X109.350 Y140.931 E3.8325
G1 X108.996 Y140.944 E3.8489
G1 X79.004 Y140.944 E5.2360
G1 X78.650 Y140.931 E5.2524
G1 X78.314 Y140.893 E5.2680
G1 X78.002 Y140.831 E5.2827
G1 X78.002 Y138.169 E5.4059
G1 X78.300 Y138.109 E5.4199
G1 X78.648 Y138.070 E5.4361
G1 X79.220 Y138.062 E5.4626
G1 X79.672 Y138.104 E5.4836
G1 X79.896 Y138.142 E5.4940
G1 X80.363 Y138.252 E5.5162
G1 X81.056 Y138.473 E5.5499
G1 X81.056 Y99.526 E7.3511
G1 X80.412 Y99.734 E7.3824
G1 X79.918 Y99.854 E7.4059
G1 X79.690 Y99.893 E7.4166
G1 X79.233 Y99.938 E7.4379
G1 X78.648 Y99.930 E7.4649
G1 X78.314 Y99.893 E7.4805
G1 X78.002 Y99.831 E7.4952
G1 X78.002 Y97.164 E7.6185
G1 X78.299 Y97.109 E7.6325
; inner perimeter
G1 X96.825 Y101.409 F4800
G92 E0
G1 X96.775 Y101.698 E0.0136 F1725
G1 X96.759 Y101.975 E0.0264
G1 X96.758 Y136.017 E1.6008
G1 X96.773 Y136.285 E1.6132
G1 X96.821 Y136.574 E1.6268
G1 X96.902 Y136.856 E1.6403
G1 X97.013 Y137.128 E1.6539
G1 X97.154 Y137.386 E1.6675
G1 X97.324 Y137.626 E1.6811
G1 X97.518 Y137.845 E1.6947
G1 X97.737 Y138.042 E1.7082
G1 X97.976 Y138.212 E1.7218
G1 X98.232 Y138.355 E1.7354
G1 X98.503 Y138.469 E1.7490
G1 X98.785 Y138.551 E1.7626
G1 X99.074 Y138.601 E1.7762
G1 X99.351 Y138.618 E1.7890
G1 X102.017 Y138.618 E1.9123
G1 X102.285 Y138.603 E1.9247
G1 X102.574 Y138.555 E1.9382
G1 X102.856 Y138.475 E1.9518
G1 X103.128 Y138.363 E1.9654
G1 X103.386 Y138.222 E1.9790
G1 X103.626 Y138.053 E1.9925
G1 X103.845 Y137.858 E2.0061
G1 X104.042 Y137.640 E2.0197
G1 X104.213 Y137.401 E2.0333
G1 X104.355 Y137.144 E2.0469
G1 X104.469 Y136.873 E2.0605
G1 X104.551 Y136.591 E2.0740
G1 X104.601 Y136.302 E2.0876
G1 X104.618 Y136.025 E2.1004
G1 X104.618 Y101.983 E3.6749
G1 X104.603 Y101.715 E3.6873
G1 X104.555 Y101.426 E3.7008
G1 X104.475 Y101.144 E3.7144
G1 X104.363 Y100.872 E3.7280
G1 X104.222 Y100.614 E3.7415
G1 X104.053 Y100.374 E3.7551
G1 X103.858 Y100.155 E3.7687
G1 X103.640 Y99.958 E3.7823
G1 X103.401 Y99.788 E3.7959
G1 X103.144 Y99.645 E3.8094
G1 X102.873 Y99.531 E3.8230
G1 X102.591 Y99.449 E3.8366
G1 X102.302 Y99.399 E3.8502
G1 X102.025 Y99.382 E3.8630
G1 X99.359 Y99.382 E3.9863
G1 X99.091 Y99.397 E3.9987
G1 X98.802 Y99.445 E4.0123
G1 X98.520 Y99.525 E4.0258
G1 X98.248 Y99.637 E4.0394
G1 X97.991 Y99.778 E4.0530
G1 X97.751 Y99.947 E4.0666
G1 X97.531 Y100.142 E4.0802
G1 X97.335 Y100.360 E4.0938
G1 X97.164 Y100.599 E4.1073
G1 X97.021 Y100.856 E4.1209
G1 X96.908 Y101.127 E4.1345
G1 X96.825 Y101.409 E4.1481
; outer perimeter
G1 X97.227 Y101.502 F4800
G92 E0
G1 X97.185 Y101.746 E0.0114 F1150
G1 X97.171 Y101.987 E0.0226
G1 X97.170 Y136.006 E1.5959
G1 X97.184 Y136.240 E1.6068
G1 X97.224 Y136.483 E1.6182
G1 X97.292 Y136.721 E1.6296
G1 X97.386 Y136.950 E1.6411
G1 X97.505 Y137.167 E1.6525
G1 X97.647 Y137.369 E1.6640
G1 X97.811 Y137.554 E1.6754
G1 X97.995 Y137.720 E1.6868
G1 X98.196 Y137.864 E1.6983
G1 X98.413 Y137.984 E1.7097
G1 X98.641 Y138.080 E1.7212
G1 X98.878 Y138.149 E1.7326
G1 X99.122 Y138.191 E1.7440
G1 X99.363 Y138.206 E1.7552
G1 X102.006 Y138.206 E1.8774
G1 X102.240 Y138.193 E1.8883
G1 X102.484 Y138.152 E1.8997
G1 X102.721 Y138.085 E1.9111
G1 X102.950 Y137.991 E1.9226
G1 X103.167 Y137.872 E1.9340
G1 X103.370 Y137.729 E1.9455
G1 X103.555 Y137.565 E1.9569
G1 X103.720 Y137.381 E1.9684
G1 X103.864 Y137.180 E1.9798
G1 X103.984 Y136.964 E1.9912
G1 X104.080 Y136.736 E2.0027
G1 X104.149 Y136.498 E2.0141
G1 X104.191 Y136.255 E2.0256
G1 X104.206 Y136.013 E2.0367
G1 X104.206 Y101.994 E3.6101
G1 X104.193 Y101.760 E3.6209
G1 X104.152 Y101.516 E3.6323
G1 X104.085 Y101.279 E3.6438
G1 X103.991 Y101.050 E3.6552
G1 X103.872 Y100.833 E3.6666
G1 X103.729 Y100.631 E3.6781
G1 X103.565 Y100.445 E3.6895
G1 X103.381 Y100.280 E3.7010
G1 X103.180 Y100.136 E3.7124
G1 X102.964 Y100.016 E3.7238
G1 X102.736 Y99.920 E3.7353
G1 X102.498 Y99.851 E3.7467
G1 X102.254 Y99.809 E3.7582
G1 X102.013 Y99.794 E3.7694
G1 X99.371 Y99.794 E3.8916
G1 X99.137 Y99.807 E3.9024
G1 X98.893 Y99.848 E3.9138
G1 X98.655 Y99.915 E3.9253
G1 X98.426 Y100.009 E3.9367
G1 X98.209 Y100.128 E3.9481
G1 X98.007 Y100.271 E3.9596
G1 X97.822 Y100.435 E3.9710
G1 X97.656 Y100.619 E3.9825
G1 X97.513 Y100.820 E3.9939
G1 X97.392 Y101.036 E4.0054
G1 X97.297 Y101.264 E4.0168
G1 X97.227 Y101.502 E4.0282
G92 E0
G1 E-1.0000 F1800
; solid layer
G1 X104.419 Y100.286 F4800
G1 E0.0000 F1800
G92 E0
G1 X106.182 Y102.049 E0.1153 F1840
G1 X106.182 Y102.631 E0.1422
G1 X104.896 Y101.346 E0.2263
G1 X104.897 Y101.349 E0.2265
G1 X104.952 Y101.676 E0.2418
G1 X104.968 Y101.973 E0.2556
G1 X104.968 Y102.001 E0.2568
G1 X106.182 Y103.214 E0.3362
G1 X106.182 Y103.797 E0.3632
G1 X104.968 Y102.583 E0.4425
G1 X104.968 Y103.166 E0.4695
G1 X106.182 Y104.379 E0.5489
G1 X106.182 Y104.962 E0.5758
G1 X104.968 Y103.748 E0.6552
G1 X104.968 Y104.331 E0.6821
G1 X106.182 Y105.545 E0.7615
G1 X106.182 Y106.127 E0.7884
G1 X104.968 Y104.914 E0.8678
G1 X104.968 Y105.496 E0.8948
G1 X106.182 Y106.710 E0.9742
G1 X106.182 Y107.293 E1.0011
G1 X104.968 Y106.079 E1.0805
G1 X104.968 Y106.662 E1.1074
G1 X106.182 Y107.875 E1.1868
G1 X106.182 Y108.458 E1.2137
G1 X104.968 Y107.244 E1.2931
G1 X104.968 Y107.827 E1.3201
G1 X106.182 Y109.041 E1.3995
G1 X106.182 Y109.623 E1.4264
G1 X104.968 Y108.410 E1.5058
G1 X104.968 Y108.992 E1.5327
G1 X106.182 Y110.206 E1.6121
G1 X106.182 Y110.789 E1.6391
G1 X104.968 Y109.575 E1.7184
G1 X104.968 Y110.158 E1.7454
G1 X106.182 Y111.371 E1.8248
G1 X106.182 Y111.954 E1.8517
G1 X104.968 Y110.740 E1.9311
G1 X104.968 Y111.323 E1.9580
G1 X106.182 Y112.537 E2.0374
G1 X106.182 Y113.119 E2.0644
G1 X104.968 Y111.906 E2.1438
G1 X104.968 Y112.488 E2.1707
G1 X106.182 Y113.702 E2.2501
G1 X106.182 Y114.285 E2.2770
G1 X104.968 Y113.071 E2.3564
G1 X104.968 Y113.654 E2.3834
G1 X106.182 Y114.867 E2.4627
G1 X106.182 Y115.450 E2.4897
G1 X104.968 Y114.236 E2.5691
G1 X104.968 Y114.819 E2.5960
G1 X106.182 Y116.033 E2.6754
G1 X106.182 Y116.615 E2.7024
G1 X104.968 Y115.401 E2.7817
G1 X104.968 Y115.984 E2.8087
G1 X106.182 Y117.198 E2.8881
G1 X106.182 Y117.781 E2.9150
G1 X104.968 Y116.567 E2.9944
G1 X104.968 Y117.149 E3.0213
G1 X106.182 Y118.363 E3.1007
G1 X106.182 Y118.946 E3.1277
G1 X104.968 Y117.732 E3.2071
G1 X104.968 Y118.315 E3.2340
G1 X106.182 Y119.529 E3.3134
G1 X106.182 Y120.111 E3.3403
G1 X104.968 Y118.897 E3.4197
G1 X104.968 Y119.480 E3.4467
G1 X106.182 Y120.694 E3.5261
G1 X106.182 Y121.276 E3.5530
G1 X104.968 Y120.063 E3.6324
G1 X104.968 Y120.645 E3.6594
G1 X106.182 Y121.859 E3.7387
G1 X106.182 Y122.442 E3.7657
G1 X104.968 Y121.228 E3.8451
G1 X104.968 Y121.811 E3.8720
G1 X106.182 Y123.024 E3.9514
G1 X106.182 Y123.607 E3.9784
G1 X104.968 Y122.393 E4.0578
G1 X104.968 Y122.976 E4.0847
G1 X106.182 Y124.190 E4.1641
G1 X106.182 Y124.772 E4.1910
G1 X104.968 Y123.559 E4.2704
G1 X104.968 Y124.141 E4.2974
G1 X106.182 Y125.355 E4.3768
G1 X106.182 Y125.938 E4.4037
G1 X104.968 Y124.724 E4.4831
G1 X104.968 Y125.307 E4.5101
G1 X106.182 Y126.520 E4.5894
G1 X106.182 Y127.103 E4.6164
G1 X104.968 Y125.889 E4.6958
G1 X104.968 Y126.472 E4.7227
G1 X106.182 Y127.686 E4.8021
G1 X106.182 Y128.268 E4.8291
G1 X104.968 Y127.054 E4.9085
G1 X104.968 Y127.637 E4.9354
G1 X106.182 Y128.851 E5.0148
G1 X106.182 Y129.434 E5.0418
G1 X104.968 Y128.220 E5.1212
G1 X104.968 Y128.802 E5.1481
G1 X106.182 Y130.016 E5.2275
G1 X106.182 Y130.599 E5.2544
G1 X104.968 Y129.385 E5.3338
G1 X104.968 Y129.968 E5.3608
G1 X106.182 Y131.182 E5.4402
G1 X106.182 Y131.764 E5.4671
G1 X104.968 Y130.550 E5.5465
G1 X104.968 Y131.133 E5.5735
G1 X106.182 Y132.347 E5.6529
G1 X106.182 Y132.930 E5.6798
G1 X104.968 Y131.716 E5.7592
G1 X104.968 Y132.298 E5.7862
G1 X106.182 Y133.512 E5.8656
G1 X106.182 Y134.095 E5.8925
G1 X104.968 Y132.881 E5.9719
G1 X104.968 Y133.464 E5.9988
G1 X106.182 Y134.678 E6.0782
G1 X106.182 Y135.260 E6.1052
G1 X104.968 Y134.046 E6.1846
G1 X104.968 Y134.629 E6.2115
G1 X106.182 Y135.843 E6.2909
G1 X106.182 Y136.426 E6.3179
G1 X104.968 Y135.212 E6.3973
G1 X104.968 Y135.794 E6.4242
G1 X106.182 Y137.008 E6.5036
G1 X106.182 Y137.591 E6.5306
G1 X104.947 Y136.356 E6.6113
G1 X104.893 Y136.671 E6.6261
G1 X104.844 Y136.836 E6.6341
G1 X106.182 Y138.173 E6.7215
G1 X106.182 Y138.756 E6.7485
G1 X104.686 Y137.261 E6.8463
G1 X104.671 Y137.298 E6.8481
G1 X104.509 Y137.588 E6.8635
