; G-Code generated by Simplify3D(R) Version 4.0.0
; Nov 4, 2020 at 1:50:43 PM
; Settings Summary
;   processName,Process1
;   applyToModels,Optional_brace
;   profileName,new profile (modified)
;   profileVersion,2020-09-07 14:01:24
;   baseProfile,Default (modified)
;   printMaterial,PLA
;   printQuality,Medium
;   printExtruders,
;   extruderName,Primary Extruder
;   extruderToolheadNumber,0
;   extruderDiameter,0.4
;   extruderAutoWidth,0
;   extruderWidth,0.4
;   extrusionMultiplier,0.9
;   extruderUseRetract,1
;   extruderRetractionDistance,1
;   extruderExtraRestartDistance,0
;   extruderRetractionZLift,0
;   extruderRetractionSpeed,1800
;   extruderUseCoasting,0
;   extruderCoastingDistance,0.2
;   extruderUseWipe,0
;   extruderWipeDistance,5
;   primaryExtruder,0
;   layerHeight,0.3
;   topSolidLayers,3
;   bottomSolidLayers,3
;   perimeterOutlines,2
;   printPerimetersInsideOut,1
;   startPointOption,2
;   startPointOriginX,0
;   startPointOriginY,0
;   sequentialIslands,0
;   spiralVaseMode,0
;   firstLayerHeightPercentage,100
;   firstLayerWidthPercentage,103
;   firstLayerUnderspeed,0.5
;   useRaft,0
;   raftExtruder,0
;   raftTopLayers,3
;   raftBaseLayers,2
;   raftOffset,3
;   raftSeparationDistance,0.14
;   raftTopInfill,100
;   aboveRaftSpeedMultiplier,0.3
;   useSkirt,0
;   skirtExtruder,0
;   skirtLayers,1
;   skirtOutlines,2
;   skirtOffset,4
;   usePrimePillar,0
;   primePillarExtruder,999
;   primePillarWidth,12
;   primePillarLocation,7
;   primePillarSpeedMultiplier,1
;   useOozeShield,0
;   oozeShieldExtruder,999
;   oozeShieldOffset,2
;   oozeShieldOutlines,1
;   oozeShieldSidewallShape,1
;   oozeShieldSidewallAngle,30
;   oozeShieldSpeedMultiplier,1
;   infillExtruder,0
;   internalInfillPattern,Rectilinear
;   externalInfillPattern,Rectilinear
;   infillPercentage,100
;   outlineOverlapPercentage,15
;   infillExtrusionWidthPercentage,100
;   minInfillLength,5
;   infillLayerInterval,1
;   internalInfillAngles,45,-45
;   overlapInternalInfillAngles,0
;   externalInfillAngles,45,-45
;   generateSupport,0
;   supportExtruder,0
;   supportInfillPercentage,30
;   supportExtraInflation,0
;   supportBaseLayers,0
;   denseSupportExtruder,0
;   denseSupportLayers,0
;   denseSupportInfillPercentage,70
;   supportLayerInterval,1
;   supportHorizontalPartOffset,0.3
;   supportUpperSeparationLayers,1
;   supportLowerSeparationLayers,1
;   supportType,1
;   supportGridSpacing,4
;   maxOverhangAngle,45
;   supportAngles,0
;   temperatureName,Primary Extruder,Hot Bed
;   temperatureNumber,0,1
;   temperatureSetpointCount,1,1
;   temperatureSetpointLayers,1,1
;   temperatureSetpointTemperatures,210,60
;   temperatureStabilizeAtStartup,1,0
;   temperatureHeatedBed,0,1
;   temperatureRelayBetweenLayers,0,0
;   temperatureRelayBetweenLoops,0,0
;   fanLayers,1,2
;   fanSpeeds,0,100
;   blipFanToFullPower,0
;   adjustSpeedForCooling,1
;   minSpeedLayerTime,15
;   minCoolingSpeedSlowdown,20
;   increaseFanForCooling,0
;   minFanLayerTime,45
;   maxCoolingFanSpeed,100
;   increaseFanForBridging,0
;   bridgingFanSpeed,100
;   use5D,1
;   relativeEdistances,0
;   allowEaxisZeroing,1
;   independentExtruderAxes,0
;   includeM10123,0
;   stickySupport,1
;   applyToolheadOffsets,0
;   gcodeXoffset,0
;   gcodeYoffset,0
;   gcodeZoffset,0
;   overrideMachineDefinition,0
;   machineTypeOverride,0
;   strokeXoverride,200
;   strokeYoverride,200
;   strokeZoverride,200
;   originOffsetXoverride,0
;   originOffsetYoverride,0
;   originOffsetZoverride,0
;   homeXdirOverride,-1
;   homeYdirOverride,-1
;   homeZdirOverride,-1
;   flipXoverride,1
;   flipYoverride,-1
;   flipZoverride,1
;   toolheadOffsets,0,0|0,0|0,0|0,0|0,0|0,0
;   overrideFirmwareConfiguration,0
;   firmwareTypeOverride,RepRap (Marlin/Repetier/Sprinter)
;   GPXconfigOverride,r2
;   baudRateOverride,115200
;   overridePrinterModels,0
;   printerModelsOverride
;   startingGcode,G28 ; home all axes,G1 X0 Y5 Z0.2 F3000 ; get ready to prime,G92 E0 ; reset extrusion distance,G1 Y150 E20 F600 ; prime nozzle
;   layerChangeGcode,
;   retractionGcode,
;   toolChangeGcode,
;   endingGcode,M104 S0 ; turn off extruder,M140 S0 ; turn off bedG1 X0 Y0; home,M84 ; disable motors,M107 ; fan off,G28 X Y; Home,M18; Disable steppers
;   exportFileFormat,gcode
;   celebration,0
;   celebrationSong,Random Song
;   postProcessing,
;   defaultSpeed,4600
;   outlineUnderspeed,0.5
;   solidInfillUnderspeed,0.8
;   supportUnderspeed,0.8
;   rapidXYspeed,4800
;   rapidZspeed,1000
;   minBridgingArea,50
;   bridgingExtraInflation,0
;   bridgingExtrusionMultiplier,1
;   bridgingSpeedMultiplier,1
;   useFixedBridgingAngle,0
;   fixedBridgingAngle,0
;   applyBridgingToPerimeters,0
;   filamentDiameters,1.75|1.75|1.75|1.75|1.75|1.75
;   filamentPricesPerKg,46|46|46|46|46|46
;   filamentDensities,1.25|1.25|1.25|1.25|1.25|1.25
;   useMinPrintHeight,0
;   minPrintHeight,0
;   useMaxPrintHeight,0
;   maxPrintHeight,0
;   useDiaphragm,0
;   diaphragmLayerInterval,20
;   robustSlicing,1
;   mergeAllIntoSolid,0
;   onlyRetractWhenCrossingOutline,1
;   retractBetweenLayers,1
;   useRetractionMinTravel,0
;   retractionMinTravel,3
;   retractWhileWiping,0
;   onlyWipeOutlines,1
;   avoidCrossingOutline,0
;   maxMovementDetourFactor,3
;   toolChangeRetractionDistance,12
;   toolChangeExtraRestartDistance,-0.5
;   toolChangeRetractionSpeed,600
;   externalThinWallType,1
;   internalThinWallType,1
;   thinWallAllowedOverlapPercentage,10
;   singleExtrusionMinLength,1
;   singleExtrusionMinPrintingWidthPercentage,50
;   singleExtrusionMaxPrintingWidthPercentage,200
;   singleExtrusionEndpointExtension,0.2
;   horizontalSizeCompensation,0
G90
M82
M106 S0
M140 S60
M104 S210 T0
M109 S210 T0
G28 ; home all axes
G1 X0 Y5 Z0.2 F3000 ; get ready to prime
G92 E0 ; reset extrusion distance
G1 Y150 E20 F600 ; prime nozzle
G92 E0
G1 E-1.0000 F1800
G1 Z0.300 F1000
; process Process1
; layer 1, Z = 0.300
T0
; tool H0.300 W0.412
; inner perimeter
G1 X98.407 Y97.499 F4800
G1 E0.0000 F540
G92 E0
G1 X99.016 Y97.468 E0.0282 F1725
G1 X128.983 Y97.468 E1.4141
G1 X129.592 Y97.500 E1.4423
G1 X129.592 Y99.498 E1.5347
G1 X129.216 Y99.526 E1.5521
G1 X128.781 Y99.526 E1.5723
G1 X128.589 Y99.512 E1.5812
G1 X128.164 Y99.450 E1.6010
G1 X127.716 Y99.342 E1.6223
G1 X126.532 Y98.961 E1.6799
G1 X126.532 Y139.037 E3.5333
G1 X127.739 Y138.651 E3.5920
G1 X128.179 Y138.547 E3.6128
G1 X128.602 Y138.487 E3.6326
G1 X128.792 Y138.473 E3.6414
G1 X129.229 Y138.475 E3.6616
G1 X129.592 Y138.503 E3.6785
G1 X129.592 Y140.501 E3.7709
G1 X128.984 Y140.532 E3.7990
G1 X99.016 Y140.532 E5.1850
G1 X98.407 Y140.500 E5.2132
G1 X98.407 Y138.502 E5.3056
G1 X98.784 Y138.474 E5.3231
G1 X99.219 Y138.474 E5.3431
G1 X99.411 Y138.488 E5.3520
G1 X99.836 Y138.550 E5.3719
G1 X100.283 Y138.658 E5.3932
G1 X101.468 Y139.039 E5.4508
G1 X101.468 Y98.981 E7.3034
G1 X100.024 Y99.409 E7.3730
G1 X99.604 Y99.489 E7.3928
G1 X99.411 Y99.512 E7.4017
G1 X98.993 Y99.532 E7.4211
G1 X98.779 Y99.526 E7.4310
G1 X98.407 Y99.497 E7.4483
G1 X98.407 Y97.499 E7.5406
; outer perimeter
G1 X98.281 Y97.111 F4800
G92 E0
G1 X98.524 Y97.081 E0.0113 F1150
G1 X99.005 Y97.056 E0.0336
G1 X128.994 Y97.056 E1.4205
G1 X129.487 Y97.082 E1.4434
G1 X129.727 Y97.113 E1.4545
G1 X130.004 Y97.169 E1.4676
G1 X130.004 Y99.831 E1.5908
G1 X129.722 Y99.888 E1.6040
G1 X129.476 Y99.919 E1.6155
G1 X129.232 Y99.938 E1.6268
G1 X128.766 Y99.938 E1.6484
G1 X128.544 Y99.921 E1.6587
G1 X128.086 Y99.855 E1.6801
G1 X127.605 Y99.739 E1.7030
G1 X126.944 Y99.526 E1.7351
G1 X126.944 Y138.473 E3.5363
G1 X127.629 Y138.254 E3.5696
G1 X128.102 Y138.142 E3.5921
G1 X128.559 Y138.077 E3.6134
G1 X128.778 Y138.061 E3.6236
G1 X129.246 Y138.063 E3.6452
G1 X129.488 Y138.082 E3.6564
G1 X129.731 Y138.113 E3.6678
G1 X130.004 Y138.169 E3.6806
G1 X130.004 Y140.831 E3.8038
G1 X129.718 Y140.889 E3.8173
G1 X129.475 Y140.919 E3.8286
G1 X128.994 Y140.944 E3.8509
G1 X99.005 Y140.944 E5.2378
G1 X98.512 Y140.918 E5.2607
G1 X98.273 Y140.887 E5.2718
G1 X97.995 Y140.831 E5.2849
G1 X97.995 Y138.169 E5.4080
G1 X98.281 Y138.111 E5.4215
G1 X98.526 Y138.080 E5.4330
G1 X98.769 Y138.062 E5.4442
G1 X99.234 Y138.062 E5.4657
G1 X99.456 Y138.079 E5.4760
G1 X99.914 Y138.145 E5.4974
G1 X100.394 Y138.261 E5.5203
G1 X101.056 Y138.474 E5.5524
G1 X101.056 Y99.533 E7.3533
G1 X100.122 Y99.810 E7.3984
G1 X99.667 Y99.896 E7.4198
G1 X99.445 Y99.922 E7.4301
G1 X98.997 Y99.944 E7.4508
G1 X98.757 Y99.938 E7.4619
G1 X98.517 Y99.919 E7.4731
G1 X97.995 Y99.838 E7.4975
G1 X97.995 Y97.169 E7.6210
G1 X98.281 Y97.111 E7.6345
; inner perimeter
G1 X104.038 Y100.818 F4800
G92 E0
G1 X103.886 Y101.188 E0.0185 F1725
G1 X103.825 Y101.410 E0.0291
G1 X103.766 Y101.792 E0.0470
G1 X103.758 Y101.987 E0.0560
G1 X103.758 Y136.027 E1.6303
G1 X103.788 Y136.402 E1.6477
G1 X103.834 Y136.628 E1.6584
G1 X103.954 Y136.997 E1.6764
G1 X104.047 Y137.196 E1.6865
G1 X104.154 Y137.386 E1.6966
G1 X104.383 Y137.699 E1.7145
G1 X104.541 Y137.868 E1.7252
G1 X104.837 Y138.119 E1.7432
G1 X105.030 Y138.246 E1.7539
G1 X105.388 Y138.426 E1.7724
G1 X105.781 Y138.551 E1.7915
G1 X106.187 Y138.612 E1.8104
G1 X122.025 Y138.618 E2.5429
G1 X122.400 Y138.588 E2.5603
G1 X122.614 Y138.545 E2.5704
G1 X122.824 Y138.486 E2.5805
G1 X123.193 Y138.332 E2.5990
G1 X123.544 Y138.116 E2.6181
G1 X123.848 Y137.856 E2.6366
G1 X124.004 Y137.686 E2.6472
G1 X124.238 Y137.362 E2.6657
G1 X124.418 Y137.005 E2.6842
G1 X124.497 Y136.789 E2.6949
G1 X124.588 Y136.400 E2.7133
G1 X124.618 Y136.024 E2.7308
G1 X124.618 Y101.974 E4.3055
G1 X124.588 Y101.600 E4.3229
G1 X124.545 Y101.386 E4.3330
G1 X124.486 Y101.176 E4.3431
G1 X124.337 Y100.818 E4.3610
G1 X124.224 Y100.617 E4.3717
G1 X123.988 Y100.294 E4.3901
G1 X123.704 Y100.012 E4.4086
G1 X123.523 Y99.870 E4.4193
G1 X123.181 Y99.662 E4.4378
G1 X122.811 Y99.510 E4.4563
G1 X122.589 Y99.448 E4.4669
G1 X122.196 Y99.388 E4.4854
G1 X106.350 Y99.382 E5.2182
G1 X105.964 Y99.413 E5.2361
G1 X105.563 Y99.509 E5.2552
G1 X105.183 Y99.668 E5.2742
G1 X104.842 Y99.877 E5.2927
G1 X104.661 Y100.020 E5.3034
G1 X104.388 Y100.295 E5.3213
G1 X104.246 Y100.477 E5.3320
G1 X104.038 Y100.818 E5.3505
; outer perimeter
G1 X104.407 Y101.005 F4800
G92 E0
G1 X104.277 Y101.322 E0.0159 F1150
G1 X104.228 Y101.497 E0.0243
G1 X104.176 Y101.832 E0.0399
G1 X104.170 Y101.995 E0.0475
G1 X104.170 Y136.010 E1.6206
G1 X104.197 Y136.345 E1.6361
G1 X104.233 Y136.523 E1.6446
G1 X104.338 Y136.846 E1.6603
G1 X104.413 Y137.007 E1.6685
G1 X104.501 Y137.162 E1.6767
G1 X104.701 Y137.436 E1.6924
G1 X104.826 Y137.569 E1.7008
G1 X105.085 Y137.789 E1.7166
G1 X105.237 Y137.889 E1.7250
G1 X105.544 Y138.043 E1.7409
G1 X105.875 Y138.149 E1.7569
G1 X106.218 Y138.200 E1.7730
G1 X122.009 Y138.206 E2.5033
G1 X122.343 Y138.179 E2.5188
G1 X122.517 Y138.145 E2.5270
G1 X122.688 Y138.096 E2.5352
G1 X123.005 Y137.964 E2.5511
G1 X123.300 Y137.782 E2.5671
G1 X123.561 Y137.559 E2.5830
G1 X123.684 Y137.425 E2.5914
G1 X123.885 Y137.147 E2.6073
G1 X124.039 Y136.841 E2.6231
G1 X124.101 Y136.670 E2.6315
G1 X124.180 Y136.337 E2.6474
G1 X124.206 Y136.008 E2.6626
G1 X124.206 Y101.991 E4.2359
G1 X124.179 Y101.657 E4.2514
G1 X124.144 Y101.482 E4.2596
G1 X124.096 Y101.311 E4.2678
G1 X123.966 Y100.999 E4.2835
G1 X123.876 Y100.840 E4.2919
G1 X123.674 Y100.563 E4.3078
G1 X123.431 Y100.321 E4.3236
G1 X123.288 Y100.209 E4.3320
G1 X122.995 Y100.031 E4.3479
G1 X122.678 Y99.901 E4.3637
G1 X122.503 Y99.852 E4.3722
G1 X122.164 Y99.800 E4.3880
G1 X106.367 Y99.794 E5.1186
G1 X106.029 Y99.821 E5.1343
G1 X105.691 Y99.902 E5.1503
G1 X105.371 Y100.036 E5.1664
G1 X105.079 Y100.215 E5.1822
G1 X104.936 Y100.328 E5.1906
G1 X104.697 Y100.569 E5.2063
G1 X104.585 Y100.712 E5.2147
G1 X104.407 Y101.005 E5.2306
; solid layer
G1 X103.759 Y100.602 F4800
G92 E0
G1 X101.818 Y98.661 E0.1270 F1840
G1 X101.818 Y99.243 E0.1539
G1 X103.582 Y101.007 E0.2693
G1 X103.554 Y101.075 E0.2727
G1 X103.482 Y101.336 E0.2852
G1 X103.461 Y101.469 E0.2915
G1 X101.818 Y99.826 E0.3989
G1 X101.818 Y100.409 E0.4259
G1 X103.408 Y101.999 E0.5299
G1 X103.408 Y102.581 E0.5568
G1 X101.818 Y100.991 E0.6608
G1 X101.818 Y101.574 E0.6878
G1 X103.408 Y103.164 E0.7918
G1 X103.408 Y103.747 E0.8187
G1 X101.818 Y102.157 E0.9227
G1 X101.818 Y102.739 E0.9496
G1 X103.408 Y104.329 E1.0536
G1 X103.408 Y104.912 E1.0806
G1 X101.818 Y103.322 E1.1846
G1 X101.818 Y103.905 E1.2115
G1 X103.408 Y105.495 E1.3155
G1 X103.408 Y106.077 E1.3425
G1 X101.818 Y104.487 E1.4465
G1 X101.818 Y105.070 E1.4734
G1 X103.408 Y106.660 E1.5774
G1 X103.408 Y107.243 E1.6043
G1 X101.818 Y105.653 E1.7083
G1 X101.818 Y106.235 E1.7353
G1 X103.408 Y107.825 E1.8393
G1 X103.408 Y108.408 E1.8662
G1 X101.818 Y106.818 E1.9702
G1 X101.818 Y107.401 E1.9972
G1 X103.408 Y108.991 E2.1012
G1 X103.408 Y109.573 E2.1281
G1 X101.818 Y107.983 E2.2321
G1 X101.818 Y108.566 E2.2590
G1 X103.408 Y110.156 E2.3630
G1 X103.408 Y110.738 E2.3900
G1 X101.818 Y109.148 E2.4940
G1 X101.818 Y109.731 E2.5209
G1 X103.408 Y111.321 E2.6249
G1 X103.408 Y111.904 E2.6519
G1 X101.818 Y110.314 E2.7559
G1 X101.818 Y110.896 E2.7828
G1 X103.408 Y112.486 E2.8868
G1 X103.408 Y113.069 E2.9137
G1 X101.818 Y111.479 E3.0177
G1 X101.818 Y112.062 E3.0447
G1 X103.408 Y113.652 E3.1487
G1 X103.408 Y114.234 E3.1756
G1 X101.818 Y112.644 E3.2796
G1 X101.818 Y113.227 E3.3066
G1 X103.408 Y114.817 E3.4106
G1 X103.408 Y115.400 E3.4375
G1 X101.818 Y113.810 E3.5415
G1 X101.818 Y114.392 E3.5684
G1 X103.408 Y115.982 E3.6724
G1 X103.408 Y116.565 E3.6994
G1 X101.818 Y114.975 E3.8034
G1 X101.818 Y115.558 E3.8303
G1 X103.408 Y117.148 E3.9343
G1 X103.408 Y117.730 E3.9613
G1 X101.818 Y116.140 E4.0653
G1 X101.818 Y116.723 E4.0922
G1 X103.408 Y118.313 E4.1962
G1 X103.408 Y118.896 E4.2231
G1 X101.818 Y117.306 E4.3271
G1 X101.818 Y117.888 E4.3541
G1 X103.408 Y119.478 E4.4581
G1 X103.408 Y120.061 E4.4850
G1 X101.818 Y118.471 E4.5890
G1 X101.818 Y119.054 E4.6160
G1 X103.408 Y120.644 E4.7200
G1 X103.408 Y121.226 E4.7469
G1 X101.818 Y119.636 E4.8509
G1 X101.818 Y120.219 E4.8778
G1 X103.408 Y121.809 E4.9818
G1 X103.408 Y122.392 E5.0088
G1 X101.818 Y120.802 E5.1128
G1 X101.818 Y121.384 E5.1397
G1 X103.408 Y122.974 E5.2437
G1 X103.408 Y123.557 E5.2707
G1 X101.818 Y121.967 E5.3747
G1 X101.818 Y122.550 E5.4016
G1 X103.408 Y124.140 E5.5056
G1 X103.408 Y124.722 E5.5325
G1 X101.818 Y123.132 E5.6365
G1 X101.818 Y123.715 E5.6635
G1 X103.408 Y125.305 E5.7675
G1 X103.408 Y125.888 E5.7944
G1 X101.818 Y124.298 E5.8984
G1 X101.818 Y124.880 E5.9254
G1 X103.408 Y126.470 E6.0294
G1 X103.408 Y127.053 E6.0563
G1 X101.818 Y125.463 E6.1603
G1 X101.818 Y126.046 E6.1872
G1 X103.408 Y127.636 E6.2912
G1 X103.408 Y128.218 E6.3182
G1 X101.818 Y126.628 E6.4222
G1 X101.818 Y127.211 E6.4491
G1 X103.408 Y128.801 E6.5531
G1 X103.408 Y129.383 E6.5801
G1 X101.818 Y127.793 E6.6841
G1 X101.818 Y128.376 E6.7110
G1 X103.408 Y129.966 E6.8150
G1 X103.408 Y130.549 E6.8419
G1 X101.818 Y128.959 E6.9459
G1 X101.818 Y129.541 E6.9729
G1 X103.408 Y131.131 E7.0769
G1 X103.408 Y131.714 E7.1038
G1 X101.818 Y130.124 E7.2078
G1 X101.818 Y130.707 E7.2348
G1 X103.408 Y132.297 E7.3388
G1 X103.408 Y132.879 E7.3657
G1 X101.818 Y131.289 E7.4697
G1 X101.818 Y131.872 E7.4967
G1 X103.408 Y133.462 E7.6006
G1 X103.408 Y134.045 E7.6276
G1 X101.818 Y132.455 E7.7316
G1 X101.818 Y133.037 E7.7585
G1 X103.408 Y134.627 E7.8625
G1 X103.408 Y135.210 E7.8895
G1 X101.818 Y133.620 E7.9935
G1 X101.818 Y134.203 E8.0204
G1 X103.408 Y135.793 E8.1244
G1 X103.408 Y136.041 E8.1359
G1 X103.437 Y136.404 E8.1528
G1 X101.818 Y134.785 E8.2587
G1 X101.818 Y135.368 E8.2856
G1 X103.673 Y137.224 E8.4070
G1 X103.735 Y137.356 E8.4137
G1 X103.859 Y137.576 E8.4254
G1 X104.113 Y137.923 E8.4453
G1 X104.299 Y138.122 E8.4579
G1 X104.627 Y138.400 E8.4778
G1 X104.854 Y138.550 E8.4903
G1 X105.147 Y138.697 E8.5055
G1 X106.632 Y140.182 E8.6026
G1 X107.214 Y140.182 E8.6296
G1 X105.966 Y138.933 E8.7112
G1 X106.160 Y138.963 E8.7203
G1 X106.578 Y138.963 E8.7396
G1 X107.797 Y140.182 E8.8194
G1 X108.380 Y140.182 E8.8463
G1 X107.161 Y138.963 E8.9260
G1 X107.744 Y138.963 E8.9530
G1 X108.962 Y140.182 E9.0327
G1 X109.545 Y140.182 E9.0596
