; G-Code generated by Simplify3D(R) Version 4.0.0
; Nov 17, 2020 at 9:06:25 PM
; Settings Summary
;   processName,Process1
;   applyToModels,2020_mount_v1.0,2020_mount_v1.0(2),2020_mount_v1.0(3)
;   profileName,new profile (modified)
;   profileVersion,2020-09-07 14:01:24
;   baseProfile,Default (modified)
;   printMaterial,PLA
;   printQuality,Medium
;   printExtruders,
;   extruderName,Primary Extruder
;   extruderToolheadNumber,0
;   extruderDiameter,0.4
;   extruderAutoWidth,0
;   extruderWidth,0.4
;   extrusionMultiplier,0.9
;   extruderUseRetract,1
;   extruderRetractionDistance,1
;   extruderExtraRestartDistance,0
;   extruderRetractionZLift,0
;   extruderRetractionSpeed,1800
;   extruderUseCoasting,0
;   extruderCoastingDistance,0.2
;   extruderUseWipe,0
;   extruderWipeDistance,5
;   primaryExtruder,0
;   layerHeight,0.3
;   topSolidLayers,3
;   bottomSolidLayers,3
;   perimeterOutlines,2
;   printPerimetersInsideOut,1
;   startPointOption,2
;   startPointOriginX,0
;   startPointOriginY,0
;   sequentialIslands,0
;   spiralVaseMode,0
;   firstLayerHeightPercentage,100
;   firstLayerWidthPercentage,103
;   firstLayerUnderspeed,0.5
;   useRaft,0
;   raftExtruder,0
;   raftTopLayers,3
;   raftBaseLayers,2
;   raftOffset,3
;   raftSeparationDistance,0.14
;   raftTopInfill,100
;   aboveRaftSpeedMultiplier,0.3
;   useSkirt,0
;   skirtExtruder,0
;   skirtLayers,1
;   skirtOutlines,2
;   skirtOffset,4
;   usePrimePillar,0
;   primePillarExtruder,999
;   primePillarWidth,12
;   primePillarLocation,7
;   primePillarSpeedMultiplier,1
;   useOozeShield,0
;   oozeShieldExtruder,999
;   oozeShieldOffset,2
;   oozeShieldOutlines,1
;   oozeShieldSidewallShape,1
;   oozeShieldSidewallAngle,30
;   oozeShieldSpeedMultiplier,1
;   infillExtruder,0
;   internalInfillPattern,Rectilinear
;   externalInfillPattern,Rectilinear
;   infillPercentage,30
;   outlineOverlapPercentage,15
;   infillExtrusionWidthPercentage,100
;   minInfillLength,5
;   infillLayerInterval,1
;   internalInfillAngles,45,-45
;   overlapInternalInfillAngles,0
;   externalInfillAngles,45,-45
;   generateSupport,1
;   supportExtruder,0
;   supportInfillPercentage,30
;   supportExtraInflation,0
;   supportBaseLayers,0
;   denseSupportExtruder,0
;   denseSupportLayers,0
;   denseSupportInfillPercentage,70
;   supportLayerInterval,1
;   supportHorizontalPartOffset,0.3
;   supportUpperSeparationLayers,1
;   supportLowerSeparationLayers,1
;   supportType,0
;   supportGridSpacing,4
;   maxOverhangAngle,45
;   supportAngles,0
;   temperatureName,Primary Extruder,Hot Bed
;   temperatureNumber,0,1
;   temperatureSetpointCount,1,1
;   temperatureSetpointLayers,1,1
;   temperatureSetpointTemperatures,210,60
;   temperatureStabilizeAtStartup,1,0
;   temperatureHeatedBed,0,1
;   temperatureRelayBetweenLayers,0,0
;   temperatureRelayBetweenLoops,0,0
;   fanLayers,1,2
;   fanSpeeds,0,100
;   blipFanToFullPower,0
;   adjustSpeedForCooling,1
;   minSpeedLayerTime,15
;   minCoolingSpeedSlowdown,20
;   increaseFanForCooling,0
;   minFanLayerTime,45
;   maxCoolingFanSpeed,100
;   increaseFanForBridging,0
;   bridgingFanSpeed,100
;   use5D,1
;   relativeEdistances,0
;   allowEaxisZeroing,1
;   independentExtruderAxes,0
;   includeM10123,0
;   stickySupport,1
;   applyToolheadOffsets,0
;   gcodeXoffset,-0.03
;   gcodeYoffset,-0.03
;   gcodeZoffset,0
;   overrideMachineDefinition,0
;   machineTypeOverride,0
;   strokeXoverride,200
;   strokeYoverride,200
;   strokeZoverride,200
;   originOffsetXoverride,0
;   originOffsetYoverride,0
;   originOffsetZoverride,0
;   homeXdirOverride,-1
;   homeYdirOverride,-1
;   homeZdirOverride,-1
;   flipXoverride,1
;   flipYoverride,-1
;   flipZoverride,1
;   toolheadOffsets,0,0|0,0|0,0|0,0|0,0|0,0
;   overrideFirmwareConfiguration,0
;   firmwareTypeOverride,RepRap (Marlin/Repetier/Sprinter)
;   GPXconfigOverride,r2
;   baudRateOverride,115200
;   overridePrinterModels,0
;   printerModelsOverride
;   startingGcode,G28 ; home all axes,G1 X0 Y5 Z0.2 F3000 ; get ready to prime,G92 E0 ; reset extrusion distance,G1 Y150 E20 F600 ; prime nozzle
;   layerChangeGcode,
;   retractionGcode,
;   toolChangeGcode,
;   endingGcode,M104 S0 ; turn off extruder,M140 S0 ; turn off bedG1 X0 Y0; home,M84 ; disable motors,M107 ; fan off,G28 X Y; Home,M18; Disable steppers
;   exportFileFormat,gcode
;   celebration,0
;   celebrationSong,Random Song
;   postProcessing,
;   defaultSpeed,4600
;   outlineUnderspeed,0.5
;   solidInfillUnderspeed,0.8
;   supportUnderspeed,0.8
;   rapidXYspeed,4800
;   rapidZspeed,1000
;   minBridgingArea,50
;   bridgingExtraInflation,0
;   bridgingExtrusionMultiplier,1
;   bridgingSpeedMultiplier,1
;   useFixedBridgingAngle,0
;   fixedBridgingAngle,0
;   applyBridgingToPerimeters,0
;   filamentDiameters,1.75|1.75|1.75|1.75|1.75|1.75
;   filamentPricesPerKg,46|46|46|46|46|46
;   filamentDensities,1.25|1.25|1.25|1.25|1.25|1.25
;   useMinPrintHeight,0
;   minPrintHeight,0
;   useMaxPrintHeight,0
;   maxPrintHeight,0
;   useDiaphragm,0
;   diaphragmLayerInterval,20
;   robustSlicing,1
;   mergeAllIntoSolid,0
;   onlyRetractWhenCrossingOutline,1
;   retractBetweenLayers,1
;   useRetractionMinTravel,0
;   retractionMinTravel,3
;   retractWhileWiping,0
;   onlyWipeOutlines,1
;   avoidCrossingOutline,0
;   maxMovementDetourFactor,3
;   toolChangeRetractionDistance,12
;   toolChangeExtraRestartDistance,-0.5
;   toolChangeRetractionSpeed,600
;   externalThinWallType,1
;   internalThinWallType,1
;   thinWallAllowedOverlapPercentage,10
;   singleExtrusionMinLength,1
;   singleExtrusionMinPrintingWidthPercentage,50
;   singleExtrusionMaxPrintingWidthPercentage,200
;   singleExtrusionEndpointExtension,0.2
;   horizontalSizeCompensation,0
G90
M82
M106 S0
M140 S60
M104 S210 T0
M109 S210 T0
G28 ; home all axes
G1 X0 Y5 Z0.2 F3000 ; get ready to prime
G92 E0 ; reset extrusion distance
G1 Y150 E20 F600 ; prime nozzle
G92 E0
G1 E-1.0000 F1800
G1 Z0.300 F1000
; process Process1
; layer 1, Z = 0.300
T0
; tool H0.300 W0.412
; inner perimeter
G1 X96.592 Y109.918 F4800
G1 E0.0000 F540
G92 E0
G1 X96.727 Y109.815 E0.0079 F1725
G1 X96.874 Y109.731 E0.0157
G1 X97.032 Y109.667 E0.0236
G1 X97.196 Y109.625 E0.0314
G1 X97.370 Y109.604 E0.0395
G1 X103.743 Y109.602 E0.3343
G1 X103.746 Y110.917 E0.3951
G1 X103.781 Y111.187 E0.4077
G1 X103.870 Y111.430 E0.4196
G1 X104.104 Y111.765 E0.4386
G1 X104.440 Y112.000 E0.4575
G1 X104.683 Y112.088 E0.4695
G1 X104.954 Y112.124 E0.4821
G1 X115.152 Y112.123 E0.9537
G1 X115.424 Y112.083 E0.9664
G1 X115.803 Y111.906 E0.9858
G1 X116.092 Y111.617 E1.0047
G1 X116.228 Y111.381 E1.0173
G1 X116.327 Y111.012 E1.0349
G1 X116.330 Y109.602 E1.1002
G1 X118.874 Y109.602 E1.2178
G1 X118.876 Y132.322 E2.2686
G1 X96.155 Y132.324 E3.3194
G1 X96.154 Y129.777 E3.4372
G1 X97.500 Y129.775 E3.4994
G1 X97.745 Y129.739 E3.5109
G1 X97.983 Y129.652 E3.5226
G1 X98.296 Y129.433 E3.5403
G1 X98.453 Y129.245 E3.5516
G1 X98.576 Y129.033 E3.5629
G1 X98.675 Y128.664 E3.5806
G1 X98.677 Y117.193 E4.1111
G1 X96.156 Y117.193 E4.2278
G1 X96.156 Y110.883 E4.5196
G1 X96.157 Y110.825 E4.5223
G1 X96.178 Y110.643 E4.5307
G1 X96.220 Y110.478 E4.5386
G1 X96.284 Y110.321 E4.5464
G1 X96.368 Y110.173 E4.5543
G1 X96.471 Y110.038 E4.5622
G1 X96.592 Y109.918 E4.5700
; outer perimeter
G1 X96.320 Y109.607 F4800
G92 E0
G1 X96.499 Y109.471 E0.0104 F1150
G1 X96.694 Y109.359 E0.0208
G1 X96.903 Y109.275 E0.0312
G1 X97.121 Y109.219 E0.0416
G1 X97.346 Y109.192 E0.0521
G1 X103.720 Y109.190 E0.3469
G1 X103.838 Y109.206 E0.3524
G1 X103.983 Y109.273 E0.3598
G1 X104.026 Y109.309 E0.3624
G1 X104.115 Y109.437 E0.3696
G1 X104.155 Y109.587 E0.3768
G1 X104.158 Y110.889 E0.4370
G1 X104.184 Y111.088 E0.4463
G1 X104.238 Y111.238 E0.4537
G1 X104.400 Y111.469 E0.4667
G1 X104.632 Y111.631 E0.4798
G1 X104.782 Y111.686 E0.4872
G1 X104.981 Y111.712 E0.4964
G1 X115.121 Y111.711 E0.9654
G1 X115.304 Y111.684 E0.9740
G1 X115.563 Y111.563 E0.9872
G1 X115.762 Y111.364 E1.0002
G1 X115.844 Y111.221 E1.0078
G1 X115.915 Y110.958 E1.0205
G1 X115.917 Y109.628 E1.0819
G1 X115.934 Y109.501 E1.0879
G1 X115.955 Y109.444 E1.0907
G1 X116.044 Y109.317 E1.0979
G1 X116.171 Y109.228 E1.1051
G1 X116.228 Y109.207 E1.1079
G1 X116.355 Y109.190 E1.1138
G1 X118.850 Y109.190 E1.2292
G1 X118.978 Y109.207 E1.2351
G1 X119.034 Y109.227 E1.2379
G1 X119.162 Y109.317 E1.2451
G1 X119.245 Y109.437 E1.2519
G1 X119.286 Y109.587 E1.2591
G1 X119.288 Y132.298 E2.3094
G1 X119.271 Y132.426 E2.3154
G1 X119.251 Y132.482 E2.3181
G1 X119.162 Y132.610 E2.3253
G1 X119.042 Y132.693 E2.3321
G1 X118.892 Y132.734 E2.3393
G1 X96.181 Y132.736 E3.3896
G1 X96.054 Y132.719 E3.3955
G1 X95.997 Y132.699 E3.3983
G1 X95.870 Y132.610 E3.4055
G1 X95.781 Y132.482 E3.4127
G1 X95.760 Y132.426 E3.4155
G1 X95.743 Y132.298 E3.4214
G1 X95.742 Y129.803 E3.5368
G1 X95.759 Y129.676 E3.5428
G1 X95.783 Y129.611 E3.5460
G1 X95.815 Y129.554 E3.5490
G1 X95.925 Y129.444 E3.5562
G1 X96.062 Y129.381 E3.5632
G1 X96.180 Y129.365 E3.5687
G1 X97.469 Y129.363 E3.6283
G1 X97.643 Y129.338 E3.6364
G1 X97.791 Y129.284 E3.6437
G1 X98.015 Y129.127 E3.6564
G1 X98.115 Y129.008 E3.6635
G1 X98.192 Y128.874 E3.6707
G1 X98.263 Y128.610 E3.6833
G1 X98.265 Y117.605 E4.1923
G1 X95.743 Y117.605 E4.3089
G1 X95.743 Y110.878 E4.6200
G1 X95.746 Y110.795 E4.6239
G1 X95.772 Y110.568 E4.6345
G1 X95.828 Y110.350 E4.6449
G1 X95.913 Y110.141 E4.6553
G1 X96.024 Y109.945 E4.6657
G1 X96.161 Y109.766 E4.6761
G1 X96.320 Y109.607 E4.6865
; solid layer
G1 X101.689 Y109.953 F4800
G92 E0
G1 X118.525 Y126.789 E1.1012 F1840
G1 X118.525 Y127.372 E1.1281
G1 X101.107 Y109.953 E2.2674
G1 X100.524 Y109.954 E2.2943
G1 X118.525 Y127.955 E3.4717
G1 X118.526 Y128.538 E3.4987
G1 X99.942 Y109.954 E4.7141
G1 X99.359 Y109.954 E4.7411
G1 X118.526 Y129.120 E5.9946
G1 X118.526 Y129.703 E6.0216
G1 X98.777 Y109.954 E7.3133
G1 X98.194 Y109.954 E7.3402
G1 X118.526 Y130.286 E8.6700
G1 X118.526 Y130.868 E8.6969
G1 X97.612 Y109.955 E10.0648
G1 X97.391 Y109.955 E10.0750
G1 X97.261 Y109.970 E10.0811
G1 X97.141 Y110.001 E10.0868
G1 X97.094 Y110.020 E10.0891
G1 X118.526 Y131.451 E11.4908
G1 X118.526 Y131.972 E11.5149
G1 X118.464 Y131.972 E11.5178
G1 X96.748 Y110.256 E12.9381
G1 X96.736 Y110.269 E12.9389
G1 X96.661 Y110.367 E12.9446
G1 X96.600 Y110.474 E12.9503
G1 X96.554 Y110.588 E12.9560
G1 X96.542 Y110.633 E12.9581
G1 X117.881 Y131.972 E14.3538
G1 X117.298 Y131.972 E14.3807
G1 X96.506 Y111.179 E15.7407
G1 X96.506 Y111.762 E15.7676
G1 X116.716 Y131.972 E17.0895
G1 X116.133 Y131.972 E17.1164
G1 X96.506 Y112.344 E18.4001
G1 X96.506 Y112.927 E18.4271
G1 X115.551 Y131.972 E19.6727
G1 X114.968 Y131.972 E19.6997
G1 X96.506 Y113.510 E20.9072
G1 X96.506 Y114.092 E20.9341
G1 X114.385 Y131.972 E22.1036
G1 X113.803 Y131.972 E22.1305
G1 X99.028 Y117.197 E23.0969
G1 X99.028 Y116.843 E23.1133
G1 X98.673 Y116.843 E23.1296
G1 X96.506 Y114.675 E23.2714
G1 X96.506 Y115.258 E23.2984
G1 X98.091 Y116.843 E23.4020
G1 X97.508 Y116.843 E23.4290
G1 X96.506 Y115.840 E23.4945
G1 X96.506 Y116.423 E23.5215
G1 X96.925 Y116.843 E23.5489
G1 X99.027 Y117.779 F4800
G92 E0
G1 X113.220 Y131.972 E0.9283 F1840
G1 X112.638 Y131.972 E0.9552
G1 X99.027 Y118.362 E1.8454
G1 X99.027 Y118.944 E1.8723
G1 X112.055 Y131.972 E2.7244
G1 X111.472 Y131.972 E2.7514
G1 X99.027 Y119.527 E3.5654
G1 X99.027 Y120.109 E3.5923
G1 X110.890 Y131.972 E4.3682
G1 X110.307 Y131.972 E4.3951
G1 X99.027 Y120.692 E5.1329
G1 X99.027 Y121.274 E5.1599
G1 X109.725 Y131.972 E5.8596
G1 X109.142 Y131.973 E5.8865
G1 X99.027 Y121.857 E6.5481
G1 X99.026 Y122.440 E6.5751
G1 X108.560 Y131.973 E7.1986
G1 X107.977 Y131.973 E7.2255
G1 X99.026 Y123.022 E7.8109
G1 X99.026 Y123.605 E7.8379
G1 X107.394 Y131.973 E8.3852
G1 X106.812 Y131.973 E8.4121
G1 X99.026 Y124.187 E8.9214
G1 X99.026 Y124.770 E8.9483
G1 X106.229 Y131.973 E9.4194
G1 X105.647 Y131.973 E9.4464
G1 X99.026 Y125.352 E9.8794
G1 X99.026 Y125.935 E9.9063
G1 X105.064 Y131.973 E10.3013
G1 X104.481 Y131.973 E10.3282
G1 X99.026 Y126.517 E10.6851
G1 X99.025 Y127.100 E10.7120
G1 X103.899 Y131.973 E11.0307
G1 X103.316 Y131.973 E11.0577
G1 X99.025 Y127.682 E11.3383
G1 X99.025 Y128.265 E11.3653
G1 X102.734 Y131.973 E11.6078
G1 X102.151 Y131.973 E11.6348
G1 X98.996 Y128.818 E11.8411
G1 X98.903 Y129.168 E11.8579
G1 X98.851 Y129.256 E11.8626
G1 X101.568 Y131.973 E12.0403
G1 X100.986 Y131.973 E12.0672
G1 X98.613 Y129.600 E12.2224
G1 X98.535 Y129.693 E12.2280
G1 X98.293 Y129.863 E12.2417
G1 X100.403 Y131.973 E12.3797
G1 X99.821 Y131.974 E12.4067
G1 X97.902 Y130.055 E12.5322
G1 X97.831 Y130.080 E12.5357
G1 X97.526 Y130.125 E12.5499
G1 X97.390 Y130.126 E12.5562
G1 X99.238 Y131.974 E12.6771
G1 X98.655 Y131.974 E12.7040
G1 X96.808 Y130.126 E12.8249
G1 X96.504 Y130.127 E12.8389
G1 X96.505 Y130.405 E12.8518
G1 X98.073 Y131.974 E12.9544
G1 X97.490 Y131.974 E12.9813
G1 X96.505 Y130.988 E13.0458
G1 X96.505 Y131.571 E13.0727
G1 X96.908 Y131.974 E13.0990
G92 E0
G1 E-1.0000 F1800
G1 X103.395 Y110.493 F4800
G1 E0.0000 F1800
G92 E0
G1 X102.854 Y109.953 E0.0354 F1840
G1 X102.271 Y109.953 E0.0623
G1 X103.416 Y111.098 E0.1372
G1 X103.439 Y111.270 E0.1452
G1 X103.557 Y111.593 E0.1611
G1 X103.853 Y112.016 E0.1850
G1 X104.277 Y112.313 E0.2090
G1 X104.599 Y112.431 E0.2248
G1 X104.772 Y112.453 E0.2329
G1 X118.525 Y126.207 E1.1324
G1 X118.525 Y125.624 E1.1594
G1 X105.375 Y112.474 E2.0194
G1 X105.958 Y112.474 E2.0464
G1 X118.525 Y125.041 E2.8683
G1 X118.525 Y124.459 E2.8953
G1 X106.541 Y112.474 E3.6791
G1 X107.123 Y112.474 E3.7061
G1 X118.525 Y123.876 E4.4518
G1 X118.525 Y123.293 E4.4787
G1 X107.706 Y112.474 E5.1864
G1 X108.288 Y112.474 E5.2133
G1 X118.525 Y122.710 E5.8828
G1 X118.525 Y122.128 E5.9098
G1 X108.871 Y112.474 E6.5412
G1 X109.454 Y112.474 E6.5681
G1 X118.525 Y121.545 E7.1614
G1 X118.525 Y120.962 E7.1884
G1 X110.036 Y112.474 E7.7436
G1 X110.619 Y112.474 E7.7705
G1 X118.525 Y120.380 E8.2876
G1 X118.525 Y119.797 E8.3146
G1 X111.201 Y112.474 E8.7935
G1 X111.784 Y112.473 E8.8205
G1 X118.525 Y119.214 E9.2613
G1 X118.525 Y118.631 E9.2883
G1 X112.367 Y112.473 E9.6911
G1 X112.949 Y112.473 E9.7180
G1 X118.524 Y118.049 E10.0827
G1 X118.524 Y117.466 E10.1096
G1 X113.532 Y112.473 E10.4361
G1 X114.114 Y112.473 E10.4631
G1 X118.524 Y116.883 E10.7515
G1 X118.524 Y116.301 E10.7785
G1 X114.697 Y112.473 E11.0288
G1 X115.177 Y112.473 E11.0510
G1 X115.266 Y112.460 E11.0552
G1 X118.524 Y115.718 E11.2683
G1 X118.524 Y115.135 E11.2952
G1 X115.720 Y112.331 E11.4786
G1 X116.007 Y112.197 E11.4932
G1 X116.088 Y112.116 E11.4985
G1 X118.524 Y114.552 E11.6579
G1 X118.524 Y113.970 E11.6848
G1 X116.377 Y111.823 E11.8253
G1 X116.555 Y111.516 E11.8417
G1 X116.575 Y111.438 E11.8454
G1 X118.524 Y113.387 E11.9728
G1 X118.524 Y112.804 E11.9998
G1 X116.677 Y110.958 E12.1205
G1 X116.678 Y110.376 E12.1474
G1 X118.524 Y112.222 E12.2681
G1 X118.524 Y111.639 E12.2951
G1 X116.837 Y109.952 E12.4054
G1 X117.420 Y109.952 E12.4323
G1 X118.524 Y111.056 E12.5045
G1 X118.524 Y110.473 E12.5315
G1 X118.003 Y109.952 E12.5656
G92 E0
G1 E-1.0000 F1800
; inner perimeter
G1 X125.994 Y110.927 F4800
G1 E0.0000 F1800
G92 E0
G1 X126.015 Y110.748 E0.0083 F1725
G1 X126.057 Y110.586 E0.0161
G1 X126.119 Y110.431 E0.0238
G1 X126.202 Y110.286 E0.0316
G1 X126.304 Y110.153 E0.0393
G1 X126.422 Y110.034 E0.0470
G1 X126.555 Y109.933 E0.0548
G1 X126.700 Y109.850 E0.0625
G1 X126.856 Y109.787 E0.0703
G1 X127.018 Y109.746 E0.0780
G1 X127.189 Y109.725 E0.0860
G1 X133.491 Y109.723 E0.3774
G1 X133.495 Y111.047 E0.4387
G1 X133.530 Y111.289 E0.4500
G1 X133.616 Y111.526 E0.4616
G1 X133.848 Y111.860 E0.4805
G1 X134.181 Y112.095 E0.4993
G1 X134.411 Y112.179 E0.5106
G1 X134.625 Y112.217 E0.5206
G1 X144.790 Y112.219 E0.9907
G1 X145.059 Y112.179 E1.0034
G1 X145.436 Y112.004 E1.0226
G1 X145.725 Y111.717 E1.0414
G1 X145.861 Y111.482 E1.0539
G1 X145.960 Y111.116 E1.0715
G1 X145.964 Y109.726 E1.1358
G1 X148.469 Y109.724 E1.2516
G1 X148.471 Y132.202 E2.2912
G1 X125.995 Y132.203 E3.3307
G1 X125.991 Y129.697 E3.4466
G1 X127.317 Y129.692 E3.5079
G1 X127.558 Y129.657 E3.5192
G1 X127.796 Y129.571 E3.5309
G1 X128.107 Y129.354 E3.5484
G1 X128.264 Y129.168 E3.5597
G1 X128.387 Y128.956 E3.5710
