; G-Code generated by Simplify3D(R) Version 4.0.0
; Nov 17, 2020 at 9:09:59 PM
; Settings Summary
;   processName,Process1
;   applyToModels,2020_mount_v1.0,2020_mount_v1.0(2),2020_mount_v1.0(3)
;   profileName,new profile (modified)
;   profileVersion,2020-09-07 14:01:24
;   baseProfile,Default (modified)
;   printMaterial,PLA
;   printQuality,Medium
;   printExtruders,
;   extruderName,Primary Extruder
;   extruderToolheadNumber,0
;   extruderDiameter,0.4
;   extruderAutoWidth,0
;   extruderWidth,0.4
;   extrusionMultiplier,0.9
;   extruderUseRetract,1
;   extruderRetractionDistance,1
;   extruderExtraRestartDistance,0
;   extruderRetractionZLift,0
;   extruderRetractionSpeed,1800
;   extruderUseCoasting,0
;   extruderCoastingDistance,0.2
;   extruderUseWipe,0
;   extruderWipeDistance,5
;   primaryExtruder,0
;   layerHeight,0.3
;   topSolidLayers,3
;   bottomSolidLayers,3
;   perimeterOutlines,2
;   printPerimetersInsideOut,1
;   startPointOption,2
;   startPointOriginX,0
;   startPointOriginY,0
;   sequentialIslands,0
;   spiralVaseMode,0
;   firstLayerHeightPercentage,100
;   firstLayerWidthPercentage,103
;   firstLayerUnderspeed,0.5
;   useRaft,0
;   raftExtruder,0
;   raftTopLayers,3
;   raftBaseLayers,2
;   raftOffset,3
;   raftSeparationDistance,0.14
;   raftTopInfill,100
;   aboveRaftSpeedMultiplier,0.3
;   useSkirt,0
;   skirtExtruder,0
;   skirtLayers,1
;   skirtOutlines,2
;   skirtOffset,4
;   usePrimePillar,0
;   primePillarExtruder,999
;   primePillarWidth,12
;   primePillarLocation,7
;   primePillarSpeedMultiplier,1
;   useOozeShield,0
;   oozeShieldExtruder,999
;   oozeShieldOffset,2
;   oozeShieldOutlines,1
;   oozeShieldSidewallShape,1
;   oozeShieldSidewallAngle,30
;   oozeShieldSpeedMultiplier,1
;   infillExtruder,0
;   internalInfillPattern,Rectilinear
;   externalInfillPattern,Rectilinear
;   infillPercentage,30
;   outlineOverlapPercentage,15
;   infillExtrusionWidthPercentage,100
;   minInfillLength,5
;   infillLayerInterval,1
;   internalInfillAngles,45,-45
;   overlapInternalInfillAngles,0
;   externalInfillAngles,45,-45
;   generateSupport,1
;   supportExtruder,0
;   supportInfillPercentage,30
;   supportExtraInflation,0
;   supportBaseLayers,0
;   denseSupportExtruder,0
;   denseSupportLayers,0
;   denseSupportInfillPercentage,70
;   supportLayerInterval,1
;   supportHorizontalPartOffset,0.3
;   supportUpperSeparationLayers,1
;   supportLowerSeparationLayers,1
;   supportType,0
;   supportGridSpacing,4
;   maxOverhangAngle,45
;   supportAngles,0
;   temperatureName,Primary Extruder,Hot Bed
;   temperatureNumber,0,1
;   temperatureSetpointCount,1,1
;   temperatureSetpointLayers,1,1
;   temperatureSetpointTemperatures,210,60
;   temperatureStabilizeAtStartup,1,0
;   temperatureHeatedBed,0,1
;   temperatureRelayBetweenLayers,0,0
;   temperatureRelayBetweenLoops,0,0
;   fanLayers,1,2
;   fanSpeeds,0,100
;   blipFanToFullPower,0
;   adjustSpeedForCooling,1
;   minSpeedLayerTime,15
;   minCoolingSpeedSlowdown,20
;   increaseFanForCooling,0
;   minFanLayerTime,45
;   maxCoolingFanSpeed,100
;   increaseFanForBridging,0
;   bridgingFanSpeed,100
;   use5D,1
;   relativeEdistances,0
;   allowEaxisZeroing,1
;   independentExtruderAxes,0
;   includeM10123,0
;   stickySupport,1
;   applyToolheadOffsets,0
;   gcodeXoffset,0.03
;   gcodeYoffset,0.03
;   gcodeZoffset,0
;   overrideMachineDefinition,0
;   machineTypeOverride,0
;   strokeXoverride,200
;   strokeYoverride,200
;   strokeZoverride,200
;   originOffsetXoverride,0
;   originOffsetYoverride,0
;   originOffsetZoverride,0
;   homeXdirOverride,-1
;   homeYdirOverride,-1
;   homeZdirOverride,-1
;   flipXoverride,1
;   flipYoverride,-1
;   flipZoverride,1
;   toolheadOffsets,0,0|0,0|0,0|0,0|0,0|0,0
;   overrideFirmwareConfiguration,0
;   firmwareTypeOverride,RepRap (Marlin/Repetier/Sprinter)
;   GPXconfigOverride,r2
;   baudRateOverride,115200
;   overridePrinterModels,0
;   printerModelsOverride
;   startingGcode,G28 ; home all axes,G1 X0 Y5 Z0.2 F3000 ; get ready to prime,G92 E0 ; reset extrusion distance,G1 Y150 E20 F600 ; prime nozzle
;   layerChangeGcode,
;   retractionGcode,
;   toolChangeGcode,
;   endingGcode,M104 S0 ; turn off extruder,M140 S0 ; turn off bedG1 X0 Y0; home,M84 ; disable motors,M107 ; fan off,G28 X Y; Home,M18; Disable steppers
;   exportFileFormat,gcode
;   celebration,0
;   celebrationSong,Random Song
;   postProcessing,
;   defaultSpeed,4600
;   outlineUnderspeed,0.5
;   solidInfillUnderspeed,0.8
;   supportUnderspeed,0.8
;   rapidXYspeed,4800
;   rapidZspeed,1000
;   minBridgingArea,50
;   bridgingExtraInflation,0
;   bridgingExtrusionMultiplier,1
;   bridgingSpeedMultiplier,1
;   useFixedBridgingAngle,0
;   fixedBridgingAngle,0
;   applyBridgingToPerimeters,0
;   filamentDiameters,1.75|1.75|1.75|1.75|1.75|1.75
;   filamentPricesPerKg,46|46|46|46|46|46
;   filamentDensities,1.25|1.25|1.25|1.25|1.25|1.25
;   useMinPrintHeight,0
;   minPrintHeight,0
;   useMaxPrintHeight,0
;   maxPrintHeight,0
;   useDiaphragm,0
;   diaphragmLayerInterval,20
;   robustSlicing,1
;   mergeAllIntoSolid,0
;   onlyRetractWhenCrossingOutline,1
;   retractBetweenLayers,1
;   useRetractionMinTravel,0
;   retractionMinTravel,3
;   retractWhileWiping,0
;   onlyWipeOutlines,1
;   avoidCrossingOutline,0
;   maxMovementDetourFactor,3
;   toolChangeRetractionDistance,12
;   toolChangeExtraRestartDistance,-0.5
;   toolChangeRetractionSpeed,600
;   externalThinWallType,1
;   internalThinWallType,1
;   thinWallAllowedOverlapPercentage,10
;   singleExtrusionMinLength,1
;   singleExtrusionMinPrintingWidthPercentage,50
;   singleExtrusionMaxPrintingWidthPercentage,200
;   singleExtrusionEndpointExtension,0.2
;   horizontalSizeCompensation,0
G90
M82
M106 S0
M140 S60
M104 S210 T0
M109 S210 T0
G28 ; home all axes
G1 X0 Y5 Z0.2 F3000 ; get ready to prime
G92 E0 ; reset extrusion distance
G1 Y150 E20 F600 ; prime nozzle
G92 E0
G1 E-1.0000 F1800
G1 Z0.300 F1000
; process Process1
; layer 1, Z = 0.300
T0
; tool H0.300 W0.412
; inner perimeter
G1 X96.652 Y109.978 F4800
G1 E0.0000 F540
G92 E0
G1 X96.787 Y109.875 E0.0079 F1725
G1 X96.934 Y109.791 E0.0157
G1 X97.092 Y109.727 E0.0236
G1 X97.256 Y109.685 E0.0314
G1 X97.430 Y109.664 E0.0395
G1 X103.803 Y109.662 E0.3343
G1 X103.806 Y110.977 E0.3951
G1 X103.841 Y111.247 E0.4077
G1 X103.930 Y111.490 E0.4196
G1 X104.164 Y111.825 E0.4386
G1 X104.500 Y112.060 E0.4575
G1 X104.743 Y112.148 E0.4695
G1 X105.014 Y112.184 E0.4821
G1 X115.212 Y112.183 E0.9537
G1 X115.484 Y112.143 E0.9664
G1 X115.863 Y111.966 E0.9858
G1 X116.152 Y111.677 E1.0047
G1 X116.288 Y111.441 E1.0173
G1 X116.387 Y111.072 E1.0349
G1 X116.390 Y109.662 E1.1002
G1 X118.934 Y109.662 E1.2178
G1 X118.936 Y132.382 E2.2686
G1 X96.215 Y132.384 E3.3194
G1 X96.214 Y129.837 E3.4372
G1 X97.560 Y129.835 E3.4994
G1 X97.805 Y129.799 E3.5109
G1 X98.043 Y129.712 E3.5226
G1 X98.356 Y129.493 E3.5403
G1 X98.513 Y129.305 E3.5516
G1 X98.636 Y129.093 E3.5629
G1 X98.735 Y128.724 E3.5806
G1 X98.737 Y117.253 E4.1111
G1 X96.216 Y117.253 E4.2278
G1 X96.216 Y110.943 E4.5196
G1 X96.217 Y110.885 E4.5223
G1 X96.238 Y110.703 E4.5307
G1 X96.280 Y110.538 E4.5386
G1 X96.344 Y110.381 E4.5464
G1 X96.428 Y110.233 E4.5543
G1 X96.531 Y110.098 E4.5622
G1 X96.652 Y109.978 E4.5700
; outer perimeter
G1 X96.380 Y109.667 F4800
G92 E0
G1 X96.559 Y109.531 E0.0104 F1150
G1 X96.754 Y109.419 E0.0208
G1 X96.963 Y109.335 E0.0312
G1 X97.181 Y109.279 E0.0416
G1 X97.406 Y109.252 E0.0521
G1 X103.780 Y109.250 E0.3469
G1 X103.898 Y109.266 E0.3524
G1 X104.043 Y109.333 E0.3598
G1 X104.086 Y109.369 E0.3624
G1 X104.175 Y109.497 E0.3696
G1 X104.215 Y109.647 E0.3768
G1 X104.218 Y110.949 E0.4370
G1 X104.244 Y111.148 E0.4463
G1 X104.298 Y111.298 E0.4537
G1 X104.460 Y111.529 E0.4667
G1 X104.692 Y111.691 E0.4798
G1 X104.842 Y111.746 E0.4872
G1 X105.041 Y111.772 E0.4964
G1 X115.181 Y111.771 E0.9654
G1 X115.364 Y111.744 E0.9740
G1 X115.623 Y111.623 E0.9872
G1 X115.822 Y111.424 E1.0002
G1 X115.904 Y111.281 E1.0078
G1 X115.975 Y111.018 E1.0205
G1 X115.977 Y109.688 E1.0819
G1 X115.994 Y109.561 E1.0879
G1 X116.015 Y109.504 E1.0907
G1 X116.104 Y109.377 E1.0979
G1 X116.231 Y109.288 E1.1051
G1 X116.288 Y109.267 E1.1079
G1 X116.415 Y109.250 E1.1138
G1 X118.910 Y109.250 E1.2292
G1 X119.038 Y109.267 E1.2351
G1 X119.094 Y109.287 E1.2379
G1 X119.222 Y109.377 E1.2451
G1 X119.305 Y109.497 E1.2519
G1 X119.346 Y109.647 E1.2591
G1 X119.348 Y132.358 E2.3094
G1 X119.331 Y132.486 E2.3154
G1 X119.311 Y132.542 E2.3181
G1 X119.222 Y132.670 E2.3253
G1 X119.102 Y132.753 E2.3321
G1 X118.952 Y132.794 E2.3393
G1 X96.241 Y132.796 E3.3896
G1 X96.114 Y132.779 E3.3955
G1 X96.057 Y132.759 E3.3983
G1 X95.930 Y132.670 E3.4055
G1 X95.841 Y132.542 E3.4127
G1 X95.820 Y132.486 E3.4155
G1 X95.803 Y132.358 E3.4214
G1 X95.802 Y129.863 E3.5368
G1 X95.819 Y129.736 E3.5428
G1 X95.843 Y129.671 E3.5460
G1 X95.875 Y129.614 E3.5490
G1 X95.985 Y129.504 E3.5562
G1 X96.122 Y129.441 E3.5632
G1 X96.240 Y129.425 E3.5687
G1 X97.529 Y129.423 E3.6283
G1 X97.703 Y129.398 E3.6364
G1 X97.851 Y129.344 E3.6437
G1 X98.075 Y129.187 E3.6564
G1 X98.175 Y129.068 E3.6635
G1 X98.252 Y128.934 E3.6707
G1 X98.323 Y128.670 E3.6833
G1 X98.325 Y117.665 E4.1923
G1 X95.803 Y117.665 E4.3089
G1 X95.803 Y110.938 E4.6200
G1 X95.806 Y110.855 E4.6239
G1 X95.832 Y110.628 E4.6345
G1 X95.888 Y110.410 E4.6449
G1 X95.973 Y110.201 E4.6553
G1 X96.084 Y110.005 E4.6657
G1 X96.221 Y109.826 E4.6761
G1 X96.380 Y109.667 E4.6865
; solid layer
G1 X101.749 Y110.013 F4800
G92 E0
G1 X118.585 Y126.849 E1.1012 F1840
G1 X118.585 Y127.432 E1.1281
G1 X101.167 Y110.013 E2.2674
G1 X100.584 Y110.014 E2.2943
G1 X118.585 Y128.015 E3.4717
G1 X118.586 Y128.598 E3.4987
G1 X100.002 Y110.014 E4.7141
G1 X99.419 Y110.014 E4.7411
G1 X118.586 Y129.180 E5.9946
G1 X118.586 Y129.763 E6.0216
G1 X98.837 Y110.014 E7.3133
G1 X98.254 Y110.014 E7.3402
G1 X118.586 Y130.346 E8.6700
G1 X118.586 Y130.928 E8.6969
G1 X97.672 Y110.015 E10.0648
G1 X97.451 Y110.015 E10.0750
G1 X97.321 Y110.030 E10.0811
G1 X97.201 Y110.061 E10.0868
G1 X97.154 Y110.080 E10.0891
G1 X118.586 Y131.511 E11.4908
G1 X118.586 Y132.032 E11.5149
G1 X118.524 Y132.032 E11.5178
G1 X96.808 Y110.316 E12.9381
G1 X96.796 Y110.329 E12.9389
G1 X96.721 Y110.427 E12.9446
G1 X96.660 Y110.534 E12.9503
G1 X96.614 Y110.648 E12.9560
G1 X96.602 Y110.693 E12.9581
G1 X117.941 Y132.032 E14.3538
G1 X117.358 Y132.032 E14.3807
G1 X96.566 Y111.239 E15.7407
G1 X96.566 Y111.822 E15.7676
G1 X116.776 Y132.032 E17.0895
G1 X116.193 Y132.032 E17.1164
G1 X96.566 Y112.404 E18.4001
G1 X96.566 Y112.987 E18.4271
G1 X115.611 Y132.032 E19.6727
G1 X115.028 Y132.032 E19.6997
G1 X96.566 Y113.570 E20.9072
G1 X96.566 Y114.152 E20.9341
G1 X114.445 Y132.032 E22.1036
G1 X113.863 Y132.032 E22.1305
G1 X99.088 Y117.257 E23.0969
G1 X99.088 Y116.903 E23.1133
G1 X98.733 Y116.903 E23.1296
G1 X96.566 Y114.735 E23.2714
G1 X96.566 Y115.318 E23.2984
G1 X98.151 Y116.903 E23.4020
G1 X97.568 Y116.903 E23.4290
G1 X96.566 Y115.900 E23.4945
G1 X96.566 Y116.483 E23.5215
G1 X96.985 Y116.903 E23.5489
G1 X99.087 Y117.839 F4800
G92 E0
G1 X113.280 Y132.032 E0.9283 F1840
G1 X112.698 Y132.032 E0.9552
G1 X99.087 Y118.422 E1.8454
G1 X99.087 Y119.004 E1.8723
G1 X112.115 Y132.032 E2.7244
G1 X111.532 Y132.032 E2.7514
G1 X99.087 Y119.587 E3.5654
G1 X99.087 Y120.169 E3.5923
G1 X110.950 Y132.032 E4.3682
G1 X110.367 Y132.032 E4.3951
G1 X99.087 Y120.752 E5.1329
G1 X99.087 Y121.334 E5.1599
G1 X109.785 Y132.032 E5.8596
G1 X109.202 Y132.033 E5.8865
G1 X99.087 Y121.917 E6.5481
G1 X99.086 Y122.500 E6.5751
G1 X108.620 Y132.033 E7.1986
G1 X108.037 Y132.033 E7.2255
G1 X99.086 Y123.082 E7.8109
G1 X99.086 Y123.665 E7.8379
G1 X107.454 Y132.033 E8.3852
G1 X106.872 Y132.033 E8.4121
G1 X99.086 Y124.247 E8.9214
G1 X99.086 Y124.830 E8.9483
G1 X106.289 Y132.033 E9.4194
G1 X105.707 Y132.033 E9.4464
G1 X99.086 Y125.412 E9.8794
G1 X99.086 Y125.995 E9.9063
G1 X105.124 Y132.033 E10.3013
G1 X104.541 Y132.033 E10.3282
G1 X99.086 Y126.577 E10.6851
G1 X99.085 Y127.160 E10.7120
G1 X103.959 Y132.033 E11.0307
G1 X103.376 Y132.033 E11.0577
G1 X99.085 Y127.742 E11.3383
G1 X99.085 Y128.325 E11.3653
G1 X102.794 Y132.033 E11.6078
G1 X102.211 Y132.033 E11.6348
G1 X99.056 Y128.878 E11.8411
G1 X98.963 Y129.228 E11.8579
G1 X98.911 Y129.316 E11.8626
G1 X101.628 Y132.033 E12.0403
G1 X101.046 Y132.033 E12.0672
G1 X98.673 Y129.660 E12.2224
G1 X98.595 Y129.753 E12.2280
G1 X98.353 Y129.923 E12.2417
G1 X100.463 Y132.033 E12.3797
G1 X99.881 Y132.034 E12.4067
G1 X97.962 Y130.115 E12.5322
G1 X97.891 Y130.140 E12.5357
G1 X97.586 Y130.185 E12.5499
G1 X97.450 Y130.186 E12.5562
G1 X99.298 Y132.034 E12.6771
G1 X98.715 Y132.034 E12.7040
G1 X96.868 Y130.186 E12.8249
G1 X96.564 Y130.187 E12.8389
G1 X96.565 Y130.465 E12.8518
G1 X98.133 Y132.034 E12.9544
G1 X97.550 Y132.034 E12.9813
G1 X96.565 Y131.048 E13.0458
G1 X96.565 Y131.631 E13.0727
G1 X96.968 Y132.034 E13.0990
G92 E0
G1 E-1.0000 F1800
G1 X103.455 Y110.553 F4800
G1 E0.0000 F1800
G92 E0
G1 X102.914 Y110.013 E0.0354 F1840
G1 X102.331 Y110.013 E0.0623
G1 X103.476 Y111.158 E0.1372
G1 X103.499 Y111.330 E0.1452
G1 X103.617 Y111.653 E0.1611
G1 X103.913 Y112.076 E0.1850
G1 X104.337 Y112.373 E0.2090
G1 X104.659 Y112.491 E0.2248
G1 X104.832 Y112.513 E0.2329
G1 X118.585 Y126.267 E1.1324
G1 X118.585 Y125.684 E1.1594
G1 X105.435 Y112.534 E2.0194
G1 X106.018 Y112.534 E2.0464
G1 X118.585 Y125.101 E2.8683
G1 X118.585 Y124.519 E2.8953
G1 X106.601 Y112.534 E3.6791
G1 X107.183 Y112.534 E3.7061
G1 X118.585 Y123.936 E4.4518
G1 X118.585 Y123.353 E4.4787
G1 X107.766 Y112.534 E5.1864
G1 X108.348 Y112.534 E5.2133
G1 X118.585 Y122.770 E5.8828
G1 X118.585 Y122.188 E5.9098
G1 X108.931 Y112.534 E6.5412
G1 X109.514 Y112.534 E6.5681
G1 X118.585 Y121.605 E7.1614
G1 X118.585 Y121.022 E7.1884
G1 X110.096 Y112.534 E7.7436
G1 X110.679 Y112.534 E7.7705
G1 X118.585 Y120.440 E8.2876
G1 X118.585 Y119.857 E8.3146
G1 X111.261 Y112.534 E8.7935
G1 X111.844 Y112.533 E8.8205
G1 X118.585 Y119.274 E9.2613
G1 X118.585 Y118.691 E9.2883
G1 X112.427 Y112.533 E9.6911
G1 X113.009 Y112.533 E9.7180
G1 X118.584 Y118.109 E10.0827
G1 X118.584 Y117.526 E10.1096
G1 X113.592 Y112.533 E10.4361
G1 X114.174 Y112.533 E10.4631
G1 X118.584 Y116.943 E10.7515
G1 X118.584 Y116.361 E10.7785
G1 X114.757 Y112.533 E11.0288
G1 X115.237 Y112.533 E11.0510
G1 X115.326 Y112.520 E11.0552
G1 X118.584 Y115.778 E11.2683
G1 X118.584 Y115.195 E11.2952
G1 X115.780 Y112.391 E11.4786
G1 X116.067 Y112.257 E11.4932
G1 X116.148 Y112.176 E11.4985
G1 X118.584 Y114.612 E11.6579
G1 X118.584 Y114.030 E11.6848
G1 X116.437 Y111.883 E11.8253
G1 X116.615 Y111.576 E11.8417
G1 X116.635 Y111.498 E11.8454
G1 X118.584 Y113.447 E11.9728
G1 X118.584 Y112.864 E11.9998
G1 X116.737 Y111.018 E12.1205
G1 X116.738 Y110.436 E12.1474
G1 X118.584 Y112.282 E12.2681
G1 X118.584 Y111.699 E12.2951
G1 X116.897 Y110.012 E12.4054
G1 X117.480 Y110.012 E12.4323
G1 X118.584 Y111.116 E12.5045
G1 X118.584 Y110.533 E12.5315
G1 X118.063 Y110.012 E12.5656
G92 E0
G1 E-1.0000 F1800
; inner perimeter
G1 X126.054 Y110.987 F4800
G1 E0.0000 F1800
G92 E0
G1 X126.075 Y110.808 E0.0083 F1725
G1 X126.117 Y110.646 E0.0161
G1 X126.179 Y110.491 E0.0238
G1 X126.262 Y110.346 E0.0316
G1 X126.364 Y110.213 E0.0393
G1 X126.482 Y110.094 E0.0470
G1 X126.615 Y109.993 E0.0548
G1 X126.760 Y109.910 E0.0625
G1 X126.916 Y109.847 E0.0703
G1 X127.078 Y109.806 E0.0780
G1 X127.249 Y109.785 E0.0860
G1 X133.551 Y109.783 E0.3774
G1 X133.555 Y111.107 E0.4387
G1 X133.590 Y111.349 E0.4500
G1 X133.676 Y111.586 E0.4616
G1 X133.908 Y111.920 E0.4805
G1 X134.241 Y112.155 E0.4993
G1 X134.471 Y112.239 E0.5106
G1 X134.685 Y112.277 E0.5206
G1 X144.850 Y112.279 E0.9907
G1 X145.119 Y112.239 E1.0034
G1 X145.496 Y112.064 E1.0226
G1 X145.785 Y111.777 E1.0414
G1 X145.921 Y111.542 E1.0539
G1 X146.020 Y111.176 E1.0715
G1 X146.024 Y109.786 E1.1358
G1 X148.529 Y109.784 E1.2516
G1 X148.531 Y132.262 E2.2912
G1 X126.055 Y132.263 E3.3307
G1 X126.051 Y129.757 E3.4466
G1 X127.377 Y129.752 E3.5079
G1 X127.618 Y129.717 E3.5192
G1 X127.856 Y129.631 E3.5309
G1 X128.167 Y129.414 E3.5484
G1 X128.324 Y129.228 E3.5597
G1 X128.447 Y129.016 E3.5710
