; G-Code generated by Simplify3D(R) Version 4.0.0
; Nov 17, 2020 at 12:13:47 AM
; Settings Summary
;   processName,Process1
;   applyToModels,2020_mount_v1.0
;   profileName,new profile (modified)
;   profileVersion,2020-09-07 14:01:24
;   baseProfile,Default (modified)
;   printMaterial,PLA
;   printQuality,Medium
;   printExtruders,
;   extruderName,Primary Extruder
;   extruderToolheadNumber,0
;   extruderDiameter,0.4
;   extruderAutoWidth,0
;   extruderWidth,0.4
;   extrusionMultiplier,0.9
;   extruderUseRetract,1
;   extruderRetractionDistance,1
;   extruderExtraRestartDistance,0
;   extruderRetractionZLift,0
;   extruderRetractionSpeed,1800
;   extruderUseCoasting,0
;   extruderCoastingDistance,0.2
;   extruderUseWipe,0
;   extruderWipeDistance,5
;   primaryExtruder,0
;   layerHeight,0.3
;   topSolidLayers,3
;   bottomSolidLayers,3
;   perimeterOutlines,2
;   printPerimetersInsideOut,1
;   startPointOption,2
;   startPointOriginX,0
;   startPointOriginY,0
;   sequentialIslands,0
;   spiralVaseMode,0
;   firstLayerHeightPercentage,100
;   firstLayerWidthPercentage,103
;   firstLayerUnderspeed,0.5
;   useRaft,0
;   raftExtruder,0
;   raftTopLayers,3
;   raftBaseLayers,2
;   raftOffset,3
;   raftSeparationDistance,0.14
;   raftTopInfill,100
;   aboveRaftSpeedMultiplier,0.3
;   useSkirt,0
;   skirtExtruder,0
;   skirtLayers,1
;   skirtOutlines,2
;   skirtOffset,4
;   usePrimePillar,0
;   primePillarExtruder,999
;   primePillarWidth,12
;   primePillarLocation,7
;   primePillarSpeedMultiplier,1
;   useOozeShield,0
;   oozeShieldExtruder,999
;   oozeShieldOffset,2
;   oozeShieldOutlines,1
;   oozeShieldSidewallShape,1
;   oozeShieldSidewallAngle,30
;   oozeShieldSpeedMultiplier,1
;   infillExtruder,0
;   internalInfillPattern,Rectilinear
;   externalInfillPattern,Rectilinear
;   infillPercentage,30
;   outlineOverlapPercentage,15
;   infillExtrusionWidthPercentage,100
;   minInfillLength,5
;   infillLayerInterval,1
;   internalInfillAngles,45,-45
;   overlapInternalInfillAngles,0
;   externalInfillAngles,45,-45
;   generateSupport,1
;   supportExtruder,0
;   supportInfillPercentage,30
;   supportExtraInflation,0
;   supportBaseLayers,0
;   denseSupportExtruder,0
;   denseSupportLayers,0
;   denseSupportInfillPercentage,70
;   supportLayerInterval,1
;   supportHorizontalPartOffset,0.3
;   supportUpperSeparationLayers,1
;   supportLowerSeparationLayers,1
;   supportType,0
;   supportGridSpacing,4
;   maxOverhangAngle,45
;   supportAngles,0
;   temperatureName,Primary Extruder,Hot Bed
;   temperatureNumber,0,1
;   temperatureSetpointCount,1,1
;   temperatureSetpointLayers,1,1
;   temperatureSetpointTemperatures,210,60
;   temperatureStabilizeAtStartup,1,0
;   temperatureHeatedBed,0,1
;   temperatureRelayBetweenLayers,0,0
;   temperatureRelayBetweenLoops,0,0
;   fanLayers,1,2
;   fanSpeeds,0,100
;   blipFanToFullPower,0
;   adjustSpeedForCooling,1
;   minSpeedLayerTime,15
;   minCoolingSpeedSlowdown,20
;   increaseFanForCooling,0
;   minFanLayerTime,45
;   maxCoolingFanSpeed,100
;   increaseFanForBridging,0
;   bridgingFanSpeed,100
;   use5D,1
;   relativeEdistances,0
;   allowEaxisZeroing,1
;   independentExtruderAxes,0
;   includeM10123,0
;   stickySupport,1
;   applyToolheadOffsets,0
;   gcodeXoffset,0
;   gcodeYoffset,0
;   gcodeZoffset,0
;   overrideMachineDefinition,0
;   machineTypeOverride,0
;   strokeXoverride,200
;   strokeYoverride,200
;   strokeZoverride,200
;   originOffsetXoverride,0
;   originOffsetYoverride,0
;   originOffsetZoverride,0
;   homeXdirOverride,-1
;   homeYdirOverride,-1
;   homeZdirOverride,-1
;   flipXoverride,1
;   flipYoverride,-1
;   flipZoverride,1
;   toolheadOffsets,0,0|0,0|0,0|0,0|0,0|0,0
;   overrideFirmwareConfiguration,0
;   firmwareTypeOverride,RepRap (Marlin/Repetier/Sprinter)
;   GPXconfigOverride,r2
;   baudRateOverride,115200
;   overridePrinterModels,0
;   printerModelsOverride
;   startingGcode,G28 ; home all axes,G1 X0 Y5 Z0.2 F3000 ; get ready to prime,G92 E0 ; reset extrusion distance,G1 Y150 E20 F600 ; prime nozzle
;   layerChangeGcode,
;   retractionGcode,
;   toolChangeGcode,
;   endingGcode,M104 S0 ; turn off extruder,M140 S0 ; turn off bedG1 X0 Y0; home,M84 ; disable motors,M107 ; fan off,G28 X Y; Home,M18; Disable steppers
;   exportFileFormat,gcode
;   celebration,0
;   celebrationSong,Random Song
;   postProcessing,
;   defaultSpeed,4600
;   outlineUnderspeed,0.5
;   solidInfillUnderspeed,0.8
;   supportUnderspeed,0.8
;   rapidXYspeed,4800
;   rapidZspeed,1000
;   minBridgingArea,50
;   bridgingExtraInflation,0
;   bridgingExtrusionMultiplier,1
;   bridgingSpeedMultiplier,1
;   useFixedBridgingAngle,0
;   fixedBridgingAngle,0
;   applyBridgingToPerimeters,0
;   filamentDiameters,1.75|1.75|1.75|1.75|1.75|1.75
;   filamentPricesPerKg,46|46|46|46|46|46
;   filamentDensities,1.25|1.25|1.25|1.25|1.25|1.25
;   useMinPrintHeight,0
;   minPrintHeight,0
;   useMaxPrintHeight,0
;   maxPrintHeight,0
;   useDiaphragm,0
;   diaphragmLayerInterval,20
;   robustSlicing,1
;   mergeAllIntoSolid,0
;   onlyRetractWhenCrossingOutline,1
;   retractBetweenLayers,1
;   useRetractionMinTravel,0
;   retractionMinTravel,3
;   retractWhileWiping,0
;   onlyWipeOutlines,1
;   avoidCrossingOutline,0
;   maxMovementDetourFactor,3
;   toolChangeRetractionDistance,12
;   toolChangeExtraRestartDistance,-0.5
;   toolChangeRetractionSpeed,600
;   externalThinWallType,1
;   internalThinWallType,1
;   thinWallAllowedOverlapPercentage,10
;   singleExtrusionMinLength,1
;   singleExtrusionMinPrintingWidthPercentage,50
;   singleExtrusionMaxPrintingWidthPercentage,200
;   singleExtrusionEndpointExtension,0.2
;   horizontalSizeCompensation,0
G90
M82
M106 S0
M140 S60
M104 S210 T0
M109 S210 T0
G28 ; home all axes
G1 X0 Y5 Z0.2 F3000 ; get ready to prime
G92 E0 ; reset extrusion distance
G1 Y150 E20 F600 ; prime nozzle
G92 E0
G1 E-1.0000 F1800
G1 Z0.300 F1000
; process Process1
; layer 1, Z = 0.300
T0
; tool H0.300 W0.412
; inner perimeter
G1 X102.898 Y107.899 F4800
G1 E0.0000 F540
G92 E0
G1 X103.025 Y107.787 E0.0078 F1725
G1 X103.165 Y107.693 E0.0156
G1 X103.317 Y107.618 E0.0234
G1 X103.476 Y107.564 E0.0313
G1 X103.642 Y107.531 E0.0391
G1 X103.831 Y107.518 E0.0478
G1 X110.190 Y107.518 E0.3419
G1 X110.209 Y109.031 E0.4119
G1 X110.356 Y109.439 E0.4319
G1 X110.637 Y109.776 E0.4522
G1 X111.017 Y109.997 E0.4725
G1 X111.396 Y110.065 E0.4904
G1 X113.319 Y110.065 E0.5793
G1 X113.319 Y112.778 E0.7047
G1 X110.326 Y112.778 E0.8432
G1 X110.326 Y115.325 E0.9610
G1 X107.779 Y115.325 E1.0788
G1 X107.779 Y118.318 E1.2172
G1 X105.067 Y118.318 E1.3426
G1 X105.067 Y115.198 E1.4870
G1 X102.520 Y115.198 E1.6047
G1 X102.519 Y108.829 E1.8993
G1 X102.532 Y108.644 E1.9078
G1 X102.564 Y108.478 E1.9157
G1 X102.618 Y108.318 E1.9235
G1 X102.693 Y108.166 E1.9313
G1 X102.787 Y108.026 E1.9391
G1 X102.898 Y107.899 E1.9469
G1 X113.663 Y118.663 F4800
G92 E0
G1 X119.432 Y118.663 E0.2668 F1725
G1 X119.432 Y124.432 E0.5336
G1 X113.663 Y124.432 E0.8004
G1 X113.663 Y118.663 E1.0672
G92 E0
G1 E-1.0000 F1800
G1 X119.777 Y112.778 F4800
G1 E0.0000 F1800
G92 E0
G1 X119.777 Y110.065 E0.1254 F1725
G1 X121.696 Y110.065 E0.2142
G1 X122.071 Y110.000 E0.2318
G1 X122.452 Y109.782 E0.2521
G1 X122.735 Y109.446 E0.2724
G1 X122.886 Y109.036 E0.2926
G1 X122.897 Y107.518 E0.3628
G1 X125.482 Y107.518 E0.4824
G1 X125.482 Y115.325 E0.8434
G1 X122.770 Y115.325 E0.9689
G1 X122.770 Y112.778 E1.0867
G1 X119.777 Y112.778 E1.2251
G92 E0
G1 E-1.0000 F1800
G1 X122.770 Y127.770 F4800
G1 E0.0000 F1800
G92 E0
G1 X125.482 Y127.770 E0.1254 F1725
G1 X125.482 Y130.482 E0.2509
G1 X122.770 Y130.482 E0.3763
G1 X122.770 Y127.770 E0.5017
G92 E0
G1 E-1.0000 F1800
G1 X110.326 Y127.770 F4800
G1 E0.0000 F1800
G92 E0
G1 X110.326 Y130.482 E0.1254 F1725
G1 X102.519 Y130.482 E0.4865
G1 X102.518 Y127.897 E0.6061
G1 X104.031 Y127.886 E0.6760
G1 X104.440 Y127.738 E0.6962
G1 X104.778 Y127.457 E0.7165
G1 X104.998 Y127.078 E0.7368
G1 X105.067 Y126.699 E0.7546
G1 X105.067 Y124.776 E0.8435
G1 X107.779 Y124.776 E0.9689
G1 X107.779 Y127.770 E1.1073
G1 X110.326 Y127.770 E1.2251
; outer perimeter
G1 X110.106 Y127.358 F4800
G92 E0
G1 X113.251 Y124.228 E0.2052 F1150
G1 X113.251 Y118.867 E0.4532
G1 X110.106 Y115.737 E0.6584
G1 X108.191 Y115.737 E0.7470
G1 X108.191 Y118.730 E0.8854
G1 X104.655 Y118.730 E1.0489
G1 X104.655 Y115.610 E1.1932
G1 X102.108 Y115.610 E1.3110
G1 X102.107 Y108.815 E1.6252
G1 X102.122 Y108.591 E1.6357
G1 X102.165 Y108.372 E1.6460
G1 X102.237 Y108.161 E1.6563
G1 X102.335 Y107.960 E1.6666
G1 X102.459 Y107.775 E1.6769
G1 X102.606 Y107.607 E1.6872
G1 X102.773 Y107.460 E1.6975
G1 X102.958 Y107.336 E1.7078
G1 X103.158 Y107.237 E1.7182
G1 X103.369 Y107.165 E1.7285
G1 X103.588 Y107.121 E1.7388
G1 X103.817 Y107.106 E1.7494
G1 X110.164 Y107.106 E2.0429
G1 X110.244 Y107.112 E2.0467
G1 X110.392 Y107.166 E2.0539
G1 X110.506 Y107.261 E2.0608
G1 X110.586 Y107.397 E2.0681
G1 X110.601 Y107.453 E2.0708
G1 X110.621 Y108.956 E2.1403
G1 X110.719 Y109.231 E2.1538
G1 X110.907 Y109.457 E2.1674
G1 X111.161 Y109.604 E2.1810
G1 X111.433 Y109.653 E2.1937
G1 X113.731 Y109.653 E2.3000
G1 X113.731 Y113.190 E2.4636
G1 X110.738 Y113.190 E2.6020
G1 X110.738 Y115.105 E2.6906
G1 X113.867 Y118.251 E2.8958
G1 X119.229 Y118.251 E3.1437
G1 X122.358 Y115.105 E3.3490
G1 X122.358 Y113.190 E3.4375
G1 X119.365 Y113.190 E3.5759
G1 X119.365 Y109.653 E3.7395
G1 X121.660 Y109.653 E3.8456
G1 X121.929 Y109.606 E3.8583
G1 X122.184 Y109.460 E3.8718
G1 X122.373 Y109.236 E3.8854
G1 X122.475 Y108.961 E3.8990
G1 X122.485 Y107.555 E3.9640
G1 X122.515 Y107.383 E3.9721
G1 X122.539 Y107.331 E3.9747
G1 X122.640 Y107.210 E3.9820
G1 X122.768 Y107.136 E3.9889
G1 X122.932 Y107.106 E3.9966
G1 X125.445 Y107.106 E4.1128
G1 X125.608 Y107.134 E4.1204
G1 X125.737 Y107.208 E4.1273
G1 X125.839 Y107.329 E4.1346
G1 X125.863 Y107.380 E4.1372
G1 X125.894 Y107.553 E4.1453
G1 X125.894 Y118.730 E4.6623
G1 X124.905 Y118.730 E4.7080
G1 X124.905 Y115.737 E4.8464
G1 X122.990 Y115.737 E4.9350
G1 X119.844 Y118.867 E5.1402
G1 X119.844 Y124.228 E5.3882
G1 X122.990 Y127.358 E5.5934
G1 X124.905 Y127.358 E5.6820
G1 X124.905 Y124.364 E5.8204
G1 X125.894 Y124.364 E5.8661
G1 X125.894 Y130.443 E6.1473
G1 X125.887 Y130.537 E6.1516
G1 X125.870 Y130.600 E6.1546
G1 X125.792 Y130.737 E6.1619
G1 X125.678 Y130.833 E6.1688
G1 X125.530 Y130.887 E6.1761
G1 X125.456 Y130.894 E6.1795
G1 X119.365 Y130.894 E6.4612
G1 X119.365 Y129.905 E6.5070
G1 X122.358 Y129.905 E6.6454
G1 X122.358 Y127.990 E6.7339
G1 X119.229 Y124.844 E6.9392
G1 X113.867 Y124.844 E7.1871
G1 X110.738 Y127.990 E7.3923
G1 X110.738 Y129.905 E7.4809
G1 X113.731 Y129.905 E7.6193
G1 X113.731 Y130.894 E7.6651
G1 X102.562 Y130.894 E8.1816
G1 X102.393 Y130.865 E8.1895
G1 X102.264 Y130.792 E8.1964
G1 X102.163 Y130.671 E8.2037
G1 X102.138 Y130.620 E8.2063
G1 X102.107 Y130.447 E8.2144
G1 X102.106 Y127.934 E8.3307
G1 X102.134 Y127.771 E8.3383
G1 X102.208 Y127.642 E8.3452
G1 X102.329 Y127.540 E8.3525
G1 X102.380 Y127.516 E8.3551
G1 X102.553 Y127.485 E8.3633
G1 X103.957 Y127.474 E8.4282
G1 X104.232 Y127.375 E8.4417
G1 X104.458 Y127.187 E8.4553
G1 X104.606 Y126.933 E8.4689
G1 X104.655 Y126.662 E8.4816
G1 X104.655 Y124.364 E8.5879
G1 X108.191 Y124.364 E8.7514
G1 X108.191 Y127.358 E8.8899
G1 X110.106 Y127.358 E8.9784
; internal single extrusion
G1 X110.564 Y127.828 F4800
G92 E0
; tool H0.300 W0.200
G1 X110.569 Y127.816 E0.0003 F1150
G1 X110.601 Y127.737 E0.0022
G1 X110.634 Y127.658 E0.0041
; tool H0.300 W0.229
G1 X110.667 Y127.579 E0.0063
; tool H0.300 W0.301
G1 X110.694 Y127.494 E0.0093
; tool H0.300 W0.407
G1 X110.704 Y127.392 E0.0140
; tool H0.300 W0.462
G1 X113.277 Y124.819 E0.2029
; tool H0.300 W0.404
G1 X113.367 Y124.797 E0.2071
; tool H0.300 W0.309
G1 X113.455 Y124.774 E0.2103
; tool H0.300 W0.230
G1 X113.534 Y124.741 E0.2125
; tool H0.300 W0.200
G1 X113.614 Y124.708 E0.2144
G1 X113.693 Y124.675 E0.2163
G92 E0
G1 E-1.0000 F1800
G1 X113.407 Y130.399 F4800
G1 E0.0000 F1800
; tool H0.300 W0.412
G92 E0
; tool H0.300 W0.569
G1 X110.650 Y130.399 E0.1760 F1150
G92 E0
G1 E-1.0000 F1800
G1 X119.689 Y130.399 F4800
G1 E0.0000 F1800
; tool H0.300 W0.412
G92 E0
; tool H0.300 W0.569
G1 X122.446 Y130.399 E0.1760 F1150
G1 X122.828 Y127.532 F4800
; tool H0.300 W0.412
G92 E0
; tool H0.300 W0.200
G1 X122.816 Y127.527 E0.0003 F1150
G1 X122.737 Y127.494 E0.0022
G1 X122.658 Y127.462 E0.0041
; tool H0.300 W0.229
G1 X122.579 Y127.429 E0.0063
; tool H0.300 W0.301
G1 X122.494 Y127.402 E0.0093
; tool H0.300 W0.407
G1 X122.392 Y127.392 E0.0140
; tool H0.300 W0.462
G1 X119.819 Y124.819 E0.2029
; tool H0.300 W0.404
G1 X119.798 Y124.729 E0.2071
; tool H0.300 W0.309
G1 X119.774 Y124.640 E0.2103
; tool H0.300 W0.230
G1 X119.741 Y124.561 E0.2125
; tool H0.300 W0.200
G1 X119.708 Y124.482 E0.2144
G1 X119.675 Y124.403 E0.2163
G92 E0
G1 E-1.0000 F1800
G1 X125.400 Y124.689 F4800
G1 E0.0000 F1800
; tool H0.300 W0.412
G92 E0
; tool H0.300 W0.569
G1 X125.400 Y127.445 E0.1760 F1150
G92 E0
G1 E-1.0000 F1800
G1 X125.400 Y118.406 F4800
G1 E0.0000 F1800
; tool H0.300 W0.412
G92 E0
; tool H0.300 W0.569
G1 X125.399 Y115.649 E0.1760 F1150
G1 X122.532 Y115.267 F4800
; tool H0.300 W0.412
G92 E0
; tool H0.300 W0.200
G1 X122.527 Y115.279 E0.0003 F1150
G1 X122.494 Y115.358 E0.0022
G1 X122.462 Y115.437 E0.0041
; tool H0.300 W0.229
G1 X122.429 Y115.516 E0.0063
; tool H0.300 W0.301
G1 X122.402 Y115.601 E0.0093
; tool H0.300 W0.407
G1 X122.392 Y115.703 E0.0140
; tool H0.300 W0.462
G1 X119.819 Y118.276 E0.2029
; tool H0.300 W0.404
G1 X119.729 Y118.297 E0.2071
; tool H0.300 W0.309
G1 X119.641 Y118.321 E0.2103
; tool H0.300 W0.230
G1 X119.561 Y118.354 E0.2125
; tool H0.300 W0.200
G1 X119.482 Y118.387 E0.2144
G1 X119.403 Y118.420 E0.2163
G1 X113.693 Y118.420 F4800
; tool H0.300 W0.412
G92 E0
; tool H0.300 W0.200
G1 X113.614 Y118.387 E0.0019 F1150
G1 X113.534 Y118.354 E0.0038
; tool H0.300 W0.230
G1 X113.455 Y118.321 E0.0061
; tool H0.300 W0.309
G1 X113.367 Y118.297 E0.0092
; tool H0.300 W0.404
G1 X113.277 Y118.276 E0.0135
; tool H0.300 W0.462
G1 X110.704 Y115.703 E0.2023
; tool H0.300 W0.407
G1 X110.694 Y115.601 E0.2070
; tool H0.300 W0.301
G1 X110.667 Y115.516 E0.2100
; tool H0.300 W0.229
G1 X110.634 Y115.437 E0.2122
; tool H0.300 W0.200
G1 X110.601 Y115.358 E0.2141
G1 X110.569 Y115.279 E0.2160
; tool H0.300 W0.412
; solid layer
G1 X105.417 Y115.078 F4800
G92 E0
G1 X107.429 Y117.090 E0.1316 F1840
G1 X107.429 Y117.673 E0.1585
G1 X105.417 Y115.661 E0.2901
G1 X105.417 Y116.243 E0.3171
G1 X107.142 Y117.968 E0.4299
G1 X106.559 Y117.968 E0.4568
G1 X105.417 Y116.826 E0.5315
G1 X105.417 Y117.409 E0.5585
G1 X105.976 Y117.968 E0.5950
G92 E0
G1 E-1.0000 F1800
G1 X102.870 Y114.279 F4800
G1 E0.0000 F1800
G92 E0
G1 X103.438 Y114.848 E0.0372 F1840
G1 X104.021 Y114.848 E0.0641
G1 X102.870 Y113.697 E0.1394
G1 X102.870 Y113.114 E0.1663
G1 X104.604 Y114.848 E0.2797
G1 X105.186 Y114.848 E0.3067
G1 X102.870 Y112.531 E0.4582
G1 X102.870 Y111.949 E0.4851
G1 X107.429 Y116.507 E0.7833
G1 X107.429 Y115.925 E0.8102
G1 X102.870 Y111.366 E1.1084
G1 X102.870 Y110.783 E1.1353
G1 X107.429 Y115.342 E1.4335
G1 X107.429 Y114.975 E1.4505
G1 X107.644 Y114.975 E1.4604
G1 X102.870 Y110.200 E1.7727
G1 X102.870 Y109.618 E1.7997
G1 X108.227 Y114.975 E2.1501
G1 X108.810 Y114.975 E2.1770
G1 X102.870 Y109.035 E2.5655
G1 X102.870 Y108.840 E2.5745
G1 X102.879 Y108.690 E2.5815
G1 X102.903 Y108.568 E2.5872
G1 X102.924 Y108.507 E2.5902
G1 X109.392 Y114.975 E3.0133
G1 X109.975 Y114.975 E3.0402
G1 X103.146 Y108.146 E3.4868
G1 X103.239 Y108.065 E3.4925
G1 X103.341 Y107.997 E3.4982
G1 X103.451 Y107.942 E3.5039
G1 X103.506 Y107.924 E3.5066
G1 X109.976 Y114.393 E3.9297
G1 X109.976 Y113.810 E3.9567
G1 X104.034 Y107.868 E4.3453
G1 X104.616 Y107.868 E4.3723
G1 X109.976 Y113.228 E4.7228
G1 X109.976 Y112.645 E4.7498
G1 X105.199 Y107.868 E5.0622
G1 X105.782 Y107.868 E5.0891
G1 X110.341 Y112.428 E5.3873
G1 X110.924 Y112.428 E5.4143
G1 X106.364 Y107.868 E5.7125
G1 X106.947 Y107.868 E5.7394
G1 X111.506 Y112.428 E6.0376
G1 X112.089 Y112.428 E6.0646
G1 X107.529 Y107.868 E6.3628
G1 X109.277 Y107.868 F4800
G92 E0
