; G-Code generated by Simplify3D(R) Version 4.0.0
; Jan 16, 2021 at 10:46:19 AM
; Settings Summary
;   processName,Process1
;   applyToModels,20mm_Beam
;   profileName,def (modified)
;   profileVersion,2020-09-07 14:01:24
;   baseProfile,Default (modified)
;   printMaterial,PLA
;   printQuality,Medium
;   printExtruders,
;   extruderName,Primary Extruder
;   extruderToolheadNumber,0
;   extruderDiameter,0.4
;   extruderAutoWidth,0
;   extruderWidth,0.4
;   extrusionMultiplier,0.9
;   extruderUseRetract,1
;   extruderRetractionDistance,1
;   extruderExtraRestartDistance,0
;   extruderRetractionZLift,0
;   extruderRetractionSpeed,1800
;   extruderUseCoasting,0
;   extruderCoastingDistance,0.2
;   extruderUseWipe,0
;   extruderWipeDistance,5
;   primaryExtruder,0
;   layerHeight,0.3
;   topSolidLayers,3
;   bottomSolidLayers,2
;   perimeterOutlines,2
;   printPerimetersInsideOut,1
;   startPointOption,2
;   startPointOriginX,0
;   startPointOriginY,0
;   sequentialIslands,0
;   spiralVaseMode,0
;   firstLayerHeightPercentage,90
;   firstLayerWidthPercentage,103
;   firstLayerUnderspeed,0.3
;   useRaft,0
;   raftExtruder,0
;   raftTopLayers,2
;   raftBaseLayers,2
;   raftOffset,1.4
;   raftSeparationDistance,0.14
;   raftTopInfill,100
;   aboveRaftSpeedMultiplier,0.3
;   useSkirt,0
;   skirtExtruder,0
;   skirtLayers,1
;   skirtOutlines,2
;   skirtOffset,4
;   usePrimePillar,0
;   primePillarExtruder,999
;   primePillarWidth,12
;   primePillarLocation,7
;   primePillarSpeedMultiplier,1
;   useOozeShield,0
;   oozeShieldExtruder,999
;   oozeShieldOffset,2
;   oozeShieldOutlines,1
;   oozeShieldSidewallShape,1
;   oozeShieldSidewallAngle,30
;   oozeShieldSpeedMultiplier,1
;   infillExtruder,0
;   internalInfillPattern,Rectilinear
;   externalInfillPattern,Rectilinear
;   infillPercentage,10
;   outlineOverlapPercentage,15
;   infillExtrusionWidthPercentage,100
;   minInfillLength,5
;   infillLayerInterval,1
;   internalInfillAngles,45,-45
;   overlapInternalInfillAngles,0
;   externalInfillAngles,45,-45
;   generateSupport,0
;   supportExtruder,0
;   supportInfillPercentage,30
;   supportExtraInflation,0
;   supportBaseLayers,0
;   denseSupportExtruder,0
;   denseSupportLayers,0
;   denseSupportInfillPercentage,70
;   supportLayerInterval,1
;   supportHorizontalPartOffset,0.2
;   supportUpperSeparationLayers,1
;   supportLowerSeparationLayers,1
;   supportType,0
;   supportGridSpacing,4
;   maxOverhangAngle,45
;   supportAngles,0
;   temperatureName,Primary Extruder,Hot Bed
;   temperatureNumber,0,1
;   temperatureSetpointCount,1,1
;   temperatureSetpointLayers,1,1
;   temperatureSetpointTemperatures,210,60
;   temperatureStabilizeAtStartup,1,0
;   temperatureHeatedBed,0,1
;   temperatureRelayBetweenLayers,0,0
;   temperatureRelayBetweenLoops,0,0
;   fanLayers,1,2
;   fanSpeeds,0,100
;   blipFanToFullPower,0
;   adjustSpeedForCooling,1
;   minSpeedLayerTime,15
;   minCoolingSpeedSlowdown,20
;   increaseFanForCooling,0
;   minFanLayerTime,45
;   maxCoolingFanSpeed,100
;   increaseFanForBridging,0
;   bridgingFanSpeed,100
;   use5D,1
;   relativeEdistances,0
;   allowEaxisZeroing,1
;   independentExtruderAxes,0
;   includeM10123,0
;   stickySupport,1
;   applyToolheadOffsets,0
;   gcodeXoffset,-0.09
;   gcodeYoffset,-0.03
;   gcodeZoffset,0
;   overrideMachineDefinition,0
;   machineTypeOverride,0
;   strokeXoverride,200
;   strokeYoverride,200
;   strokeZoverride,200
;   originOffsetXoverride,0
;   originOffsetYoverride,0
;   originOffsetZoverride,0
;   homeXdirOverride,-1
;   homeYdirOverride,-1
;   homeZdirOverride,-1
;   flipXoverride,1
;   flipYoverride,-1
;   flipZoverride,1
;   toolheadOffsets,0,0|0,0|0,0|0,0|0,0|0,0
;   overrideFirmwareConfiguration,0
;   firmwareTypeOverride,RepRap (Marlin/Repetier/Sprinter)
;   GPXconfigOverride,r2
;   baudRateOverride,115200
;   overridePrinterModels,0
;   printerModelsOverride
;   startingGcode,G28 ; home all axes,G1 X1 Y1 Z0.2 F3000 ; get ready to prime,G92 E0 ; reset extrusion distance,G1 Y150 E20 F600 ; prime nozzle
;   layerChangeGcode,
;   retractionGcode,
;   toolChangeGcode,
;   endingGcode,M104 S0 ; turn off extruder,M140 S0 ; turn off bedG1 X0 Y0; home,M84 ; disable motors,M107 ; fan off,G28 X Y; Home,M18; Disable steppers
;   exportFileFormat,gcode
;   celebration,0
;   celebrationSong,Random Song
;   postProcessing,
;   defaultSpeed,3800
;   outlineUnderspeed,0.5
;   solidInfillUnderspeed,0.8
;   supportUnderspeed,0.8
;   rapidXYspeed,4600
;   rapidZspeed,1000
;   minBridgingArea,50
;   bridgingExtraInflation,0
;   bridgingExtrusionMultiplier,1
;   bridgingSpeedMultiplier,1
;   useFixedBridgingAngle,0
;   fixedBridgingAngle,0
;   applyBridgingToPerimeters,0
;   filamentDiameters,1.75|1.75|1.75|1.75|1.75|1.75
;   filamentPricesPerKg,46|46|46|46|46|46
;   filamentDensities,1.25|1.25|1.25|1.25|1.25|1.25
;   useMinPrintHeight,0
;   minPrintHeight,0
;   useMaxPrintHeight,0
;   maxPrintHeight,0
;   useDiaphragm,0
;   diaphragmLayerInterval,20
;   robustSlicing,1
;   mergeAllIntoSolid,0
;   onlyRetractWhenCrossingOutline,1
;   retractBetweenLayers,1
;   useRetractionMinTravel,0
;   retractionMinTravel,3
;   retractWhileWiping,0
;   onlyWipeOutlines,1
;   avoidCrossingOutline,0
;   maxMovementDetourFactor,3
;   toolChangeRetractionDistance,12
;   toolChangeExtraRestartDistance,-0.5
;   toolChangeRetractionSpeed,600
;   externalThinWallType,1
;   internalThinWallType,2
;   thinWallAllowedOverlapPercentage,8
;   singleExtrusionMinLength,1
;   singleExtrusionMinPrintingWidthPercentage,50
;   singleExtrusionMaxPrintingWidthPercentage,200
;   singleExtrusionEndpointExtension,0.2
;   horizontalSizeCompensation,0
G90
M82
M106 S0
M140 S60
M104 S210 T0
M109 S210 T0
G28 ; home all axes
G1 X1 Y1 Z0.2 F3000 ; get ready to prime
G92 E0 ; reset extrusion distance
G1 Y150 E20 F600 ; prime nozzle
G92 E0
G1 E-1.0000 F1800
G1 Z0.270 F1000
; process Process1
; layer 1, Z = 0.270
T0
; tool H0.300 W0.412
; inner perimeter
G1 X105.876 Y99.860 F4600
G1 E0.0000 F540
G92 E0
G1 X131.944 Y99.860 E1.2056 F855
G1 X131.944 Y118.610 E2.0727
G1 X131.540 Y118.610 E2.0914
G1 X131.540 Y126.080 E2.4368
G1 X105.876 Y126.080 E3.6238
G1 X105.876 Y99.860 E4.8363
; outer perimeter
G1 X105.464 Y99.448 F4600
G92 E0
G1 X132.356 Y99.448 E1.2437 F570
G1 X132.356 Y119.022 E2.1489
G1 X131.952 Y119.022 E2.1676
G1 X131.952 Y126.492 E2.5131
G1 X105.464 Y126.492 E3.7381
G1 X105.464 Y99.448 E4.9888
; solid layer
G1 X131.205 Y100.211 F4600
G92 E0
G1 X131.594 Y100.599 E0.0254 F912
G1 X131.594 Y101.182 E0.0524
G1 X130.622 Y100.211 E0.1159
G1 X130.040 Y100.211 E0.1429
G1 X131.594 Y101.765 E0.2445
G1 X131.594 Y102.347 E0.2714
G1 X129.457 Y100.211 E0.4112
G1 X128.874 Y100.211 E0.4381
G1 X131.594 Y102.930 E0.6160
G1 X131.594 Y103.513 E0.6430
G1 X128.292 Y100.211 E0.8589
G1 X127.709 Y100.211 E0.8859
G1 X131.594 Y104.095 E1.1399
G1 X131.594 Y104.678 E1.1669
G1 X127.126 Y100.211 E1.4591
G1 X126.544 Y100.211 E1.4860
G1 X131.594 Y105.261 E1.8163
G1 X131.594 Y105.843 E1.8433
G1 X125.961 Y100.211 E2.2117
G1 X125.378 Y100.211 E2.2386
G1 X131.594 Y106.426 E2.6451
G1 X131.594 Y107.009 E2.6721
G1 X124.796 Y100.211 E3.1167
G1 X124.213 Y100.211 E3.1436
G1 X131.594 Y107.591 E3.6264
G1 X131.594 Y108.174 E3.6533
G1 X123.630 Y100.211 E4.1742
G1 X123.048 Y100.211 E4.2011
G1 X131.594 Y108.757 E4.7600
G1 X131.594 Y109.339 E4.7870
G1 X122.465 Y100.211 E5.3841
G1 X121.882 Y100.211 E5.4110
G1 X131.594 Y109.922 E6.0462
G1 X131.594 Y110.505 E6.0731
G1 X121.300 Y100.211 E6.7464
G1 X120.717 Y100.211 E6.7733
G1 X131.594 Y111.087 E7.4847
G1 X131.594 Y111.670 E7.5117
G1 X120.134 Y100.211 E8.2611
G1 X119.552 Y100.211 E8.2881
G1 X131.594 Y112.253 E9.0757
G1 X131.594 Y112.835 E9.1026
G1 X118.969 Y100.211 E9.9283
G1 X118.386 Y100.211 E9.9553
G1 X131.594 Y113.418 E10.8191
G1 X131.594 Y114.001 E10.8460
G1 X117.804 Y100.211 E11.7480
G1 X117.221 Y100.211 E11.7749
G1 X131.594 Y114.583 E12.7149
G1 X131.594 Y115.166 E12.7419
G1 X116.638 Y100.211 E13.7200
G1 X116.056 Y100.211 E13.7470
G1 X131.594 Y115.748 E14.7632
G1 X131.594 Y116.331 E14.7902
G1 X115.473 Y100.211 E15.8445
G1 X114.891 Y100.211 E15.8715
G1 X131.594 Y116.914 E16.9639
G1 X131.594 Y117.496 E16.9909
G1 X114.308 Y100.211 E18.1215
G1 X113.725 Y100.211 E18.1484
G1 X131.594 Y118.079 E19.3171
G1 X131.594 Y118.260 E19.3255
G1 X131.192 Y118.260 E19.3440
G1 X113.143 Y100.211 E20.5246
G1 X112.560 Y100.211 E20.5515
G1 X131.190 Y118.841 E21.7700
G1 X131.190 Y119.423 E21.7969
G1 X111.977 Y100.211 E23.0535
G1 X111.395 Y100.211 E23.0805
G1 X131.190 Y120.006 E24.3752
G1 X131.190 Y120.589 E24.4021
G1 X110.812 Y100.211 E25.7350
G1 X110.229 Y100.211 E25.7619
G1 X131.190 Y121.171 E27.1328
G1 X131.190 Y121.754 E27.1598
G1 X109.647 Y100.211 E28.5688
G1 X109.064 Y100.211 E28.5958
G1 X131.190 Y122.337 E30.0429
G1 X131.190 Y122.919 E30.0698
G1 X108.481 Y100.211 E31.5551
G1 X107.899 Y100.211 E31.5820
G1 X131.190 Y123.502 E33.1054
G1 X131.190 Y124.085 E33.1323
G1 X107.316 Y100.211 E34.6938
G1 X106.733 Y100.211 E34.7208
G1 X131.190 Y124.667 E36.3203
G1 X131.190 Y125.250 E36.3473
G1 X106.226 Y100.286 E37.9800
G1 X106.226 Y100.869 E38.0070
G1 X131.087 Y125.729 E39.6330
G1 X130.504 Y125.729 E39.6599
G1 X106.226 Y101.452 E41.2478
G1 X106.226 Y102.034 E41.2747
G1 X129.921 Y125.729 E42.8245
G1 X129.339 Y125.729 E42.8514
G1 X106.226 Y102.617 E44.3631
G1 X106.226 Y103.200 E44.3901
G1 X128.756 Y125.729 E45.8636
G1 X128.173 Y125.729 E45.8905
G1 X106.226 Y103.782 E47.3260
G1 X106.226 Y104.365 E47.3529
G1 X127.591 Y125.729 E48.7503
G1 X127.008 Y125.729 E48.7772
G1 X106.226 Y104.948 E50.1365
G1 X106.226 Y105.530 E50.1634
G1 X126.425 Y125.729 E51.4845
G1 X125.843 Y125.729 E51.5115
G1 X106.226 Y106.113 E52.7945
G1 X106.226 Y106.696 E52.8214
G1 X125.260 Y125.729 E54.0663
G1 X124.677 Y125.729 E54.0933
G1 X106.226 Y107.278 E55.3001
G1 X106.226 Y107.861 E55.3270
G1 X124.095 Y125.729 E56.4957
G1 X123.512 Y125.729 E56.5226
G1 X106.226 Y108.444 E57.6532
G1 X106.226 Y109.026 E57.6802
G1 X122.930 Y125.729 E58.7726
G1 X122.347 Y125.729 E58.7996
G1 X106.226 Y109.609 E59.8539
G1 X106.226 Y110.191 E59.8809
G1 X121.764 Y125.729 E60.8971
G1 X121.182 Y125.729 E60.9241
G1 X106.226 Y110.774 E61.9022
G1 X106.226 Y111.357 E61.9292
G1 X120.599 Y125.729 E62.8692
G1 X120.016 Y125.729 E62.8961
G1 X106.226 Y111.939 E63.7981
G1 X106.226 Y112.522 E63.8250
G1 X119.434 Y125.729 E64.6888
G1 X118.851 Y125.729 E64.7158
G1 X106.226 Y113.105 E65.5415
G1 X106.226 Y113.687 E65.5684
G1 X118.268 Y125.729 E66.3560
G1 X117.686 Y125.729 E66.3830
G1 X106.226 Y114.270 E67.1325
G1 X106.226 Y114.853 E67.1594
G1 X117.103 Y125.729 E67.8708
G1 X116.520 Y125.729 E67.8978
G1 X106.226 Y115.435 E68.5710
G1 X106.226 Y116.018 E68.5980
G1 X115.938 Y125.729 E69.2331
G1 X115.355 Y125.729 E69.2601
G1 X106.226 Y116.601 E69.8571
G1 X106.226 Y117.183 E69.8841
G1 X114.772 Y125.729 E70.4430
G1 X114.190 Y125.729 E70.4700
G1 X106.226 Y117.766 E70.9908
G1 X106.226 Y118.349 E71.0178
G1 X113.607 Y125.729 E71.5005
G1 X113.024 Y125.729 E71.5274
G1 X106.226 Y118.931 E71.9721
G1 X106.226 Y119.514 E71.9990
G1 X112.442 Y125.729 E72.4055
G1 X111.859 Y125.729 E72.4325
G1 X106.226 Y120.097 E72.8009
G1 X106.226 Y120.679 E72.8278
G1 X111.276 Y125.729 E73.1581
G1 X110.694 Y125.729 E73.1851
G1 X106.226 Y121.262 E73.4773
G1 X106.226 Y121.845 E73.5042
G1 X110.111 Y125.729 E73.7583
G1 X109.528 Y125.729 E73.7852
G1 X106.226 Y122.427 E74.0012
G1 X106.226 Y123.010 E74.0282
G1 X108.946 Y125.729 E74.2060
G1 X108.363 Y125.729 E74.2330
G1 X106.226 Y123.593 E74.3727
G1 X106.226 Y124.175 E74.3997
G1 X107.780 Y125.729 E74.5013
G1 X107.198 Y125.729 E74.5283
G1 X106.226 Y124.758 E74.5918
G1 X106.226 Y125.341 E74.6187
G1 X106.615 Y125.729 E74.6442
G92 E0
G1 E-1.0000 F1800
; layer 2, Z = 0.570
M106 S255
; tool H0.300 W0.400
; inner perimeter
G1 X105.858 Y126.098 F4600
G1 Z0.570 F1000
G1 E0.0000 F1800
G92 E0
G1 X105.858 Y99.842 E1.1789 F2850
G1 X131.962 Y99.842 E2.3510
G1 X131.962 Y118.628 E3.1945
G1 X131.558 Y118.628 E3.2126
G1 X131.558 Y126.098 E3.5480
G1 X105.858 Y126.098 E4.7019
; outer perimeter
G1 X105.458 Y126.498 F4600
G92 E0
G1 X105.458 Y99.442 E1.2148 F1900
G1 X132.362 Y99.442 E2.4228
G1 X132.362 Y119.028 E3.3022
G1 X131.958 Y119.028 E3.3204
G1 X131.958 Y126.498 E3.6557
G1 X105.458 Y126.498 E4.8456
; solid layer
G1 X131.013 Y125.758 F4600
G92 E0
G1 X131.218 Y125.552 E0.0130 F3040
G1 X131.218 Y124.986 E0.0384
G1 X130.447 Y125.758 E0.0874
G1 X129.881 Y125.758 E0.1128
G1 X131.218 Y124.421 E0.1977
G1 X131.218 Y123.855 E0.2231
G1 X129.316 Y125.758 E0.3439
G1 X128.750 Y125.758 E0.3693
G1 X131.218 Y123.289 E0.5260
G1 X131.218 Y122.724 E0.5514
G1 X128.184 Y125.758 E0.7441
G1 X127.619 Y125.758 E0.7695
G1 X131.218 Y122.158 E0.9980
G1 X131.218 Y121.592 E1.0234
G1 X127.053 Y125.758 E1.2879
G1 X126.487 Y125.758 E1.3133
G1 X131.218 Y121.027 E1.6137
G1 X131.218 Y120.461 E1.6391
G1 X125.921 Y125.758 E1.9755
G1 X125.356 Y125.758 E2.0009
G1 X131.218 Y119.895 E2.3731
G1 X131.218 Y119.330 E2.3985
G1 X124.790 Y125.758 E2.8067
G1 X124.224 Y125.758 E2.8321
G1 X131.218 Y118.764 E3.2762
G1 X131.218 Y118.288 E3.2976
G1 X131.622 Y118.288 E3.3157
G1 X131.622 Y117.794 E3.3379
G1 X123.659 Y125.758 E3.8435
G1 X123.093 Y125.758 E3.8689
G1 X131.622 Y117.229 E4.4105
G1 X131.622 Y116.663 E4.4359
G1 X122.527 Y125.758 E5.0134
G1 X121.962 Y125.758 E5.0388
G1 X131.622 Y116.097 E5.6522
G1 X131.622 Y115.532 E5.6776
G1 X121.396 Y125.758 E6.3269
G1 X120.830 Y125.758 E6.3523
G1 X131.622 Y114.966 E7.0376
G1 X131.622 Y114.400 E7.0630
G1 X120.265 Y125.758 E7.7842
G1 X119.699 Y125.758 E7.8096
G1 X131.622 Y113.835 E8.5667
G1 X131.622 Y113.269 E8.5921
G1 X119.133 Y125.758 E9.3851
G1 X118.568 Y125.758 E9.4105
G1 X131.622 Y112.703 E10.2394
G1 X131.622 Y112.138 E10.2648
G1 X118.002 Y125.758 E11.1297
G1 X117.436 Y125.758 E11.1551
G1 X131.622 Y111.572 E12.0559
G1 X131.622 Y111.006 E12.0813
G1 X116.871 Y125.758 E13.0180
G1 X116.305 Y125.758 E13.0434
G1 X131.622 Y110.441 E14.0160
G1 X131.622 Y109.875 E14.0414
G1 X115.739 Y125.758 E15.0500
G1 X115.173 Y125.758 E15.0754
G1 X131.622 Y109.309 E16.1198
G1 X131.622 Y108.743 E16.1452
G1 X114.608 Y125.758 E17.2256
G1 X114.042 Y125.758 E17.2510
G1 X131.622 Y108.178 E18.3673
G1 X131.622 Y107.612 E18.3927
G1 X113.476 Y125.758 E19.5450
G1 X112.911 Y125.758 E19.5704
G1 X131.622 Y107.046 E20.7585
G1 X131.622 Y106.481 E20.7839
G1 X112.345 Y125.758 E22.0080
G1 X111.779 Y125.758 E22.0334
G1 X131.622 Y105.915 E23.2934
G1 X131.622 Y105.349 E23.3188
G1 X111.214 Y125.758 E24.6147
G1 X110.648 Y125.758 E24.6401
G1 X131.622 Y104.784 E25.9720
G1 X131.622 Y104.218 E25.9974
G1 X110.082 Y125.758 E27.3651
G1 X109.517 Y125.758 E27.3905
G1 X131.622 Y103.652 E28.7942
G1 X131.622 Y103.087 E28.8196
G1 X108.951 Y125.758 E30.2592
G1 X108.385 Y125.758 E30.2846
G1 X131.622 Y102.521 E31.7601
G1 X131.622 Y101.955 E31.7855
G1 X107.820 Y125.758 E33.2969
G1 X107.254 Y125.758 E33.3223
G1 X131.622 Y101.390 E34.8697
G1 X131.622 Y100.824 E34.8951
G1 X106.688 Y125.758 E36.4784
G1 X106.198 Y125.758 E36.5004
G1 X106.198 Y125.682 E36.5038
G1 X131.622 Y100.258 E38.1182
G1 X131.622 Y100.182 E38.1216
G1 X131.132 Y100.182 E38.1436
G1 X106.198 Y125.116 E39.7269
G1 X106.198 Y124.551 E39.7523
G1 X130.566 Y100.182 E41.2997
G1 X130.001 Y100.182 E41.3251
G1 X106.198 Y123.985 E42.8365
G1 X106.198 Y123.419 E42.8619
G1 X129.435 Y100.182 E44.3374
G1 X128.869 Y100.182 E44.3628
G1 X106.198 Y122.853 E45.8024
G1 X106.198 Y122.288 E45.8278
G1 X128.303 Y100.182 E47.2315
G1 X127.738 Y100.182 E47.2569
G1 X106.198 Y121.722 E48.6247
G1 X106.198 Y121.156 E48.6501
G1 X127.172 Y100.182 E49.9819
G1 X126.606 Y100.182 E50.0073
G1 X106.198 Y120.591 E51.3032
G1 X106.198 Y120.025 E51.3286
G1 X126.041 Y100.182 E52.5886
G1 X125.475 Y100.182 E52.6140
G1 X106.198 Y119.459 E53.8381
G1 X106.198 Y118.894 E53.8635
G1 X124.909 Y100.182 E55.0517
G1 X124.344 Y100.182 E55.0771
G1 X106.198 Y118.328 E56.2293
G1 X106.198 Y117.762 E56.2547
G1 X123.778 Y100.182 E57.3710
G1 X123.212 Y100.182 E57.3964
G1 X106.198 Y117.197 E58.4768
G1 X106.198 Y116.631 E58.5022
G1 X122.647 Y100.182 E59.5467
G1 X122.081 Y100.182 E59.5721
