; G-Code generated by Simplify3D(R) Version 4.0.0
; Jan 16, 2021 at 12:03:56 PM
; Settings Summary
;   processName,Process1
;   applyToModels,20mm_Beam_V2
;   profileName,def (modified)
;   profileVersion,2020-09-07 14:01:24
;   baseProfile,Default (modified)
;   printMaterial,PLA
;   printQuality,Medium
;   printExtruders,
;   extruderName,Primary Extruder
;   extruderToolheadNumber,0
;   extruderDiameter,0.4
;   extruderAutoWidth,0
;   extruderWidth,0.4
;   extrusionMultiplier,0.9
;   extruderUseRetract,1
;   extruderRetractionDistance,1
;   extruderExtraRestartDistance,0
;   extruderRetractionZLift,0
;   extruderRetractionSpeed,1800
;   extruderUseCoasting,0
;   extruderCoastingDistance,0.2
;   extruderUseWipe,0
;   extruderWipeDistance,5
;   primaryExtruder,0
;   layerHeight,0.3
;   topSolidLayers,3
;   bottomSolidLayers,2
;   perimeterOutlines,2
;   printPerimetersInsideOut,1
;   startPointOption,2
;   startPointOriginX,0
;   startPointOriginY,0
;   sequentialIslands,0
;   spiralVaseMode,0
;   firstLayerHeightPercentage,90
;   firstLayerWidthPercentage,103
;   firstLayerUnderspeed,0.3
;   useRaft,0
;   raftExtruder,0
;   raftTopLayers,2
;   raftBaseLayers,2
;   raftOffset,1.4
;   raftSeparationDistance,0.14
;   raftTopInfill,100
;   aboveRaftSpeedMultiplier,0.3
;   useSkirt,0
;   skirtExtruder,0
;   skirtLayers,1
;   skirtOutlines,2
;   skirtOffset,4
;   usePrimePillar,0
;   primePillarExtruder,999
;   primePillarWidth,12
;   primePillarLocation,7
;   primePillarSpeedMultiplier,1
;   useOozeShield,0
;   oozeShieldExtruder,999
;   oozeShieldOffset,2
;   oozeShieldOutlines,1
;   oozeShieldSidewallShape,1
;   oozeShieldSidewallAngle,30
;   oozeShieldSpeedMultiplier,1
;   infillExtruder,0
;   internalInfillPattern,Rectilinear
;   externalInfillPattern,Rectilinear
;   infillPercentage,10
;   outlineOverlapPercentage,15
;   infillExtrusionWidthPercentage,100
;   minInfillLength,5
;   infillLayerInterval,1
;   internalInfillAngles,45,-45
;   overlapInternalInfillAngles,0
;   externalInfillAngles,45,-45
;   generateSupport,0
;   supportExtruder,0
;   supportInfillPercentage,30
;   supportExtraInflation,0
;   supportBaseLayers,0
;   denseSupportExtruder,0
;   denseSupportLayers,0
;   denseSupportInfillPercentage,70
;   supportLayerInterval,1
;   supportHorizontalPartOffset,0.2
;   supportUpperSeparationLayers,1
;   supportLowerSeparationLayers,1
;   supportType,0
;   supportGridSpacing,4
;   maxOverhangAngle,45
;   supportAngles,0
;   temperatureName,Primary Extruder,Hot Bed
;   temperatureNumber,0,1
;   temperatureSetpointCount,1,1
;   temperatureSetpointLayers,1,1
;   temperatureSetpointTemperatures,210,60
;   temperatureStabilizeAtStartup,1,0
;   temperatureHeatedBed,0,1
;   temperatureRelayBetweenLayers,0,0
;   temperatureRelayBetweenLoops,0,0
;   fanLayers,1,2
;   fanSpeeds,0,100
;   blipFanToFullPower,0
;   adjustSpeedForCooling,1
;   minSpeedLayerTime,15
;   minCoolingSpeedSlowdown,20
;   increaseFanForCooling,0
;   minFanLayerTime,45
;   maxCoolingFanSpeed,100
;   increaseFanForBridging,0
;   bridgingFanSpeed,100
;   use5D,1
;   relativeEdistances,0
;   allowEaxisZeroing,1
;   independentExtruderAxes,0
;   includeM10123,0
;   stickySupport,1
;   applyToolheadOffsets,0
;   gcodeXoffset,-0.09
;   gcodeYoffset,-0.03
;   gcodeZoffset,0
;   overrideMachineDefinition,0
;   machineTypeOverride,0
;   strokeXoverride,200
;   strokeYoverride,200
;   strokeZoverride,200
;   originOffsetXoverride,0
;   originOffsetYoverride,0
;   originOffsetZoverride,0
;   homeXdirOverride,-1
;   homeYdirOverride,-1
;   homeZdirOverride,-1
;   flipXoverride,1
;   flipYoverride,-1
;   flipZoverride,1
;   toolheadOffsets,0,0|0,0|0,0|0,0|0,0|0,0
;   overrideFirmwareConfiguration,0
;   firmwareTypeOverride,RepRap (Marlin/Repetier/Sprinter)
;   GPXconfigOverride,r2
;   baudRateOverride,115200
;   overridePrinterModels,0
;   printerModelsOverride
;   startingGcode,G28 ; home all axes,G1 X1 Y1 Z0.2 F3000 ; get ready to prime,G92 E0 ; reset extrusion distance,G1 Y150 E20 F600 ; prime nozzle
;   layerChangeGcode,
;   retractionGcode,
;   toolChangeGcode,
;   endingGcode,M104 S0 ; turn off extruder,M140 S0 ; turn off bedG1 X0 Y0; home,M84 ; disable motors,M107 ; fan off,G28 X Y; Home,M18; Disable steppers
;   exportFileFormat,gcode
;   celebration,0
;   celebrationSong,Random Song
;   postProcessing,
;   defaultSpeed,4600
;   outlineUnderspeed,0.5
;   solidInfillUnderspeed,0.8
;   supportUnderspeed,0.8
;   rapidXYspeed,4600
;   rapidZspeed,1000
;   minBridgingArea,50
;   bridgingExtraInflation,0
;   bridgingExtrusionMultiplier,1
;   bridgingSpeedMultiplier,1
;   useFixedBridgingAngle,0
;   fixedBridgingAngle,0
;   applyBridgingToPerimeters,0
;   filamentDiameters,1.75|1.75|1.75|1.75|1.75|1.75
;   filamentPricesPerKg,46|46|46|46|46|46
;   filamentDensities,1.25|1.25|1.25|1.25|1.25|1.25
;   useMinPrintHeight,0
;   minPrintHeight,0
;   useMaxPrintHeight,0
;   maxPrintHeight,0
;   useDiaphragm,0
;   diaphragmLayerInterval,20
;   robustSlicing,1
;   mergeAllIntoSolid,0
;   onlyRetractWhenCrossingOutline,1
;   retractBetweenLayers,1
;   useRetractionMinTravel,0
;   retractionMinTravel,3
;   retractWhileWiping,0
;   onlyWipeOutlines,1
;   avoidCrossingOutline,0
;   maxMovementDetourFactor,3
;   toolChangeRetractionDistance,12
;   toolChangeExtraRestartDistance,-0.5
;   toolChangeRetractionSpeed,600
;   externalThinWallType,1
;   internalThinWallType,2
;   thinWallAllowedOverlapPercentage,8
;   singleExtrusionMinLength,1
;   singleExtrusionMinPrintingWidthPercentage,50
;   singleExtrusionMaxPrintingWidthPercentage,200
;   singleExtrusionEndpointExtension,0.2
;   horizontalSizeCompensation,0
G90
M82
M106 S0
M140 S60
M104 S210 T0
M109 S210 T0
G28 ; home all axes
G1 X1 Y1 Z0.2 F3000 ; get ready to prime
G92 E0 ; reset extrusion distance
G1 Y150 E20 F600 ; prime nozzle
G92 E0
G1 E-1.0000 F1800
G1 Z0.270 F1000
; process Process1
; layer 1, Z = 0.270
T0
; tool H0.300 W0.412
; inner perimeter
G1 X105.462 Y99.790 F4600
G1 E0.0000 F540
G92 E0
G1 X106.447 Y99.765 E0.0456 F1035
G1 X113.584 Y99.755 E0.3756
G1 X113.584 Y99.608 E0.3824
G1 X132.283 Y99.608 E1.2473
G1 X132.283 Y126.332 E2.4832
G1 X128.794 Y126.332 E2.6445
G1 X128.794 Y121.852 E2.8517
G1 X116.532 Y121.852 E3.4188
G1 X116.532 Y126.332 E3.6260
G1 X105.560 Y126.332 E4.1334
G1 X105.560 Y126.233 E4.1380
G1 X105.511 Y126.233 E4.1402
G1 X105.508 Y120.356 E4.4121
G1 X105.467 Y115.458 E4.6386
G1 X107.932 Y115.455 E4.7526
G1 X108.612 Y115.409 E4.7841
G1 X109.547 Y115.409 E4.8274
G1 X109.547 Y103.196 E5.3922
G1 X105.462 Y103.196 E5.5812
G1 X105.462 Y99.790 E5.7387
; outer perimeter
G1 X105.050 Y99.388 F4600
G92 E0
G1 X106.442 Y99.353 E0.0644 F690
G1 X113.172 Y99.344 E0.3756
G1 X113.172 Y99.196 E0.3825
G1 X132.695 Y99.196 E1.2854
G1 X132.695 Y126.744 E2.5594
G1 X128.382 Y126.744 E2.7589
G1 X128.382 Y122.264 E2.9661
G1 X116.944 Y122.264 E3.4951
G1 X116.944 Y126.744 E3.7022
G1 X105.148 Y126.744 E4.2478
G1 X105.148 Y126.645 E4.2523
G1 X105.099 Y126.645 E4.2546
G1 X105.096 Y120.358 E4.5454
G1 X105.051 Y115.046 E4.7910
G1 X107.918 Y115.043 E4.9236
G1 X108.598 Y114.997 E4.9551
G1 X109.135 Y114.997 E4.9800
G1 X109.135 Y103.608 E5.5067
G1 X105.050 Y103.608 E5.6956
G1 X105.050 Y99.388 E5.8908
; solid layer
G1 X105.812 Y102.785 F4600
G92 E0
G1 X105.873 Y102.846 E0.0040 F1104
G1 X106.455 Y102.846 E0.0309
G1 X105.812 Y102.202 E0.0730
G1 X105.812 Y101.620 E0.1000
G1 X107.038 Y102.846 E0.1802
G1 X107.621 Y102.846 E0.2071
G1 X105.812 Y101.037 E0.3255
G1 X105.812 Y100.454 E0.3524
G1 X108.203 Y102.846 E0.5088
G1 X108.786 Y102.846 E0.5358
G1 X106.065 Y100.125 E0.7138
G1 X106.452 Y100.116 E0.7316
G1 X106.638 Y100.115 E0.7402
G1 X109.369 Y102.846 E0.9189
G1 X109.897 Y102.846 E0.9433
G1 X109.897 Y103.375 E0.9677
G1 X128.025 Y121.502 E2.1534
G1 X128.607 Y121.502 E2.1803
G1 X107.220 Y100.114 E3.5792
G1 X107.802 Y100.114 E3.6061
G1 X131.933 Y124.245 E5.1844
G1 X131.933 Y123.662 E5.2113
G1 X108.383 Y100.113 E6.7516
G1 X108.965 Y100.112 E6.7785
G1 X131.933 Y123.080 E8.2807
G1 X131.933 Y122.497 E8.3077
G1 X109.547 Y100.111 E9.7718
G1 X110.129 Y100.110 E9.7987
G1 X131.933 Y121.915 E11.2248
G1 X131.933 Y121.332 E11.2518
G1 X110.711 Y100.109 E12.6398
G1 X111.293 Y100.109 E12.6667
G1 X131.933 Y120.749 E14.0167
G1 X131.933 Y120.167 E14.0437
G1 X111.874 Y100.108 E15.3556
G1 X112.456 Y100.107 E15.3825
G1 X131.933 Y119.584 E16.6564
G1 X131.933 Y119.001 E16.6834
G1 X113.038 Y100.106 E17.9192
G1 X113.620 Y100.105 E17.9461
G1 X131.933 Y118.419 E19.1439
G1 X131.933 Y117.836 E19.1708
G1 X114.056 Y99.959 E20.3401
G1 X114.638 Y99.959 E20.3671
G1 X131.933 Y117.253 E21.4982
G1 X131.933 Y116.671 E21.5252
G1 X115.221 Y99.959 E22.6182
G1 X115.804 Y99.959 E22.6452
G1 X131.933 Y116.088 E23.7001
G1 X131.933 Y115.505 E23.7270
G1 X116.386 Y99.959 E24.7439
G1 X116.969 Y99.959 E24.7708
G1 X131.933 Y114.923 E25.7495
G1 X131.933 Y114.340 E25.7765
G1 X117.552 Y99.959 E26.7171
G1 X118.134 Y99.959 E26.7441
G1 X131.933 Y113.757 E27.6466
G1 X131.933 Y113.175 E27.6735
G1 X118.717 Y99.959 E28.5379
G1 X119.300 Y99.959 E28.5649
G1 X131.933 Y112.592 E29.3911
G1 X131.933 Y112.009 E29.4181
G1 X119.882 Y99.959 E30.2063
G1 X120.465 Y99.959 E30.2332
G1 X131.933 Y111.427 E30.9833
G1 X131.933 Y110.844 E31.0102
G1 X121.048 Y99.959 E31.7222
G1 X121.630 Y99.959 E31.7491
G1 X131.933 Y110.261 E32.4230
G1 X131.933 Y109.679 E32.4500
G1 X122.213 Y99.959 E33.0857
G1 X122.796 Y99.959 E33.1126
G1 X131.933 Y109.096 E33.7103
G1 X131.933 Y108.513 E33.7372
G1 X123.378 Y99.959 E34.2968
G1 X123.961 Y99.959 E34.3237
G1 X131.933 Y107.931 E34.8451
G1 X131.933 Y107.348 E34.8721
G1 X124.544 Y99.959 E35.3554
G1 X125.126 Y99.959 E35.3823
G1 X131.933 Y106.765 E35.8275
G1 X131.933 Y106.183 E35.8545
G1 X125.709 Y99.959 E36.2616
G1 X126.292 Y99.959 E36.2885
G1 X131.933 Y105.600 E36.6575
G1 X131.933 Y105.018 E36.6845
G1 X126.874 Y99.959 E37.0153
G1 X127.457 Y99.959 E37.0423
G1 X131.933 Y104.435 E37.3351
G1 X131.933 Y103.852 E37.3620
G1 X128.040 Y99.959 E37.6167
G1 X128.622 Y99.959 E37.6436
G1 X131.933 Y103.270 E37.8602
G1 X131.933 Y102.687 E37.8871
G1 X129.205 Y99.959 E38.0656
G1 X129.787 Y99.959 E38.0925
G1 X131.933 Y102.104 E38.2328
G1 X131.933 Y101.522 E38.2598
G1 X130.370 Y99.959 E38.3620
G1 X130.953 Y99.959 E38.3890
G1 X131.933 Y100.939 E38.4531
G1 X131.933 Y100.356 E38.4800
G1 X131.535 Y99.959 E38.5060
G1 X109.897 Y103.957 F4600
G92 E0
G1 X127.442 Y121.502 E1.1475 F1104
G1 X126.859 Y121.502 E1.1745
G1 X109.897 Y104.540 E2.2839
G1 X109.897 Y105.123 E2.3108
G1 X126.277 Y121.502 E3.3821
G1 X125.694 Y121.502 E3.4090
G1 X109.897 Y105.705 E4.4422
G1 X109.897 Y106.288 E4.4692
G1 X125.111 Y121.502 E5.4642
G1 X124.529 Y121.502 E5.4912
G1 X109.897 Y106.871 E6.4482
G1 X109.897 Y107.453 E6.4751
G1 X123.946 Y121.502 E7.3940
G1 X123.363 Y121.502 E7.4209
G1 X109.897 Y108.036 E8.3016
G1 X109.897 Y108.619 E8.3286
G1 X122.781 Y121.502 E9.1712
G1 X122.198 Y121.502 E9.1982
G1 X109.897 Y109.201 E10.0027
G1 X109.897 Y109.784 E10.0297
G1 X121.616 Y121.502 E10.7961
G1 X121.033 Y121.502 E10.8230
G1 X109.897 Y110.367 E11.5513
G1 X109.897 Y110.949 E11.5783
G1 X120.450 Y121.502 E12.2685
G1 X119.868 Y121.502 E12.2954
G1 X109.897 Y111.532 E12.9475
G1 X109.897 Y112.115 E12.9745
G1 X119.285 Y121.502 E13.5885
G1 X118.702 Y121.502 E13.6154
G1 X109.897 Y112.697 E14.1913
G1 X109.897 Y113.280 E14.2182
G1 X118.120 Y121.502 E14.7560
G1 X117.537 Y121.502 E14.7830
G1 X109.897 Y113.863 E15.2826
G1 X109.897 Y114.445 E15.3096
G1 X116.954 Y121.502 E15.7711
G1 X116.372 Y121.502 E15.7981
G1 X109.897 Y115.028 E16.2215
G1 X109.897 Y115.610 E16.2485
G1 X116.181 Y121.895 E16.6595
G1 X116.181 Y122.477 E16.6864
G1 X109.464 Y115.760 E17.1258
G1 X108.881 Y115.760 E17.1527
G1 X116.181 Y123.060 E17.6302
G1 X116.181 Y123.642 E17.6572
G1 X108.319 Y115.780 E18.1714
G1 X107.944 Y115.805 E18.1888
G1 X107.762 Y115.806 E18.1972
G1 X116.181 Y124.225 E18.7479
G1 X116.181 Y124.808 E18.7748
G1 X107.180 Y115.806 E19.3636
G1 X106.598 Y115.807 E19.3905
G1 X116.181 Y125.390 E20.0173
G1 X116.181 Y125.973 E20.0442
G1 X106.016 Y115.807 E20.7091
G1 X105.820 Y115.808 E20.7182
G1 X105.823 Y116.198 E20.7362
G1 X115.607 Y125.981 E21.3761
G1 X115.024 Y125.981 E21.4031
G1 X105.828 Y116.785 E22.0045
G1 X105.833 Y117.373 E22.0317
G1 X114.442 Y125.981 E22.5948
G1 X113.859 Y125.981 E22.6217
G1 X105.838 Y117.961 E23.1463
G1 X105.843 Y118.548 E23.1735
G1 X113.276 Y125.981 E23.6597
G1 X112.694 Y125.981 E23.6866
G1 X105.848 Y119.136 E24.1343
G1 X105.853 Y119.723 E24.1615
G1 X112.111 Y125.981 E24.5708
G1 X111.529 Y125.981 E24.5978
G1 X105.858 Y120.311 E24.9686
G1 X105.859 Y120.354 E24.9706
G1 X105.859 Y120.894 E24.9956
G1 X110.946 Y125.981 E25.3283
G1 X110.363 Y125.981 E25.3553
G1 X105.859 Y121.477 E25.6499
G1 X105.859 Y122.060 E25.6768
G1 X109.781 Y125.981 E25.9333
G1 X109.198 Y125.981 E25.9603
G1 X105.859 Y122.643 E26.1786
G1 X105.860 Y123.226 E26.2056
G1 X108.615 Y125.981 E26.3858
G1 X108.033 Y125.981 E26.4127
G1 X105.860 Y123.809 E26.5549
G1 X105.860 Y124.392 E26.5818
G1 X107.450 Y125.981 E26.6858
G1 X106.867 Y125.981 E26.7127
G1 X105.860 Y124.974 E26.7786
G1 X105.860 Y125.557 E26.8056
G1 X106.285 Y125.981 E26.8333
G92 E0
G1 E-1.0000 F1800
G1 X129.144 Y122.039 F4600
G1 E0.0000 F1800
G92 E0
G1 X131.933 Y124.828 E0.1824 F1104
G1 X131.933 Y125.410 E0.2094
G1 X129.144 Y122.621 E0.3918
G1 X129.144 Y123.204 E0.4187
G1 X131.921 Y125.981 E0.6004
G1 X131.339 Y125.981 E0.6273
G1 X129.144 Y123.787 E0.7709
G1 X129.144 Y124.369 E0.7978
G1 X130.756 Y125.981 E0.9033
G1 X130.174 Y125.981 E0.9302
G1 X129.144 Y124.952 E0.9976
G1 X129.144 Y125.535 E1.0245
G1 X129.591 Y125.981 E1.0537
G92 E0
G1 E-1.0000 F1800
; layer 2, Z = 0.570
M106 S255
; tool H0.300 W0.400
; inner perimeter
G1 X128.776 Y126.350 F4600
G1 Z0.570 F1000
G1 E0.0000 F1800
G92 E0
G1 X128.776 Y121.870 E0.2011 F3450
G1 X116.550 Y121.870 E0.7501
G1 X116.550 Y126.350 E0.9512
G1 X105.542 Y126.350 E1.4455
G1 X105.542 Y126.251 E1.4499
G1 X105.493 Y126.251 E1.4521
G1 X105.490 Y120.293 E1.7197
G1 X105.449 Y115.440 E1.9376
G1 X107.942 Y115.437 E2.0495
G1 X108.614 Y115.391 E2.0798
G1 X109.529 Y115.391 E2.1209
G1 X109.529 Y103.214 E2.6676
G1 X105.444 Y103.214 E2.8511
G1 X105.444 Y99.772 E3.0056
G1 X106.429 Y99.748 E3.0499
G1 X113.566 Y99.737 E3.3703
G1 X113.566 Y99.590 E3.3769
G1 X132.301 Y99.590 E4.2182
G1 X132.301 Y126.350 E5.4197
G1 X128.776 Y126.350 E5.5780
; outer perimeter
G1 X128.376 Y126.750 F4600
G92 E0
G1 X128.376 Y122.270 E0.2011 F2300
G1 X116.950 Y122.270 E0.7142
G1 X116.950 Y126.750 E0.9153
G1 X105.142 Y126.750 E1.4455
G1 X105.142 Y126.651 E1.4499
G1 X105.093 Y126.651 E1.4521
G1 X105.090 Y120.295 E1.7375
G1 X105.045 Y115.040 E1.9735
G1 X107.928 Y115.037 E2.1029
G1 X108.601 Y114.991 E2.1332
G1 X109.129 Y114.991 E2.1569
G1 X109.129 Y103.614 E2.6678
G1 X105.044 Y103.614 E2.8512
G1 X105.044 Y99.382 E3.0412
G1 X106.423 Y99.348 E3.1032
G1 X113.166 Y99.338 E3.4059
G1 X113.166 Y99.190 E3.4125
G1 X132.701 Y99.190 E4.2897
G1 X132.701 Y126.750 E5.5272
G1 X128.376 Y126.750 E5.7214
; solid layer
G1 X131.892 Y126.010 F4600
G92 E0
G1 X131.961 Y125.940 E0.0044 F3680
G1 X131.961 Y125.375 E0.0298
G1 X131.326 Y126.010 E0.0701
G1 X130.761 Y126.010 E0.0955
G1 X131.961 Y124.809 E0.1718
G1 X131.961 Y124.243 E0.1972
G1 X130.195 Y126.010 E0.3094
G1 X129.629 Y126.010 E0.3348
G1 X131.961 Y123.677 E0.4829
G1 X131.961 Y123.112 E0.5083
G1 X129.116 Y125.957 E0.6889
G1 X129.116 Y125.392 E0.7143
G1 X131.961 Y122.546 E0.8950
G1 X131.961 Y121.980 E0.9204
G1 X129.116 Y124.826 E1.1011
G1 X129.116 Y124.260 E1.1265
G1 X131.961 Y121.415 E1.3072
G1 X131.961 Y120.849 E1.3326
G1 X129.116 Y123.695 E1.5133
G1 X129.116 Y123.129 E1.5387
G1 X131.961 Y120.283 E1.7194
G1 X131.961 Y119.718 E1.7448
G1 X129.116 Y122.563 E1.9255
G1 X129.116 Y121.998 E1.9509
G1 X131.961 Y119.152 E2.1316
G1 X131.961 Y118.586 E2.1570
G1 X129.017 Y121.530 E2.3439
G1 X128.452 Y121.530 E2.3693
G1 X131.961 Y118.021 E2.5922
G1 X131.961 Y117.455 E2.6176
G1 X127.886 Y121.530 E2.8764
G1 X127.320 Y121.530 E2.9018
G1 X131.961 Y116.889 E3.1965
G1 X131.961 Y116.324 E3.2219
G1 X126.755 Y121.530 E3.5525
