; G-Code generated by Simplify3D(R) Version 4.0.0
; Jan 16, 2021 at 12:19:40 PM
; Settings Summary
;   processName,Process1
;   applyToModels,20mm_Beam_V2.1
;   profileName,def (modified)
;   profileVersion,2020-09-07 14:01:24
;   baseProfile,Default (modified)
;   printMaterial,PLA
;   printQuality,Medium
;   printExtruders,
;   extruderName,Primary Extruder
;   extruderToolheadNumber,0
;   extruderDiameter,0.4
;   extruderAutoWidth,0
;   extruderWidth,0.4
;   extrusionMultiplier,0.9
;   extruderUseRetract,1
;   extruderRetractionDistance,1
;   extruderExtraRestartDistance,0
;   extruderRetractionZLift,0
;   extruderRetractionSpeed,1800
;   extruderUseCoasting,0
;   extruderCoastingDistance,0.2
;   extruderUseWipe,0
;   extruderWipeDistance,5
;   primaryExtruder,0
;   layerHeight,0.3
;   topSolidLayers,3
;   bottomSolidLayers,2
;   perimeterOutlines,2
;   printPerimetersInsideOut,1
;   startPointOption,2
;   startPointOriginX,0
;   startPointOriginY,0
;   sequentialIslands,0
;   spiralVaseMode,0
;   firstLayerHeightPercentage,90
;   firstLayerWidthPercentage,103
;   firstLayerUnderspeed,0.3
;   useRaft,0
;   raftExtruder,0
;   raftTopLayers,2
;   raftBaseLayers,2
;   raftOffset,1.4
;   raftSeparationDistance,0.14
;   raftTopInfill,100
;   aboveRaftSpeedMultiplier,0.3
;   useSkirt,0
;   skirtExtruder,0
;   skirtLayers,1
;   skirtOutlines,2
;   skirtOffset,4
;   usePrimePillar,0
;   primePillarExtruder,999
;   primePillarWidth,12
;   primePillarLocation,7
;   primePillarSpeedMultiplier,1
;   useOozeShield,0
;   oozeShieldExtruder,999
;   oozeShieldOffset,2
;   oozeShieldOutlines,1
;   oozeShieldSidewallShape,1
;   oozeShieldSidewallAngle,30
;   oozeShieldSpeedMultiplier,1
;   infillExtruder,0
;   internalInfillPattern,Rectilinear
;   externalInfillPattern,Rectilinear
;   infillPercentage,10
;   outlineOverlapPercentage,15
;   infillExtrusionWidthPercentage,100
;   minInfillLength,5
;   infillLayerInterval,1
;   internalInfillAngles,45,-45
;   overlapInternalInfillAngles,0
;   externalInfillAngles,45,-45
;   generateSupport,0
;   supportExtruder,0
;   supportInfillPercentage,30
;   supportExtraInflation,0
;   supportBaseLayers,0
;   denseSupportExtruder,0
;   denseSupportLayers,0
;   denseSupportInfillPercentage,70
;   supportLayerInterval,1
;   supportHorizontalPartOffset,0.2
;   supportUpperSeparationLayers,1
;   supportLowerSeparationLayers,1
;   supportType,0
;   supportGridSpacing,4
;   maxOverhangAngle,45
;   supportAngles,0
;   temperatureName,Primary Extruder,Hot Bed
;   temperatureNumber,0,1
;   temperatureSetpointCount,1,1
;   temperatureSetpointLayers,1,1
;   temperatureSetpointTemperatures,210,60
;   temperatureStabilizeAtStartup,1,0
;   temperatureHeatedBed,0,1
;   temperatureRelayBetweenLayers,0,0
;   temperatureRelayBetweenLoops,0,0
;   fanLayers,1,2
;   fanSpeeds,0,100
;   blipFanToFullPower,0
;   adjustSpeedForCooling,1
;   minSpeedLayerTime,15
;   minCoolingSpeedSlowdown,20
;   increaseFanForCooling,0
;   minFanLayerTime,45
;   maxCoolingFanSpeed,100
;   increaseFanForBridging,0
;   bridgingFanSpeed,100
;   use5D,1
;   relativeEdistances,0
;   allowEaxisZeroing,1
;   independentExtruderAxes,0
;   includeM10123,0
;   stickySupport,1
;   applyToolheadOffsets,0
;   gcodeXoffset,-0.09
;   gcodeYoffset,-0.03
;   gcodeZoffset,0
;   overrideMachineDefinition,0
;   machineTypeOverride,0
;   strokeXoverride,200
;   strokeYoverride,200
;   strokeZoverride,200
;   originOffsetXoverride,0
;   originOffsetYoverride,0
;   originOffsetZoverride,0
;   homeXdirOverride,-1
;   homeYdirOverride,-1
;   homeZdirOverride,-1
;   flipXoverride,1
;   flipYoverride,-1
;   flipZoverride,1
;   toolheadOffsets,0,0|0,0|0,0|0,0|0,0|0,0
;   overrideFirmwareConfiguration,0
;   firmwareTypeOverride,RepRap (Marlin/Repetier/Sprinter)
;   GPXconfigOverride,r2
;   baudRateOverride,115200
;   overridePrinterModels,0
;   printerModelsOverride
;   startingGcode,G28 ; home all axes,G1 X1 Y1 Z0.2 F3000 ; get ready to prime,G92 E0 ; reset extrusion distance,G1 Y150 E20 F600 ; prime nozzle
;   layerChangeGcode,
;   retractionGcode,
;   toolChangeGcode,
;   endingGcode,M104 S0 ; turn off extruder,M140 S0 ; turn off bedG1 X0 Y0; home,M84 ; disable motors,M107 ; fan off,G28 X Y; Home,M18; Disable steppers
;   exportFileFormat,gcode
;   celebration,0
;   celebrationSong,Random Song
;   postProcessing,
;   defaultSpeed,4600
;   outlineUnderspeed,0.5
;   solidInfillUnderspeed,0.8
;   supportUnderspeed,0.8
;   rapidXYspeed,4600
;   rapidZspeed,1000
;   minBridgingArea,50
;   bridgingExtraInflation,0
;   bridgingExtrusionMultiplier,1
;   bridgingSpeedMultiplier,1
;   useFixedBridgingAngle,0
;   fixedBridgingAngle,0
;   applyBridgingToPerimeters,0
;   filamentDiameters,1.75|1.75|1.75|1.75|1.75|1.75
;   filamentPricesPerKg,46|46|46|46|46|46
;   filamentDensities,1.25|1.25|1.25|1.25|1.25|1.25
;   useMinPrintHeight,0
;   minPrintHeight,0
;   useMaxPrintHeight,0
;   maxPrintHeight,0
;   useDiaphragm,0
;   diaphragmLayerInterval,20
;   robustSlicing,1
;   mergeAllIntoSolid,0
;   onlyRetractWhenCrossingOutline,1
;   retractBetweenLayers,1
;   useRetractionMinTravel,0
;   retractionMinTravel,3
;   retractWhileWiping,0
;   onlyWipeOutlines,1
;   avoidCrossingOutline,0
;   maxMovementDetourFactor,3
;   toolChangeRetractionDistance,12
;   toolChangeExtraRestartDistance,-0.5
;   toolChangeRetractionSpeed,600
;   externalThinWallType,1
;   internalThinWallType,2
;   thinWallAllowedOverlapPercentage,8
;   singleExtrusionMinLength,1
;   singleExtrusionMinPrintingWidthPercentage,50
;   singleExtrusionMaxPrintingWidthPercentage,200
;   singleExtrusionEndpointExtension,0.2
;   horizontalSizeCompensation,0
G90
M82
M106 S0
M140 S60
M104 S210 T0
M109 S210 T0
G28 ; home all axes
G1 X1 Y1 Z0.2 F3000 ; get ready to prime
G92 E0 ; reset extrusion distance
G1 Y150 E20 F600 ; prime nozzle
G92 E0
G1 E-1.0000 F1800
G1 Z0.270 F1000
; process Process1
; layer 1, Z = 0.270
T0
; tool H0.300 W0.412
; inner perimeter
G1 X105.474 Y99.815 F4600
G1 E0.0000 F540
G92 E0
G1 X106.457 Y99.790 E0.0455 F1035
G1 X113.596 Y99.779 E0.3756
G1 X113.596 Y99.633 E0.3824
G1 X132.345 Y99.633 E1.2495
G1 X132.345 Y118.382 E2.1166
G1 X132.296 Y118.382 E2.1189
G1 X132.296 Y126.307 E2.4854
G1 X128.807 Y126.307 E2.6468
G1 X128.807 Y121.877 E2.8517
G1 X116.544 Y121.877 E3.4188
G1 X116.544 Y126.307 E3.6237
G1 X105.573 Y126.307 E4.1311
G1 X105.573 Y126.258 E4.1333
G1 X105.523 Y126.258 E4.1356
G1 X105.521 Y120.369 E4.4080
G1 X105.480 Y115.483 E4.6340
G1 X107.471 Y115.483 E4.7260
G1 X107.729 Y115.479 E4.7380
G1 X107.953 Y115.434 E4.7486
G1 X109.560 Y115.434 E4.8229
G1 X109.560 Y103.221 E5.3877
G1 X105.474 Y103.221 E5.5767
G1 X105.474 Y99.815 E5.7342
; outer perimeter
G1 X105.062 Y99.413 F4600
G92 E0
G1 X106.452 Y99.378 E0.0643 F690
G1 X113.184 Y99.368 E0.3756
G1 X113.184 Y99.221 E0.3824
G1 X132.757 Y99.221 E1.2877
G1 X132.757 Y118.794 E2.1929
G1 X132.708 Y118.794 E2.1951
G1 X132.708 Y126.719 E2.5617
G1 X128.395 Y126.719 E2.7612
G1 X128.395 Y122.289 E2.9660
G1 X116.956 Y122.289 E3.4950
G1 X116.956 Y126.719 E3.6999
G1 X105.161 Y126.719 E4.2454
G1 X105.161 Y126.670 E4.2477
G1 X105.112 Y126.670 E4.2500
G1 X105.109 Y120.371 E4.5413
G1 X105.064 Y115.071 E4.7864
G1 X107.467 Y115.071 E4.8976
G1 X107.685 Y115.067 E4.9076
G1 X107.913 Y115.022 E4.9184
G1 X109.148 Y115.022 E4.9755
G1 X109.148 Y103.633 E5.5022
G1 X105.062 Y103.633 E5.6912
G1 X105.062 Y99.413 E5.8864
; solid layer
G1 X105.825 Y102.798 F4600
G92 E0
G1 X105.898 Y102.871 E0.0048 F1104
G1 X106.480 Y102.871 E0.0317
G1 X105.825 Y102.215 E0.0746
G1 X105.825 Y101.633 E0.1015
G1 X107.063 Y102.871 E0.1825
G1 X107.645 Y102.871 E0.2095
G1 X105.825 Y101.050 E0.3285
G1 X105.825 Y100.467 E0.3555
G1 X108.228 Y102.871 E0.5127
G1 X108.811 Y102.871 E0.5396
G1 X106.089 Y100.149 E0.7176
G1 X106.462 Y100.140 E0.7349
G1 X106.662 Y100.139 E0.7441
G1 X109.393 Y102.871 E0.9228
G1 X109.910 Y102.871 E0.9467
G1 X109.910 Y103.388 E0.9706
G1 X128.049 Y121.527 E2.1570
G1 X128.632 Y121.527 E2.1839
G1 X107.244 Y100.139 E3.5828
G1 X107.826 Y100.138 E3.6097
G1 X131.946 Y124.258 E5.1873
G1 X131.946 Y123.675 E5.2143
G1 X108.408 Y100.137 E6.7538
G1 X108.989 Y100.136 E6.7807
G1 X131.946 Y123.093 E8.2822
G1 X131.946 Y122.510 E8.3091
G1 X109.571 Y100.135 E9.7726
G1 X110.153 Y100.134 E9.7995
G1 X131.946 Y121.927 E11.2248
G1 X131.946 Y121.345 E11.2518
G1 X110.735 Y100.134 E12.6391
G1 X111.317 Y100.133 E12.6660
G1 X131.946 Y120.762 E14.0153
G1 X131.946 Y120.180 E14.0422
G1 X111.898 Y100.132 E15.3534
G1 X112.480 Y100.131 E15.3804
G1 X131.946 Y119.597 E16.6535
G1 X131.946 Y119.014 E16.6805
G1 X113.062 Y100.130 E17.9156
G1 X113.644 Y100.129 E17.9425
G1 X131.946 Y118.432 E19.1395
G1 X131.946 Y118.032 E19.1580
G1 X131.995 Y118.032 E19.1603
G1 X131.995 Y117.898 E19.1665
G1 X114.080 Y99.983 E20.3382
G1 X114.663 Y99.983 E20.3652
G1 X131.995 Y117.315 E21.4988
G1 X131.995 Y116.733 E21.5257
G1 X115.246 Y99.983 E22.6212
G1 X115.828 Y99.983 E22.6482
G1 X131.995 Y116.150 E23.7056
G1 X131.995 Y115.567 E23.7325
G1 X116.411 Y99.983 E24.7518
G1 X116.994 Y99.983 E24.7788
G1 X131.995 Y114.985 E25.7599
G1 X131.995 Y114.402 E25.7869
G1 X117.576 Y99.983 E26.7300
G1 X118.159 Y99.983 E26.7569
G1 X131.995 Y113.820 E27.6619
G1 X131.995 Y113.237 E27.6888
G1 X118.742 Y99.983 E28.5557
G1 X119.324 Y99.983 E28.5826
G1 X131.995 Y112.654 E29.4114
G1 X131.995 Y112.072 E29.4383
G1 X119.907 Y99.983 E30.2289
G1 X120.490 Y99.983 E30.2559
G1 X131.995 Y111.489 E31.0084
G1 X131.995 Y110.906 E31.0354
G1 X121.072 Y99.983 E31.7498
G1 X121.655 Y99.983 E31.7767
G1 X131.995 Y110.324 E32.4530
G1 X131.995 Y109.741 E32.4800
G1 X122.238 Y99.983 E33.1182
G1 X122.820 Y99.983 E33.1451
G1 X131.995 Y109.158 E33.7452
G1 X131.995 Y108.576 E33.7722
G1 X123.403 Y99.983 E34.3342
G1 X123.986 Y99.983 E34.3611
G1 X131.995 Y107.993 E34.8850
G1 X131.995 Y107.410 E34.9119
G1 X124.568 Y99.983 E35.3977
G1 X125.151 Y99.983 E35.4246
G1 X131.995 Y106.828 E35.8723
G1 X131.995 Y106.245 E35.8993
G1 X125.734 Y99.983 E36.3088
G1 X126.316 Y99.983 E36.3358
G1 X131.995 Y105.662 E36.7072
G1 X131.995 Y105.080 E36.7341
G1 X126.899 Y99.983 E37.0675
G1 X127.481 Y99.983 E37.0944
G1 X131.995 Y104.497 E37.3897
G1 X131.995 Y103.914 E37.4166
G1 X128.064 Y99.983 E37.6737
G1 X128.647 Y99.983 E37.7007
G1 X131.995 Y103.332 E37.9197
G1 X131.995 Y102.749 E37.9466
G1 X129.229 Y99.983 E38.1275
G1 X129.812 Y99.983 E38.1545
G1 X131.995 Y102.166 E38.2973
G1 X131.995 Y101.584 E38.3242
G1 X130.395 Y99.983 E38.4289
G1 X130.977 Y99.983 E38.4558
G1 X131.995 Y101.001 E38.5224
G1 X131.995 Y100.418 E38.5494
G1 X131.560 Y99.983 E38.5778
G1 X109.910 Y103.970 F4600
G92 E0
G1 X127.467 Y121.527 E1.1483 F1104
G1 X126.884 Y121.527 E1.1752
G1 X109.910 Y104.553 E2.2854
G1 X109.910 Y105.136 E2.3123
G1 X126.302 Y121.527 E3.3844
G1 X125.719 Y121.527 E3.4114
G1 X109.910 Y105.718 E4.4453
G1 X109.910 Y106.301 E4.4723
G1 X125.136 Y121.527 E5.4681
G1 X124.554 Y121.527 E5.4951
G1 X109.910 Y106.884 E6.4528
G1 X109.910 Y107.466 E6.4797
G1 X123.971 Y121.527 E7.3994
G1 X123.388 Y121.527 E7.4263
G1 X109.910 Y108.049 E8.3078
G1 X109.910 Y108.632 E8.3348
G1 X122.806 Y121.527 E9.1782
G1 X122.223 Y121.527 E9.2052
G1 X109.910 Y109.214 E10.0105
G1 X109.910 Y109.797 E10.0374
G1 X121.640 Y121.527 E10.8046
G1 X121.058 Y121.527 E10.8315
G1 X109.910 Y110.379 E11.5606
G1 X109.910 Y110.962 E11.5876
G1 X120.475 Y121.527 E12.2786
G1 X119.892 Y121.527 E12.3055
G1 X109.910 Y111.545 E12.9584
G1 X109.910 Y112.127 E12.9853
G1 X119.310 Y121.527 E13.6001
G1 X118.727 Y121.527 E13.6270
G1 X109.910 Y112.710 E14.2037
G1 X109.910 Y113.293 E14.2306
G1 X118.144 Y121.527 E14.7692
G1 X117.562 Y121.527 E14.7961
G1 X109.910 Y113.875 E15.2966
G1 X109.910 Y114.458 E15.3235
G1 X116.979 Y121.527 E15.7858
G1 X116.396 Y121.527 E15.8128
G1 X109.910 Y115.041 E16.2370
G1 X109.910 Y115.623 E16.2640
G1 X116.194 Y121.907 E16.6750
G1 X116.194 Y122.490 E16.7019
G1 X109.488 Y115.784 E17.1405
G1 X108.906 Y115.784 E17.1674
G1 X116.194 Y123.073 E17.6441
G1 X116.194 Y123.655 E17.6711
G1 X108.323 Y115.784 E18.1859
G1 X107.988 Y115.784 E18.2014
G1 X107.782 Y115.825 E18.2111
G1 X116.194 Y124.238 E18.7614
G1 X116.194 Y124.821 E18.7883
G1 X107.207 Y115.833 E19.3762
G1 X106.624 Y115.833 E19.4031
G1 X116.194 Y125.403 E20.0290
G1 X116.194 Y125.957 E20.0546
G1 X116.165 Y125.957 E20.0560
G1 X106.042 Y115.833 E20.7181
G1 X105.833 Y115.833 E20.7278
G1 X105.836 Y116.210 E20.7452
G1 X115.582 Y125.957 E21.3827
G1 X115.000 Y125.957 E21.4096
G1 X105.841 Y116.798 E22.0086
G1 X105.846 Y117.386 E22.0358
G1 X114.417 Y125.957 E22.5964
G1 X113.834 Y125.957 E22.6233
G1 X105.851 Y117.973 E23.1455
G1 X105.856 Y118.561 E23.1727
G1 X113.252 Y125.957 E23.6564
G1 X112.669 Y125.957 E23.6833
G1 X105.861 Y119.149 E24.1286
G1 X105.866 Y119.736 E24.1558
G1 X112.087 Y125.957 E24.5627
G1 X111.504 Y125.957 E24.5896
G1 X105.871 Y120.324 E24.9580
G1 X105.871 Y120.367 E24.9600
G1 X105.872 Y120.907 E24.9850
G1 X110.921 Y125.957 E25.3153
G1 X110.339 Y125.957 E25.3422
G1 X105.872 Y121.490 E25.6344
G1 X105.872 Y122.073 E25.6613
G1 X109.756 Y125.957 E25.9153
G1 X109.173 Y125.957 E25.9423
G1 X105.872 Y122.656 E26.1582
G1 X105.872 Y123.239 E26.1852
G1 X108.591 Y125.957 E26.3629
G1 X108.008 Y125.957 E26.3899
G1 X105.873 Y123.822 E26.5295
G1 X105.873 Y124.404 E26.5565
G1 X107.425 Y125.957 E26.6580
G1 X106.843 Y125.957 E26.6850
G1 X105.873 Y124.987 E26.7484
G1 X105.873 Y125.570 E26.7753
G1 X106.260 Y125.957 E26.8006
G92 E0
G1 E-1.0000 F1800
G1 X129.157 Y122.052 F4600
G1 E0.0000 F1800
G92 E0
G1 X131.946 Y124.841 E0.1824 F1104
G1 X131.946 Y125.423 E0.2094
G1 X129.157 Y122.634 E0.3918
G1 X129.157 Y123.217 E0.4187
G1 X131.897 Y125.957 E0.5979
G1 X131.314 Y125.957 E0.6249
G1 X129.157 Y123.800 E0.7660
G1 X129.157 Y124.382 E0.7929
G1 X130.732 Y125.957 E0.8959
G1 X130.149 Y125.957 E0.9228
G1 X129.157 Y124.965 E0.9877
G1 X129.157 Y125.548 E1.0147
G1 X129.566 Y125.957 E1.0414
G92 E0
G1 E-1.0000 F1800
; layer 2, Z = 0.570
M106 S255
; tool H0.300 W0.400
; inner perimeter
G1 X128.789 Y126.325 F4600
G1 Z0.570 F1000
G1 E0.0000 F1800
G92 E0
G1 X128.789 Y121.895 E0.1989 F3450
G1 X116.562 Y121.895 E0.7479
G1 X116.562 Y126.325 E0.9468
G1 X105.555 Y126.325 E1.4410
G1 X105.555 Y126.276 E1.4432
G1 X105.505 Y126.276 E1.4455
G1 X105.503 Y120.306 E1.7135
G1 X105.462 Y115.465 E1.9309
G1 X107.471 Y115.465 E2.0211
G1 X107.735 Y115.460 E2.0330
G1 X107.957 Y115.416 E2.0431
G1 X109.542 Y115.416 E2.1143
G1 X109.542 Y103.239 E2.6611
G1 X105.456 Y103.239 E2.8445
G1 X105.456 Y99.797 E2.9991
G1 X106.439 Y99.772 E3.0432
G1 X113.578 Y99.761 E3.3638
G1 X113.578 Y99.615 E3.3704
G1 X132.363 Y99.615 E4.2138
G1 X132.363 Y118.400 E5.0573
G1 X132.314 Y118.400 E5.0595
G1 X132.314 Y126.325 E5.4153
G1 X128.789 Y126.325 E5.5736
; outer perimeter
G1 X128.389 Y126.725 F4600
G92 E0
G1 X128.389 Y122.295 E0.1989 F2300
G1 X116.962 Y122.295 E0.7120
G1 X116.962 Y126.725 E0.9109
G1 X105.155 Y126.725 E1.4410
G1 X105.155 Y126.676 E1.4432
G1 X105.106 Y126.676 E1.4455
G1 X105.103 Y120.308 E1.7314
G1 X105.058 Y115.065 E1.9668
G1 X107.467 Y115.065 E2.0750
G1 X107.692 Y115.061 E2.0851
G1 X107.917 Y115.016 E2.0954
G1 X109.142 Y115.016 E2.1504
G1 X109.142 Y103.639 E2.6612
G1 X105.056 Y103.639 E2.8447
G1 X105.056 Y99.407 E3.0347
G1 X106.434 Y99.372 E3.0966
G1 X113.178 Y99.362 E3.3994
G1 X113.178 Y99.215 E3.4060
G1 X132.763 Y99.215 E4.2854
G1 X132.763 Y118.800 E5.1648
G1 X132.714 Y118.800 E5.1670
G1 X132.714 Y126.725 E5.5228
G1 X128.389 Y126.725 E5.7171
; solid layer
G1 X131.917 Y125.985 F4600
G92 E0
G1 X131.974 Y125.927 E0.0037 F3680
G1 X131.974 Y125.362 E0.0291
G1 X131.351 Y125.985 E0.0687
G1 X130.785 Y125.985 E0.0941
G1 X131.974 Y124.796 E0.1696
G1 X131.974 Y124.230 E0.1950
G1 X130.220 Y125.985 E0.3064
G1 X129.654 Y125.985 E0.3318
G1 X131.974 Y123.665 E0.4791
G1 X131.974 Y123.099 E0.5045
G1 X129.129 Y125.944 E0.6852
G1 X129.129 Y125.379 E0.7106
G1 X131.974 Y122.533 E0.8913
G1 X131.974 Y121.967 E0.9167
G1 X129.129 Y124.813 E1.0974
G1 X129.129 Y124.247 E1.1228
G1 X131.974 Y121.402 E1.3035
G1 X131.974 Y120.836 E1.3289
G1 X129.129 Y123.682 E1.5096
G1 X129.129 Y123.116 E1.5350
