; G-Code generated by Simplify3D(R) Version 4.0.0
; Nov 17, 2020 at 12:11:47 AM
; Settings Summary
;   processName,Process1
;   applyToModels,Frame_160mm_v3.0
;   profileName,new profile (modified)
;   profileVersion,2020-09-07 14:01:24
;   baseProfile,Default (modified)
;   printMaterial,PLA
;   printQuality,Medium
;   printExtruders,
;   extruderName,Primary Extruder
;   extruderToolheadNumber,0
;   extruderDiameter,0.4
;   extruderAutoWidth,0
;   extruderWidth,0.4
;   extrusionMultiplier,0.9
;   extruderUseRetract,1
;   extruderRetractionDistance,1
;   extruderExtraRestartDistance,0
;   extruderRetractionZLift,0
;   extruderRetractionSpeed,1800
;   extruderUseCoasting,0
;   extruderCoastingDistance,0.2
;   extruderUseWipe,0
;   extruderWipeDistance,5
;   primaryExtruder,0
;   layerHeight,0.3
;   topSolidLayers,3
;   bottomSolidLayers,3
;   perimeterOutlines,2
;   printPerimetersInsideOut,1
;   startPointOption,2
;   startPointOriginX,0
;   startPointOriginY,0
;   sequentialIslands,0
;   spiralVaseMode,0
;   firstLayerHeightPercentage,100
;   firstLayerWidthPercentage,103
;   firstLayerUnderspeed,0.5
;   useRaft,0
;   raftExtruder,0
;   raftTopLayers,3
;   raftBaseLayers,2
;   raftOffset,3
;   raftSeparationDistance,0.14
;   raftTopInfill,100
;   aboveRaftSpeedMultiplier,0.3
;   useSkirt,0
;   skirtExtruder,0
;   skirtLayers,1
;   skirtOutlines,2
;   skirtOffset,4
;   usePrimePillar,0
;   primePillarExtruder,999
;   primePillarWidth,12
;   primePillarLocation,7
;   primePillarSpeedMultiplier,1
;   useOozeShield,0
;   oozeShieldExtruder,999
;   oozeShieldOffset,2
;   oozeShieldOutlines,1
;   oozeShieldSidewallShape,1
;   oozeShieldSidewallAngle,30
;   oozeShieldSpeedMultiplier,1
;   infillExtruder,0
;   internalInfillPattern,Rectilinear
;   externalInfillPattern,Rectilinear
;   infillPercentage,30
;   outlineOverlapPercentage,15
;   infillExtrusionWidthPercentage,100
;   minInfillLength,5
;   infillLayerInterval,1
;   internalInfillAngles,45,-45
;   overlapInternalInfillAngles,0
;   externalInfillAngles,45,-45
;   generateSupport,1
;   supportExtruder,0
;   supportInfillPercentage,30
;   supportExtraInflation,0
;   supportBaseLayers,0
;   denseSupportExtruder,0
;   denseSupportLayers,0
;   denseSupportInfillPercentage,70
;   supportLayerInterval,1
;   supportHorizontalPartOffset,0.3
;   supportUpperSeparationLayers,1
;   supportLowerSeparationLayers,1
;   supportType,0
;   supportGridSpacing,4
;   maxOverhangAngle,45
;   supportAngles,0
;   temperatureName,Primary Extruder,Hot Bed
;   temperatureNumber,0,1
;   temperatureSetpointCount,1,1
;   temperatureSetpointLayers,1,1
;   temperatureSetpointTemperatures,210,60
;   temperatureStabilizeAtStartup,1,0
;   temperatureHeatedBed,0,1
;   temperatureRelayBetweenLayers,0,0
;   temperatureRelayBetweenLoops,0,0
;   fanLayers,1,2
;   fanSpeeds,0,100
;   blipFanToFullPower,0
;   adjustSpeedForCooling,1
;   minSpeedLayerTime,15
;   minCoolingSpeedSlowdown,20
;   increaseFanForCooling,0
;   minFanLayerTime,45
;   maxCoolingFanSpeed,100
;   increaseFanForBridging,0
;   bridgingFanSpeed,100
;   use5D,1
;   relativeEdistances,0
;   allowEaxisZeroing,1
;   independentExtruderAxes,0
;   includeM10123,0
;   stickySupport,1
;   applyToolheadOffsets,0
;   gcodeXoffset,0
;   gcodeYoffset,0
;   gcodeZoffset,0
;   overrideMachineDefinition,0
;   machineTypeOverride,0
;   strokeXoverride,200
;   strokeYoverride,200
;   strokeZoverride,200
;   originOffsetXoverride,0
;   originOffsetYoverride,0
;   originOffsetZoverride,0
;   homeXdirOverride,-1
;   homeYdirOverride,-1
;   homeZdirOverride,-1
;   flipXoverride,1
;   flipYoverride,-1
;   flipZoverride,1
;   toolheadOffsets,0,0|0,0|0,0|0,0|0,0|0,0
;   overrideFirmwareConfiguration,0
;   firmwareTypeOverride,RepRap (Marlin/Repetier/Sprinter)
;   GPXconfigOverride,r2
;   baudRateOverride,115200
;   overridePrinterModels,0
;   printerModelsOverride
;   startingGcode,G28 ; home all axes,G1 X0 Y5 Z0.2 F3000 ; get ready to prime,G92 E0 ; reset extrusion distance,G1 Y150 E20 F600 ; prime nozzle
;   layerChangeGcode,
;   retractionGcode,
;   toolChangeGcode,
;   endingGcode,M104 S0 ; turn off extruder,M140 S0 ; turn off bedG1 X0 Y0; home,M84 ; disable motors,M107 ; fan off,G28 X Y; Home,M18; Disable steppers
;   exportFileFormat,gcode
;   celebration,0
;   celebrationSong,Random Song
;   postProcessing,
;   defaultSpeed,4600
;   outlineUnderspeed,0.5
;   solidInfillUnderspeed,0.8
;   supportUnderspeed,0.8
;   rapidXYspeed,4800
;   rapidZspeed,1000
;   minBridgingArea,50
;   bridgingExtraInflation,0
;   bridgingExtrusionMultiplier,1
;   bridgingSpeedMultiplier,1
;   useFixedBridgingAngle,0
;   fixedBridgingAngle,0
;   applyBridgingToPerimeters,0
;   filamentDiameters,1.75|1.75|1.75|1.75|1.75|1.75
;   filamentPricesPerKg,46|46|46|46|46|46
;   filamentDensities,1.25|1.25|1.25|1.25|1.25|1.25
;   useMinPrintHeight,0
;   minPrintHeight,0
;   useMaxPrintHeight,0
;   maxPrintHeight,0
;   useDiaphragm,0
;   diaphragmLayerInterval,20
;   robustSlicing,1
;   mergeAllIntoSolid,0
;   onlyRetractWhenCrossingOutline,1
;   retractBetweenLayers,1
;   useRetractionMinTravel,0
;   retractionMinTravel,3
;   retractWhileWiping,0
;   onlyWipeOutlines,1
;   avoidCrossingOutline,0
;   maxMovementDetourFactor,3
;   toolChangeRetractionDistance,12
;   toolChangeExtraRestartDistance,-0.5
;   toolChangeRetractionSpeed,600
;   externalThinWallType,1
;   internalThinWallType,1
;   thinWallAllowedOverlapPercentage,10
;   singleExtrusionMinLength,1
;   singleExtrusionMinPrintingWidthPercentage,50
;   singleExtrusionMaxPrintingWidthPercentage,200
;   singleExtrusionEndpointExtension,0.2
;   horizontalSizeCompensation,0
G90
M82
M106 S0
M140 S60
M104 S210 T0
M109 S210 T0
G28 ; home all axes
G1 X0 Y5 Z0.2 F3000 ; get ready to prime
G92 E0 ; reset extrusion distance
G1 Y150 E20 F600 ; prime nozzle
G92 E0
G1 E-1.0000 F1800
G1 Z0.300 F1000
; process Process1
; layer 1, Z = 0.300
T0
; tool H0.300 W0.412
; inner perimeter
G1 X34.634 Y71.637 F4800
G1 E0.0000 F540
G92 E0
G1 X193.367 Y71.637 E7.3411 F1725
G1 X193.366 Y170.376 E11.9076
G1 X34.633 Y170.375 E19.2487
G1 X34.634 Y71.637 E23.8152
; outer perimeter
G1 X34.222 Y71.225 F4800
G92 E0
G1 X193.779 Y71.225 E7.3792 F1150
G1 X193.778 Y170.788 E11.9838
G1 X34.221 Y170.787 E19.3630
G1 X34.222 Y71.225 E23.9676
; inner perimeter
G1 X47.610 Y84.339 F4800
G92 E0
G1 X47.315 Y84.634 E0.0193 F1725
G1 X47.086 Y84.938 E0.0369
G1 X46.934 Y85.321 E0.0559
G1 X46.797 Y86.000 E0.0880
G1 X46.932 Y86.735 E0.1226
G1 X47.086 Y87.124 E0.1419
G1 X47.315 Y87.428 E0.1595
G1 X47.610 Y87.723 E0.1788
G1 X48.232 Y88.068 E0.2117
G1 X49.007 Y88.209 E0.2481
G1 X49.686 Y88.073 E0.2802
G1 X50.069 Y87.920 E0.2992
G1 X50.373 Y87.692 E0.3168
G1 X50.637 Y87.428 E0.3341
G1 X50.866 Y87.124 E0.3517
G1 X51.144 Y86.429 E0.3863
G1 X51.144 Y85.632 E0.4231
G1 X50.866 Y84.937 E0.4577
G1 X50.637 Y84.634 E0.4753
G1 X50.373 Y84.369 E0.4926
G1 X50.069 Y84.141 E0.5102
G1 X49.375 Y83.863 E0.5448
G1 X48.578 Y83.863 E0.5816
G1 X48.177 Y84.024 E0.6016
G1 X47.610 Y84.339 E0.6316
; outer perimeter
G1 X47.860 Y84.671 F4800
G92 E0
G1 X47.627 Y84.905 E0.0153 F1150
G1 X47.448 Y85.141 E0.0290
G1 X47.330 Y85.439 E0.0438
G1 X47.217 Y86.003 E0.0704
G1 X47.330 Y86.621 E0.0995
G1 X47.448 Y86.920 E0.1143
G1 X47.627 Y87.157 E0.1280
G1 X47.860 Y87.391 E0.1433
G1 X48.372 Y87.675 E0.1704
G1 X49.003 Y87.790 E0.2001
G1 X49.569 Y87.677 E0.2267
G1 X49.865 Y87.558 E0.2415
G1 X50.102 Y87.380 E0.2552
G1 X50.325 Y87.157 E0.2698
G1 X50.504 Y86.920 E0.2835
G1 X50.732 Y86.350 E0.3119
G1 X50.732 Y85.712 E0.3414
G1 X50.504 Y85.141 E0.3699
G1 X50.326 Y84.905 E0.3836
G1 X50.102 Y84.681 E0.3982
G1 X49.866 Y84.503 E0.4119
G1 X49.295 Y84.275 E0.4403
G1 X48.657 Y84.275 E0.4698
G1 X48.354 Y84.397 E0.4849
G1 X47.860 Y84.671 E0.5110
; inner perimeter
G1 X63.370 Y79.783 F4800
G92 E0
G1 X63.369 Y162.300 E3.8163 F1725
G1 X63.480 Y162.635 E3.8326
G1 X63.759 Y163.054 E3.8559
G1 X63.952 Y163.246 E3.8684
G1 X64.370 Y163.526 E3.8917
G1 X64.705 Y163.636 E3.9080
G1 X163.225 Y163.636 E8.4644
G1 X163.609 Y163.538 E8.4827
G1 X164.054 Y163.242 E8.5074
G1 X164.241 Y163.054 E8.5197
G1 X164.428 Y162.774 E8.5353
G1 X164.630 Y162.092 E8.5682
G1 X164.631 Y79.922 E12.3684
G1 X164.413 Y79.189 E12.4038
G1 X164.245 Y79.016 E12.4149
G1 X164.107 Y78.807 E12.4265
G1 X163.762 Y78.578 E12.4456
G1 X163.089 Y78.379 E12.4781
G1 X64.923 Y78.378 E17.0181
G1 X64.637 Y78.451 E17.0318
G1 X64.228 Y78.582 E17.0516
G1 X63.904 Y78.798 E17.0696
G1 X63.761 Y79.008 E17.0814
G1 X63.663 Y79.106 E17.0878
G1 X63.470 Y79.397 E17.1039
G1 X63.370 Y79.783 E17.1224
; outer perimeter
G1 X63.782 Y79.836 F4800
G92 E0
G1 X63.781 Y162.234 E3.8108 F1150
G1 X63.853 Y162.453 E3.8214
G1 X64.079 Y162.792 E3.8403
G1 X64.214 Y162.926 E3.8491
G1 X64.552 Y163.152 E3.8679
G1 X64.771 Y163.224 E3.8785
G1 X163.173 Y163.224 E8.4294
G1 X163.439 Y163.156 E8.4421
G1 X163.791 Y162.922 E8.4617
G1 X163.920 Y162.792 E8.4702
G1 X164.051 Y162.597 E8.4810
G1 X164.218 Y162.032 E8.5083
G1 X164.219 Y79.981 E12.3030
G1 X164.047 Y79.403 E12.3309
G1 X163.923 Y79.275 E12.3391
G1 X163.810 Y79.104 E12.3486
G1 X163.586 Y78.956 E12.3610
G1 X163.029 Y78.791 E12.3879
G1 X64.975 Y78.790 E16.9227
G1 X64.751 Y78.848 E16.9334
G1 X64.409 Y78.957 E16.9500
G1 X64.199 Y79.096 E16.9617
G1 X64.079 Y79.273 E16.9715
G1 X63.983 Y79.368 E16.9778
G1 X63.851 Y79.567 E16.9888
G1 X63.782 Y79.836 E17.0017
; inner perimeter
G1 X49.374 Y153.865 F4800
G92 E0
G1 X48.577 Y153.865 E0.0369 F1725
G1 X48.198 Y154.017 E0.0558
G1 X47.950 Y154.141 E0.0686
G1 X47.602 Y154.348 E0.0873
G1 X47.315 Y154.636 E0.1061
G1 X47.086 Y154.940 E0.1237
G1 X46.933 Y155.323 E0.1428
G1 X46.797 Y156.002 E0.1748
G1 X46.936 Y156.763 E0.2106
G1 X47.084 Y157.060 E0.2259
G1 X47.291 Y157.406 E0.2446
G1 X47.609 Y157.725 E0.2654
G1 X48.231 Y158.070 E0.2983
G1 X49.007 Y158.211 E0.3348
G1 X49.686 Y158.076 E0.3668
G1 X50.069 Y157.922 E0.3859
G1 X50.372 Y157.695 E0.4034
G1 X50.667 Y157.399 E0.4227
G1 X50.979 Y156.840 E0.4524
G1 X51.143 Y156.432 E0.4727
G1 X51.143 Y155.635 E0.5096
G1 X50.866 Y154.940 E0.5442
G1 X50.637 Y154.636 E0.5617
G1 X50.372 Y154.371 E0.5791
G1 X50.069 Y154.143 E0.5966
G1 X49.374 Y153.865 E0.6312
; outer perimeter
G1 X49.295 Y154.277 F4800
G92 E0
G1 X48.657 Y154.277 E0.0295 F1150
G1 X48.366 Y154.394 E0.0440
G1 X48.147 Y154.502 E0.0553
G1 X47.858 Y154.675 E0.0709
G1 X47.626 Y154.907 E0.0860
G1 X47.448 Y155.144 E0.0997
G1 X47.330 Y155.441 E0.1145
G1 X47.217 Y156.006 E0.1412
G1 X47.331 Y156.632 E0.1706
G1 X47.445 Y156.862 E0.1825
G1 X47.619 Y157.151 E0.1981
G1 X47.860 Y157.393 E0.2139
G1 X48.372 Y157.677 E0.2410
G1 X49.003 Y157.792 E0.2706
G1 X49.568 Y157.679 E0.2973
G1 X49.865 Y157.560 E0.3121
G1 X50.102 Y157.383 E0.3258
G1 X50.335 Y157.149 E0.3410
G1 X50.606 Y156.662 E0.3668
G1 X50.731 Y156.352 E0.3823
G1 X50.731 Y155.714 E0.4118
G1 X50.503 Y155.143 E0.4402
G1 X50.325 Y154.907 E0.4539
G1 X50.102 Y154.683 E0.4685
G1 X49.865 Y154.506 E0.4822
G1 X49.295 Y154.277 E0.5106
G92 E0
G1 E-1.0000 F1800
; inner perimeter
G1 X176.795 Y155.998 F4800
G1 E0.0000 F1800
G92 E0
G1 X176.868 Y156.433 E0.0204 F1725
G1 X176.936 Y156.771 E0.0363
G1 X177.091 Y157.076 E0.0522
G1 X177.288 Y157.407 E0.0700
G1 X177.607 Y157.725 E0.0908
G1 X178.229 Y158.071 E0.1238
G1 X179.004 Y158.212 E0.1601
G1 X179.683 Y158.076 E0.1922
G1 X180.065 Y157.923 E0.2112
G1 X180.370 Y157.695 E0.2288
G1 X180.658 Y157.407 E0.2477
G1 X180.838 Y157.109 E0.2638
G1 X181.050 Y156.825 E0.2801
G1 X181.140 Y156.374 E0.3014
G1 X181.140 Y155.692 E0.3330
G1 X181.056 Y155.273 E0.3527
G1 X180.828 Y154.894 E0.3732
G1 X180.636 Y154.637 E0.3880
G1 X180.370 Y154.371 E0.4054
G1 X180.065 Y154.143 E0.4230
G1 X179.371 Y153.866 E0.4576
G1 X178.643 Y153.866 E0.4913
G1 X178.183 Y154.021 E0.5137
G1 X177.606 Y154.341 E0.5442
G1 X177.311 Y154.637 E0.5636
G1 X177.084 Y154.940 E0.5811
G1 X176.931 Y155.322 E0.6001
G1 X176.795 Y155.998 E0.6320
; outer perimeter
G1 X177.214 Y156.005 F4800
G92 E0
G1 X177.273 Y156.358 E0.0166 F1150
G1 X177.329 Y156.635 E0.0296
G1 X177.452 Y156.877 E0.0422
G1 X177.616 Y157.151 E0.0570
G1 X177.857 Y157.393 E0.0728
G1 X178.370 Y157.678 E0.0999
G1 X179.000 Y157.792 E0.1295
G1 X179.565 Y157.679 E0.1562
G1 X179.862 Y157.561 E0.1710
G1 X180.099 Y157.383 E0.1847
G1 X180.331 Y157.152 E0.1998
G1 X180.495 Y156.878 E0.2146
G1 X180.664 Y156.653 E0.2276
G1 X180.728 Y156.333 E0.2427
G1 X180.728 Y155.733 E0.2704
G1 X180.666 Y155.424 E0.2850
G1 X180.486 Y155.124 E0.3012
G1 X180.323 Y154.907 E0.3137
G1 X180.099 Y154.683 E0.3284
G1 X179.862 Y154.506 E0.3421
G1 X179.292 Y154.278 E0.3705
G1 X178.710 Y154.278 E0.3974
G1 X178.350 Y154.399 E0.4149
G1 X177.857 Y154.673 E0.4410
G1 X177.623 Y154.907 E0.4563
G1 X177.446 Y155.144 E0.4700
G1 X177.327 Y155.441 E0.4848
G1 X177.214 Y156.005 E0.5114
; inner perimeter
G1 X179.004 Y88.210 F4800
G92 E0
G1 X179.683 Y88.074 E0.0320 F1725
G1 X180.065 Y87.921 E0.0511
G1 X180.370 Y87.693 E0.0687
G1 X180.636 Y87.427 E0.0861
G1 X180.834 Y87.163 E0.1013
G1 X181.057 Y86.790 E0.1214
G1 X181.141 Y86.372 E0.1411
G1 X181.141 Y85.690 E0.1727
G1 X181.057 Y85.272 E0.1924
G1 X180.834 Y84.899 E0.2125
G1 X180.636 Y84.635 E0.2278
G1 X180.370 Y84.369 E0.2451
G1 X180.065 Y84.141 E0.2627
G1 X179.372 Y83.864 E0.2973
G1 X178.644 Y83.864 E0.3309
G1 X178.204 Y84.011 E0.3524
G1 X177.939 Y84.142 E0.3661
G1 X177.599 Y84.347 E0.3844
G1 X177.311 Y84.635 E0.4033
G1 X177.084 Y84.938 E0.4208
G1 X176.931 Y85.320 E0.4398
G1 X176.794 Y86.000 E0.4719
G1 X176.929 Y86.737 E0.5065
G1 X177.084 Y87.124 E0.5258
G1 X177.311 Y87.427 E0.5433
G1 X177.599 Y87.716 E0.5622
G1 X177.939 Y87.920 E0.5805
G1 X178.244 Y88.071 E0.5963
G1 X179.004 Y88.210 E0.6320
; outer perimeter
G1 X179.000 Y87.790 F4800
G92 E0
G1 X179.566 Y87.677 E0.0267 F1150
G1 X179.862 Y87.559 E0.0414
G1 X180.100 Y87.381 E0.0551
G1 X180.324 Y87.157 E0.0698
G1 X180.491 Y86.933 E0.0827
G1 X180.667 Y86.640 E0.0985
G1 X180.729 Y86.331 E0.1131
G1 X180.729 Y85.731 E0.1408
G1 X180.667 Y85.422 E0.1554
G1 X180.491 Y85.129 E0.1712
G1 X180.324 Y84.905 E0.1841
G1 X180.100 Y84.681 E0.1988
G1 X179.862 Y84.504 E0.2125
G1 X179.292 Y84.276 E0.2409
G1 X178.711 Y84.276 E0.2678
G1 X178.362 Y84.392 E0.2848
G1 X178.138 Y84.504 E0.2964
G1 X177.855 Y84.674 E0.3116
G1 X177.624 Y84.905 E0.3268
G1 X177.446 Y85.142 E0.3404
G1 X177.327 Y85.439 E0.3552
G1 X177.214 Y86.004 E0.3819
G1 X177.327 Y86.622 E0.4110
G1 X177.446 Y86.920 E0.4258
G1 X177.623 Y87.157 E0.4395
G1 X177.855 Y87.388 E0.4546
G1 X178.138 Y87.558 E0.4699
G1 X178.375 Y87.676 E0.4821
G1 X179.000 Y87.790 E0.5115
; solid layer
G1 X178.435 Y88.462 F4800
G92 E0
G1 X193.016 Y103.043 E0.9537 F1840
G1 X193.016 Y102.461 E0.9806
G1 X179.103 Y88.547 E1.8907
G1 X179.588 Y88.450 E1.9136
G1 X193.016 Y101.878 E2.7918
G1 X193.016 Y101.295 E2.8188
G1 X180.032 Y88.311 E3.6680
G1 X180.238 Y88.229 E3.6783
G1 X180.407 Y88.103 E3.6880
G1 X193.016 Y100.713 E4.5127
G1 X193.016 Y100.130 E4.5397
G1 X180.722 Y87.836 E5.3438
G1 X180.901 Y87.657 E5.3555
G1 X180.997 Y87.529 E5.3629
G1 X193.016 Y99.547 E6.1490
G1 X193.016 Y98.965 E6.1759
G1 X181.232 Y87.180 E6.9467
G1 X181.388 Y86.919 E6.9608
G1 X181.416 Y86.781 E6.9673
G1 X193.016 Y98.382 E7.7260
G1 X193.016 Y97.800 E7.7530
G1 X181.491 Y86.274 E8.5068
G1 X181.491 Y85.691 E8.5337
G1 X193.016 Y97.217 E9.2876
G1 X193.016 Y96.634 E9.3145
G1 X181.183 Y84.801 E10.0885
G1 X164.981 Y80.252 F4800
G92 E0
G1 X193.016 Y108.287 E1.8337 F1840
G1 X193.016 Y108.870 E1.8606
G1 X164.981 Y80.834 E3.6943
G1 X164.981 Y81.417 E3.7212
G1 X193.016 Y109.453 E5.5549
G1 X193.016 Y110.035 E5.5818
G1 X164.981 Y82.000 E7.4155
G1 X164.981 Y82.582 E7.4424
G1 X193.016 Y110.618 E9.2761
G1 X193.016 Y111.201 E9.3030
G1 X164.981 Y83.165 E11.1367
G1 X164.981 Y83.748 E11.1636
G1 X193.016 Y111.783 E12.9973
G1 X193.016 Y112.366 E13.0242
G1 X164.981 Y84.330 E14.8579
G1 X164.981 Y84.913 E14.8848
G1 X193.016 Y112.949 E16.7185
G1 X193.016 Y113.531 E16.7454
G1 X164.981 Y85.496 E18.5791
G1 X164.981 Y86.078 E18.6060
G1 X193.016 Y114.114 E20.4397
G1 X193.016 Y114.696 E20.4666
G1 X164.981 Y86.661 E22.3003
G1 X164.981 Y87.244 E22.3272
G1 X193.016 Y115.279 E24.1609
